%
(Made in : Autodesk CAM Post Processor)
(G Code optimized for OpenBuilds OX CNC 1000 x 750 with GRBL V0.9j controller)

(Program Name : 1001)
(1 Operation :)
(1 : Pocket3)
(  Tool : Flat End Mill 3 Flutes, Diam = 3.175mm, Len = 20mm)
(  Spindle : RPM = 30000, set router dial to 6)
(  Machining time : 6 min 48 sec)

G90 G94
G17
G21

(Operation 1 of 1 : Pocket3)

G53 G0 Z5
G54
S30000 M3
G4 P1.0
X176.164 Y15.1956
Z6
Z3.6878
G1 Z2.9173 F1200
X176.1528 Y15.2053 Z2.8213
X176.1197 Y15.2332 Z2.7343
X176.0665 Y15.2747 Z2.6644
X175.9966 Y15.3237 Z2.6182
X175.9153 Y15.3738 Z2.6
G3 X176.1312 Y15.2237 Z2.2783 I-0.7496 J-1.3086
X176.3177 Y15.0384 Z1.9566 I-0.9655 J-1.1586
X176.4692 Y14.8236 Z1.6349 I-1.152 J-0.9733
X176.5811 Y14.5857 Z1.3132 I-1.3035 J-0.7585
X176.65 Y14.332 Z0.9914 I-1.4154 J-0.5206
X176.6738 Y14.0702 Z0.6697 I-1.4843 J-0.2669
X176.6518 Y13.8083 Z0.348 I-1.5081 J-0.0051
X176.5846 Y13.5541 Z0.0263 I-1.4861 J0.2569
X176.4743 Y13.3155 Z-0.2954 I-1.4189 J0.511
X176.3242 Y13.0997 Z-0.6171 I-1.3086 J0.7496
X176.139 Y12.9131 Z-0.9388 I-1.1586 J0.9655
X175.9241 Y12.7616 Z-1.2605 I-0.9733 J1.152
X175.6863 Y12.6497 Z-1.5822 I-0.7585 J1.3035
X175.4326 Y12.5808 Z-1.904 I-0.5206 J1.4154
X176.5361 Y14.6948 Z-2 I-0.2669 J1.4843
G2 X176.4174 Y14.9599 I13.5394 J6.2209 F3500
G3 X175.5861 Y14.9616 I-0.416 J-0.1814
G2 X175.4273 Y14.6136 I-13.6334 J6.0119
G3 X175.9052 Y13.8596 I0.4779 J-0.2256
G1 X176.0957
G3 X176.5746 Y14.6117 J0.5285
G1 X176.5361 Y14.6948
X176.5122 Y14.7376 Z-1.9922
X176.4821 Y14.7763 Z-1.9845
X176.4501 Y14.8068 Z-1.9619
X176.4141 Y14.8325 Z-1.9394
X176.3508 Y14.8625 Z-1.8691
X176.3072 Y14.8741 Z-1.7806
X176.2919 Y14.8766 Z-1.6825
G0 Z5
X206.1898 Y9.374
Z3.6519
G1 Z3.5 F1200
Z-1.6825 F3500
G18 G2 X206.5073 Z-2 I0.3175
G1 X208.0948
X299.9059
X299.9513 Y9.3807
X299.9929 Y9.4
X300.0272 Y9.4304
X300.0514 Y9.4694
X300.0635 Y9.5136
X300.0624 Y9.5595
X300.0482 Y9.6031
X299.9341 Y9.834
X299.9093 Y9.8704
X299.8755 Y9.8986
X299.8352 Y9.9164
X299.7916 Y9.9224
X208.1968 Y9.8279
X208.1723 Y9.8241 Z-1.9961
X208.1522 Y9.8144 Z-1.9846
X208.1386 Y9.803 Z-1.9668
X208.1313 Y9.7942 Z-1.9444
X208.1291 Y9.7909 Z-1.9196
G0 Z5
X146.7072 Y9.8379
Z3.5619
G1 Z3.5 F1200
Z-1.6825 F3500
X146.6993 Z-1.7531
X146.6758 Z-1.8203
X146.638 Z-1.8805
X146.5877 Z-1.9307
X146.5275 Z-1.9686
X146.4604 Z-1.992
X146.3897 Z-2
X144.8022 Y9.8375
X53.195 Y9.8173
X53.1485 Y9.8103
X53.106 Y9.79
X53.0714 Y9.7581
X52.9701 Y9.6323
X52.9474 Y9.5941
X52.9361 Y9.5511
X52.9372 Y9.5066
X52.9506 Y9.4642
X52.9753 Y9.4272
X53.0092 Y9.3985
X53.0498 Y9.3803
X53.0938 Y9.374
X144.9049
X144.9459 Y9.3804 Z-1.9934
X144.9796 Y9.3967 Z-1.9742
X145.0025 Y9.4158 Z-1.9444
X145.0146 Y9.4306 Z-1.9068
X145.0183 Y9.436 Z-1.8652
G0 Z5
X51.7092 Y9.817
Z3.5657
G1 Z3.5 F1200
Z-1.6825 F3500
X51.7012 Z-1.7532
X51.6778 Z-1.8203
X51.6399 Z-1.8805
X51.5897 Z-1.9307
X51.5295 Y9.8169 Z-1.9686
X51.4624 Z-1.992
X51.3917 Z-2
X49.8042 Y9.8166
X32.9532 Y9.8128
G17 G2 X31.9182 Y9.8772 I0.0001 J8.3535
G1 X31.8712 Y9.8761
X31.8266 Y9.8612
X31.7883 Y9.8339
X31.7597 Y9.7966
X31.7432 Y9.7525
X31.7404 Y9.7056
X31.7571 Y9.5187
X31.7681 Y9.4731
X31.7919 Y9.4328
X31.8265 Y9.4011
X31.8688 Y9.381
X31.9152 Y9.374
X49.9068
X49.9479 Y9.3804 Z-1.9934
X49.9817 Y9.3967 Z-1.9742
X50.0046 Y9.4159 Z-1.9443
X50.0168 Y9.4306 Z-1.9067
X50.0205 Y9.4361 Z-1.865
G0 Z5
X301.1941 Y9.374
Z3.6516
G1 Z3.5 F1200
Z-1.6825 F3500
G18 G2 X301.5115 Z-2 I0.3175
G1 X303.0991
X320.0839
X320.1326 Y9.3817
X320.1766 Y9.4039
X320.2116 Y9.4385
X320.2344 Y9.4822
X320.2427 Y9.5307
X320.2459 Y9.7826
X320.2386 Y9.8322
X320.2163 Y9.877
X320.1811 Y9.9126
X320.1365 Y9.9355
X320.087 Y9.9434
X303.2133 Y9.926
X303.1747 Y9.9199 Z-1.9938
X303.1429 Y9.9046 Z-1.9757
X303.1213 Y9.8866 Z-1.9476
X303.1099 Y9.8727 Z-1.9122
X303.1064 Y9.8675 Z-1.8729
G0 Z5
X175.5298 Y267.904
Z-1.6825
G1 X175.5304 Y267.896 Z-1.7531 F3500
X175.532 Y267.8726 Z-1.8203
X175.5347 Y267.8349 Z-1.8805
X175.5382 Y267.7847 Z-1.9307
X175.5424 Y267.7247 Z-1.9686
X175.547 Y267.6577 Z-1.992
X175.552 Y267.5872 Z-2
X175.8108 Y263.8817
G17 G2 X175.845 Y262.8993 I-14.0687 J-0.9826
G1 X175.7153 Y19.4381
G2 X174.8672 Y16.3072 I-12.8385 J1.7973
X173.3704 Y13.4294 I-16.75 J6.8845
G3 X173.8065 Y12.6325 I0.4362 J-0.2791
G1 X178.1975
G3 X178.6311 Y13.4339 J0.518
G2 X176.7995 Y17.3086 I13.0922 J8.559
X176.1503 Y21.545 I13.4957 J4.2361
G1 X176.155 Y262.8993
G2 X176.1896 Y263.8867 I14.103 J-0.0003
G1 X176.1867 Y263.9299
X176.1723 Y263.9707
X176.1474 Y264.006
X176.1139 Y264.0334
X176.0742 Y264.0507
X176.0314 Y264.0566
X174.4736 Y264.0578
X174.4304 Y264.0518
X174.3905 Y264.0344
X174.3568 Y264.0067
X174.332 Y263.971
X174.3177 Y263.9298
X174.3152 Y263.8863
G2 X174.3549 Y262.8992 I-12.2762 J-0.9872
G1 X174.2126 Y19.4522
G2 X172.8369 Y15.3324 I-11.8064 J1.6528
X170.1875 Y11.8908 I-12.6656 J7.0093
G3 X170.4894 Y11.1396 I0.3018 J-0.315
G1 X181.5039
G3 X181.8099 Y11.8927 J0.4387
G2 X178.7481 Y16.2968 I9.8275 J10.0986
X177.6405 Y21.5449 I11.8783 J5.2479
G1 X177.6452 Y262.8993
G2 X177.6824 Y263.8866 I13.0964 J-0.0003
G1 X177.6798 Y263.9299
X177.6655 Y263.9709
X177.6406 Y264.0065
X177.607 Y264.034
X177.5672 Y264.0513
X177.5242 Y264.0573
X172.6985 Y264.0587
X172.655 Y264.0526
X172.6149 Y264.0349
X172.5811 Y264.0068
X172.5563 Y263.9706
X172.5424 Y263.929
X172.5404 Y263.8851
G2 X172.5866 Y262.8992 I-10.5014 J-0.9861
G1 X172.4614 Y19.6973
G2 X168.8734 Y12.8971 I-11.2131 J1.5698
X161.818 Y9.8413 I-7.9866 J8.7669
G1 X148.1992 Y9.8383
X148.1612 Y9.8336
X148.1254 Y9.8201
X148.0939 Y9.7983
X148.0686 Y9.7696
X147.9674 Y9.6229
X147.9461 Y9.5787
X147.9393 Y9.53
X147.9478 Y9.4816
X147.9706 Y9.4381
X148.0056 Y9.4037
X148.0495 Y9.3816
X148.098 Y9.374
X204.9017
X204.9506 Y9.3818
X204.9948 Y9.4042
X205.0299 Y9.4392
X205.0525 Y9.4833
X205.0604 Y9.5322
X205.0529 Y9.5812
X205.0306 Y9.6255
X204.9351 Y9.7583
X204.8999 Y9.7938
X204.8554 Y9.8166
X204.806 Y9.8244
X190.9461 Y9.8101
G2 X183.6193 Y12.476 J11.401
X179.6287 Y19.1741 I7.6085 J9.0708
X179.4589 Y20.354 I9.9379 J2.0329
X179.4087 Y21.5449 I14.1073 J1.1907
G1 X179.4134 Y262.8993
G2 X179.4565 Y263.8862 I11.3291 J-0.0002
G1 X179.4543 Y263.9299
X179.4402 Y263.9713
X179.4154 Y264.0073
X179.3817 Y264.0352
X179.3417 Y264.0528
X179.2984 Y264.0588
X170.3538 Y264.0596
X170.3097 Y264.0534
X170.269 Y264.0351
X170.235 Y264.0062
X170.2104 Y263.969
X170.1971 Y263.9265
X170.1962 Y263.8819
G2 X170.2552 Y262.8992 I-8.1571 J-0.9828
G1 X170.1525 Y20.0205
G2 X167.2754 Y14.5948 I-8.9058 J1.2468
X161.6349 Y12.1655 I-6.3888 J7.0711
G1 X32.9532 Y12.1709
G2 X31.9137 Y12.2525 I0.0001 J6.6662
G1 X31.868 Y12.2531
X31.824 Y12.2406
X31.7854 Y12.2161
X31.7554 Y12.1816
X31.7365 Y12.1401
X31.7302 Y12.0948
X31.7581 Y7.1977
X31.7661 Y7.1489
X31.7887 Y7.1049
X31.8238 Y7.07
X31.8679 Y7.0476
X31.9168 Y7.0399
X320.0855
X320.1346 Y7.0477
X320.1789 Y7.0702
X320.214 Y7.1053
X320.2365 Y7.1496
X320.2443 Y7.1986
X320.2441 Y12.1137
X320.2363 Y12.1628
X320.2138 Y12.2071
X320.1786 Y12.2422
X320.1343 Y12.2648
X320.0852 Y12.2725
X190.9461 Y12.1415
G2 X185.0935 Y14.2823 J9.0707
X181.9129 Y19.6414 I6.1355 J7.2648
X181.7784 Y20.5888 I7.7091 J1.577
X181.7401 Y21.5449 I11.9075 J0.9559
G1 X181.7448 Y262.8992
G2 X181.7991 Y263.8854 I8.9993 J-0.0002
G1 X181.7977 Y263.9297
X181.7842 Y263.9719
X181.7595 Y264.0087
X181.7257 Y264.0373
X181.6852 Y264.0554
X181.6413 Y264.0616
X167.9885 Y264.0671
X167.9431 Y264.0605
X167.9015 Y264.0412
X167.8671 Y264.0108
X167.8429 Y263.9719
X167.8308 Y263.9276
X167.8319 Y263.8818
G2 X167.9147 Y262.8991 I-5.7928 J-0.9827
G1 X167.8346 Y20.345
G2 X165.6712 Y16.2991 I-6.5907 J0.9227
X161.4511 Y14.4988 I-4.7849 J5.37
G1 X32.9532 Y14.5369
G2 X31.9143 Y14.6472 J4.9478
G1 X31.8673 Y14.6501
X31.8215 Y14.6392
X31.7809 Y14.6153
X31.7492 Y14.5805
X31.729 Y14.538
X31.7222 Y14.4914
X31.7587 Y4.8575
X31.7666 Y4.8086
X31.7892 Y4.7645
X31.8243 Y4.7295
X31.8685 Y4.7071
X31.9175 Y4.6994
X320.0862
X320.1352 Y4.7071
X320.1794 Y4.7296
X320.2145 Y4.7646
X320.2371 Y4.8087
X320.2449 Y4.8577
X320.2696 Y14.4976
X320.2629 Y14.5434
X320.2433 Y14.5854
X320.2124 Y14.62
X320.1728 Y14.6441
X320.128 Y14.6558
X320.0817 Y14.654
G2 X319.7982 Y14.609 I-0.962 J5.1457
G1 X190.9461 Y14.482
G2 X186.5734 Y16.0956 J6.732
X184.2059 Y20.1104 I4.6577 J5.452
X184.1071 Y20.8245 I5.5003 J1.1252
X184.0807 Y21.5448 I9.8073 J0.7201
G1 X184.0854 Y262.8992
G2 X184.1586 Y263.8838 I6.6614 J-0.0002
G1 X184.162 Y263.9334
X184.1298 Y267.6317
X184.1292 Y267.7024 Z-1.992
X184.1286 Y267.7695 Z-1.9686
X184.1281 Y267.8297 Z-1.9307
X184.1276 Y267.88 Z-1.8805
X184.1273 Y267.9178 Z-1.8203
X184.1271 Y267.9413 Z-1.7532
X184.127 Y267.9492 Z-1.6825
G0 Z5
X164.383 Y267.9044
Z-1.6825
G1 X164.3851 Y267.8967 Z-1.7532 F3500
X164.391 Y267.874 Z-1.8203
X164.4006 Y267.8374 Z-1.8805
X164.4134 Y267.7888 Z-1.9307
X164.4287 Y267.7305 Z-1.9686
X164.4457 Y267.6656 Z-1.992
X164.4637 Y267.5973 Z-2
X165.4389 Y263.8821
G2 X165.5111 Y263.5634 I-4.6727 J-1.2266
X165.5741 Y262.8991 I-3.4721 J-0.6644
G1 X165.5167 Y20.6695
G2 X164.067 Y18.0034 I-4.2781 J0.5989
X161.2673 Y16.8321 I-3.1812 J3.6723
G1 X32.9532 Y16.9071
G2 X32.1398 Y17.0155 J3.1055
X31.9142 Y17.0804 I2.0718 J7.6326
G1 X31.8654 Y17.0872
X31.8169 Y17.0787
X31.7733 Y17.0558
X31.7388 Y17.0206
X31.7168 Y16.9766
X31.7093 Y16.9279
X31.7593 Y2.517
X31.7673 Y2.4681
X31.7899 Y2.424
X31.825 Y2.389
X31.8691 Y2.3666
X31.9181 Y2.3588
X320.0868
X320.1358 Y2.3666
X320.18 Y2.389
X320.2151 Y2.424
X320.2377 Y2.4682
X320.2456 Y2.5171
X320.2899 Y16.9267
X320.2824 Y16.9755
X320.2603 Y17.0196
X320.2257 Y17.0547
X320.182 Y17.0776
X320.1334 Y17.0859
X320.0846 Y17.079
X320.0756 Y17.0762
G2 X319.4922 Y16.9498 I-1.048 J3.4277
G1 X190.9462 Y16.8225
G2 X188.0533 Y17.9088 J4.3952
X186.4989 Y20.5795 I3.182 J3.6396
X186.4357 Y21.0602 I3.3497 J0.6852
X186.4212 Y21.5448 I8.0819 J0.4844
G1 X186.4259 Y262.8991
G2 X186.5397 Y263.8848 I4.3262 J-0.0001
G1 X186.5472 Y263.934
X186.5469 Y263.9838
X186.2397 Y267.6197
X186.2338 Y267.6901 Z-1.992
X186.2281 Y267.757 Z-1.9686
X186.2231 Y267.817 Z-1.9307
X186.2188 Y267.8671 Z-1.8805
X186.2156 Y267.9048 Z-1.8203
X186.2137 Y267.9282 Z-1.7532
X186.213 Y267.9361 Z-1.6825
G0 Z5
X161.0707 Y267.9038
Z-1.7142
G1 X161.0735 Y267.8972 Z-1.7778 F3500
X161.0818 Y267.8778 Z-1.8382
X161.0951 Y267.8465 Z-1.8924
X161.1127 Y267.8048 Z-1.9377
X161.1339 Y267.7549 Z-1.9717
X161.1575 Y267.6993 Z-1.9928
X161.1824 Y267.6408 Z-2
X162.7605 Y263.9236
X162.7835 Y263.8794
X162.8098 Y263.8372
G2 X162.893 Y263.6738 I-0.8851 J-0.5532
G1 X162.9705 Y263.4813
G2 X163.0274 Y263.2877 I-0.9682 J-0.3898
G1 X163.0642 Y263.0952
G2 X163.0828 Y262.899 I-1.0251 J-0.1962
G1 X163.0864 Y21.3522
G2 X163.0763 Y21.2075 I-1.0438
G1 X163.0494 Y21.0149
G2 X163.0043 Y20.8247 I-1.0337 J0.1447
G1 X162.9412 Y20.6386
G2 X162.8602 Y20.4579 I-0.9886 J0.3349
G1 X162.7616 Y20.2844
G2 X162.6631 Y20.1405 I-0.9075 J0.5156
G1 X162.5688 Y20.0249
G2 X162.4577 Y19.9082 I-0.809 J0.6595
G1 X162.3291 Y19.7926
G2 X162.1998 Y19.6934 I-0.6979 J0.7761
G1 X162.0716 Y19.6102
G2 X161.9251 Y19.5308 I-0.5686 J0.8753
G1 X161.7601 Y19.4579
G2 X161.5944 Y19.4007 I-0.4221 J0.9546
G1 X161.4294 Y19.3589
G2 X161.255 Y19.3302 I-0.2564 J1.0118
G1 X161.0717 Y19.3157
X160.9897 Y19.3125
X32.9533 Y19.3135
G2 X32.818 Y19.3223 J1.0437
G1 X32.6418 Y19.3454
G2 X32.457 Y19.3869 I0.1353 J1.0349
G1 X32.2655 Y19.4486
G2 X32.0979 Y19.5192 I0.3201 J0.9934
G1 X31.9543 Y19.5951
X31.9144 Y19.6174
G3 X31.5826 Y19.6108 I-0.1605 J-0.2739
G1 X27.8832 Y17.2418
X27.8237 Y17.2037 Z-1.992
X27.7672 Y17.1675 Z-1.9686
X27.7165 Y17.1351 Z-1.9307
X27.6741 Y17.108 Z-1.8805
X27.6423 Y17.0876 Z-1.8203
X27.6225 Y17.0749 Z-1.7532
X27.6158 Y17.0706 Z-1.6825
G0 Z5
X27.8966 Y0.6357
Z-1.7142
G1 X27.9037 Y0.6346 Z-1.7778 F3500
X27.9245 Y0.6313 Z-1.8382
X27.9582 Y0.626 Z-1.8924
X28.0029 Y0.6189 Z-1.9377
X28.0564 Y0.6104 Z-1.9717
X28.116 Y0.601 Z-1.9928
X28.1788 Y0.591 Z-2
X31.8653 Y0.0071
X31.915 Y0.0032
X320.0837
X320.1334 Y0.0071
X323.8353 Y0.5935
X323.905 Y0.6045 Z-1.992
X323.9713 Y0.615 Z-1.9686
X324.0308 Y0.6244 Z-1.9307
X324.0804 Y0.6323 Z-1.8805
X324.1178 Y0.6382 Z-1.8203
X324.141 Y0.6419 Z-1.7532
X324.1489 Y0.6431 Z-1.6825
G0 Z5
X326.1731 Y17.0964
Z-1.873
G1 X326.1674 Y17.0989 Z-1.9122 F3500
X326.1509 Y17.1061 Z-1.9476
X326.1251 Y17.1174 Z-1.9757
X326.0927 Y17.1316 Z-1.9938
X326.0568 Y17.1473 Z-2
X320.3735 Y19.6343
G3 X320.0857 Y19.6174 I-0.1273 J-0.2909
G1 X320.0457 Y19.5951
X319.9021 Y19.5192
G2 X319.7346 Y19.4486 I-0.4877 J0.9228
G1 X319.5431 Y19.3869
G2 X319.3582 Y19.3454 I-0.3201 J0.9934
G1 X319.1821 Y19.3223
G2 X319.0468 Y19.3135 I-0.1353 J1.0349
G1 X190.9462 Y19.3139
G2 X190.8047 Y19.3235 J1.0437
G1 X190.6306 Y19.3473
G2 X190.4604 Y19.3853 I0.1414 J1.0341
G1 X190.2954 Y19.4369
G2 X190.1296 Y19.5049 I0.3116 J0.9962
G1 X189.9646 Y19.5898
G2 X189.8131 Y19.6849 I0.4774 J0.9282
G1 X189.6756 Y19.7887
G2 X189.5492 Y19.9014 I0.6289 J0.833
G1 X189.4343 Y20.0219
G2 X189.3178 Y20.1683 I0.7553 J0.7203
G1 X189.2036 Y20.3417
G2 X189.1098 Y20.5195 I0.8718 J0.5739
G1 X189.036 Y20.6993
G2 X188.9791 Y20.8863 I0.9657 J0.3961
G1 X188.9397 Y21.0788
G2 X188.9188 Y21.2635 I1.0226 J0.2092
G1 X188.9128 Y21.5202
X188.9125 Y21.5447
X188.9172 Y262.8991
G2 X188.9358 Y263.0952 I1.0437
G1 X188.9727 Y263.2877
G2 X189.0296 Y263.4813 I1.0251 J-0.1962
G1 X189.1071 Y263.6738
G2 X189.1902 Y263.8372 I0.9682 J-0.3897
G1 X189.2165 Y263.8794
G3 X189.264 Y264.0698 I-0.2692 J0.1683
G1 X189.0166 Y267.6108
X189.0117 Y267.6813 Z-1.992
X189.007 Y267.7482 Z-1.9686
X189.0028 Y267.8083 Z-1.9307
X188.9993 Y267.8584 Z-1.8805
X188.9967 Y267.8961 Z-1.8203
X188.995 Y267.9196 Z-1.7531
X188.9945 Y267.9275 Z-1.6825
G0 Z5
X176.164 Y15.1956
Z3.6878
G1 Z0.9173 F1200
X176.1528 Y15.2053 Z0.8213
X176.1197 Y15.2332 Z0.7343
X176.0665 Y15.2747 Z0.6644
X175.9966 Y15.3237 Z0.6182
X175.9153 Y15.3738 Z0.6
G3 X176.1312 Y15.2237 Z0.2783 I-0.7496 J-1.3086
X176.3177 Y15.0384 Z-0.0434 I-0.9655 J-1.1586
X176.4692 Y14.8236 Z-0.3651 I-1.152 J-0.9733
X176.5811 Y14.5857 Z-0.6868 I-1.3035 J-0.7585
X176.65 Y14.332 Z-1.0086 I-1.4154 J-0.5206
X176.6738 Y14.0702 Z-1.3303 I-1.4843 J-0.2669
X176.6518 Y13.8083 Z-1.652 I-1.5081 J-0.0051
X176.5846 Y13.5541 Z-1.9737 I-1.4861 J0.2569
X176.4743 Y13.3155 Z-2.2954 I-1.4189 J0.511
X176.3242 Y13.0997 Z-2.6171 I-1.3086 J0.7496
X176.139 Y12.9131 Z-2.9388 I-1.1586 J0.9655
X175.9241 Y12.7616 Z-3.2605 I-0.9733 J1.152
X175.6863 Y12.6497 Z-3.5822 I-0.7585 J1.3035
X175.4326 Y12.5808 Z-3.904 I-0.5206 J1.4154
X176.5361 Y14.6948 Z-4 I-0.2669 J1.4843
G2 X176.4174 Y14.9599 I13.5394 J6.2209 F3500
G3 X175.5861 Y14.9616 I-0.416 J-0.1814
G2 X175.4273 Y14.6136 I-13.6334 J6.0119
G3 X175.9052 Y13.8596 I0.4779 J-0.2256
G1 X176.0957
G3 X176.5746 Y14.6117 J0.5285
G1 X176.5361 Y14.6948
X176.5122 Y14.7376 Z-3.9922
X176.4821 Y14.7763 Z-3.9845
X176.4501 Y14.8068 Z-3.9619
X176.4141 Y14.8325 Z-3.9394
X176.3508 Y14.8625 Z-3.8691
X176.3072 Y14.8741 Z-3.7806
X176.2919 Y14.8766 Z-3.6825
G0 Z5
X206.1898 Y9.374
Z3.6519
G1 Z1.5 F1200
Z-3.6825 F3500
G18 G2 X206.5073 Z-4 I0.3175
G1 X208.0948
X299.9059
X299.9513 Y9.3807
X299.9929 Y9.4
X300.0272 Y9.4304
X300.0514 Y9.4694
X300.0635 Y9.5136
X300.0624 Y9.5595
X300.0482 Y9.6031
X299.9341 Y9.834
X299.9093 Y9.8704
X299.8755 Y9.8986
X299.8352 Y9.9164
X299.7916 Y9.9224
X208.1968 Y9.8279
X208.1723 Y9.8241 Z-3.9961
X208.1522 Y9.8144 Z-3.9846
X208.1386 Y9.803 Z-3.9668
X208.1313 Y9.7942 Z-3.9444
X208.1291 Y9.7909 Z-3.9196
G0 Z5
X146.7072 Y9.8379
Z3.5619
G1 Z1.5 F1200
Z-3.6825 F3500
X146.6993 Z-3.7531
X146.6758 Z-3.8203
X146.638 Z-3.8805
X146.5877 Z-3.9307
X146.5275 Z-3.9686
X146.4604 Z-3.992
X146.3897 Z-4
X144.8022 Y9.8375
X53.195 Y9.8173
X53.1485 Y9.8103
X53.106 Y9.79
X53.0714 Y9.7581
X52.9701 Y9.6323
X52.9474 Y9.5941
X52.9361 Y9.5511
X52.9372 Y9.5066
X52.9506 Y9.4642
X52.9753 Y9.4272
X53.0092 Y9.3985
X53.0498 Y9.3803
X53.0938 Y9.374
X144.9049
X144.9459 Y9.3804 Z-3.9934
X144.9796 Y9.3967 Z-3.9742
X145.0025 Y9.4158 Z-3.9444
X145.0146 Y9.4306 Z-3.9068
X145.0183 Y9.436 Z-3.8651
G0 Z5
X51.7092 Y9.817
Z3.5657
G1 Z1.5 F1200
Z-3.6825 F3500
X51.7012 Z-3.7532
X51.6778 Z-3.8203
X51.6399 Z-3.8805
X51.5897 Z-3.9307
X51.5295 Y9.8169 Z-3.9686
X51.4624 Z-3.992
X51.3917 Z-4
X49.8042 Y9.8166
X32.9532 Y9.8128
G17 G2 X31.9182 Y9.8772 I0.0001 J8.3535
G1 X31.8712 Y9.8761
X31.8266 Y9.8612
X31.7883 Y9.8339
X31.7597 Y9.7966
X31.7432 Y9.7525
X31.7404 Y9.7056
X31.7571 Y9.5187
X31.7681 Y9.4731
X31.7919 Y9.4328
X31.8265 Y9.4011
X31.8688 Y9.381
X31.9152 Y9.374
X49.9068
X49.9479 Y9.3804 Z-3.9934
X49.9817 Y9.3967 Z-3.9742
X50.0046 Y9.4159 Z-3.9443
X50.0168 Y9.4306 Z-3.9067
X50.0205 Y9.4361 Z-3.865
G0 Z5
X301.1941 Y9.374
Z3.6516
G1 Z1.5 F1200
Z-3.6825 F3500
G18 G2 X301.5115 Z-4 I0.3175
G1 X303.0991
X320.0839
X320.1326 Y9.3817
X320.1766 Y9.4039
X320.2116 Y9.4385
X320.2344 Y9.4822
X320.2427 Y9.5307
X320.2459 Y9.7826
X320.2386 Y9.8322
X320.2163 Y9.877
X320.1811 Y9.9126
X320.1365 Y9.9355
X320.087 Y9.9434
X303.2133 Y9.926
X303.1747 Y9.9199 Z-3.9938
X303.1429 Y9.9046 Z-3.9757
X303.1213 Y9.8866 Z-3.9476
X303.1099 Y9.8727 Z-3.9122
X303.1064 Y9.8675 Z-3.8729
G0 Z5
X175.5298 Y267.904
Z-3.6825
G1 X175.5304 Y267.896 Z-3.7531 F3500
X175.532 Y267.8726 Z-3.8203
X175.5347 Y267.8349 Z-3.8805
X175.5382 Y267.7847 Z-3.9307
X175.5424 Y267.7247 Z-3.9686
X175.547 Y267.6577 Z-3.992
X175.552 Y267.5872 Z-4
X175.8108 Y263.8817
G17 G2 X175.845 Y262.8993 I-14.0687 J-0.9826
G1 X175.7153 Y19.4381
G2 X174.8672 Y16.3072 I-12.8385 J1.7973
X173.3704 Y13.4294 I-16.75 J6.8845
G3 X173.8065 Y12.6325 I0.4362 J-0.2791
G1 X178.1975
G3 X178.6311 Y13.4339 J0.518
G2 X176.7995 Y17.3086 I13.0922 J8.559
X176.1503 Y21.545 I13.4957 J4.2361
G1 X176.155 Y262.8993
G2 X176.1896 Y263.8867 I14.103 J-0.0003
G1 X176.1867 Y263.9299
X176.1723 Y263.9707
X176.1474 Y264.006
X176.1139 Y264.0334
X176.0742 Y264.0507
X176.0314 Y264.0566
X174.4736 Y264.0578
X174.4304 Y264.0518
X174.3905 Y264.0344
X174.3568 Y264.0067
X174.332 Y263.971
X174.3177 Y263.9298
X174.3152 Y263.8863
G2 X174.3549 Y262.8992 I-12.2762 J-0.9872
G1 X174.2126 Y19.4522
G2 X172.8369 Y15.3324 I-11.8064 J1.6528
X170.1875 Y11.8908 I-12.6656 J7.0093
G3 X170.4894 Y11.1396 I0.3018 J-0.315
G1 X181.5039
G3 X181.8099 Y11.8927 J0.4387
G2 X178.7481 Y16.2968 I9.8275 J10.0986
X177.6405 Y21.5449 I11.8783 J5.2479
G1 X177.6452 Y262.8993
G2 X177.6824 Y263.8866 I13.0964 J-0.0003
G1 X177.6798 Y263.9299
X177.6655 Y263.9709
X177.6406 Y264.0065
X177.607 Y264.034
X177.5672 Y264.0513
X177.5242 Y264.0573
X172.6985 Y264.0587
X172.655 Y264.0526
X172.6149 Y264.0349
X172.5811 Y264.0068
X172.5563 Y263.9706
X172.5424 Y263.929
X172.5404 Y263.8851
G2 X172.5866 Y262.8992 I-10.5014 J-0.9861
G1 X172.4614 Y19.6973
G2 X168.8734 Y12.8971 I-11.2131 J1.5698
X161.818 Y9.8413 I-7.9866 J8.7669
G1 X148.1992 Y9.8383
X148.1612 Y9.8336
X148.1254 Y9.8201
X148.0939 Y9.7983
X148.0686 Y9.7696
X147.9674 Y9.6229
X147.9461 Y9.5787
X147.9393 Y9.53
X147.9478 Y9.4816
X147.9706 Y9.4381
X148.0056 Y9.4037
X148.0495 Y9.3816
X148.098 Y9.374
X204.9017
X204.9506 Y9.3818
X204.9948 Y9.4042
X205.0299 Y9.4392
X205.0525 Y9.4833
X205.0604 Y9.5322
X205.0529 Y9.5812
X205.0306 Y9.6255
X204.9351 Y9.7583
X204.8999 Y9.7938
X204.8554 Y9.8166
X204.806 Y9.8244
X190.9461 Y9.8101
G2 X183.6193 Y12.476 J11.401
X179.6287 Y19.1741 I7.6085 J9.0708
X179.4589 Y20.354 I9.9379 J2.0329
X179.4087 Y21.5449 I14.1073 J1.1907
G1 X179.4134 Y262.8993
G2 X179.4565 Y263.8862 I11.3291 J-0.0002
G1 X179.4543 Y263.9299
X179.4402 Y263.9713
X179.4154 Y264.0073
X179.3817 Y264.0352
X179.3417 Y264.0528
X179.2984 Y264.0588
X170.3538 Y264.0596
X170.3097 Y264.0534
X170.269 Y264.0351
X170.235 Y264.0062
X170.2104 Y263.969
X170.1971 Y263.9265
X170.1962 Y263.8819
G2 X170.2552 Y262.8992 I-8.1571 J-0.9828
G1 X170.1525 Y20.0205
G2 X167.2754 Y14.5948 I-8.9058 J1.2468
X161.6349 Y12.1655 I-6.3888 J7.0711
G1 X32.9532 Y12.1709
G2 X31.9137 Y12.2525 I0.0001 J6.6662
G1 X31.868 Y12.2531
X31.824 Y12.2406
X31.7854 Y12.2161
X31.7554 Y12.1816
X31.7365 Y12.1401
X31.7302 Y12.0948
X31.7581 Y7.1977
X31.7661 Y7.1489
X31.7887 Y7.1049
X31.8238 Y7.07
X31.8679 Y7.0476
X31.9168 Y7.0399
X320.0855
X320.1346 Y7.0477
X320.1789 Y7.0702
X320.214 Y7.1053
X320.2365 Y7.1496
X320.2443 Y7.1986
X320.2441 Y12.1137
X320.2363 Y12.1628
X320.2138 Y12.2071
X320.1786 Y12.2422
X320.1343 Y12.2648
X320.0852 Y12.2725
X190.9461 Y12.1415
G2 X185.0935 Y14.2823 J9.0707
X181.9129 Y19.6414 I6.1355 J7.2648
X181.7784 Y20.5888 I7.7091 J1.577
X181.7401 Y21.5449 I11.9075 J0.9559
G1 X181.7448 Y262.8992
G2 X181.7991 Y263.8854 I8.9993 J-0.0002
G1 X181.7977 Y263.9297
X181.7842 Y263.9719
X181.7595 Y264.0087
X181.7257 Y264.0373
X181.6852 Y264.0554
X181.6413 Y264.0616
X167.9885 Y264.0671
X167.9431 Y264.0605
X167.9015 Y264.0412
X167.8671 Y264.0108
X167.8429 Y263.9719
X167.8308 Y263.9276
X167.8319 Y263.8818
G2 X167.9147 Y262.8991 I-5.7928 J-0.9827
G1 X167.8346 Y20.345
G2 X165.6712 Y16.2991 I-6.5907 J0.9227
X161.4511 Y14.4988 I-4.7849 J5.37
G1 X32.9532 Y14.5369
G2 X31.9143 Y14.6472 J4.9478
G1 X31.8673 Y14.6501
X31.8215 Y14.6392
X31.7809 Y14.6153
X31.7492 Y14.5805
X31.729 Y14.538
X31.7222 Y14.4914
X31.7587 Y4.8575
X31.7666 Y4.8086
X31.7892 Y4.7645
X31.8243 Y4.7295
X31.8685 Y4.7071
X31.9175 Y4.6994
X320.0862
X320.1352 Y4.7071
X320.1794 Y4.7296
X320.2145 Y4.7646
X320.2371 Y4.8087
X320.2449 Y4.8577
X320.2696 Y14.4976
X320.2629 Y14.5434
X320.2433 Y14.5854
X320.2124 Y14.62
X320.1728 Y14.6441
X320.128 Y14.6558
X320.0817 Y14.654
G2 X319.7982 Y14.609 I-0.962 J5.1457
G1 X190.9461 Y14.482
G2 X186.5734 Y16.0956 J6.732
X184.2059 Y20.1104 I4.6577 J5.452
X184.1071 Y20.8245 I5.5003 J1.1252
X184.0807 Y21.5448 I9.8073 J0.7201
G1 X184.0854 Y262.8992
G2 X184.1586 Y263.8838 I6.6614 J-0.0002
G1 X184.162 Y263.9334
X184.1298 Y267.6317
X184.1292 Y267.7024 Z-3.992
X184.1286 Y267.7695 Z-3.9686
X184.1281 Y267.8297 Z-3.9307
X184.1276 Y267.88 Z-3.8805
X184.1273 Y267.9178 Z-3.8203
X184.1271 Y267.9413 Z-3.7532
X184.127 Y267.9492 Z-3.6825
G0 Z5
X164.383 Y267.9044
Z-3.6825
G1 X164.3851 Y267.8967 Z-3.7532 F3500
X164.391 Y267.874 Z-3.8203
X164.4006 Y267.8374 Z-3.8805
X164.4134 Y267.7888 Z-3.9307
X164.4287 Y267.7305 Z-3.9686
X164.4457 Y267.6656 Z-3.992
X164.4637 Y267.5973 Z-4
X165.4389 Y263.8821
G2 X165.5111 Y263.5634 I-4.6727 J-1.2266
X165.5741 Y262.8991 I-3.4721 J-0.6644
G1 X165.5167 Y20.6695
G2 X164.067 Y18.0034 I-4.2781 J0.5989
X161.2673 Y16.8321 I-3.1812 J3.6723
G1 X32.9532 Y16.9071
G2 X32.1398 Y17.0155 J3.1055
X31.9142 Y17.0804 I2.0718 J7.6326
G1 X31.8654 Y17.0872
X31.8169 Y17.0787
X31.7733 Y17.0558
X31.7388 Y17.0206
X31.7168 Y16.9766
X31.7093 Y16.9279
X31.7593 Y2.517
X31.7673 Y2.4681
X31.7899 Y2.424
X31.825 Y2.389
X31.8691 Y2.3666
X31.9181 Y2.3588
X320.0868
X320.1358 Y2.3666
X320.18 Y2.389
X320.2151 Y2.424
X320.2377 Y2.4682
X320.2456 Y2.5171
X320.2899 Y16.9267
X320.2824 Y16.9755
X320.2603 Y17.0196
X320.2257 Y17.0547
X320.182 Y17.0776
X320.1334 Y17.0859
X320.0846 Y17.079
X320.0756 Y17.0762
G2 X319.4922 Y16.9498 I-1.048 J3.4277
G1 X190.9462 Y16.8225
G2 X188.0533 Y17.9088 J4.3952
X186.4989 Y20.5795 I3.182 J3.6396
X186.4357 Y21.0602 I3.3497 J0.6852
X186.4212 Y21.5448 I8.0819 J0.4844
G1 X186.4259 Y262.8991
G2 X186.5397 Y263.8848 I4.3262 J-0.0001
G1 X186.5472 Y263.934
X186.5469 Y263.9838
X186.2397 Y267.6197
X186.2338 Y267.6901 Z-3.992
X186.2281 Y267.757 Z-3.9686
X186.2231 Y267.817 Z-3.9307
X186.2188 Y267.8671 Z-3.8805
X186.2156 Y267.9048 Z-3.8203
X186.2137 Y267.9282 Z-3.7532
X186.213 Y267.9361 Z-3.6825
G0 Z5
X161.0707 Y267.9038
Z-3.7143
G1 X161.0735 Y267.8972 Z-3.7778 F3500
X161.0818 Y267.8778 Z-3.8382
X161.0951 Y267.8465 Z-3.8924
X161.1127 Y267.8048 Z-3.9377
X161.1339 Y267.7549 Z-3.9717
X161.1575 Y267.6993 Z-3.9928
X161.1824 Y267.6408 Z-4
X162.7605 Y263.9236
X162.7835 Y263.8794
X162.8098 Y263.8372
G2 X162.893 Y263.6738 I-0.8851 J-0.5532
G1 X162.9705 Y263.4813
G2 X163.0274 Y263.2877 I-0.9682 J-0.3898
G1 X163.0642 Y263.0952
G2 X163.0828 Y262.899 I-1.0251 J-0.1962
G1 X163.0864 Y21.3522
G2 X163.0763 Y21.2075 I-1.0438
G1 X163.0494 Y21.0149
G2 X163.0043 Y20.8247 I-1.0337 J0.1447
G1 X162.9412 Y20.6386
G2 X162.8602 Y20.4579 I-0.9886 J0.3349
G1 X162.7616 Y20.2844
G2 X162.6631 Y20.1405 I-0.9075 J0.5156
G1 X162.5688 Y20.0249
G2 X162.4577 Y19.9082 I-0.809 J0.6595
G1 X162.3291 Y19.7926
G2 X162.1998 Y19.6934 I-0.6979 J0.7761
G1 X162.0716 Y19.6102
G2 X161.9251 Y19.5308 I-0.5686 J0.8753
G1 X161.7601 Y19.4579
G2 X161.5944 Y19.4007 I-0.4221 J0.9546
G1 X161.4294 Y19.3589
G2 X161.255 Y19.3302 I-0.2564 J1.0118
G1 X161.0717 Y19.3157
X160.9897 Y19.3125
X32.9533 Y19.3135
G2 X32.818 Y19.3223 J1.0437
G1 X32.6418 Y19.3454
G2 X32.457 Y19.3869 I0.1353 J1.0349
G1 X32.2655 Y19.4486
G2 X32.0979 Y19.5192 I0.3201 J0.9934
G1 X31.9543 Y19.5951
X31.9144 Y19.6174
G3 X31.5826 Y19.6108 I-0.1605 J-0.2739
G1 X27.8832 Y17.2418
X27.8237 Y17.2037 Z-3.992
X27.7672 Y17.1675 Z-3.9686
X27.7165 Y17.1351 Z-3.9307
X27.6741 Y17.108 Z-3.8805
X27.6423 Y17.0876 Z-3.8203
X27.6225 Y17.0749 Z-3.7532
X27.6158 Y17.0706 Z-3.6825
G0 Z5
X27.8966 Y0.6357
Z-3.7143
G1 X27.9037 Y0.6346 Z-3.7778 F3500
X27.9245 Y0.6313 Z-3.8382
X27.9582 Y0.626 Z-3.8924
X28.0029 Y0.6189 Z-3.9377
X28.0564 Y0.6104 Z-3.9717
X28.116 Y0.601 Z-3.9928
X28.1788 Y0.591 Z-4
X31.8653 Y0.0071
X31.915 Y0.0032
X320.0837
X320.1334 Y0.0071
X323.8353 Y0.5935
X323.905 Y0.6045 Z-3.992
X323.9713 Y0.615 Z-3.9686
X324.0308 Y0.6244 Z-3.9307
X324.0804 Y0.6323 Z-3.8805
X324.1178 Y0.6382 Z-3.8203
X324.141 Y0.6419 Z-3.7532
X324.1489 Y0.6431 Z-3.6825
G0 Z5
X326.1731 Y17.0964
Z-3.873
G1 X326.1674 Y17.0989 Z-3.9122 F3500
X326.1509 Y17.1061 Z-3.9476
X326.1251 Y17.1174 Z-3.9757
X326.0927 Y17.1316 Z-3.9938
X326.0568 Y17.1473 Z-4
X320.3735 Y19.6343
G3 X320.0857 Y19.6174 I-0.1273 J-0.2909
G1 X320.0457 Y19.5951
X319.9021 Y19.5192
G2 X319.7346 Y19.4486 I-0.4877 J0.9228
G1 X319.5431 Y19.3869
G2 X319.3582 Y19.3454 I-0.3201 J0.9934
G1 X319.1821 Y19.3223
G2 X319.0468 Y19.3135 I-0.1353 J1.0349
G1 X190.9462 Y19.3139
G2 X190.8047 Y19.3235 J1.0437
G1 X190.6306 Y19.3473
G2 X190.4604 Y19.3853 I0.1414 J1.0341
G1 X190.2954 Y19.4369
G2 X190.1296 Y19.5049 I0.3116 J0.9962
G1 X189.9646 Y19.5898
G2 X189.8131 Y19.6849 I0.4774 J0.9282
G1 X189.6756 Y19.7887
G2 X189.5492 Y19.9014 I0.6289 J0.833
G1 X189.4343 Y20.0219
G2 X189.3178 Y20.1683 I0.7553 J0.7203
G1 X189.2036 Y20.3417
G2 X189.1098 Y20.5195 I0.8718 J0.5739
G1 X189.036 Y20.6993
G2 X188.9791 Y20.8863 I0.9657 J0.3961
G1 X188.9397 Y21.0788
G2 X188.9188 Y21.2635 I1.0226 J0.2092
G1 X188.9128 Y21.5202
X188.9125 Y21.5447
X188.9172 Y262.8991
G2 X188.9358 Y263.0952 I1.0437
G1 X188.9727 Y263.2877
G2 X189.0296 Y263.4813 I1.0251 J-0.1962
G1 X189.1071 Y263.6738
G2 X189.1902 Y263.8372 I0.9682 J-0.3897
G1 X189.2165 Y263.8794
G3 X189.264 Y264.0698 I-0.2692 J0.1683
G1 X189.0166 Y267.6108
X189.0117 Y267.6813 Z-3.992
X189.007 Y267.7482 Z-3.9686
X189.0028 Y267.8083 Z-3.9307
X188.9993 Y267.8584 Z-3.8805
X188.9967 Y267.8961 Z-3.8203
X188.995 Y267.9196 Z-3.7531
X188.9945 Y267.9275 Z-3.6825
G0 Z5
X176.164 Y15.1956
Z3.6878
G1 Z-1.0827 F1200
X176.1528 Y15.2053 Z-1.1787
X176.1197 Y15.2332 Z-1.2657
X176.0665 Y15.2747 Z-1.3356
X175.9966 Y15.3237 Z-1.3818
X175.9153 Y15.3738 Z-1.4
G3 X176.1312 Y15.2237 Z-1.7217 I-0.7496 J-1.3086
X176.3177 Y15.0384 Z-2.0434 I-0.9655 J-1.1586
X176.4692 Y14.8236 Z-2.3651 I-1.152 J-0.9733
X176.5811 Y14.5857 Z-2.6868 I-1.3035 J-0.7585
X176.65 Y14.332 Z-3.0086 I-1.4154 J-0.5206
X176.6738 Y14.0702 Z-3.3303 I-1.4843 J-0.2669
X176.6518 Y13.8083 Z-3.652 I-1.5081 J-0.0051
X176.5846 Y13.5541 Z-3.9737 I-1.4861 J0.2569
X176.4743 Y13.3155 Z-4.2954 I-1.4189 J0.511
X176.3242 Y13.0997 Z-4.6171 I-1.3086 J0.7496
X176.139 Y12.9131 Z-4.9388 I-1.1586 J0.9655
X175.9241 Y12.7616 Z-5.2605 I-0.9733 J1.152
X175.6863 Y12.6497 Z-5.5822 I-0.7585 J1.3035
X175.4326 Y12.5808 Z-5.904 I-0.5206 J1.4154
X176.5361 Y14.6948 Z-6 I-0.2669 J1.4843
G2 X176.4174 Y14.9599 I13.5394 J6.2209 F3500
G3 X175.5861 Y14.9616 I-0.416 J-0.1814
G2 X175.4273 Y14.6136 I-13.6334 J6.0119
G3 X175.9052 Y13.8596 I0.4779 J-0.2256
G1 X176.0957
G3 X176.5746 Y14.6117 J0.5285
G1 X176.5361 Y14.6948
X176.5122 Y14.7376 Z-5.9922
X176.4821 Y14.7763 Z-5.9845
X176.4501 Y14.8068 Z-5.9619
X176.4141 Y14.8325 Z-5.9394
X176.3508 Y14.8625 Z-5.8691
X176.3072 Y14.8741 Z-5.7806
X176.2919 Y14.8766 Z-5.6825
G0 Z5
X206.1898 Y9.374
Z3.6519
G1 Z-0.5 F1200
Z-5.6825 F3500
G18 G2 X206.5073 Z-6 I0.3175
G1 X208.0948
X299.9059
X299.9513 Y9.3807
X299.9929 Y9.4
X300.0272 Y9.4304
X300.0514 Y9.4694
X300.0635 Y9.5136
X300.0624 Y9.5595
X300.0482 Y9.6031
X299.9341 Y9.834
X299.9093 Y9.8704
X299.8755 Y9.8986
X299.8352 Y9.9164
X299.7916 Y9.9224
X208.1968 Y9.8279
X208.1723 Y9.8241 Z-5.9961
X208.1522 Y9.8144 Z-5.9846
X208.1386 Y9.803 Z-5.9668
X208.1313 Y9.7942 Z-5.9444
X208.1291 Y9.7909 Z-5.9196
G0 Z5
X146.7072 Y9.8379
Z3.5619
G1 Z-0.5 F1200
Z-5.6825 F3500
X146.6993 Z-5.7531
X146.6758 Z-5.8203
X146.638 Z-5.8805
X146.5877 Z-5.9307
X146.5275 Z-5.9686
X146.4604 Z-5.992
X146.3897 Z-6
X144.8022 Y9.8375
X53.195 Y9.8173
X53.1485 Y9.8103
X53.106 Y9.79
X53.0714 Y9.7581
X52.9701 Y9.6323
X52.9474 Y9.5941
X52.9361 Y9.5511
X52.9372 Y9.5066
X52.9506 Y9.4642
X52.9753 Y9.4272
X53.0092 Y9.3985
X53.0498 Y9.3803
X53.0938 Y9.374
X144.9049
X144.9459 Y9.3804 Z-5.9934
X144.9796 Y9.3967 Z-5.9742
X145.0025 Y9.4158 Z-5.9444
X145.0146 Y9.4306 Z-5.9068
X145.0183 Y9.436 Z-5.8651
G0 Z5
X51.7092 Y9.817
Z3.5657
G1 Z-0.5 F1200
Z-5.6825 F3500
X51.7012 Z-5.7532
X51.6778 Z-5.8203
X51.6399 Z-5.8805
X51.5897 Z-5.9307
X51.5295 Y9.8169 Z-5.9686
X51.4624 Z-5.992
X51.3917 Z-6
X49.8042 Y9.8166
X32.9532 Y9.8128
G17 G2 X31.9182 Y9.8772 I0.0001 J8.3535
G1 X31.8712 Y9.8761
X31.8266 Y9.8612
X31.7883 Y9.8339
X31.7597 Y9.7966
X31.7432 Y9.7525
X31.7404 Y9.7056
X31.7571 Y9.5187
X31.7681 Y9.4731
X31.7919 Y9.4328
X31.8265 Y9.4011
X31.8688 Y9.381
X31.9152 Y9.374
X49.9068
X49.9479 Y9.3804 Z-5.9934
X49.9817 Y9.3967 Z-5.9742
X50.0046 Y9.4159 Z-5.9443
X50.0168 Y9.4306 Z-5.9067
X50.0205 Y9.4361 Z-5.865
G0 Z5
X301.1941 Y9.374
Z3.6516
G1 Z-0.5 F1200
Z-5.6825 F3500
G18 G2 X301.5115 Z-6 I0.3175
G1 X303.0991
X320.0839
X320.1326 Y9.3817
X320.1766 Y9.4039
X320.2116 Y9.4385
X320.2344 Y9.4822
X320.2427 Y9.5307
X320.2459 Y9.7826
X320.2386 Y9.8322
X320.2163 Y9.877
X320.1811 Y9.9126
X320.1365 Y9.9355
X320.087 Y9.9434
X303.2133 Y9.926
X303.1747 Y9.9199 Z-5.9938
X303.1429 Y9.9046 Z-5.9757
X303.1213 Y9.8866 Z-5.9476
X303.1099 Y9.8727 Z-5.9122
X303.1064 Y9.8675 Z-5.8729
G0 Z5
X175.5298 Y267.904
Z-5.6825
G1 X175.5304 Y267.896 Z-5.7531 F3500
X175.532 Y267.8726 Z-5.8203
X175.5347 Y267.8349 Z-5.8805
X175.5382 Y267.7847 Z-5.9307
X175.5424 Y267.7247 Z-5.9686
X175.547 Y267.6577 Z-5.992
X175.552 Y267.5872 Z-6
X175.8108 Y263.8817
G17 G2 X175.845 Y262.8993 I-14.0687 J-0.9826
G1 X175.7153 Y19.4381
G2 X174.8672 Y16.3072 I-12.8385 J1.7973
X173.3704 Y13.4294 I-16.75 J6.8845
G3 X173.8065 Y12.6325 I0.4362 J-0.2791
G1 X178.1975
G3 X178.6311 Y13.4339 J0.518
G2 X176.7995 Y17.3086 I13.0922 J8.559
X176.1503 Y21.545 I13.4957 J4.2361
G1 X176.155 Y262.8993
G2 X176.1896 Y263.8867 I14.103 J-0.0003
G1 X176.1867 Y263.9299
X176.1723 Y263.9707
X176.1474 Y264.006
X176.1139 Y264.0334
X176.0742 Y264.0507
X176.0314 Y264.0566
X174.4736 Y264.0578
X174.4304 Y264.0518
X174.3905 Y264.0344
X174.3568 Y264.0067
X174.332 Y263.971
X174.3177 Y263.9298
X174.3152 Y263.8863
G2 X174.3549 Y262.8992 I-12.2762 J-0.9872
G1 X174.2126 Y19.4522
G2 X172.8369 Y15.3324 I-11.8064 J1.6528
X170.1875 Y11.8908 I-12.6656 J7.0093
G3 X170.4894 Y11.1396 I0.3018 J-0.315
G1 X181.5039
G3 X181.8099 Y11.8927 J0.4387
G2 X178.7481 Y16.2968 I9.8275 J10.0986
X177.6405 Y21.5449 I11.8783 J5.2479
G1 X177.6452 Y262.8993
G2 X177.6824 Y263.8866 I13.0964 J-0.0003
G1 X177.6798 Y263.9299
X177.6655 Y263.9709
X177.6406 Y264.0065
X177.607 Y264.034
X177.5672 Y264.0513
X177.5242 Y264.0573
X172.6985 Y264.0587
X172.655 Y264.0526
X172.6149 Y264.0349
X172.5811 Y264.0068
X172.5563 Y263.9706
X172.5424 Y263.929
X172.5404 Y263.8851
G2 X172.5866 Y262.8992 I-10.5014 J-0.9861
G1 X172.4614 Y19.6973
G2 X168.8734 Y12.8971 I-11.2131 J1.5698
X161.818 Y9.8413 I-7.9866 J8.7669
G1 X148.1992 Y9.8383
X148.1612 Y9.8336
X148.1254 Y9.8201
X148.0939 Y9.7983
X148.0686 Y9.7696
X147.9674 Y9.6229
X147.9461 Y9.5787
X147.9393 Y9.53
X147.9478 Y9.4816
X147.9706 Y9.4381
X148.0056 Y9.4037
X148.0495 Y9.3816
X148.098 Y9.374
X204.9017
X204.9506 Y9.3818
X204.9948 Y9.4042
X205.0299 Y9.4392
X205.0525 Y9.4833
X205.0604 Y9.5322
X205.0529 Y9.5812
X205.0306 Y9.6255
X204.9351 Y9.7583
X204.8999 Y9.7938
X204.8554 Y9.8166
X204.806 Y9.8244
X190.9461 Y9.8101
G2 X183.6193 Y12.476 J11.401
X179.6287 Y19.1741 I7.6085 J9.0708
X179.4589 Y20.354 I9.9379 J2.0329
X179.4087 Y21.5449 I14.1073 J1.1907
G1 X179.4134 Y262.8993
G2 X179.4565 Y263.8862 I11.3291 J-0.0002
G1 X179.4543 Y263.9299
X179.4402 Y263.9713
X179.4154 Y264.0073
X179.3817 Y264.0352
X179.3417 Y264.0528
X179.2984 Y264.0588
X170.3538 Y264.0596
X170.3097 Y264.0534
X170.269 Y264.0351
X170.235 Y264.0062
X170.2104 Y263.969
X170.1971 Y263.9265
X170.1962 Y263.8819
G2 X170.2552 Y262.8992 I-8.1571 J-0.9828
G1 X170.1525 Y20.0205
G2 X167.2754 Y14.5948 I-8.9058 J1.2468
X161.6349 Y12.1655 I-6.3888 J7.0711
G1 X32.9532 Y12.1709
G2 X31.9137 Y12.2525 I0.0001 J6.6662
G1 X31.868 Y12.2531
X31.824 Y12.2406
X31.7854 Y12.2161
X31.7554 Y12.1816
X31.7365 Y12.1401
X31.7302 Y12.0948
X31.7581 Y7.1977
X31.7661 Y7.1489
X31.7887 Y7.1049
X31.8238 Y7.07
X31.8679 Y7.0476
X31.9168 Y7.0399
X320.0855
X320.1346 Y7.0477
X320.1789 Y7.0702
X320.214 Y7.1053
X320.2365 Y7.1496
X320.2443 Y7.1986
X320.2441 Y12.1137
X320.2363 Y12.1628
X320.2138 Y12.2071
X320.1786 Y12.2422
X320.1343 Y12.2648
X320.0852 Y12.2725
X190.9461 Y12.1415
G2 X185.0935 Y14.2823 J9.0707
X181.9129 Y19.6414 I6.1355 J7.2648
X181.7784 Y20.5888 I7.7091 J1.577
X181.7401 Y21.5449 I11.9075 J0.9559
G1 X181.7448 Y262.8992
G2 X181.7991 Y263.8854 I8.9993 J-0.0002
G1 X181.7977 Y263.9297
X181.7842 Y263.9719
X181.7595 Y264.0087
X181.7257 Y264.0373
X181.6852 Y264.0554
X181.6413 Y264.0616
X167.9885 Y264.0671
X167.9431 Y264.0605
X167.9015 Y264.0412
X167.8671 Y264.0108
X167.8429 Y263.9719
X167.8308 Y263.9276
X167.8319 Y263.8818
G2 X167.9147 Y262.8991 I-5.7928 J-0.9827
G1 X167.8346 Y20.345
G2 X165.6712 Y16.2991 I-6.5907 J0.9227
X161.4511 Y14.4988 I-4.7849 J5.37
G1 X32.9532 Y14.5369
G2 X31.9143 Y14.6472 J4.9478
G1 X31.8673 Y14.6501
X31.8215 Y14.6392
X31.7809 Y14.6153
X31.7492 Y14.5805
X31.729 Y14.538
X31.7222 Y14.4914
X31.7587 Y4.8575
X31.7666 Y4.8086
X31.7892 Y4.7645
X31.8243 Y4.7295
X31.8685 Y4.7071
X31.9175 Y4.6994
X320.0862
X320.1352 Y4.7071
X320.1794 Y4.7296
X320.2145 Y4.7646
X320.2371 Y4.8087
X320.2449 Y4.8577
X320.2696 Y14.4976
X320.2629 Y14.5434
X320.2433 Y14.5854
X320.2124 Y14.62
X320.1728 Y14.6441
X320.128 Y14.6558
X320.0817 Y14.654
G2 X319.7982 Y14.609 I-0.962 J5.1457
G1 X190.9461 Y14.482
G2 X186.5734 Y16.0956 J6.732
X184.2059 Y20.1104 I4.6577 J5.452
X184.1071 Y20.8245 I5.5003 J1.1252
X184.0807 Y21.5448 I9.8073 J0.7201
G1 X184.0854 Y262.8992
G2 X184.1586 Y263.8838 I6.6614 J-0.0002
G1 X184.162 Y263.9334
X184.1298 Y267.6317
X184.1292 Y267.7024 Z-5.992
X184.1286 Y267.7695 Z-5.9686
X184.1281 Y267.8297 Z-5.9307
X184.1276 Y267.88 Z-5.8805
X184.1273 Y267.9178 Z-5.8203
X184.1271 Y267.9413 Z-5.7532
X184.127 Y267.9492 Z-5.6825
G0 Z5
X164.383 Y267.9044
Z-5.6825
G1 X164.3851 Y267.8967 Z-5.7532 F3500
X164.391 Y267.874 Z-5.8203
X164.4006 Y267.8374 Z-5.8805
X164.4134 Y267.7888 Z-5.9307
X164.4287 Y267.7305 Z-5.9686
X164.4457 Y267.6656 Z-5.992
X164.4637 Y267.5973 Z-6
X165.4389 Y263.8821
G2 X165.5111 Y263.5634 I-4.6727 J-1.2266
X165.5741 Y262.8991 I-3.4721 J-0.6644
G1 X165.5167 Y20.6695
G2 X164.067 Y18.0034 I-4.2781 J0.5989
X161.2673 Y16.8321 I-3.1812 J3.6723
G1 X32.9532 Y16.9071
G2 X32.1398 Y17.0155 J3.1055
X31.9142 Y17.0804 I2.0718 J7.6326
G1 X31.8654 Y17.0872
X31.8169 Y17.0787
X31.7733 Y17.0558
X31.7388 Y17.0206
X31.7168 Y16.9766
X31.7093 Y16.9279
X31.7593 Y2.517
X31.7673 Y2.4681
X31.7899 Y2.424
X31.825 Y2.389
X31.8691 Y2.3666
X31.9181 Y2.3588
X320.0868
X320.1358 Y2.3666
X320.18 Y2.389
X320.2151 Y2.424
X320.2377 Y2.4682
X320.2456 Y2.5171
X320.2899 Y16.9267
X320.2824 Y16.9755
X320.2603 Y17.0196
X320.2257 Y17.0547
X320.182 Y17.0776
X320.1334 Y17.0859
X320.0846 Y17.079
X320.0756 Y17.0762
G2 X319.4922 Y16.9498 I-1.048 J3.4277
G1 X190.9462 Y16.8225
G2 X188.0533 Y17.9088 J4.3952
X186.4989 Y20.5795 I3.182 J3.6396
X186.4357 Y21.0602 I3.3497 J0.6852
X186.4212 Y21.5448 I8.0819 J0.4844
G1 X186.4259 Y262.8991
G2 X186.5397 Y263.8848 I4.3262 J-0.0001
G1 X186.5472 Y263.934
X186.5469 Y263.9838
X186.2397 Y267.6197
X186.2338 Y267.6901 Z-5.992
X186.2281 Y267.757 Z-5.9686
X186.2231 Y267.817 Z-5.9307
X186.2188 Y267.8671 Z-5.8805
X186.2156 Y267.9048 Z-5.8203
X186.2137 Y267.9282 Z-5.7532
X186.213 Y267.9361 Z-5.6825
G0 Z5
X161.0707 Y267.9038
Z-5.7143
G1 X161.0735 Y267.8972 Z-5.7778 F3500
X161.0818 Y267.8778 Z-5.8382
X161.0951 Y267.8465 Z-5.8924
X161.1127 Y267.8048 Z-5.9377
X161.1339 Y267.7549 Z-5.9717
X161.1575 Y267.6993 Z-5.9928
X161.1824 Y267.6408 Z-6
X162.7605 Y263.9236
X162.7835 Y263.8794
X162.8098 Y263.8372
G2 X162.893 Y263.6738 I-0.8851 J-0.5532
G1 X162.9705 Y263.4813
G2 X163.0274 Y263.2877 I-0.9682 J-0.3898
G1 X163.0642 Y263.0952
G2 X163.0828 Y262.899 I-1.0251 J-0.1962
G1 X163.0864 Y21.3522
G2 X163.0763 Y21.2075 I-1.0438
G1 X163.0494 Y21.0149
G2 X163.0043 Y20.8247 I-1.0337 J0.1447
G1 X162.9412 Y20.6386
G2 X162.8602 Y20.4579 I-0.9886 J0.3349
G1 X162.7616 Y20.2844
G2 X162.6631 Y20.1405 I-0.9075 J0.5156
G1 X162.5688 Y20.0249
G2 X162.4577 Y19.9082 I-0.809 J0.6595
G1 X162.3291 Y19.7926
G2 X162.1998 Y19.6934 I-0.6979 J0.7761
G1 X162.0716 Y19.6102
G2 X161.9251 Y19.5308 I-0.5686 J0.8753
G1 X161.7601 Y19.4579
G2 X161.5944 Y19.4007 I-0.4221 J0.9546
G1 X161.4294 Y19.3589
G2 X161.255 Y19.3302 I-0.2564 J1.0118
G1 X161.0717 Y19.3157
X160.9897 Y19.3125
X32.9533 Y19.3135
G2 X32.818 Y19.3223 J1.0437
G1 X32.6418 Y19.3454
G2 X32.457 Y19.3869 I0.1353 J1.0349
G1 X32.2655 Y19.4486
G2 X32.0979 Y19.5192 I0.3201 J0.9934
G1 X31.9543 Y19.5951
X31.9144 Y19.6174
G3 X31.5826 Y19.6108 I-0.1605 J-0.2739
G1 X27.8832 Y17.2418
X27.8237 Y17.2037 Z-5.992
X27.7672 Y17.1675 Z-5.9686
X27.7165 Y17.1351 Z-5.9307
X27.6741 Y17.108 Z-5.8805
X27.6423 Y17.0876 Z-5.8203
X27.6225 Y17.0749 Z-5.7532
X27.6158 Y17.0706 Z-5.6825
G0 Z5
X27.8966 Y0.6357
Z-5.7143
G1 X27.9037 Y0.6346 Z-5.7778 F3500
X27.9245 Y0.6313 Z-5.8382
X27.9582 Y0.626 Z-5.8924
X28.0029 Y0.6189 Z-5.9377
X28.0564 Y0.6104 Z-5.9717
X28.116 Y0.601 Z-5.9928
X28.1788 Y0.591 Z-6
X31.8653 Y0.0071
X31.915 Y0.0032
X320.0837
X320.1334 Y0.0071
X323.8353 Y0.5935
X323.905 Y0.6045 Z-5.992
X323.9713 Y0.615 Z-5.9686
X324.0308 Y0.6244 Z-5.9307
X324.0804 Y0.6323 Z-5.8805
X324.1178 Y0.6382 Z-5.8203
X324.141 Y0.6419 Z-5.7532
X324.1489 Y0.6431 Z-5.6825
G0 Z5
X326.1731 Y17.0964
Z-5.873
G1 X326.1674 Y17.0989 Z-5.9122 F3500
X326.1509 Y17.1061 Z-5.9476
X326.1251 Y17.1174 Z-5.9757
X326.0927 Y17.1316 Z-5.9938
X326.0568 Y17.1473 Z-6
X320.3735 Y19.6343
G3 X320.0857 Y19.6174 I-0.1273 J-0.2909
G1 X320.0457 Y19.5951
X319.9021 Y19.5192
G2 X319.7346 Y19.4486 I-0.4877 J0.9228
G1 X319.5431 Y19.3869
G2 X319.3582 Y19.3454 I-0.3201 J0.9934
G1 X319.1821 Y19.3223
G2 X319.0468 Y19.3135 I-0.1353 J1.0349
G1 X190.9462 Y19.3139
G2 X190.8047 Y19.3235 J1.0437
G1 X190.6306 Y19.3473
G2 X190.4604 Y19.3853 I0.1414 J1.0341
G1 X190.2954 Y19.4369
G2 X190.1296 Y19.5049 I0.3116 J0.9962
G1 X189.9646 Y19.5898
G2 X189.8131 Y19.6849 I0.4774 J0.9282
G1 X189.6756 Y19.7887
G2 X189.5492 Y19.9014 I0.6289 J0.833
G1 X189.4343 Y20.0219
G2 X189.3178 Y20.1683 I0.7553 J0.7203
G1 X189.2036 Y20.3417
G2 X189.1098 Y20.5195 I0.8718 J0.5739
G1 X189.036 Y20.6993
G2 X188.9791 Y20.8863 I0.9657 J0.3961
G1 X188.9397 Y21.0788
G2 X188.9188 Y21.2635 I1.0226 J0.2092
G1 X188.9128 Y21.5202
X188.9125 Y21.5447
X188.9172 Y262.8991
G2 X188.9358 Y263.0952 I1.0437
G1 X188.9727 Y263.2877
G2 X189.0296 Y263.4813 I1.0251 J-0.1962
G1 X189.1071 Y263.6738
G2 X189.1902 Y263.8372 I0.9682 J-0.3897
G1 X189.2165 Y263.8794
X189.2351 Y263.9219
X189.2406 Y263.968
X189.2326 Y264.0136
X189.2117 Y264.055
X189.1797 Y264.0886
X189.1393 Y264.1115
X189.0941 Y264.1218
X174.9803 Y265.208
X174.935 Y265.205
X174.8923 Y265.1892
X174.8559 Y265.162
X174.8287 Y265.1256
X174.8129 Y265.083
X174.8098 Y265.0376
X174.8152 Y264.9672 Z-6.008
X174.8204 Y264.9002 Z-6.0314
X174.825 Y264.8402 Z-6.0693
X174.8288 Y264.7901 Z-6.1195
X174.8317 Y264.7524 Z-6.1797
X174.8335 Y264.7289 Z-6.2468
X174.8341 Y264.721 Z-6.3175
Z-7.6825
X174.8347 Y264.7131 Z-7.7531
X174.8365 Y264.6897 Z-7.8203
X174.8394 Y264.6519 Z-7.8805
X174.8433 Y264.6018 Z-7.9307
X174.8479 Y264.5418 Z-7.9686
X174.853 Y264.4749 Z-7.992
X174.8584 Y264.4044 Z-8
X174.8982 Y263.8851
G2 X174.936 Y262.8992 I-12.8591 J-0.986
G1 X174.7935 Y12.6839
G3 X175.7566 Y11.7207 I0.9631 J-0.0001
G1 X176.2412
G3 X177.2041 Y12.6838 J0.9628
G1 X177.0594 Y21.5449
X177.0641 Y262.8993
G2 X177.0998 Y263.8867 I13.6773 J-0.0003
G1 X177.097 Y263.9299
X177.0826 Y263.9707
X177.0577 Y264.0062
X177.0242 Y264.0336
X176.9845 Y264.0509
X176.9416 Y264.0569
X172.7074 Y264.0604
X172.6639 Y264.0543
X172.6237 Y264.0366
X172.5899 Y264.0085
X172.5651 Y263.9723
X172.5512 Y263.9307
X172.5492 Y263.8868
G2 X172.5955 Y262.8992 I-10.5101 J-0.9877
G1 X172.4527 Y10.3434
G3 X173.4158 Y9.3802 I0.9631 J-0.0001
G1 X178.5825
G3 X179.5453 Y10.3434 J0.9628
G1 X179.3998 Y21.5449
X179.4045 Y262.8993
G2 X179.4476 Y263.8862 I11.3379 J-0.0002
G1 X179.4454 Y263.9299
X179.4313 Y263.9713
X179.4065 Y264.0073
X179.3728 Y264.0351
X179.3328 Y264.0527
X179.2895 Y264.0588
X170.3537 Y264.0596
X170.3095 Y264.0533
X170.2688 Y264.0351
X170.2349 Y264.0062
X170.2103 Y263.969
X170.197 Y263.9264
X170.196 Y263.8819
G2 X170.255 Y262.8992 I-8.157 J-0.9828
G1 X170.1119 Y8.0029
G3 X171.075 Y7.0397 I0.9631 J-0.0001
G1 X180.9238
G3 X181.8866 Y8.0029 J0.9628
G1 X181.7403 Y21.5449
X181.745 Y262.8992
G2 X181.7992 Y263.8854 I8.9991 J-0.0002
G1 X181.7979 Y263.9297
X181.7844 Y263.9719
X181.7597 Y264.0087
X181.7258 Y264.0373
X181.6854 Y264.0554
X181.6415 Y264.0616
X167.9884 Y264.0671
X167.943 Y264.0605
X167.9014 Y264.0412
X167.867 Y264.0108
X167.8428 Y263.9719
X167.8307 Y263.9276
X167.8318 Y263.8818
G2 X167.9146 Y262.8991 I-5.7927 J-0.9827
G1 X167.7711 Y5.6625
G3 X168.7341 Y4.6993 I0.9631 J-0.0001
G1 X183.265
G3 X184.2279 Y5.6624 J0.9628
G1 X184.0808 Y21.5448
X184.0855 Y262.8992
G2 X184.1587 Y263.8838 I6.6613 J-0.0002
G1 X184.1621 Y263.9334
X184.1299 Y267.6317
X184.1293 Y267.7024 Z-7.992
X184.1287 Y267.7695 Z-7.9686
X184.1282 Y267.8297 Z-7.9307
X184.1278 Y267.88 Z-7.8805
X184.1274 Y267.9178 Z-7.8203
X184.1272 Y267.9413 Z-7.7532
Y267.9492 Z-7.6825
G0 Z5
X164.383 Y267.9044
Z-7.6825
G1 X164.385 Y267.8967 Z-7.7532 F3500
X164.391 Y267.8739 Z-7.8203
X164.4006 Y267.8374 Z-7.8805
X164.4134 Y267.7887 Z-7.9307
X164.4287 Y267.7305 Z-7.9686
X164.4457 Y267.6656 Z-7.992
X164.4636 Y267.5973 Z-8
X165.4389 Y263.882
G2 X165.5111 Y263.5634 I-4.6726 J-1.2266
X165.5741 Y262.8991 I-3.472 J-0.6644
G1 X165.4303 Y3.322
G3 X166.3933 Y2.3588 I0.9631 J-0.0001
G1 X185.6063
G3 X186.5691 Y3.322 J0.9628
G1 X186.4212 Y21.5448
X186.4259 Y262.8991
G2 X186.5397 Y263.8848 I4.3262 J-0.0001
G1 X186.5473 Y263.934
X186.547 Y263.9838
X186.2398 Y267.6197
X186.2338 Y267.6901 Z-7.992
X186.2282 Y267.757 Z-7.9686
X186.2231 Y267.817 Z-7.9307
X186.2189 Y267.8671 Z-7.8805
X186.2157 Y267.9048 Z-7.8203
X186.2137 Y267.9282 Z-7.7532
X186.2131 Y267.9361 Z-7.6825
G0 Z5
X161.0707 Y267.9038
Z-7.7143
G1 X161.0735 Y267.8972 Z-7.7778 F3500
X161.0818 Y267.8778 Z-7.8382
X161.0951 Y267.8465 Z-7.8924
X161.1127 Y267.8048 Z-7.9377
X161.1339 Y267.7549 Z-7.9717
X161.1575 Y267.6993 Z-7.9928
X161.1824 Y267.6408 Z-8
X162.7605 Y263.9236
X162.7835 Y263.8794
X162.8098 Y263.8372
G2 X162.893 Y263.6738 I-0.8851 J-0.5532
G1 X162.9705 Y263.4813
G2 X163.0274 Y263.2877 I-0.9682 J-0.3898
G1 X163.0642 Y263.0952
G2 X163.0828 Y262.899 I-1.0251 J-0.1962
G1 X163.0864 Y21.3522
X163.0853 Y21.3034
X163.0774 Y21.1352
X163.0742 Y0.0032
X188.9258
X188.9185 Y21.2756
X188.9128 Y21.5202
X188.9125 Y21.5447
X188.9172 Y262.8991
G2 X188.9358 Y263.0952 I1.0437
G1 X188.9727 Y263.2877
G2 X189.0296 Y263.4813 I1.0251 J-0.1962
G1 X189.1071 Y263.6738
G2 X189.1902 Y263.8372 I0.9682 J-0.3897
G1 X189.2165 Y263.8794
G3 X189.264 Y264.0698 I-0.2692 J0.1683
G1 X189.0166 Y267.6108
X189.0117 Y267.6813 Z-7.992
X189.007 Y267.7482 Z-7.9686
X189.0028 Y267.8083 Z-7.9307
X188.9993 Y267.8584 Z-7.8805
X188.9967 Y267.8961 Z-7.8203
X188.995 Y267.9196 Z-7.7531
X188.9945 Y267.9275 Z-7.6825
G0 Z6

G53 Z5
M5
G4 P1.0
G53 X0 Y0
M30
%
