%
(Made in : Autodesk CAM Post Processor)
(G Code optimized for OpenBuilds OX CNC 1000 x 750 with GRBL V0.9j controller)

(Program Name : 1001)
(1 Operation :)
(1 : Pocket3)
(  Tool : Flat End Mill 3 Flutes, Diam = 3.175mm, Len = 20mm)
(  Spindle : RPM = 30000, set router dial to 6)
(  Machining time : 6 min 40 sec)

G90 G94
G17
G21

(Operation 1 of 1 : Pocket3)

G53 G0 Z5
G54
S30000 M3
G4 P1.0
X176.6104 Y14.2912
Z6
Z3.6878
G1 Z2.9173 F1200
X176.624 Y14.2973 Z2.8213
X176.663 Y14.3157 Z2.7343
X176.723 Y14.3467 Z2.6644
X176.7968 Y14.3898 Z2.6182
X176.8761 Y14.4428 Z2.6
G3 X176.6497 Y14.3093 Z2.2783 I-0.8761 J1.2275
X176.4034 Y14.2171 Z1.9566 I-0.6496 J1.361
X176.145 Y14.1692 Z1.6349 I-0.4034 J1.4532
X175.8821 Y14.1668 Z1.3132 I-0.145 J1.5011
X175.6228 Y14.2101 Z0.9914 I0.1179 J1.5035
X175.375 Y14.2978 Z0.6697 I0.3772 J1.4602
X175.1461 Y14.4272 Z0.348 I0.625 J1.3725
X174.9433 Y14.5943 Z0.0263 I0.8539 J1.2431
X174.7725 Y14.7942 Z-0.2954 I1.0568 J1.076
X174.639 Y15.0207 Z-0.6171 I1.2275 J0.8761
X174.5469 Y15.2669 Z-0.9388 I1.361 J0.6496
X174.4989 Y15.5253 Z-1.2605 I1.4532 J0.4034
X174.4965 Y15.7882 Z-1.5822 I1.5011 J0.145
X174.5398 Y16.0475 Z-1.904 I1.5035 J-0.1179
X176 Y14.1622 Z-2 I1.4602 J-0.3772
G1 X176.0702 F3500
G3 X176.4226 Y14.7277 J0.3926
G1 X176.3884 Y14.7983
X176.3542 Y14.8689
G3 X175.6458 I-0.3542 J-0.1693
G1 X175.6116 Y14.7983
X175.5774 Y14.7277
G3 X175.9298 Y14.1622 I0.3524 J-0.173
G1 X176
X176.0489 Y14.166 Z-1.9922
X176.0966 Y14.1772 Z-1.9845
X176.1377 Y14.1936 Z-1.9619
X176.1761 Y14.2155 Z-1.9394
X176.2298 Y14.2605 Z-1.8691
X176.2585 Y14.2953 Z-1.7806
X176.2672 Y14.3081 Z-1.6825
G0 Z5
X146.7516 Y10.3895
Z3.6111
G1 Z3.5 F1200
Z-1.6825 F3500
X146.7436 Z-1.7532
X146.7201 Z-1.8203
X146.6823 Z-1.8805
X146.632 Y10.3894 Z-1.9307
X146.5718 Z-1.9686
X146.5047 Y10.3893 Z-1.992
X146.4341 Z-2
X144.8466 Y10.388
X53.1653 Y10.3163
X53.1196 Y10.3095
X53.0779 Y10.29
X53.0435 Y10.2592
X53.0194 Y10.2199
X53.0076 Y10.1753
X52.938 Y9.5571
X52.9392 Y9.5127
X52.9527 Y9.4705
X52.9774 Y9.4336
X53.0113 Y9.4049
X53.0518 Y9.3868
X53.0957 Y9.3806
X144.9006
X144.9495 Y9.3844 Z-1.9922
X144.9972 Y9.3956 Z-1.9845
X145.0382 Y9.412 Z-1.9619
X145.0767 Y9.4339 Z-1.9394
X145.1303 Y9.4789 Z-1.8691
X145.1591 Y9.5137 Z-1.7806
X145.1678 Y9.5265 Z-1.6825
G0 Z5
X206.1917 Y9.3806
Z3.6509
G1 Z3.5 F1200
Z-1.6825 F3500
G18 G2 X206.5092 Z-2 I0.3175
G1 X208.0967
X299.9016
X299.9455 Y9.3868
X299.986 Y9.4049
X300.0199 Y9.4335
X300.0446 Y9.4704
X300.0581 Y9.5127
X300.0594 Y9.557
X299.9898 Y10.1781
X299.9781 Y10.2227
X299.954 Y10.2621
X299.9196 Y10.2929
X299.8779 Y10.3124
X299.8322 Y10.3192
X208.1509 Y10.4085
X208.1021 Y10.4047 Z-1.9922
X208.0544 Y10.3934 Z-1.9845
X208.0133 Y10.3771 Z-1.9619
X207.9749 Y10.3552 Z-1.9394
X207.9212 Y10.3101 Z-1.8691
X207.8925 Y10.2754 Z-1.7806
X207.8838 Y10.2625 Z-1.6825
G0 Z5
X301.196 Y9.3806
Z3.6506
G1 Z3.5 F1200
Z-1.6825 F3500
G2 X301.5135 Z-2 I0.3175
G1 X303.101
X312.0813
X312.1302 Y9.3883
X312.1743 Y9.4106
X312.2093 Y9.4455
X312.232 Y9.4894
X312.2401 Y9.5382
X312.2446 Y10.1473
X312.2372 Y10.1966
X312.2148 Y10.2412
X312.1797 Y10.2766
X312.1353 Y10.2994
X312.0861 Y10.3073
X303.1674 Y10.3159
X303.1186 Y10.3122 Z-1.9922
X303.0709 Y10.3009 Z-1.9845
X303.0298 Y10.2845 Z-1.9619
X302.9914 Y10.2627 Z-1.9394
X302.9377 Y10.2176 Z-1.8691
X302.909 Y10.1828 Z-1.7806
X302.9003 Y10.17 Z-1.6825
G0 Z5
X51.735 Y10.3152
Z3.5952
G1 Z3.5 F1200
Z-1.6825 F3500
X51.7271 Z-1.7532
X51.7036 Y10.3151 Z-1.8203
X51.6658 Z-1.8805
X51.6155 Z-1.9307
X51.5553 Y10.315 Z-1.9686
X51.4882 Z-1.992
X51.4175 Y10.3149 Z-2
X49.83 Y10.3137
X39.917 Y10.3059
X39.8681 Y10.2981
X39.8239 Y10.2757
X39.7889 Y10.2407
X39.7663 Y10.1965
X39.7584 Y10.1476
X39.7567 Y9.5398
X39.7644 Y9.4906
X39.7869 Y9.4462
X39.822 Y9.411
X39.8663 Y9.3884
X39.9155 Y9.3806
X49.9026
X49.9514 Y9.3844 Z-1.9922
X49.9991 Y9.3956 Z-1.9845
X50.0402 Y9.412 Z-1.9619
X50.0786 Y9.4339 Z-1.9394
X50.1323 Y9.4789 Z-1.8691
X50.161 Y9.5137 Z-1.7806
X50.1697 Y9.5265 Z-1.6825
G0 Z5
X175.2143 Y267.9042
Z-1.6825
G1 X175.2149 Y267.8962 Z-1.7532 F3500
X175.2166 Y267.8728 Z-1.8203
X175.2194 Y267.8351 Z-1.8805
X175.223 Y267.7849 Z-1.9307
X175.2274 Y267.7249 Z-1.9686
X175.2323 Y267.658 Z-1.992
X175.2375 Y267.5875 Z-2
X175.508 Y263.8828
G17 G2 X175.5439 Y262.899 I-13.469 J-0.9837
G1 X175.544 Y21.8014
G2 X174.7023 Y17.2042 I-12.9758
X172.4299 Y13.1203 I-15.0594 J5.7054
G3 X172.8208 Y12.3286 I0.391 J-0.2993
G1 X179.1792
G3 X179.5702 Y13.1203 J0.4924
G2 X177.7741 Y16.0268 I13.6029 J10.414
X176.6957 Y19.2687 I11.624 J5.6672
X176.4561 Y21.8014 I13.2652 J2.5327
G1 Y262.899
G2 X176.4911 Y263.8864 I13.9433
G1 X176.4883 Y263.9297
X176.4738 Y263.9705
X176.4489 Y264.0059
X176.4153 Y264.0333
X176.3756 Y264.0505
X176.3327 Y264.0564
X174.4304 Y264.0558
X174.3872 Y264.0498
X174.3473 Y264.0324
X174.3137 Y264.0047
X174.2889 Y263.9689
X174.2747 Y263.9278
X174.2722 Y263.8843
G2 X174.3118 Y262.899 I-12.2331 J-0.9853
G1 Y21.8014
G2 X173.0125 Y16.2833 I-12.3667
X169.5041 Y11.8303 I-12.4747 J6.2198
G3 X169.7714 Y11.0965 I0.2673 J-0.3182
G1 X182.2286
G3 X182.4959 Y11.8303 J0.4156
G2 X179.5393 Y15.2691 I9.0474 J10.7692
X177.906 Y19.4997 I10.8223 J6.6088
X177.6882 Y21.8014 I12.055 J2.3016
G1 Y262.899
G2 X177.7256 Y263.8863 I13.0533
G1 X177.723 Y263.9296
X177.7087 Y263.9706
X177.6838 Y264.0062
X177.6502 Y264.0337
X177.6105 Y264.0511
X177.5675 Y264.0571
X172.7077 Y264.0605
X172.6642 Y264.0544
X172.6241 Y264.0367
X172.5903 Y264.0086
X172.5655 Y263.9724
X172.5516 Y263.9307
X172.5496 Y263.8868
G2 X172.5959 Y262.899 I-10.5105 J-0.9878
G1 Y21.8014
G2 X169.6864 Y14.2146 I-11.3462
X162.5108 Y10.4018 I-8.8109 J7.9234
G1 X148.1509 Y10.3906
X148.1041 Y10.3835
X148.0615 Y10.3629
X148.0268 Y10.3307
X148.0032 Y10.2897
X147.9927 Y10.2435
X147.9416 Y9.551
X147.9444 Y9.5077
X147.9587 Y9.4668
X147.9836 Y9.4313
X148.0172 Y9.4039
X148.057 Y9.3865
X148.0999 Y9.3806
X204.9036
X204.9465 Y9.3865
X204.9862 Y9.4038
X205.0198 Y9.4312
X205.0447 Y9.4666
X205.0591 Y9.5074
X205.0619 Y9.5507
X205.011 Y10.2642
X205.0006 Y10.3105
X204.977 Y10.3516
X204.9423 Y10.3839
X204.8996 Y10.4046
X204.8528 Y10.4117
X189.3099 Y10.4268
G2 X183.7615 Y12.8412 I1.5543 J11.1543
X180.183 Y17.7205 I7.5474 J9.2872
X179.4041 Y21.8014 I10.3008 J4.0809
G1 Y262.899
G2 X179.4472 Y263.886 I11.3383
G1 X179.445 Y263.9297
X179.4309 Y263.9711
X179.4061 Y264.0071
X179.3724 Y264.0349
X179.3323 Y264.0525
X179.289 Y264.0586
X170.3539 Y264.0597
X170.3098 Y264.0534
X170.2691 Y264.0351
X170.2352 Y264.0062
X170.2106 Y263.9691
X170.1973 Y263.9265
X170.1963 Y263.8819
G2 X170.2553 Y262.899 I-8.1573 J-0.9829
G1 X170.2554 Y21.8014
G2 X167.9208 Y15.7512 I-9.0071
X162.1878 Y12.72 I-7.0456 J6.3885
G1 X39.9152 Y12.6453
X39.8661 Y12.6375
X39.8219 Y12.6149
X39.7868 Y12.5798
X39.7643 Y12.5356
X39.7565 Y12.4865
X39.7571 Y7.1988
X39.7649 Y7.1497
X39.7874 Y7.1055
X39.8226 Y7.0703
X39.8668 Y7.0478
X39.9159 Y7.04
X312.0817
X312.1308 Y7.0478
X312.175 Y7.0703
X312.2101 Y7.1054
X312.2327 Y7.1496
X312.2405 Y7.1986
X312.2447 Y12.4878
X312.2369 Y12.5368
X312.2144 Y12.5811
X312.1793 Y12.6162
X312.1351 Y12.6388
X312.0861 Y12.6466
X189.6329 Y12.745
G2 X185.2077 Y14.6816 I1.2316 J8.8388
X182.3591 Y18.5826 I6.1042 J7.4479
X181.7447 Y21.8014 I8.1247 J3.2188
G1 Y262.899
G2 X181.7989 Y263.8853 I8.9994
G1 X181.7976 Y263.9296
X181.7841 Y263.9718
X181.7594 Y264.0086
X181.7255 Y264.0371
X181.6851 Y264.0552
X181.6412 Y264.0614
X167.9886 Y264.0671
X167.9432 Y264.0605
X167.9016 Y264.0412
X167.8672 Y264.0108
X167.843 Y263.9719
X167.8309 Y263.9276
X167.832 Y263.8818
G2 X167.9147 Y262.899 I-5.7929 J-0.9828
G1 X167.9148 Y21.8014
G2 X166.1553 Y17.2878 I-6.669
X161.8648 Y15.0382 I-5.2804 J4.8547
G1 X39.9133 Y14.9847
X39.8643 Y14.9769
X39.82 Y14.9543
X39.7849 Y14.9192
X39.7624 Y14.8749
X39.7546 Y14.8259
X39.7575 Y4.8582
X39.7653 Y4.8091
X39.7878 Y4.7649
X39.823 Y4.7298
X39.8672 Y4.7072
X39.9163 Y4.6995
X312.0821
X312.1312 Y4.7072
X312.1754 Y4.7298
X312.2105 Y4.7649
X312.2331 Y4.8091
X312.2409 Y4.8581
X312.2447 Y14.8272
X312.2369 Y14.8762
X312.2144 Y14.9205
X312.1793 Y14.9556
X312.1351 Y14.9782
X312.0861 Y14.986
X189.9559 Y15.0632
G2 X186.6538 Y16.5219 I0.9092 J6.525
X184.5351 Y19.4447 I4.6629 J5.6096
X184.0852 Y21.8014 I5.9487 J2.3567
G1 X184.0853 Y262.899
G2 X184.1584 Y263.8836 I6.6615
G1 X184.1619 Y263.9333
X184.1296 Y267.6316
X184.129 Y267.7023 Z-1.992
X184.1284 Y267.7694 Z-1.9686
X184.1279 Y267.8296 Z-1.9307
X184.1275 Y267.8799 Z-1.8805
X184.1271 Y267.9177 Z-1.8203
X184.1269 Y267.9412 Z-1.7532
X184.1268 Y267.9491 Z-1.6825
G0 Z5
X164.3831 Y267.9044
Z-1.6825
G1 X164.3851 Y267.8967 Z-1.7532 F3500
X164.391 Y267.874 Z-1.8203
X164.4006 Y267.8374 Z-1.8805
X164.4134 Y267.7888 Z-1.9307
X164.4287 Y267.7306 Z-1.9686
X164.4457 Y267.6657 Z-1.992
X164.4637 Y267.5973 Z-2
X165.439 Y263.8821
G2 X165.5112 Y263.5634 I-4.6727 J-1.2266
X165.5742 Y262.899 I-3.4721 J-0.6644
G1 Y21.8014
G2 X164.3897 Y18.8244 I-4.3333
X161.5418 Y17.3563 I-3.5157 J3.3239
G1 X39.9176 Y17.324
X39.8686 Y17.3162
X39.8243 Y17.2937
X39.7892 Y17.2586
X39.7667 Y17.2143
X39.7589 Y17.1653
X39.7579 Y2.5177
X39.7657 Y2.4686
X39.7882 Y2.4243
X39.8233 Y2.3892
X39.8676 Y2.3667
X39.9167 Y2.3589
X312.0826
X312.1316 Y2.3667
X312.1758 Y2.3892
X312.211 Y2.4243
X312.2335 Y2.4686
X312.2413 Y2.5176
X312.2447 Y17.1666
X312.237 Y17.2156
X312.2144 Y17.2599
X312.1793 Y17.295
X312.1351 Y17.3176
X312.0861 Y17.3254
X190.279 Y17.3813
G2 X188.1 Y18.3623 I0.5874 J4.2154
X186.7111 Y20.3068 I3.2272 J3.7733
X186.4258 Y21.8014 I3.7727 J1.4947
G1 Y262.899
G2 X186.5396 Y263.8847 I4.3262
G1 X186.5471 Y263.934
X186.5468 Y263.9838
X186.2396 Y267.6196
X186.2336 Y267.69 Z-1.992
X186.228 Y267.7569 Z-1.9686
X186.2229 Y267.8169 Z-1.9307
X186.2187 Y267.867 Z-1.8805
X186.2155 Y267.9047 Z-1.8203
X186.2135 Y267.9281 Z-1.7532
X186.2128 Y267.936 Z-1.6825
G0 Z5
X161.0707 Y267.9038
Z-1.7142
G1 X161.0735 Y267.8972 Z-1.7778 F3500
X161.0818 Y267.8778 Z-1.8382
X161.0951 Y267.8465 Z-1.8924
X161.1127 Y267.8048 Z-1.9377
X161.1339 Y267.7549 Z-1.9717
X161.1575 Y267.6993 Z-1.9928
X161.1824 Y267.6408 Z-2
X162.7605 Y263.9236
X162.7835 Y263.8794
X162.8098 Y263.8372
G2 X162.893 Y263.6738 I-0.8851 J-0.5532
G1 X162.9705 Y263.4813
G2 X163.0274 Y263.2877 I-0.9682 J-0.3898
G1 X163.0642 Y263.0952
G2 X163.0828 Y262.899 I-1.0251 J-0.1962
G1 Y21.8014
G2 X163.0643 Y21.6056 I-1.0437
G1 X163.0276 Y21.4131
G2 X162.9727 Y21.2244 I-1.0252 J0.1957
G1 X162.9001 Y21.0413
G2 X162.8064 Y20.8592 I-0.9704 J0.3844
G1 X162.6911 Y20.6807
G2 X162.5727 Y20.53 I-0.8766 J0.5665
G1 X162.4554 Y20.4059
G2 X162.3365 Y20.2982 I-0.7583 J0.7172
G1 X162.2181 Y20.2064
G2 X162.073 Y20.1121 I-0.6395 J0.8249
G1 X161.9003 Y20.0192
G2 X161.7266 Y19.9452 I-0.4944 J0.9192
G1 X161.5539 Y19.8894
G2 X161.3772 Y19.8489 I-0.3207 J0.9932
G1 X161.1979 Y19.8239
G2 X161.0539 Y19.8139 I-0.144 J1.0338
G1 X39.9176 Y19.8136
G3 X39.731 Y19.7529 J-0.3175
G1 X35.8961 Y16.9667
X35.8389 Y16.9252 Z-1.992
X35.7847 Y16.8857 Z-1.9686
X35.7359 Y16.8503 Z-1.9307
X35.6953 Y16.8208 Z-1.8805
X35.6647 Y16.7985 Z-1.8203
X35.6457 Y16.7847 Z-1.7532
X35.6392 Y16.7801 Z-1.6825
G0 Z5
X35.8966 Y0.6355
Z-1.7142
G1 X35.9037 Y0.6343 Z-1.7778 F3500
X35.9246 Y0.631 Z-1.8382
X35.9582 Y0.6257 Z-1.8924
X36.0029 Y0.6186 Z-1.9377
X36.0564 Y0.6102 Z-1.9717
X36.1161 Y0.6007 Z-1.9928
X36.1789 Y0.5908 Z-2
X39.8636 Y0.0071
X39.9133 Y0.0032
X312.0854
X312.135 Y0.0071
X315.8369 Y0.5935
X315.9067 Y0.6045 Z-1.992
X315.973 Y0.615 Z-1.9686
X316.0324 Y0.6244 Z-1.9307
X316.0821 Y0.6323 Z-1.8805
X316.1195 Y0.6382 Z-1.8203
X316.1426 Y0.6419 Z-1.7532
X316.1505 Y0.6431 Z-1.6825
G0 Z5
X318.0836 Y16.7965
Z-1.7778
G1 X318.0768 Y16.7999 Z-1.8353 F3500
X318.057 Y16.81 Z-1.8889
X318.0256 Y16.826 Z-1.9349
X317.9845 Y16.8469 Z-1.9702
X317.9368 Y16.8713 Z-1.9924
X317.8855 Y16.8974 Z-2
X312.2302 Y19.779
G3 X312.086 Y19.8136 I-0.1442 J-0.2829
G1 X190.9462 Y19.8139
G2 X190.8021 Y19.8239 J1.0437
G1 X190.6228 Y19.8489
G2 X190.4461 Y19.8894 I0.1441 J1.0338
G1 X190.2734 Y19.9452
G2 X190.0997 Y20.0192 I0.3207 J0.9932
G1 X189.927 Y20.1121
G2 X189.7819 Y20.2064 I0.4944 J0.9192
G1 X189.6635 Y20.2982
G2 X189.5447 Y20.4059 I0.6395 J0.8249
G1 X189.4273 Y20.53
G2 X189.309 Y20.6807 I0.7583 J0.7172
G1 X189.1936 Y20.8592
G2 X189.0999 Y21.0413 I0.8766 J0.5665
G1 X189.0273 Y21.2244
G2 X188.9725 Y21.4131 I0.9704 J0.3844
G1 X188.9357 Y21.6056
G2 X188.9172 Y21.8014 I1.0252 J0.1957
G1 Y262.899
G2 X188.9358 Y263.0952 I1.0437
G1 X188.9727 Y263.2877
G2 X189.0296 Y263.4813 I1.0251 J-0.1962
G1 X189.1071 Y263.6738
G2 X189.1902 Y263.8372 I0.9682 J-0.3897
G1 X189.2165 Y263.8794
G3 X189.264 Y264.0698 I-0.2692 J0.1683
G1 X189.0166 Y267.6108
X189.0117 Y267.6813 Z-1.992
X189.007 Y267.7482 Z-1.9686
X189.0028 Y267.8083 Z-1.9307
X188.9993 Y267.8584 Z-1.8805
X188.9967 Y267.8961 Z-1.8203
X188.995 Y267.9196 Z-1.7531
X188.9945 Y267.9275 Z-1.6825
G0 Z5
X176.6104 Y14.2912
Z3.6878
G1 Z0.9173 F1200
X176.624 Y14.2973 Z0.8213
X176.663 Y14.3157 Z0.7343
X176.723 Y14.3467 Z0.6644
X176.7968 Y14.3898 Z0.6182
X176.8761 Y14.4428 Z0.6
G3 X176.6497 Y14.3093 Z0.2783 I-0.8761 J1.2275
X176.4034 Y14.2171 Z-0.0434 I-0.6496 J1.361
X176.145 Y14.1692 Z-0.3651 I-0.4034 J1.4532
X175.8821 Y14.1668 Z-0.6868 I-0.145 J1.5011
X175.6228 Y14.2101 Z-1.0086 I0.1179 J1.5035
X175.375 Y14.2978 Z-1.3303 I0.3772 J1.4602
X175.1461 Y14.4272 Z-1.652 I0.625 J1.3725
X174.9433 Y14.5943 Z-1.9737 I0.8539 J1.2431
X174.7725 Y14.7942 Z-2.2954 I1.0568 J1.076
X174.639 Y15.0207 Z-2.6171 I1.2275 J0.8761
X174.5469 Y15.2669 Z-2.9388 I1.361 J0.6496
X174.4989 Y15.5253 Z-3.2605 I1.4532 J0.4034
X174.4965 Y15.7882 Z-3.5822 I1.5011 J0.145
X174.5398 Y16.0475 Z-3.904 I1.5035 J-0.1179
X176 Y14.1622 Z-4 I1.4602 J-0.3772
G1 X176.0702 F3500
G3 X176.4226 Y14.7277 J0.3926
G1 X176.3884 Y14.7983
X176.3542 Y14.8689
G3 X175.6458 I-0.3542 J-0.1693
G1 X175.6116 Y14.7983
X175.5774 Y14.7277
G3 X175.9298 Y14.1622 I0.3524 J-0.173
G1 X176
X176.0489 Y14.166 Z-3.9922
X176.0966 Y14.1772 Z-3.9845
X176.1377 Y14.1936 Z-3.9619
X176.1761 Y14.2155 Z-3.9394
X176.2298 Y14.2605 Z-3.8691
X176.2585 Y14.2953 Z-3.7806
X176.2672 Y14.3081 Z-3.6825
G0 Z5
X146.7516 Y10.3895
Z3.6111
G1 Z1.5 F1200
Z-3.6825 F3500
X146.7436 Z-3.7532
X146.7201 Z-3.8203
X146.6823 Z-3.8805
X146.632 Y10.3894 Z-3.9307
X146.5718 Z-3.9686
X146.5047 Y10.3893 Z-3.992
X146.4341 Z-4
X144.8466 Y10.388
X53.1653 Y10.3163
X53.1196 Y10.3095
X53.0779 Y10.29
X53.0435 Y10.2592
X53.0194 Y10.2199
X53.0076 Y10.1753
X52.938 Y9.5571
X52.9392 Y9.5127
X52.9527 Y9.4705
X52.9774 Y9.4336
X53.0113 Y9.4049
X53.0518 Y9.3868
X53.0957 Y9.3806
X144.9006
X144.9495 Y9.3844 Z-3.9922
X144.9972 Y9.3956 Z-3.9845
X145.0382 Y9.412 Z-3.9619
X145.0767 Y9.4339 Z-3.9394
X145.1303 Y9.4789 Z-3.8691
X145.1591 Y9.5137 Z-3.7806
X145.1678 Y9.5265 Z-3.6825
G0 Z5
X206.1917 Y9.3806
Z3.6509
G1 Z1.5 F1200
Z-3.6825 F3500
G18 G2 X206.5092 Z-4 I0.3175
G1 X208.0967
X299.9016
X299.9455 Y9.3868
X299.986 Y9.4049
X300.0199 Y9.4335
X300.0446 Y9.4704
X300.0581 Y9.5127
X300.0594 Y9.557
X299.9898 Y10.1781
X299.9781 Y10.2227
X299.954 Y10.2621
X299.9196 Y10.2929
X299.8779 Y10.3124
X299.8322 Y10.3192
X208.1509 Y10.4085
X208.1021 Y10.4047 Z-3.9922
X208.0544 Y10.3934 Z-3.9845
X208.0133 Y10.3771 Z-3.9619
X207.9749 Y10.3552 Z-3.9394
X207.9212 Y10.3101 Z-3.8691
X207.8925 Y10.2754 Z-3.7806
X207.8838 Y10.2625 Z-3.6825
G0 Z5
X301.196 Y9.3806
Z3.6506
G1 Z1.5 F1200
Z-3.6825 F3500
G2 X301.5135 Z-4 I0.3175
G1 X303.101
X312.0813
X312.1302 Y9.3883
X312.1743 Y9.4106
X312.2093 Y9.4455
X312.232 Y9.4894
X312.2401 Y9.5382
X312.2446 Y10.1473
X312.2372 Y10.1966
X312.2148 Y10.2412
X312.1797 Y10.2766
X312.1353 Y10.2994
X312.0861 Y10.3073
X303.1674 Y10.3159
X303.1186 Y10.3122 Z-3.9922
X303.0709 Y10.3009 Z-3.9845
X303.0298 Y10.2845 Z-3.9619
X302.9914 Y10.2627 Z-3.9394
X302.9377 Y10.2176 Z-3.8691
X302.909 Y10.1828 Z-3.7806
X302.9003 Y10.17 Z-3.6825
G0 Z5
X51.735 Y10.3152
Z3.5952
G1 Z1.5 F1200
Z-3.6825 F3500
X51.7271 Z-3.7532
X51.7036 Y10.3151 Z-3.8203
X51.6658 Z-3.8805
X51.6155 Z-3.9307
X51.5553 Y10.315 Z-3.9686
X51.4882 Z-3.992
X51.4175 Y10.3149 Z-4
X49.83 Y10.3137
X39.917 Y10.3059
X39.8681 Y10.2981
X39.8239 Y10.2757
X39.7889 Y10.2407
X39.7663 Y10.1965
X39.7584 Y10.1476
X39.7567 Y9.5398
X39.7644 Y9.4906
X39.7869 Y9.4462
X39.822 Y9.411
X39.8663 Y9.3884
X39.9155 Y9.3806
X49.9026
X49.9514 Y9.3844 Z-3.9922
X49.9991 Y9.3956 Z-3.9845
X50.0402 Y9.412 Z-3.9619
X50.0786 Y9.4339 Z-3.9394
X50.1323 Y9.4789 Z-3.8691
X50.161 Y9.5137 Z-3.7806
X50.1697 Y9.5265 Z-3.6825
G0 Z5
X175.2143 Y267.9042
Z-3.6825
G1 X175.2149 Y267.8962 Z-3.7532 F3500
X175.2166 Y267.8728 Z-3.8203
X175.2194 Y267.8351 Z-3.8805
X175.223 Y267.7849 Z-3.9307
X175.2274 Y267.7249 Z-3.9686
X175.2323 Y267.658 Z-3.992
X175.2375 Y267.5875 Z-4
X175.508 Y263.8828
G17 G2 X175.5439 Y262.899 I-13.469 J-0.9837
G1 X175.544 Y21.8014
G2 X174.7023 Y17.2042 I-12.9758
X172.4299 Y13.1203 I-15.0594 J5.7054
G3 X172.8208 Y12.3286 I0.391 J-0.2993
G1 X179.1792
G3 X179.5702 Y13.1203 J0.4924
G2 X177.7741 Y16.0268 I13.6029 J10.414
X176.6957 Y19.2687 I11.624 J5.6672
X176.4561 Y21.8014 I13.2652 J2.5327
G1 Y262.899
G2 X176.4911 Y263.8864 I13.9433
G1 X176.4883 Y263.9297
X176.4738 Y263.9705
X176.4489 Y264.0059
X176.4153 Y264.0333
X176.3756 Y264.0505
X176.3327 Y264.0564
X174.4304 Y264.0558
X174.3872 Y264.0498
X174.3473 Y264.0324
X174.3137 Y264.0047
X174.2889 Y263.9689
X174.2747 Y263.9278
X174.2722 Y263.8843
G2 X174.3118 Y262.899 I-12.2331 J-0.9853
G1 Y21.8014
G2 X173.0125 Y16.2833 I-12.3667
X169.5041 Y11.8303 I-12.4747 J6.2198
G3 X169.7714 Y11.0965 I0.2673 J-0.3182
G1 X182.2286
G3 X182.4959 Y11.8303 J0.4156
G2 X179.5393 Y15.2691 I9.0474 J10.7692
X177.906 Y19.4997 I10.8223 J6.6088
X177.6882 Y21.8014 I12.055 J2.3016
G1 Y262.899
G2 X177.7256 Y263.8863 I13.0533
G1 X177.723 Y263.9296
X177.7087 Y263.9706
X177.6838 Y264.0062
X177.6502 Y264.0337
X177.6105 Y264.0511
X177.5675 Y264.0571
X172.7077 Y264.0605
X172.6642 Y264.0544
X172.6241 Y264.0367
X172.5903 Y264.0086
X172.5655 Y263.9724
X172.5516 Y263.9307
X172.5496 Y263.8868
G2 X172.5959 Y262.899 I-10.5105 J-0.9878
G1 Y21.8014
G2 X169.6864 Y14.2146 I-11.3462
X162.5108 Y10.4018 I-8.8109 J7.9234
G1 X148.1509 Y10.3906
X148.1041 Y10.3835
X148.0615 Y10.3629
X148.0268 Y10.3307
X148.0032 Y10.2897
X147.9927 Y10.2435
X147.9416 Y9.551
X147.9444 Y9.5077
X147.9587 Y9.4668
X147.9836 Y9.4313
X148.0172 Y9.4039
X148.057 Y9.3865
X148.0999 Y9.3806
X204.9036
X204.9465 Y9.3865
X204.9862 Y9.4038
X205.0198 Y9.4312
X205.0447 Y9.4666
X205.0591 Y9.5074
X205.0619 Y9.5507
X205.011 Y10.2642
X205.0006 Y10.3105
X204.977 Y10.3516
X204.9423 Y10.3839
X204.8996 Y10.4046
X204.8528 Y10.4117
X189.3099 Y10.4268
G2 X183.7615 Y12.8412 I1.5543 J11.1543
X180.183 Y17.7205 I7.5474 J9.2872
X179.4041 Y21.8014 I10.3008 J4.0809
G1 Y262.899
G2 X179.4472 Y263.886 I11.3383
G1 X179.445 Y263.9297
X179.4309 Y263.9711
X179.4061 Y264.0071
X179.3724 Y264.0349
X179.3323 Y264.0525
X179.289 Y264.0586
X170.3539 Y264.0597
X170.3098 Y264.0534
X170.2691 Y264.0351
X170.2352 Y264.0062
X170.2106 Y263.9691
X170.1973 Y263.9265
X170.1963 Y263.8819
G2 X170.2553 Y262.899 I-8.1573 J-0.9829
G1 X170.2554 Y21.8014
G2 X167.9208 Y15.7512 I-9.0071
X162.1878 Y12.72 I-7.0456 J6.3885
G1 X39.9152 Y12.6453
X39.8661 Y12.6375
X39.8219 Y12.6149
X39.7868 Y12.5798
X39.7643 Y12.5356
X39.7565 Y12.4865
X39.7571 Y7.1988
X39.7649 Y7.1497
X39.7874 Y7.1055
X39.8226 Y7.0703
X39.8668 Y7.0478
X39.9159 Y7.04
X312.0817
X312.1308 Y7.0478
X312.175 Y7.0703
X312.2101 Y7.1054
X312.2327 Y7.1496
X312.2405 Y7.1986
X312.2447 Y12.4878
X312.2369 Y12.5368
X312.2144 Y12.5811
X312.1793 Y12.6162
X312.1351 Y12.6388
X312.0861 Y12.6466
X189.6329 Y12.745
G2 X185.2077 Y14.6816 I1.2316 J8.8388
X182.3591 Y18.5826 I6.1042 J7.4479
X181.7447 Y21.8014 I8.1247 J3.2188
G1 Y262.899
G2 X181.7989 Y263.8853 I8.9994
G1 X181.7976 Y263.9296
X181.7841 Y263.9718
X181.7594 Y264.0086
X181.7255 Y264.0371
X181.6851 Y264.0552
X181.6412 Y264.0614
X167.9886 Y264.0671
X167.9432 Y264.0605
X167.9016 Y264.0412
X167.8672 Y264.0108
X167.843 Y263.9719
X167.8309 Y263.9276
X167.832 Y263.8818
G2 X167.9147 Y262.899 I-5.7929 J-0.9828
G1 X167.9148 Y21.8014
G2 X166.1553 Y17.2878 I-6.669
X161.8648 Y15.0382 I-5.2804 J4.8547
G1 X39.9133 Y14.9847
X39.8643 Y14.9769
X39.82 Y14.9543
X39.7849 Y14.9192
X39.7624 Y14.8749
X39.7546 Y14.8259
X39.7575 Y4.8582
X39.7653 Y4.8091
X39.7878 Y4.7649
X39.823 Y4.7298
X39.8672 Y4.7072
X39.9163 Y4.6995
X312.0821
X312.1312 Y4.7072
X312.1754 Y4.7298
X312.2105 Y4.7649
X312.2331 Y4.8091
X312.2409 Y4.8581
X312.2447 Y14.8272
X312.2369 Y14.8762
X312.2144 Y14.9205
X312.1793 Y14.9556
X312.1351 Y14.9782
X312.0861 Y14.986
X189.9559 Y15.0632
G2 X186.6538 Y16.5219 I0.9092 J6.525
X184.5351 Y19.4447 I4.6629 J5.6096
X184.0852 Y21.8014 I5.9487 J2.3567
G1 X184.0853 Y262.899
G2 X184.1584 Y263.8836 I6.6615
G1 X184.1619 Y263.9333
X184.1296 Y267.6316
X184.129 Y267.7023 Z-3.992
X184.1284 Y267.7694 Z-3.9686
X184.1279 Y267.8296 Z-3.9307
X184.1275 Y267.8799 Z-3.8805
X184.1271 Y267.9177 Z-3.8203
X184.1269 Y267.9412 Z-3.7532
X184.1268 Y267.9491 Z-3.6825
G0 Z5
X164.3831 Y267.9044
Z-3.6825
G1 X164.3851 Y267.8967 Z-3.7532 F3500
X164.391 Y267.874 Z-3.8203
X164.4006 Y267.8374 Z-3.8805
X164.4134 Y267.7888 Z-3.9307
X164.4287 Y267.7306 Z-3.9686
X164.4457 Y267.6657 Z-3.992
X164.4637 Y267.5973 Z-4
X165.439 Y263.8821
G2 X165.5112 Y263.5634 I-4.6727 J-1.2266
X165.5742 Y262.899 I-3.4721 J-0.6644
G1 Y21.8014
G2 X164.3897 Y18.8244 I-4.3333
X161.5418 Y17.3563 I-3.5157 J3.3239
G1 X39.9176 Y17.324
X39.8686 Y17.3162
X39.8243 Y17.2937
X39.7892 Y17.2586
X39.7667 Y17.2143
X39.7589 Y17.1653
X39.7579 Y2.5177
X39.7657 Y2.4686
X39.7882 Y2.4243
X39.8233 Y2.3892
X39.8676 Y2.3667
X39.9167 Y2.3589
X312.0826
X312.1316 Y2.3667
X312.1758 Y2.3892
X312.211 Y2.4243
X312.2335 Y2.4686
X312.2413 Y2.5176
X312.2447 Y17.1666
X312.237 Y17.2156
X312.2144 Y17.2599
X312.1793 Y17.295
X312.1351 Y17.3176
X312.0861 Y17.3254
X190.279 Y17.3813
G2 X188.1 Y18.3623 I0.5874 J4.2154
X186.7111 Y20.3068 I3.2272 J3.7733
X186.4258 Y21.8014 I3.7727 J1.4947
G1 Y262.899
G2 X186.5396 Y263.8847 I4.3262
G1 X186.5471 Y263.934
X186.5468 Y263.9838
X186.2396 Y267.6196
X186.2336 Y267.69 Z-3.992
X186.228 Y267.7569 Z-3.9686
X186.2229 Y267.8169 Z-3.9307
X186.2187 Y267.867 Z-3.8805
X186.2155 Y267.9047 Z-3.8203
X186.2135 Y267.9281 Z-3.7532
X186.2128 Y267.936 Z-3.6825
G0 Z5
X161.0707 Y267.9038
Z-3.7143
G1 X161.0735 Y267.8972 Z-3.7778 F3500
X161.0818 Y267.8778 Z-3.8382
X161.0951 Y267.8465 Z-3.8924
X161.1127 Y267.8048 Z-3.9377
X161.1339 Y267.7549 Z-3.9717
X161.1575 Y267.6993 Z-3.9928
X161.1824 Y267.6408 Z-4
X162.7605 Y263.9236
X162.7835 Y263.8794
X162.8098 Y263.8372
G2 X162.893 Y263.6738 I-0.8851 J-0.5532
G1 X162.9705 Y263.4813
G2 X163.0274 Y263.2877 I-0.9682 J-0.3898
G1 X163.0642 Y263.0952
G2 X163.0828 Y262.899 I-1.0251 J-0.1962
G1 Y21.8014
G2 X163.0643 Y21.6056 I-1.0437
G1 X163.0276 Y21.4131
G2 X162.9727 Y21.2244 I-1.0252 J0.1957
G1 X162.9001 Y21.0413
G2 X162.8064 Y20.8592 I-0.9704 J0.3844
G1 X162.6911 Y20.6807
G2 X162.5727 Y20.53 I-0.8766 J0.5665
G1 X162.4554 Y20.4059
G2 X162.3365 Y20.2982 I-0.7583 J0.7172
G1 X162.2181 Y20.2064
G2 X162.073 Y20.1121 I-0.6395 J0.8249
G1 X161.9003 Y20.0192
G2 X161.7266 Y19.9452 I-0.4944 J0.9192
G1 X161.5539 Y19.8894
G2 X161.3772 Y19.8489 I-0.3207 J0.9932
G1 X161.1979 Y19.8239
G2 X161.0539 Y19.8139 I-0.144 J1.0338
G1 X39.9176 Y19.8136
G3 X39.731 Y19.7529 J-0.3175
G1 X35.8961 Y16.9667
X35.8389 Y16.9252 Z-3.992
X35.7847 Y16.8857 Z-3.9686
X35.7359 Y16.8503 Z-3.9307
X35.6953 Y16.8208 Z-3.8805
X35.6647 Y16.7985 Z-3.8203
X35.6457 Y16.7847 Z-3.7532
X35.6392 Y16.7801 Z-3.6825
G0 Z5
X35.8966 Y0.6355
Z-3.7143
G1 X35.9037 Y0.6343 Z-3.7778 F3500
X35.9246 Y0.631 Z-3.8382
X35.9582 Y0.6257 Z-3.8924
X36.0029 Y0.6186 Z-3.9377
X36.0564 Y0.6102 Z-3.9717
X36.1161 Y0.6007 Z-3.9928
X36.1789 Y0.5908 Z-4
X39.8636 Y0.0071
X39.9133 Y0.0032
X312.0854
X312.135 Y0.0071
X315.8369 Y0.5935
X315.9067 Y0.6045 Z-3.992
X315.973 Y0.615 Z-3.9686
X316.0324 Y0.6244 Z-3.9307
X316.0821 Y0.6323 Z-3.8805
X316.1195 Y0.6382 Z-3.8203
X316.1426 Y0.6419 Z-3.7532
X316.1505 Y0.6431 Z-3.6825
G0 Z5
X318.0836 Y16.7965
Z-3.7778
G1 X318.0768 Y16.7999 Z-3.8353 F3500
X318.057 Y16.81 Z-3.8889
X318.0256 Y16.826 Z-3.9349
X317.9845 Y16.8469 Z-3.9702
X317.9368 Y16.8713 Z-3.9924
X317.8855 Y16.8974 Z-4
X312.2302 Y19.779
G3 X312.086 Y19.8136 I-0.1442 J-0.2829
G1 X190.9462 Y19.8139
G2 X190.8021 Y19.8239 J1.0437
G1 X190.6228 Y19.8489
G2 X190.4461 Y19.8894 I0.1441 J1.0338
G1 X190.2734 Y19.9452
G2 X190.0997 Y20.0192 I0.3207 J0.9932
G1 X189.927 Y20.1121
G2 X189.7819 Y20.2064 I0.4944 J0.9192
G1 X189.6635 Y20.2982
G2 X189.5447 Y20.4059 I0.6395 J0.8249
G1 X189.4273 Y20.53
G2 X189.309 Y20.6807 I0.7583 J0.7172
G1 X189.1936 Y20.8592
G2 X189.0999 Y21.0413 I0.8766 J0.5665
G1 X189.0273 Y21.2244
G2 X188.9725 Y21.4131 I0.9704 J0.3844
G1 X188.9357 Y21.6056
G2 X188.9172 Y21.8014 I1.0252 J0.1957
G1 Y262.899
G2 X188.9358 Y263.0952 I1.0437
G1 X188.9727 Y263.2877
G2 X189.0296 Y263.4813 I1.0251 J-0.1962
G1 X189.1071 Y263.6738
G2 X189.1902 Y263.8372 I0.9682 J-0.3897
G1 X189.2165 Y263.8794
G3 X189.264 Y264.0698 I-0.2692 J0.1683
G1 X189.0166 Y267.6108
X189.0117 Y267.6813 Z-3.992
X189.007 Y267.7482 Z-3.9686
X189.0028 Y267.8083 Z-3.9307
X188.9993 Y267.8584 Z-3.8805
X188.9967 Y267.8961 Z-3.8203
X188.995 Y267.9196 Z-3.7531
X188.9945 Y267.9275 Z-3.6825
G0 Z5
X176.6104 Y14.2912
Z3.6878
G1 Z-1.0827 F1200
X176.624 Y14.2973 Z-1.1787
X176.663 Y14.3157 Z-1.2657
X176.723 Y14.3467 Z-1.3356
X176.7968 Y14.3898 Z-1.3818
X176.8761 Y14.4428 Z-1.4
G3 X176.6497 Y14.3093 Z-1.7217 I-0.8761 J1.2275
X176.4034 Y14.2171 Z-2.0434 I-0.6496 J1.361
X176.145 Y14.1692 Z-2.3651 I-0.4034 J1.4532
X175.8821 Y14.1668 Z-2.6868 I-0.145 J1.5011
X175.6228 Y14.2101 Z-3.0086 I0.1179 J1.5035
X175.375 Y14.2978 Z-3.3303 I0.3772 J1.4602
X175.1461 Y14.4272 Z-3.652 I0.625 J1.3725
X174.9433 Y14.5943 Z-3.9737 I0.8539 J1.2431
X174.7725 Y14.7942 Z-4.2954 I1.0568 J1.076
X174.639 Y15.0207 Z-4.6171 I1.2275 J0.8761
X174.5469 Y15.2669 Z-4.9388 I1.361 J0.6496
X174.4989 Y15.5253 Z-5.2605 I1.4532 J0.4034
X174.4965 Y15.7882 Z-5.5822 I1.5011 J0.145
X174.5398 Y16.0475 Z-5.904 I1.5035 J-0.1179
X176 Y14.1622 Z-6 I1.4602 J-0.3772
G1 X176.0702 F3500
G3 X176.4226 Y14.7277 J0.3926
G1 X176.3884 Y14.7983
X176.3542 Y14.8689
G3 X175.6458 I-0.3542 J-0.1693
G1 X175.6116 Y14.7983
X175.5774 Y14.7277
G3 X175.9298 Y14.1622 I0.3524 J-0.173
G1 X176
X176.0489 Y14.166 Z-5.9922
X176.0966 Y14.1772 Z-5.9845
X176.1377 Y14.1936 Z-5.9619
X176.1761 Y14.2155 Z-5.9394
X176.2298 Y14.2605 Z-5.8691
X176.2585 Y14.2953 Z-5.7806
X176.2672 Y14.3081 Z-5.6825
G0 Z5
X146.7516 Y10.3895
Z3.6111
G1 Z-0.5 F1200
Z-5.6825 F3500
X146.7436 Z-5.7532
X146.7201 Z-5.8203
X146.6823 Z-5.8805
X146.632 Y10.3894 Z-5.9307
X146.5718 Z-5.9686
X146.5047 Y10.3893 Z-5.992
X146.4341 Z-6
X144.8466 Y10.388
X53.1653 Y10.3163
X53.1196 Y10.3095
X53.0779 Y10.29
X53.0435 Y10.2592
X53.0194 Y10.2199
X53.0076 Y10.1753
X52.938 Y9.5571
X52.9392 Y9.5127
X52.9527 Y9.4705
X52.9774 Y9.4336
X53.0113 Y9.4049
X53.0518 Y9.3868
X53.0957 Y9.3806
X144.9006
X144.9495 Y9.3844 Z-5.9922
X144.9972 Y9.3956 Z-5.9845
X145.0382 Y9.412 Z-5.9619
X145.0767 Y9.4339 Z-5.9394
X145.1303 Y9.4789 Z-5.8691
X145.1591 Y9.5137 Z-5.7806
X145.1678 Y9.5265 Z-5.6825
G0 Z5
X206.1917 Y9.3806
Z3.6509
G1 Z-0.5 F1200
Z-5.6825 F3500
G18 G2 X206.5092 Z-6 I0.3175
G1 X208.0967
X299.9016
X299.9455 Y9.3868
X299.986 Y9.4049
X300.0199 Y9.4335
X300.0446 Y9.4704
X300.0581 Y9.5127
X300.0594 Y9.557
X299.9898 Y10.1781
X299.9781 Y10.2227
X299.954 Y10.2621
X299.9196 Y10.2929
X299.8779 Y10.3124
X299.8322 Y10.3192
X208.1509 Y10.4085
X208.1021 Y10.4047 Z-5.9922
X208.0544 Y10.3934 Z-5.9845
X208.0133 Y10.3771 Z-5.9619
X207.9749 Y10.3552 Z-5.9394
X207.9212 Y10.3101 Z-5.8691
X207.8925 Y10.2754 Z-5.7806
X207.8838 Y10.2625 Z-5.6825
G0 Z5
X301.196 Y9.3806
Z3.6506
G1 Z-0.5 F1200
Z-5.6825 F3500
G2 X301.5135 Z-6 I0.3175
G1 X303.101
X312.0813
X312.1302 Y9.3883
X312.1743 Y9.4106
X312.2093 Y9.4455
X312.232 Y9.4894
X312.2401 Y9.5382
X312.2446 Y10.1473
X312.2372 Y10.1966
X312.2148 Y10.2412
X312.1797 Y10.2766
X312.1353 Y10.2994
X312.0861 Y10.3073
X303.1674 Y10.3159
X303.1186 Y10.3122 Z-5.9922
X303.0709 Y10.3009 Z-5.9845
X303.0298 Y10.2845 Z-5.9619
X302.9914 Y10.2627 Z-5.9394
X302.9377 Y10.2176 Z-5.8691
X302.909 Y10.1828 Z-5.7806
X302.9003 Y10.17 Z-5.6825
G0 Z5
X51.735 Y10.3152
Z3.5952
G1 Z-0.5 F1200
Z-5.6825 F3500
X51.7271 Z-5.7532
X51.7036 Y10.3151 Z-5.8203
X51.6658 Z-5.8805
X51.6155 Z-5.9307
X51.5553 Y10.315 Z-5.9686
X51.4882 Z-5.992
X51.4175 Y10.3149 Z-6
X49.83 Y10.3137
X39.917 Y10.3059
X39.8681 Y10.2981
X39.8239 Y10.2757
X39.7889 Y10.2407
X39.7663 Y10.1965
X39.7584 Y10.1476
X39.7567 Y9.5398
X39.7644 Y9.4906
X39.7869 Y9.4462
X39.822 Y9.411
X39.8663 Y9.3884
X39.9155 Y9.3806
X49.9026
X49.9514 Y9.3844 Z-5.9922
X49.9991 Y9.3956 Z-5.9845
X50.0402 Y9.412 Z-5.9619
X50.0786 Y9.4339 Z-5.9394
X50.1323 Y9.4789 Z-5.8691
X50.161 Y9.5137 Z-5.7806
X50.1697 Y9.5265 Z-5.6825
G0 Z5
X175.2143 Y267.9042
Z-5.6825
G1 X175.2149 Y267.8962 Z-5.7532 F3500
X175.2166 Y267.8728 Z-5.8203
X175.2194 Y267.8351 Z-5.8805
X175.223 Y267.7849 Z-5.9307
X175.2274 Y267.7249 Z-5.9686
X175.2323 Y267.658 Z-5.992
X175.2375 Y267.5875 Z-6
X175.508 Y263.8828
G17 G2 X175.5439 Y262.899 I-13.469 J-0.9837
G1 X175.544 Y21.8014
G2 X174.7023 Y17.2042 I-12.9758
X172.4299 Y13.1203 I-15.0594 J5.7054
G3 X172.8208 Y12.3286 I0.391 J-0.2993
G1 X179.1792
G3 X179.5702 Y13.1203 J0.4924
G2 X177.7741 Y16.0268 I13.6029 J10.414
X176.6957 Y19.2687 I11.624 J5.6672
X176.4561 Y21.8014 I13.2652 J2.5327
G1 Y262.899
G2 X176.4911 Y263.8864 I13.9433
G1 X176.4883 Y263.9297
X176.4738 Y263.9705
X176.4489 Y264.0059
X176.4153 Y264.0333
X176.3756 Y264.0505
X176.3327 Y264.0564
X174.4304 Y264.0558
X174.3872 Y264.0498
X174.3473 Y264.0324
X174.3137 Y264.0047
X174.2889 Y263.9689
X174.2747 Y263.9278
X174.2722 Y263.8843
G2 X174.3118 Y262.899 I-12.2331 J-0.9853
G1 Y21.8014
G2 X173.0125 Y16.2833 I-12.3667
X169.5041 Y11.8303 I-12.4747 J6.2198
G3 X169.7714 Y11.0965 I0.2673 J-0.3182
G1 X182.2286
G3 X182.4959 Y11.8303 J0.4156
G2 X179.5393 Y15.2691 I9.0474 J10.7692
X177.906 Y19.4997 I10.8223 J6.6088
X177.6882 Y21.8014 I12.055 J2.3016
G1 Y262.899
G2 X177.7256 Y263.8863 I13.0533
G1 X177.723 Y263.9296
X177.7087 Y263.9706
X177.6838 Y264.0062
X177.6502 Y264.0337
X177.6105 Y264.0511
X177.5675 Y264.0571
X172.7077 Y264.0605
X172.6642 Y264.0544
X172.6241 Y264.0367
X172.5903 Y264.0086
X172.5655 Y263.9724
X172.5516 Y263.9307
X172.5496 Y263.8868
G2 X172.5959 Y262.899 I-10.5105 J-0.9878
G1 Y21.8014
G2 X169.6864 Y14.2146 I-11.3462
X162.5108 Y10.4018 I-8.8109 J7.9234
G1 X148.1509 Y10.3906
X148.1041 Y10.3835
X148.0615 Y10.3629
X148.0268 Y10.3307
X148.0032 Y10.2897
X147.9927 Y10.2435
X147.9416 Y9.551
X147.9444 Y9.5077
X147.9587 Y9.4668
X147.9836 Y9.4313
X148.0172 Y9.4039
X148.057 Y9.3865
X148.0999 Y9.3806
X204.9036
X204.9465 Y9.3865
X204.9862 Y9.4038
X205.0198 Y9.4312
X205.0447 Y9.4666
X205.0591 Y9.5074
X205.0619 Y9.5507
X205.011 Y10.2642
X205.0006 Y10.3105
X204.977 Y10.3516
X204.9423 Y10.3839
X204.8996 Y10.4046
X204.8528 Y10.4117
X189.3099 Y10.4268
G2 X183.7615 Y12.8412 I1.5543 J11.1543
X180.183 Y17.7205 I7.5474 J9.2872
X179.4041 Y21.8014 I10.3008 J4.0809
G1 Y262.899
G2 X179.4472 Y263.886 I11.3383
G1 X179.445 Y263.9297
X179.4309 Y263.9711
X179.4061 Y264.0071
X179.3724 Y264.0349
X179.3323 Y264.0525
X179.289 Y264.0586
X170.3539 Y264.0597
X170.3098 Y264.0534
X170.2691 Y264.0351
X170.2352 Y264.0062
X170.2106 Y263.9691
X170.1973 Y263.9265
X170.1963 Y263.8819
G2 X170.2553 Y262.899 I-8.1573 J-0.9829
G1 X170.2554 Y21.8014
G2 X167.9208 Y15.7512 I-9.0071
X162.1878 Y12.72 I-7.0456 J6.3885
G1 X39.9152 Y12.6453
X39.8661 Y12.6375
X39.8219 Y12.6149
X39.7868 Y12.5798
X39.7643 Y12.5356
X39.7565 Y12.4865
X39.7571 Y7.1988
X39.7649 Y7.1497
X39.7874 Y7.1055
X39.8226 Y7.0703
X39.8668 Y7.0478
X39.9159 Y7.04
X312.0817
X312.1308 Y7.0478
X312.175 Y7.0703
X312.2101 Y7.1054
X312.2327 Y7.1496
X312.2405 Y7.1986
X312.2447 Y12.4878
X312.2369 Y12.5368
X312.2144 Y12.5811
X312.1793 Y12.6162
X312.1351 Y12.6388
X312.0861 Y12.6466
X189.6329 Y12.745
G2 X185.2077 Y14.6816 I1.2316 J8.8388
X182.3591 Y18.5826 I6.1042 J7.4479
X181.7447 Y21.8014 I8.1247 J3.2188
G1 Y262.899
G2 X181.7989 Y263.8853 I8.9994
G1 X181.7976 Y263.9296
X181.7841 Y263.9718
X181.7594 Y264.0086
X181.7255 Y264.0371
X181.6851 Y264.0552
X181.6412 Y264.0614
X167.9886 Y264.0671
X167.9432 Y264.0605
X167.9016 Y264.0412
X167.8672 Y264.0108
X167.843 Y263.9719
X167.8309 Y263.9276
X167.832 Y263.8818
G2 X167.9147 Y262.899 I-5.7929 J-0.9828
G1 X167.9148 Y21.8014
G2 X166.1553 Y17.2878 I-6.669
X161.8648 Y15.0382 I-5.2804 J4.8547
G1 X39.9133 Y14.9847
X39.8643 Y14.9769
X39.82 Y14.9543
X39.7849 Y14.9192
X39.7624 Y14.8749
X39.7546 Y14.8259
X39.7575 Y4.8582
X39.7653 Y4.8091
X39.7878 Y4.7649
X39.823 Y4.7298
X39.8672 Y4.7072
X39.9163 Y4.6995
X312.0821
X312.1312 Y4.7072
X312.1754 Y4.7298
X312.2105 Y4.7649
X312.2331 Y4.8091
X312.2409 Y4.8581
X312.2447 Y14.8272
X312.2369 Y14.8762
X312.2144 Y14.9205
X312.1793 Y14.9556
X312.1351 Y14.9782
X312.0861 Y14.986
X189.9559 Y15.0632
G2 X186.6538 Y16.5219 I0.9092 J6.525
X184.5351 Y19.4447 I4.6629 J5.6096
X184.0852 Y21.8014 I5.9487 J2.3567
G1 X184.0853 Y262.899
G2 X184.1584 Y263.8836 I6.6615
G1 X184.1619 Y263.9333
X184.1296 Y267.6316
X184.129 Y267.7023 Z-5.992
X184.1284 Y267.7694 Z-5.9686
X184.1279 Y267.8296 Z-5.9307
X184.1275 Y267.8799 Z-5.8805
X184.1271 Y267.9177 Z-5.8203
X184.1269 Y267.9412 Z-5.7532
X184.1268 Y267.9491 Z-5.6825
G0 Z5
X164.3831 Y267.9044
Z-5.6825
G1 X164.3851 Y267.8967 Z-5.7532 F3500
X164.391 Y267.874 Z-5.8203
X164.4006 Y267.8374 Z-5.8805
X164.4134 Y267.7888 Z-5.9307
X164.4287 Y267.7306 Z-5.9686
X164.4457 Y267.6657 Z-5.992
X164.4637 Y267.5973 Z-6
X165.439 Y263.8821
G2 X165.5112 Y263.5634 I-4.6727 J-1.2266
X165.5742 Y262.899 I-3.4721 J-0.6644
G1 Y21.8014
G2 X164.3897 Y18.8244 I-4.3333
X161.5418 Y17.3563 I-3.5157 J3.3239
G1 X39.9176 Y17.324
X39.8686 Y17.3162
X39.8243 Y17.2937
X39.7892 Y17.2586
X39.7667 Y17.2143
X39.7589 Y17.1653
X39.7579 Y2.5177
X39.7657 Y2.4686
X39.7882 Y2.4243
X39.8233 Y2.3892
X39.8676 Y2.3667
X39.9167 Y2.3589
X312.0826
X312.1316 Y2.3667
X312.1758 Y2.3892
X312.211 Y2.4243
X312.2335 Y2.4686
X312.2413 Y2.5176
X312.2447 Y17.1666
X312.237 Y17.2156
X312.2144 Y17.2599
X312.1793 Y17.295
X312.1351 Y17.3176
X312.0861 Y17.3254
X190.279 Y17.3813
G2 X188.1 Y18.3623 I0.5874 J4.2154
X186.7111 Y20.3068 I3.2272 J3.7733
X186.4258 Y21.8014 I3.7727 J1.4947
G1 Y262.899
G2 X186.5396 Y263.8847 I4.3262
G1 X186.5471 Y263.934
X186.5468 Y263.9838
X186.2396 Y267.6196
X186.2336 Y267.69 Z-5.992
X186.228 Y267.7569 Z-5.9686
X186.2229 Y267.8169 Z-5.9307
X186.2187 Y267.867 Z-5.8805
X186.2155 Y267.9047 Z-5.8203
X186.2135 Y267.9281 Z-5.7532
X186.2128 Y267.936 Z-5.6825
G0 Z5
X161.0707 Y267.9038
Z-5.7143
G1 X161.0735 Y267.8972 Z-5.7778 F3500
X161.0818 Y267.8778 Z-5.8382
X161.0951 Y267.8465 Z-5.8924
X161.1127 Y267.8048 Z-5.9377
X161.1339 Y267.7549 Z-5.9717
X161.1575 Y267.6993 Z-5.9928
X161.1824 Y267.6408 Z-6
X162.7605 Y263.9236
X162.7835 Y263.8794
X162.8098 Y263.8372
G2 X162.893 Y263.6738 I-0.8851 J-0.5532
G1 X162.9705 Y263.4813
G2 X163.0274 Y263.2877 I-0.9682 J-0.3898
G1 X163.0642 Y263.0952
G2 X163.0828 Y262.899 I-1.0251 J-0.1962
G1 Y21.8014
G2 X163.0643 Y21.6056 I-1.0437
G1 X163.0276 Y21.4131
G2 X162.9727 Y21.2244 I-1.0252 J0.1957
G1 X162.9001 Y21.0413
G2 X162.8064 Y20.8592 I-0.9704 J0.3844
G1 X162.6911 Y20.6807
G2 X162.5727 Y20.53 I-0.8766 J0.5665
G1 X162.4554 Y20.4059
G2 X162.3365 Y20.2982 I-0.7583 J0.7172
G1 X162.2181 Y20.2064
G2 X162.073 Y20.1121 I-0.6395 J0.8249
G1 X161.9003 Y20.0192
G2 X161.7266 Y19.9452 I-0.4944 J0.9192
G1 X161.5539 Y19.8894
G2 X161.3772 Y19.8489 I-0.3207 J0.9932
G1 X161.1979 Y19.8239
G2 X161.0539 Y19.8139 I-0.144 J1.0338
G1 X39.9176 Y19.8136
G3 X39.731 Y19.7529 J-0.3175
G1 X35.8961 Y16.9667
X35.8389 Y16.9252 Z-5.992
X35.7847 Y16.8857 Z-5.9686
X35.7359 Y16.8503 Z-5.9307
X35.6953 Y16.8208 Z-5.8805
X35.6647 Y16.7985 Z-5.8203
X35.6457 Y16.7847 Z-5.7532
X35.6392 Y16.7801 Z-5.6825
G0 Z5
X35.8966 Y0.6355
Z-5.7143
G1 X35.9037 Y0.6343 Z-5.7778 F3500
X35.9246 Y0.631 Z-5.8382
X35.9582 Y0.6257 Z-5.8924
X36.0029 Y0.6186 Z-5.9377
X36.0564 Y0.6102 Z-5.9717
X36.1161 Y0.6007 Z-5.9928
X36.1789 Y0.5908 Z-6
X39.8636 Y0.0071
X39.9133 Y0.0032
X312.0854
X312.135 Y0.0071
X315.8369 Y0.5935
X315.9067 Y0.6045 Z-5.992
X315.973 Y0.615 Z-5.9686
X316.0324 Y0.6244 Z-5.9307
X316.0821 Y0.6323 Z-5.8805
X316.1195 Y0.6382 Z-5.8203
X316.1426 Y0.6419 Z-5.7532
X316.1505 Y0.6431 Z-5.6825
G0 Z5
X318.0836 Y16.7965
Z-5.7778
G1 X318.0768 Y16.7999 Z-5.8353 F3500
X318.057 Y16.81 Z-5.8889
X318.0256 Y16.826 Z-5.9349
X317.9845 Y16.8469 Z-5.9702
X317.9368 Y16.8713 Z-5.9924
X317.8855 Y16.8974 Z-6
X312.2302 Y19.779
G3 X312.086 Y19.8136 I-0.1442 J-0.2829
G1 X190.9462 Y19.8139
G2 X190.8021 Y19.8239 J1.0437
G1 X190.6228 Y19.8489
G2 X190.4461 Y19.8894 I0.1441 J1.0338
G1 X190.2734 Y19.9452
G2 X190.0997 Y20.0192 I0.3207 J0.9932
G1 X189.927 Y20.1121
G2 X189.7819 Y20.2064 I0.4944 J0.9192
G1 X189.6635 Y20.2982
G2 X189.5447 Y20.4059 I0.6395 J0.8249
G1 X189.4273 Y20.53
G2 X189.309 Y20.6807 I0.7583 J0.7172
G1 X189.1936 Y20.8592
G2 X189.0999 Y21.0413 I0.8766 J0.5665
G1 X189.0273 Y21.2244
G2 X188.9725 Y21.4131 I0.9704 J0.3844
G1 X188.9357 Y21.6056
G2 X188.9172 Y21.8014 I1.0252 J0.1957
G1 Y262.899
G2 X188.9358 Y263.0952 I1.0437
G1 X188.9727 Y263.2877
G2 X189.0296 Y263.4813 I1.0251 J-0.1962
G1 X189.1071 Y263.6738
G2 X189.1902 Y263.8372 I0.9682 J-0.3897
G1 X189.2165 Y263.8794
X189.2351 Y263.9219
X189.2406 Y263.968
X189.2326 Y264.0136
X189.2117 Y264.055
X189.1797 Y264.0886
X189.1393 Y264.1115
X189.0941 Y264.1218
X174.9808 Y265.2081
X174.9355 Y265.2051
X174.8928 Y265.1893
X174.8564 Y265.1621
X174.8292 Y265.1257
X174.8134 Y265.083
X174.8103 Y265.0377
X174.8158 Y264.9672 Z-6.008
X174.8209 Y264.9003 Z-6.0314
X174.8255 Y264.8403 Z-6.0693
X174.8293 Y264.7902 Z-6.1195
X174.8322 Y264.7525 Z-6.1797
X174.834 Y264.7291 Z-6.2469
X174.8346 Y264.7211 Z-6.3175
Z-7.6825
X174.8352 Y264.7132 Z-7.7532
X174.837 Y264.6898 Z-7.8203
X174.8399 Y264.6521 Z-7.8805
X174.8438 Y264.6019 Z-7.9307
X174.8484 Y264.5419 Z-7.9686
X174.8535 Y264.475 Z-7.992
X174.8589 Y264.4045 Z-8
X174.8987 Y263.8852
G2 X174.9365 Y262.899 I-12.8597 J-0.9861
G1 X174.7941 Y12.6844
G3 X175.7571 Y11.7212 I0.9631 J-0.0001
G1 X176.243
G3 X177.206 Y12.6844 J0.9631
G1 X177.0636 Y262.8993
G2 X177.0993 Y263.8867 I13.6778 J-0.0003
G1 X177.0965 Y263.9299
X177.0821 Y263.9707
X177.0572 Y264.0062
X177.0237 Y264.0336
X176.984 Y264.0509
X176.9411 Y264.0569
X172.7078 Y264.0605
X172.6643 Y264.0544
X172.6241 Y264.0367
X172.5903 Y264.0086
X172.5655 Y263.9724
X172.5516 Y263.9307
X172.5496 Y263.8868
G2 X172.5959 Y262.899 I-10.5105 J-0.9878
G1 X172.4532 Y10.3438
G3 X173.4162 Y9.3806 I0.9631 J-0.0001
G1 X178.5839
G3 X179.5469 Y10.3438 J0.9631
G1 X179.4041 Y262.8993
G2 X179.4472 Y263.8862 I11.3383 J-0.0002
G1 X179.4449 Y263.9299
X179.4309 Y263.9713
X179.4061 Y264.0073
X179.3724 Y264.0351
X179.3324 Y264.0527
X179.289 Y264.0588
X170.354 Y264.0597
X170.3098 Y264.0534
X170.2691 Y264.0351
X170.2352 Y264.0062
X170.2106 Y263.9691
X170.1973 Y263.9265
X170.1963 Y263.8819
G2 X170.2553 Y262.899 I-8.1573 J-0.9829
G1 X170.1122 Y8.0032
G3 X171.0753 Y7.04 I0.9631 J-0.0001
G1 X180.9248
G3 X181.8878 Y8.0032 J0.9631
G1 X181.7447 Y262.8992
G2 X181.7989 Y263.8854 I8.9994 J-0.0002
G1 X181.7976 Y263.9297
X181.7841 Y263.9719
X181.7594 Y264.0087
X181.7255 Y264.0373
X181.6851 Y264.0554
X181.6412 Y264.0616
X167.9886 Y264.0671
X167.9432 Y264.0605
X167.9016 Y264.0412
X167.8673 Y264.0108
X167.843 Y263.9719
X167.8309 Y263.9276
X167.832 Y263.8818
G2 X167.9148 Y262.899 I-5.7929 J-0.9828
G1 X167.7713 Y5.6627
G3 X168.7344 Y4.6995 I0.9631 J-0.0001
G1 X183.2657
G3 X184.2288 Y5.6627 J0.9631
G1 X184.0806 Y21.9298
X184.0853 Y262.8992
G2 X184.1584 Y263.8838 I6.6615 J-0.0002
G1 X184.1619 Y263.9334
X184.1297 Y267.6317
X184.1291 Y267.7024 Z-7.992
X184.1285 Y267.7695 Z-7.9686
X184.128 Y267.8297 Z-7.9307
X184.1275 Y267.88 Z-7.8805
X184.1272 Y267.9178 Z-7.8203
X184.127 Y267.9413 Z-7.7532
X184.1269 Y267.9492 Z-7.6825
G0 Z5
X164.3831 Y267.9044
Z-7.6825
G1 X164.3851 Y267.8967 Z-7.7532 F3500
X164.391 Y267.874 Z-7.8203
X164.4006 Y267.8374 Z-7.8805
X164.4134 Y267.7888 Z-7.9307
X164.4287 Y267.7306 Z-7.9686
X164.4457 Y267.6657 Z-7.992
X164.4637 Y267.5973 Z-8
X165.439 Y263.8821
G2 X165.5112 Y263.5634 I-4.6727 J-1.2267
X165.5742 Y262.899 I-3.4721 J-0.6644
G1 X165.4304 Y3.3221
G3 X166.3934 Y2.3589 I0.9631 J-0.0001
G1 X185.6066
G3 X186.5697 Y3.3221 J0.9631
G1 X186.4258 Y262.8991
G2 X186.5396 Y263.8848 I4.3263 J-0.0001
G1 X186.5472 Y263.934
X186.5469 Y263.9839
X186.2397 Y267.6197
X186.2337 Y267.6901 Z-7.992
X186.2281 Y267.757 Z-7.9686
X186.223 Y267.817 Z-7.9307
X186.2188 Y267.8671 Z-7.8805
X186.2156 Y267.9048 Z-7.8203
X186.2136 Y267.9282 Z-7.7532
X186.2129 Y267.9361 Z-7.6825
G0 Z5
X161.0707 Y267.9038
Z-7.7143
G1 X161.0735 Y267.8972 Z-7.7778 F3500
X161.0818 Y267.8778 Z-7.8382
X161.0951 Y267.8465 Z-7.8924
X161.1127 Y267.8048 Z-7.9377
X161.1339 Y267.7549 Z-7.9717
X161.1575 Y267.6993 Z-7.9928
X161.1824 Y267.6408 Z-8
X162.7605 Y263.9236
X162.7835 Y263.8794
X162.8098 Y263.8372
G2 X162.893 Y263.6738 I-0.8851 J-0.5532
G1 X162.9705 Y263.4813
G2 X163.0274 Y263.2877 I-0.9682 J-0.3898
G1 X163.0642 Y263.0952
G2 X163.0828 Y262.899 I-1.0251 J-0.1962
G1 Y21.8014
Y21.794
X163.0774 Y21.0275
X163.0742 Y0.0032
X188.9258
X188.9226 Y21.7098
X188.914 Y21.875
X188.9125 Y21.9298
X188.9172 Y262.8991
G2 X188.9358 Y263.0952 I1.0437
G1 X188.9727 Y263.2877
G2 X189.0296 Y263.4813 I1.0251 J-0.1962
G1 X189.1071 Y263.6738
G2 X189.1902 Y263.8372 I0.9682 J-0.3897
G1 X189.2165 Y263.8794
G3 X189.264 Y264.0698 I-0.2692 J0.1683
G1 X189.0166 Y267.6108
X189.0117 Y267.6813 Z-7.992
X189.007 Y267.7482 Z-7.9686
X189.0028 Y267.8083 Z-7.9307
X188.9993 Y267.8584 Z-7.8805
X188.9967 Y267.8961 Z-7.8203
X188.995 Y267.9196 Z-7.7531
X188.9945 Y267.9275 Z-7.6825
G0 Z6

G53 Z5
M5
G4 P1.0
G53 X0 Y0
M30
%
