%
(Made in : Autodesk CAM Post Processor)
(G Code optimized for OpenBuilds OX CNC 1000 x 750 with GRBL V0.9j controller)

(Program Name : 1001)
(2 Operations :)
(1 : Contour2  2 )
(  Tool : Flat End Mill 2 Flutes, Diam = 1.9mm, Len = 12.7mm)
(  Spindle : RPM = 30000, set router dial to 6)
(  Machining time : 2 min 1 sec)
(2 : Horizontal1  2 )
(  Tool : Flat End Mill 2 Flutes, Diam = 1.9mm, Len = 12.7mm)
(  Spindle : RPM = 30000, set router dial to 6)
(  Machining time : 2 min 58 sec)

G90 G94
G17
G21

(Operation 1 of 2 : Contour2  2 )

G53 G0 Z5
G54
S30000 M3
G4 P1.0
X163.5033 Y264.3488
Z6
Z0.1595
G1 Z-1.81 F3200
X163.4975 Y264.3458 Z-1.8592
X163.4808 Y264.3369 Z-1.905
X163.4541 Y264.3227 Z-1.9444
X163.4194 Y264.3042 Z-1.9745
X163.3789 Y264.2827 Z-1.9935
X163.3355 Y264.2596 Z-2
X161.9162 Y263.5053
X161.8758 Y263.4766
X161.8442 Y263.4383
X161.8236 Y263.3932
X161.8154 Y263.3443
X161.8202 Y263.2949
X161.8375 Y263.2484
X161.8403 Y263.2433
X161.8439 Y263.2364
X161.8575 Y263.2088
X161.8817 Y263.1538
X161.9018 Y263.0987
X161.9043 Y263.0913
X161.9192 Y263.0399
X161.9311 Y262.9886
X161.9406 Y262.9335
X161.9468 Y262.8785
X161.95 Y262.7683
Y21.937
X161.9472 Y21.8269
X161.9413 Y21.7718
X161.9322 Y21.7168
X161.9199 Y21.6627
X161.9043 Y21.6087
X161.9036 Y21.6066
X161.8838 Y21.5516
X161.8601 Y21.4965
X161.832 Y21.4415
X161.7992 Y21.3864
X161.7941 Y21.3786
X161.7581 Y21.3274
X161.7166 Y21.2763
X161.684 Y21.2407
X161.6437 Y21.2013
X161.6033 Y21.1662
X161.5739 Y21.1429
X161.5188 Y21.1042
X161.4638 Y21.0709
X161.4362 Y21.056
X161.3949 Y21.036
X161.3536 Y21.0183
X161.2986 Y20.9981
X161.2435 Y20.9817
X161.1885 Y20.9689
X161.1334 Y20.9594
X161.0783 Y20.9532
X161.0233 Y20.9503
X160.9131 Y20.95
X40.5417
X40.4894 Y20.9426
X40.441 Y20.9211
X40.4005 Y20.8871
X40.3709 Y20.8433
X40.3546 Y20.7929
X40.3528 Y20.7401
X40.5208 Y19.147
X40.526 Y19.0981 Z-1.9935
X40.5308 Y19.0525 Z-1.9745
X40.5349 Y19.0134 Z-1.9444
X40.5381 Y18.9833 Z-1.905
X40.5401 Y18.9645 Z-1.8592
X40.5408 Y18.958 Z-1.81
G0 Z5
X311.6483 Y18.9573
Z0.1711
G1 Z-1.81 F3200
Y18.9638 Z-1.8592
Y18.9828 Z-1.905
Y19.013 Z-1.9444
Y19.0523 Z-1.9745
Y19.0982 Z-1.9935
Y19.1473 Z-2
Y20.76
X311.6418 Y20.8092
X311.6228 Y20.855
X311.5926 Y20.8944
X311.5533 Y20.9246
X311.5075 Y20.9435
X311.4583 Y20.95
X191.0869
X190.9768 Y20.9503
X190.9217 Y20.9532
X190.8666 Y20.9594
X190.8116 Y20.9689
X190.7565 Y20.9817
X190.7014 Y20.9981
X190.6464 Y21.0183
X190.6051 Y21.036
X190.5639 Y21.056
X190.5363 Y21.0709
X190.4812 Y21.1042
X190.4261 Y21.1429
X190.3967 Y21.1662
X190.3564 Y21.2013
X190.316 Y21.2407
X190.2834 Y21.2763
X190.2419 Y21.3274
X190.2059 Y21.3786
X190.2008 Y21.3864
X190.168 Y21.4415
X190.14 Y21.4965
X190.1162 Y21.5516
X190.0965 Y21.6066
X190.0958 Y21.6087
X190.0801 Y21.6627
X190.0679 Y21.7168
X190.0587 Y21.7718
X190.0528 Y21.8269
X190.05 Y21.937
Y262.7683
X190.0533 Y262.8785
X190.0594 Y262.9335
X190.0689 Y262.9886
X190.0808 Y263.0399
X190.0958 Y263.0913
X190.0982 Y263.0987
X190.1183 Y263.1538
X190.1425 Y263.2088
X190.1562 Y263.2364
X190.1598 Y263.2433
X190.1625 Y263.2484
X190.1809 Y263.2998
X190.184 Y263.3543
X190.1714 Y263.4075
X190.1442 Y263.4548
X190.1047 Y263.4925
X190.0561 Y263.5174
X190.0024 Y263.5274
X162.7613 Y264.6274
G3 X162.5862 Y264.6174 I-0.0364 J-0.9018
G1 X162.5797 Y264.6164 Z-2.0001 F1200
G3 X162.7365 Y264.628 Z-2.1926 I0.1452 J-0.8907
X162.8931 Y264.6123 Z-2.385 I-0.0117 J-0.9024
X163.0445 Y264.5696 Z-2.5774 I-0.1682 J-0.8867
X163.1862 Y264.5013 Z-2.7699 I-0.3196 J-0.844
X163.3139 Y264.4094 Z-2.9623 I-0.4613 J-0.7757
X162.3072 Y264.5257 Z-2.9999 I-0.589 J-0.6838
G1 X162.3013 Y264.5226 Z-3
X162.213 Y264.4756 F3200
G3 X161.8375 Y263.2484 I0.4259 J-0.8014
G1 X161.8403 Y263.2433
X161.8439 Y263.2364
X161.8575 Y263.2088
X161.8817 Y263.1538
X161.9018 Y263.0987
X161.9043 Y263.0913
X161.9192 Y263.0399
X161.9311 Y262.9886
X161.9406 Y262.9335
X161.9468 Y262.8785
X161.95 Y262.7683
Y21.937
X161.9472 Y21.8269
X161.9413 Y21.7718
X161.9322 Y21.7168
X161.9199 Y21.6627
X161.9043 Y21.6087
X161.9036 Y21.6066
X161.8838 Y21.5516
X161.8601 Y21.4965
X161.832 Y21.4415
X161.7992 Y21.3864
X161.7941 Y21.3786
X161.7581 Y21.3274
X161.7166 Y21.2763
X161.684 Y21.2407
X161.6437 Y21.2013
X161.6033 Y21.1662
X161.5739 Y21.1429
X161.5188 Y21.1042
X161.4638 Y21.0709
X161.4362 Y21.056
X161.3949 Y21.036
X161.3536 Y21.0183
X161.2986 Y20.9981
X161.2435 Y20.9817
X161.1885 Y20.9689
X161.1334 Y20.9594
X161.0783 Y20.9532
X161.0233 Y20.9503
X160.9131 Y20.95
X40.5417
X40.4894 Y20.9426
X40.441 Y20.9211
X40.4005 Y20.8871
X40.3709 Y20.8433
X40.3546 Y20.7929
X40.3528 Y20.7401
X40.522 Y19.1363
X40.5271 Y19.0874 Z-2.9935
X40.5319 Y19.0418 Z-2.9745
X40.5361 Y19.0027 Z-2.9444
X40.5392 Y18.9727 Z-2.905
X40.5412 Y18.9538 Z-2.8592
X40.5419 Y18.9473 Z-2.81
G0 Z5
X311.6483 Y18.9493
Z-2.81
G1 Y18.9558 Z-2.8592 F3200
Y18.9747 Z-2.905
Y19.0049 Z-2.9444
Y19.0443 Z-2.9745
Y19.0901 Z-2.9935
Y19.1393 Z-3
Y20.76
X311.6418 Y20.8092
X311.6228 Y20.855
X311.5926 Y20.8944
X311.5533 Y20.9246
X311.5075 Y20.9435
X311.4583 Y20.95
X191.0869
X190.9768 Y20.9503
X190.9217 Y20.9532
X190.8666 Y20.9594
X190.8116 Y20.9689
X190.7565 Y20.9817
X190.7014 Y20.9981
X190.6464 Y21.0183
X190.6051 Y21.036
X190.5639 Y21.056
X190.5363 Y21.0709
X190.4812 Y21.1042
X190.4261 Y21.1429
X190.3967 Y21.1662
X190.3564 Y21.2013
X190.316 Y21.2407
X190.2834 Y21.2763
X190.2419 Y21.3274
X190.2059 Y21.3786
X190.2008 Y21.3864
X190.168 Y21.4415
X190.14 Y21.4965
X190.1162 Y21.5516
X190.0965 Y21.6066
X190.0958 Y21.6087
X190.0801 Y21.6627
X190.0679 Y21.7168
X190.0587 Y21.7718
X190.0528 Y21.8269
X190.05 Y21.937
Y262.7683
X190.0533 Y262.8785
X190.0594 Y262.9335
X190.0689 Y262.9886
X190.0808 Y263.0399
X190.0958 Y263.0913
X190.0982 Y263.0987
X190.1183 Y263.1538
X190.1425 Y263.2088
X190.1562 Y263.2364
X190.1598 Y263.2433
X190.1625 Y263.2484
X190.1809 Y263.2998
X190.184 Y263.3543
X190.1714 Y263.4075
X190.1442 Y263.4548
X190.1047 Y263.4925
X190.0561 Y263.5174
X190.0024 Y263.5274
X162.7613 Y264.6274
G3 X162.5862 Y264.6174 I-0.0364 J-0.9018
G1 X162.5797 Y264.6164 Z-3.0001 F1200
G3 X162.7365 Y264.628 Z-3.1926 I0.1452 J-0.8907
X162.8931 Y264.6123 Z-3.385 I-0.0117 J-0.9024
X163.0445 Y264.5696 Z-3.5774 I-0.1682 J-0.8867
X163.1862 Y264.5013 Z-3.7699 I-0.3196 J-0.844
X163.3139 Y264.4094 Z-3.9623 I-0.4613 J-0.7757
X162.3072 Y264.5257 Z-3.9999 I-0.589 J-0.6838
G1 X162.3013 Y264.5226 Z-4
X162.213 Y264.4756 F3200
G3 X161.8375 Y263.2484 I0.4259 J-0.8014
G1 X161.8403 Y263.2433
X161.8439 Y263.2364
X161.8575 Y263.2088
X161.8817 Y263.1538
X161.9018 Y263.0987
X161.9043 Y263.0913
X161.9192 Y263.0399
X161.9311 Y262.9886
X161.9406 Y262.9335
X161.9468 Y262.8785
X161.95 Y262.7683
Y21.937
X161.9472 Y21.8269
X161.9413 Y21.7718
X161.9322 Y21.7168
X161.9199 Y21.6627
X161.9043 Y21.6087
X161.9036 Y21.6066
X161.8838 Y21.5516
X161.8601 Y21.4965
X161.832 Y21.4415
X161.7992 Y21.3864
X161.7941 Y21.3786
X161.7581 Y21.3274
X161.7166 Y21.2763
X161.684 Y21.2407
X161.6437 Y21.2013
X161.6033 Y21.1662
X161.5739 Y21.1429
X161.5188 Y21.1042
X161.4638 Y21.0709
X161.4362 Y21.056
X161.3949 Y21.036
X161.3536 Y21.0183
X161.2986 Y20.9981
X161.2435 Y20.9817
X161.1885 Y20.9689
X161.1334 Y20.9594
X161.0783 Y20.9532
X161.0233 Y20.9503
X160.9131 Y20.95
X40.5417
X40.4894 Y20.9426
X40.441 Y20.9211
X40.4005 Y20.8871
X40.3709 Y20.8433
X40.3546 Y20.7929
X40.3528 Y20.7401
X40.522 Y19.1363
X40.5271 Y19.0874 Z-3.9935
X40.5319 Y19.0418 Z-3.9745
X40.5361 Y19.0027 Z-3.9444
X40.5392 Y18.9727 Z-3.905
X40.5412 Y18.9538 Z-3.8592
X40.5419 Y18.9473 Z-3.81
G0 Z5
X311.6483 Y18.9493
Z-3.81
G1 Y18.9558 Z-3.8592 F3200
Y18.9747 Z-3.905
Y19.0049 Z-3.9444
Y19.0443 Z-3.9745
Y19.0901 Z-3.9935
Y19.1393 Z-4
Y20.76
X311.6418 Y20.8092
X311.6228 Y20.855
X311.5926 Y20.8944
X311.5533 Y20.9246
X311.5075 Y20.9435
X311.4583 Y20.95
X191.0869
X190.9768 Y20.9503
X190.9217 Y20.9532
X190.8666 Y20.9594
X190.8116 Y20.9689
X190.7565 Y20.9817
X190.7014 Y20.9981
X190.6464 Y21.0183
X190.6051 Y21.036
X190.5639 Y21.056
X190.5363 Y21.0709
X190.4812 Y21.1042
X190.4261 Y21.1429
X190.3967 Y21.1662
X190.3564 Y21.2013
X190.316 Y21.2407
X190.2834 Y21.2763
X190.2419 Y21.3274
X190.2059 Y21.3786
X190.2008 Y21.3864
X190.168 Y21.4415
X190.14 Y21.4965
X190.1162 Y21.5516
X190.0965 Y21.6066
X190.0958 Y21.6087
X190.0801 Y21.6627
X190.0679 Y21.7168
X190.0587 Y21.7718
X190.0528 Y21.8269
X190.05 Y21.937
Y262.7683
X190.0533 Y262.8785
X190.0594 Y262.9335
X190.0689 Y262.9886
X190.0808 Y263.0399
X190.0958 Y263.0913
X190.0982 Y263.0987
X190.1183 Y263.1538
X190.1425 Y263.2088
X190.1562 Y263.2364
X190.1598 Y263.2433
X190.1625 Y263.2484
X190.1809 Y263.2998
X190.184 Y263.3543
X190.1714 Y263.4075
X190.1442 Y263.4548
X190.1047 Y263.4925
X190.0561 Y263.5174
X190.0024 Y263.5274
X162.7613 Y264.6274
G3 X162.5862 Y264.6174 I-0.0364 J-0.9018
G1 X162.5797 Y264.6164 Z-4.0001 F1200
G3 X162.7365 Y264.628 Z-4.1926 I0.1452 J-0.8907
X162.8931 Y264.6123 Z-4.385 I-0.0117 J-0.9024
X163.0445 Y264.5696 Z-4.5774 I-0.1682 J-0.8867
X163.1862 Y264.5013 Z-4.7699 I-0.3196 J-0.844
X163.3139 Y264.4094 Z-4.9623 I-0.4613 J-0.7757
X162.3072 Y264.5257 Z-4.9999 I-0.589 J-0.6838
G1 X162.3013 Y264.5226 Z-5
X162.213 Y264.4756 F3200
G3 X161.8375 Y263.2484 I0.4259 J-0.8014
G1 X161.8403 Y263.2433
X161.8439 Y263.2364
X161.8575 Y263.2088
X161.8817 Y263.1538
X161.9018 Y263.0987
X161.9043 Y263.0913
X161.9192 Y263.0399
X161.9311 Y262.9886
X161.9406 Y262.9335
X161.9468 Y262.8785
X161.95 Y262.7683
Y21.937
X161.9472 Y21.8269
X161.9413 Y21.7718
X161.9322 Y21.7168
X161.9199 Y21.6627
X161.9043 Y21.6087
X161.9036 Y21.6066
X161.8838 Y21.5516
X161.8601 Y21.4965
X161.832 Y21.4415
X161.7992 Y21.3864
X161.7941 Y21.3786
X161.7581 Y21.3274
X161.7166 Y21.2763
X161.684 Y21.2407
X161.6437 Y21.2013
X161.6033 Y21.1662
X161.5739 Y21.1429
X161.5188 Y21.1042
X161.4638 Y21.0709
X161.4362 Y21.056
X161.3949 Y21.036
X161.3536 Y21.0183
X161.2986 Y20.9981
X161.2435 Y20.9817
X161.1885 Y20.9689
X161.1334 Y20.9594
X161.0783 Y20.9532
X161.0233 Y20.9503
X160.9131 Y20.95
X40.5417
X40.4894 Y20.9426
X40.441 Y20.9211
X40.4005 Y20.8871
X40.3709 Y20.8433
X40.3546 Y20.7929
X40.3528 Y20.7401
X40.522 Y19.1363
X40.5271 Y19.0874 Z-4.9935
X40.5319 Y19.0418 Z-4.9745
X40.5361 Y19.0027 Z-4.9444
X40.5392 Y18.9727 Z-4.905
X40.5412 Y18.9538 Z-4.8592
X40.5419 Y18.9473 Z-4.81
G0 Z5
X311.6483 Y18.9493
Z-4.81
G1 Y18.9558 Z-4.8592 F3200
Y18.9747 Z-4.905
Y19.0049 Z-4.9444
Y19.0443 Z-4.9745
Y19.0901 Z-4.9935
Y19.1393 Z-5
Y20.76
X311.6418 Y20.8092
X311.6228 Y20.855
X311.5926 Y20.8944
X311.5533 Y20.9246
X311.5075 Y20.9435
X311.4583 Y20.95
X191.0869
X190.9768 Y20.9503
X190.9217 Y20.9532
X190.8666 Y20.9594
X190.8116 Y20.9689
X190.7565 Y20.9817
X190.7014 Y20.9981
X190.6464 Y21.0183
X190.6051 Y21.036
X190.5639 Y21.056
X190.5363 Y21.0709
X190.4812 Y21.1042
X190.4261 Y21.1429
X190.3967 Y21.1662
X190.3564 Y21.2013
X190.316 Y21.2407
X190.2834 Y21.2763
X190.2419 Y21.3274
X190.2059 Y21.3786
X190.2008 Y21.3864
X190.168 Y21.4415
X190.14 Y21.4965
X190.1162 Y21.5516
X190.0965 Y21.6066
X190.0958 Y21.6087
X190.0801 Y21.6627
X190.0679 Y21.7168
X190.0587 Y21.7718
X190.0528 Y21.8269
X190.05 Y21.937
Y262.7683
X190.0533 Y262.8785
X190.0594 Y262.9335
X190.0689 Y262.9886
X190.0808 Y263.0399
X190.0958 Y263.0913
X190.0982 Y263.0987
X190.1183 Y263.1538
X190.1425 Y263.2088
X190.1562 Y263.2364
X190.1598 Y263.2433
X190.1625 Y263.2484
X190.1809 Y263.2998
X190.184 Y263.3543
X190.1714 Y263.4075
X190.1442 Y263.4548
X190.1047 Y263.4925
X190.0561 Y263.5174
X190.0024 Y263.5274
X162.7613 Y264.6274
G3 X162.5862 Y264.6174 I-0.0364 J-0.9018
G1 X162.5797 Y264.6164 Z-5.0001 F1200
G3 X162.7365 Y264.628 Z-5.1926 I0.1452 J-0.8907
X162.8931 Y264.6123 Z-5.385 I-0.0117 J-0.9024
X163.0445 Y264.5696 Z-5.5774 I-0.1682 J-0.8867
X163.1862 Y264.5013 Z-5.7699 I-0.3196 J-0.844
X163.3139 Y264.4094 Z-5.9623 I-0.4613 J-0.7757
X162.3072 Y264.5257 Z-5.9999 I-0.589 J-0.6838
G1 X162.3013 Y264.5226 Z-6
X162.213 Y264.4756 F3200
G3 X161.8375 Y263.2484 I0.4259 J-0.8014
G1 X161.8403 Y263.2433
X161.8439 Y263.2364
X161.8575 Y263.2088
X161.8817 Y263.1538
X161.9018 Y263.0987
X161.9043 Y263.0913
X161.9192 Y263.0399
X161.9311 Y262.9886
X161.9406 Y262.9335
X161.9468 Y262.8785
X161.95 Y262.7683
Y21.937
X161.9472 Y21.8269
X161.9413 Y21.7718
X161.9322 Y21.7168
X161.9199 Y21.6627
X161.9043 Y21.6087
X161.9036 Y21.6066
X161.8838 Y21.5516
X161.8601 Y21.4965
X161.832 Y21.4415
X161.7992 Y21.3864
X161.7941 Y21.3786
X161.7581 Y21.3274
X161.7166 Y21.2763
X161.684 Y21.2407
X161.6437 Y21.2013
X161.6033 Y21.1662
X161.5739 Y21.1429
X161.5188 Y21.1042
X161.4638 Y21.0709
X161.4362 Y21.056
X161.3949 Y21.036
X161.3536 Y21.0183
X161.2986 Y20.9981
X161.2435 Y20.9817
X161.1885 Y20.9689
X161.1334 Y20.9594
X161.0783 Y20.9532
X161.0233 Y20.9503
X160.9131 Y20.95
X40.5417
X40.4894 Y20.9426
X40.441 Y20.9211
X40.4005 Y20.8871
X40.3709 Y20.8433
X40.3546 Y20.7929
X40.3528 Y20.7401
X40.522 Y19.1363
X40.5271 Y19.0874 Z-5.9935
X40.5319 Y19.0418 Z-5.9745
X40.5361 Y19.0027 Z-5.9444
X40.5392 Y18.9727 Z-5.905
X40.5412 Y18.9538 Z-5.8592
X40.5419 Y18.9473 Z-5.81
G0 Z5
X311.6483 Y18.9493
Z-5.81
G1 Y18.9558 Z-5.8592 F3200
Y18.9747 Z-5.905
Y19.0049 Z-5.9444
Y19.0443 Z-5.9745
Y19.0901 Z-5.9935
Y19.1393 Z-6
Y20.76
X311.6418 Y20.8092
X311.6228 Y20.855
X311.5926 Y20.8944
X311.5533 Y20.9246
X311.5075 Y20.9435
X311.4583 Y20.95
X191.0869
X190.9768 Y20.9503
X190.9217 Y20.9532
X190.8666 Y20.9594
X190.8116 Y20.9689
X190.7565 Y20.9817
X190.7014 Y20.9981
X190.6464 Y21.0183
X190.6051 Y21.036
X190.5639 Y21.056
X190.5363 Y21.0709
X190.4812 Y21.1042
X190.4261 Y21.1429
X190.3967 Y21.1662
X190.3564 Y21.2013
X190.316 Y21.2407
X190.2834 Y21.2763
X190.2419 Y21.3274
X190.2059 Y21.3786
X190.2008 Y21.3864
X190.168 Y21.4415
X190.14 Y21.4965
X190.1162 Y21.5516
X190.0965 Y21.6066
X190.0958 Y21.6087
X190.0801 Y21.6627
X190.0679 Y21.7168
X190.0587 Y21.7718
X190.0528 Y21.8269
X190.05 Y21.937
Y262.7683
X190.0533 Y262.8785
X190.0594 Y262.9335
X190.0689 Y262.9886
X190.0808 Y263.0399
X190.0958 Y263.0913
X190.0982 Y263.0987
X190.1183 Y263.1538
X190.1425 Y263.2088
X190.1562 Y263.2364
X190.1598 Y263.2433
X190.1625 Y263.2484
X190.1809 Y263.2998
X190.184 Y263.3543
X190.1714 Y263.4075
X190.1442 Y263.4548
X190.1047 Y263.4925
X190.0561 Y263.5174
X190.0024 Y263.5274
X162.7613 Y264.6274
G3 X162.5862 Y264.6174 I-0.0364 J-0.9018
G1 X162.5797 Y264.6164 Z-6.0001 F1200
G3 X162.7365 Y264.628 Z-6.1926 I0.1452 J-0.8907
X162.8931 Y264.6123 Z-6.385 I-0.0117 J-0.9024
X163.0445 Y264.5696 Z-6.5774 I-0.1682 J-0.8867
X163.1862 Y264.5013 Z-6.7699 I-0.3196 J-0.844
X163.3139 Y264.4094 Z-6.9623 I-0.4613 J-0.7757
X162.3072 Y264.5257 Z-6.9999 I-0.589 J-0.6838
G1 X162.3013 Y264.5226 Z-7
X162.213 Y264.4756 F3200
G3 X161.8375 Y263.2484 I0.4259 J-0.8014
G1 X161.8403 Y263.2433
X161.8439 Y263.2364
X161.8575 Y263.2088
X161.8817 Y263.1538
X161.9018 Y263.0987
X161.9043 Y263.0913
X161.9192 Y263.0399
X161.9311 Y262.9886
X161.9406 Y262.9335
X161.9468 Y262.8785
X161.95 Y262.7683
Y21.937
X161.9472 Y21.8269
X161.9413 Y21.7718
X161.9322 Y21.7168
X161.9199 Y21.6627
X161.9043 Y21.6087
X161.9036 Y21.6066
X161.8838 Y21.5516
X161.8601 Y21.4965
X161.832 Y21.4415
X161.7992 Y21.3864
X161.7941 Y21.3786
X161.7581 Y21.3274
X161.7166 Y21.2763
X161.684 Y21.2407
X161.6437 Y21.2013
X161.6033 Y21.1662
X161.5739 Y21.1429
X161.5188 Y21.1042
X161.4638 Y21.0709
X161.4362 Y21.056
X161.3949 Y21.036
X161.3536 Y21.0183
X161.2986 Y20.9981
X161.2435 Y20.9817
X161.1885 Y20.9689
X161.1334 Y20.9594
X161.0783 Y20.9532
X161.0233 Y20.9503
X160.9131 Y20.95
X40.5417
X40.4894 Y20.9426
X40.441 Y20.9211
X40.4005 Y20.8871
X40.3709 Y20.8433
X40.3546 Y20.7929
X40.3528 Y20.7401
X40.522 Y19.1363
X40.5271 Y19.0874 Z-6.9935
X40.5319 Y19.0418 Z-6.9745
X40.5361 Y19.0027 Z-6.9444
X40.5392 Y18.9727 Z-6.905
X40.5412 Y18.9538 Z-6.8592
X40.5419 Y18.9473 Z-6.81
G0 Z5
X311.6483 Y18.9493
Z-6.1
G1 Z-6.81 F3200
Y18.9558 Z-6.8592
Y18.9747 Z-6.905
Y19.0049 Z-6.9444
Y19.0443 Z-6.9745
Y19.0901 Z-6.9935
Y19.1393 Z-7
Y20.76
X311.6418 Y20.8092
X311.6228 Y20.855
X311.5926 Y20.8944
X311.5533 Y20.9246
X311.5075 Y20.9435
X311.4583 Y20.95
X191.0869
X190.9768 Y20.9503
X190.9217 Y20.9532
X190.8666 Y20.9594
X190.8116 Y20.9689
X190.7565 Y20.9817
X190.7014 Y20.9981
X190.6464 Y21.0183
X190.6051 Y21.036
X190.5639 Y21.056
X190.5363 Y21.0709
X190.4812 Y21.1042
X190.4261 Y21.1429
X190.3967 Y21.1662
X190.3564 Y21.2013
X190.316 Y21.2407
X190.2834 Y21.2763
X190.2419 Y21.3274
X190.2059 Y21.3786
X190.2008 Y21.3864
X190.168 Y21.4415
X190.14 Y21.4965
X190.1162 Y21.5516
X190.0965 Y21.6066
X190.0958 Y21.6087
X190.0801 Y21.6627
X190.0679 Y21.7168
X190.0587 Y21.7718
X190.0528 Y21.8269
X190.05 Y21.937
Y262.7683
X190.0533 Y262.8785
X190.0594 Y262.9335
X190.0689 Y262.9886
X190.0808 Y263.0399
X190.0958 Y263.0913
X190.0982 Y263.0987
X190.1183 Y263.1538
X190.1425 Y263.2088
X190.1562 Y263.2364
X190.1598 Y263.2433
X190.1625 Y263.2484
X190.1809 Y263.2998
X190.184 Y263.3543
X190.1714 Y263.4075
X190.1442 Y263.4548
X190.1047 Y263.4925
X190.0561 Y263.5174
X190.0024 Y263.5274
X162.7613 Y264.6274
G3 X162.5862 Y264.6174 I-0.0364 J-0.9018
G1 X162.5797 Y264.6164 Z-7.0001 F1200
G3 X162.7365 Y264.628 Z-7.1926 I0.1452 J-0.8907
X162.8931 Y264.6123 Z-7.385 I-0.0117 J-0.9024
X163.0445 Y264.5696 Z-7.5774 I-0.1682 J-0.8867
X163.1862 Y264.5013 Z-7.7699 I-0.3196 J-0.844
X163.3139 Y264.4094 Z-7.9623 I-0.4613 J-0.7757
X162.3072 Y264.5257 Z-7.9999 I-0.589 J-0.6838
G1 X162.3013 Y264.5226 Z-8
X162.213 Y264.4756 F3200
G3 X161.8375 Y263.2484 I0.4259 J-0.8014
G1 X161.8403 Y263.2433
X161.8439 Y263.2364
X161.8575 Y263.2088
X161.8817 Y263.1538
X161.9018 Y263.0987
X161.9043 Y263.0913
X161.9192 Y263.0399
X161.9311 Y262.9886
X161.9406 Y262.9335
X161.9468 Y262.8785
X161.95 Y262.7683
Y21.937
X161.9472 Y21.8269
X161.9413 Y21.7718
X161.9322 Y21.7168
X161.9199 Y21.6627
X161.9043 Y21.6087
X161.9036 Y21.6066
X161.8838 Y21.5516
X161.8601 Y21.4965
X161.832 Y21.4415
X161.7992 Y21.3864
X161.7941 Y21.3786
X161.7581 Y21.3274
X161.7166 Y21.2763
X161.684 Y21.2407
X161.6437 Y21.2013
X161.6033 Y21.1662
X161.5739 Y21.1429
X161.5188 Y21.1042
X161.4638 Y21.0709
X161.4362 Y21.056
X161.3949 Y21.036
X161.3536 Y21.0183
X161.2986 Y20.9981
X161.2435 Y20.9817
X161.1885 Y20.9689
X161.1334 Y20.9594
X161.0783 Y20.9532
X161.0233 Y20.9503
X160.9131 Y20.95
X40.5417
X40.4894 Y20.9426
X40.441 Y20.9211
X40.4005 Y20.8871
X40.3709 Y20.8433
X40.3546 Y20.7929
X40.3528 Y20.7401
X40.522 Y19.1363
X40.5271 Y19.0874 Z-7.9935
X40.5319 Y19.0418 Z-7.9745
X40.5361 Y19.0027 Z-7.9444
X40.5392 Y18.9727 Z-7.905
X40.5412 Y18.9538 Z-7.8592
X40.5419 Y18.9473 Z-7.81
G0 Z5
X311.6483 Y18.9493
Z-6.1
G1 Z-7.81 F3200
Y18.9558 Z-7.8592
Y18.9747 Z-7.905
Y19.0049 Z-7.9444
Y19.0443 Z-7.9745
Y19.0901 Z-7.9935
Y19.1393 Z-8
Y20.76
X311.6418 Y20.8092
X311.6228 Y20.855
X311.5926 Y20.8944
X311.5533 Y20.9246
X311.5075 Y20.9435
X311.4583 Y20.95
X191.0869
X190.9768 Y20.9503
X190.9217 Y20.9532
X190.8666 Y20.9594
X190.8116 Y20.9689
X190.7565 Y20.9817
X190.7014 Y20.9981
X190.6464 Y21.0183
X190.6051 Y21.036
X190.5639 Y21.056
X190.5363 Y21.0709
X190.4812 Y21.1042
X190.4261 Y21.1429
X190.3967 Y21.1662
X190.3564 Y21.2013
X190.316 Y21.2407
X190.2834 Y21.2763
X190.2419 Y21.3274
X190.2059 Y21.3786
X190.2008 Y21.3864
X190.168 Y21.4415
X190.14 Y21.4965
X190.1162 Y21.5516
X190.0965 Y21.6066
X190.0958 Y21.6087
X190.0801 Y21.6627
X190.0679 Y21.7168
X190.0587 Y21.7718
X190.0528 Y21.8269
X190.05 Y21.937
Y262.7683
X190.0533 Y262.8785
X190.0594 Y262.9335
X190.0689 Y262.9886
X190.0808 Y263.0399
X190.0958 Y263.0913
X190.0982 Y263.0987
X190.1183 Y263.1538
X190.1425 Y263.2088
X190.1562 Y263.2364
X190.1598 Y263.2433
X190.1625 Y263.2484
X190.1809 Y263.2998
X190.184 Y263.3543
X190.1714 Y263.4075
X190.1442 Y263.4548
X190.1047 Y263.4925
X190.0561 Y263.5174
X190.0024 Y263.5274
X162.7613 Y264.6274
G3 X162.5862 Y264.6174 I-0.0364 J-0.9018
G1 X162.5797 Y264.6164 Z-8.0001 F1200
G3 X162.7365 Y264.628 Z-8.1926 I0.1452 J-0.8907
X162.8931 Y264.6123 Z-8.385 I-0.0117 J-0.9024
X163.0445 Y264.5696 Z-8.5774 I-0.1682 J-0.8867
X163.1862 Y264.5013 Z-8.7699 I-0.3196 J-0.844
X163.3139 Y264.4094 Z-8.9623 I-0.4613 J-0.7757
X162.3072 Y264.5257 Z-8.9999 I-0.589 J-0.6838
G1 X162.3013 Y264.5226 Z-9
X162.213 Y264.4756 F3200
G3 X161.8375 Y263.2484 I0.4259 J-0.8014
G1 X161.8403 Y263.2433
X161.8439 Y263.2364
X161.8575 Y263.2088
X161.8817 Y263.1538
X161.9018 Y263.0987
X161.9043 Y263.0913
X161.9192 Y263.0399
X161.9311 Y262.9886
X161.9406 Y262.9335
X161.9468 Y262.8785
X161.95 Y262.7683
Y0.0232
X161.9495 Y-0.0318
X161.946 Y-0.0869
X161.9393 Y-0.142
X161.9294 Y-0.197
X161.9181 Y-0.2441
X161.9043 Y-0.2913
X161.899 Y-0.3071
X161.8783 Y-0.3622
X161.8535 Y-0.4173
X161.8402 Y-0.4433
X161.8368 Y-0.4498
X161.8137 Y-0.4932 Z-8.9935
X161.7921 Y-0.5337 Z-8.9745
X161.7736 Y-0.5684 Z-8.9444
X161.7594 Y-0.595 Z-8.905
X161.7505 Y-0.6118 Z-8.8592
X161.7475 Y-0.6175 Z-8.81
G0 Z5
X190.05 Y29.7929
Z2
G1 Z-7.7599 F3200
Y29.7867 Z-7.808 F1200
Y29.7685 Z-7.853
Y29.7395 Z-7.8919
Y29.7017 Z-7.9222
Y29.6574 Z-7.9419
Y29.6095 Z-7.9498
Y0.0232 Z-8.9829
X190.0506 Y-0.0318 Z-8.9849
X190.054 Y-0.0869 Z-8.9868
X190.0607 Y-0.142 Z-8.9887
X190.0707 Y-0.197 Z-8.9907
X190.0819 Y-0.2441 Z-8.9924
X190.0958 Y-0.2913 Z-8.9941
X190.101 Y-0.3071 Z-8.9947
X190.1218 Y-0.3622 Z-8.9967
X190.1466 Y-0.4173 Z-8.9988
X190.1598 Y-0.4433 Z-8.9999
X190.1601 Y-0.444
X190.1633 Y-0.4498 Z-9
X190.1598 Y-0.4433 F3200
X190.1466 Y-0.4173
X190.1218 Y-0.3622
X190.101 Y-0.3071
X190.0958 Y-0.2913
X190.0819 Y-0.2441
X190.0707 Y-0.197
X190.0607 Y-0.142
X190.054 Y-0.0869
X190.0506 Y-0.0318
X190.05 Y0.0232
Y262.7683
X190.0533 Y262.8785
X190.0594 Y262.9335
X190.0689 Y262.9886
X190.0808 Y263.0399
X190.0958 Y263.0913
X190.0982 Y263.0987
X190.1183 Y263.1538
X190.1425 Y263.2088
X190.1562 Y263.2364
X190.1598 Y263.2433
X190.1625 Y263.2484
G0 Z6

(Operation 2 of 2 : Horizontal1  2 )

G54
S30000 M3
X189.0051 Y5.0242
Z6
Z-5.1
G1 Z-5.91 F3200
X189.0115 Y5.0243 Z-5.9592
X189.0305 Y5.0245 Z-6.005
X189.0607 Y5.0248 Z-6.0443
X189.1001 Y5.0251 Z-6.0745
X189.1459 Y5.0256 Z-6.0935
X189.1951 Y5.0261 Z-6.1
X195.8739 Y5.0927
X195.9151 Y5.0886
X195.9544 Y5.0757
X195.9901 Y5.0545
X196.0202 Y5.0261
G3 X196.3934 Y4.8541 I0.3732 J0.3189
G1 X198.4544
G3 X198.8773 Y5.3181 J0.4247
G2 X198.8672 Y5.4413 I5.59 J0.5193
G3 X198.4436 Y5.836 I-0.4236 J-0.03
G1 X196.3934
G3 X196.0202 Y5.0261 J-0.4909
G2 X196.3743 Y4.3264 I-1.2609 J-1.0774
G3 X196.9887 Y3.8391 I0.6144 J0.1437
G1 X199.655
G3 X200.0658 Y4.3682 J0.424
G2 X199.8942 Y5.3245 I6.4788 J1.656
X199.8685 Y6.2958 I6.1749 J0.6496
G3 X199.3414 Y6.851 I-0.5271 J0.0273
G1 X195.4155
G3 X194.8391 Y6.2745 J-0.5764
G1 Y4.4156
G3 X195.4155 Y3.8391 I0.5764
G1 X196.9887
G2 X197.9453 Y3.2014 J-1.0363
G3 X198.9019 Y2.5636 I0.9566 J0.3986
G1 X201.7676
G3 X202.0273 Y3.041 J0.3093
G2 X201.2231 Y5.068 I4.6862 J3.0323
X201.273 Y7.2482 I5.2945 J0.9694
X201.3251 Y7.4287 I1.6936 J-0.391
G3 X201.3843 Y7.6071 I-5.9708 J2.0789
X201.0034 Y8.1265 I-0.3809 J0.12
G1 X194.14
G3 X193.5636 Y7.55 J-0.5764
G1 Y3.1401
G3 X194.14 Y2.5636 I0.5764
G1 X198.9019
X198.9511 Y2.5701
X198.9969 Y2.5891
X199.0363 Y2.6193
X199.0665 Y2.6586
X199.0855 Y2.7044
X199.0919 Y2.7536
Y2.8028 Z-6.0935
Y2.8486 Z-6.0745
Y2.888 Z-6.0443
Y2.9182 Z-6.005
Y2.9372 Z-5.9592
Y2.9436 Z-5.91
G0 Z5
X254 Y-1.9949
Z-5.1
G1 Z-5.91 F3200
Y-1.9884 Z-5.9592
Y-1.9695 Z-6.005
Y-1.9393 Z-6.0443
Y-1.8999 Z-6.0745
Y-1.8541 Z-6.0935
Y-1.8049 Z-6.1
Y-1.7993
X253.8101 Y4.6584
X253.8154 Y4.7087
X253.8337 Y4.7558
X253.8637 Y4.7964
X253.9034 Y4.8276
X253.95 Y4.8473
X254 Y4.854
X293.4546
G3 X293.8774 Y5.318 J0.4247
G2 X293.8673 Y5.4414 I5.5899 J0.5194
G3 X293.4437 Y5.8361 I-0.4236 J-0.03
G1 X214.5564
G3 X214.1328 Y5.4414 J-0.4247
G2 X214.1227 Y5.318 I-5.5999 J0.396
G3 X214.5455 Y4.854 I0.4229 J-0.0393
G1 X254
G2 X254.7615 Y4.3464 J-0.8249
G3 X255.5229 Y3.8388 I0.7615 J0.3173
G1 X294.6558
G3 X295.0662 Y4.3673 J0.4236
G2 X294.8944 Y5.3244 I6.4699 J1.6552
X294.8687 Y6.2965 I6.1777 J0.6493
G3 X294.342 Y6.8513 I-0.5267 J0.0274
G1 X213.6582
G3 X213.1312 Y6.2962 J-0.5277
G2 X213.1055 Y5.3245 I-6.1989 J-0.3222
X212.9337 Y4.3678 I-6.6491 J0.6996
G3 X213.3445 Y3.8388 I0.4108 J-0.105
G1 X255.5229
G2 X256.4796 Y3.201 J-1.0363
G3 X257.4362 Y2.5633 I0.9566 J0.3986
G1 X296.7684 Y2.5632
G3 X297.0281 Y3.0407 J0.3094
G2 X296.304 Y4.6297 I5.0069 J3.241
X296.1107 Y6.3652 I4.967 J1.4318
X296.2094 Y6.9949 I3.2927 J-0.1938
X296.3849 Y7.6076 I11.6026 J-2.9913
G3 X296.0042 Y8.1268 I-0.3807 J0.1201
G1 X211.9958
G3 X211.6152 Y7.6077 J-0.3991
G2 X211.8311 Y5.4353 I-5.0776 J-1.6016
X211.1764 Y3.3527 I-5.54 J0.5973
X211.077 Y3.1947 I-1.3671 J0.75
G3 X210.9719 Y3.0405 I3.2323 J-2.315
X211.2315 Y2.5633 I0.2595 J-0.168
G1 X257.4362
X257.4854 Y2.5697
X257.5312 Y2.5887
X257.5705 Y2.6189
X257.6007 Y2.6582
X257.6197 Y2.7041
X257.6262 Y2.7533
Y2.8024 Z-6.0935
Y2.8483 Z-6.0745
Y2.8876 Z-6.0443
Y2.9178 Z-6.005
Y2.9368 Z-5.9592
Y2.9433 Z-5.91
G0 Z5
X309.1226 Y-1.9949
Z-5.1
G1 Z-5.91 F3200
Y-1.9884 Z-5.9592
Y-1.9695 Z-6.005
Y-1.9393 Z-6.0443
Y-1.8999 Z-6.0745
Y-1.8541 Z-6.0935
Y-1.8049 Z-6.1
X309.1229 Y-1.7948
X309.5016 Y5.2903
X309.4969 Y5.3435
X309.4776 Y5.3933
X309.4452 Y5.4357
X309.4023 Y5.4675
X309.3522 Y5.4861
X309.2989 Y5.49
X309.2467 Y5.4789
X309.1996 Y5.4537
X309.1613 Y5.4164
X309.135 Y5.3699
X309.1226 Y5.318
G3 X309.5455 Y4.854 I0.4229 J-0.0393
G1 X313.7214
G3 X314.1461 Y5.2787 J0.4247
G1 Y5.4114
G3 X313.7214 Y5.8361 I-0.4247
G1 X309.5563
G3 X309.1327 Y5.4414 J-0.4247
G2 X309.1226 Y5.318 I-5.5999 J0.396
X308.621 Y4.6557 I-0.7842 J0.0729
G3 X308.7726 Y3.8388 I0.1516 J-0.3944
G1 X314.5849
G3 X315.1613 Y4.4152 J0.5764
G1 Y6.2749
G3 X314.5849 Y6.8513 I-0.5764
G1 X308.6581
G3 X308.1313 Y6.2964 J-0.5275
G2 X308.1315 Y5.57 I-7.0246 J-0.3653
X308.0522 Y4.8479 I-6.2495 J0.3212
X307.9979 Y4.6066 I-2.2596 J0.3821
G3 X307.9336 Y4.3678 I9.4708 J-2.677
X308.3444 Y3.8388 I0.4108 J-0.105
G1 X308.7726
G2 X309.7292 Y3.201 J-1.0364
G3 X310.6859 Y2.5632 I0.9566 J0.3986
G1 X315.8604
G3 X316.4368 Y3.1397 J0.5764
G1 Y7.5504
G3 X315.8604 Y8.1268 I-0.5764
G1 X306.9967
G3 X306.6154 Y7.6068 J-0.3999
G2 X306.8307 Y5.4298 I-5.0843 J-1.6022
X306.1709 Y3.344 I-5.5182 J0.5985
X306.074 Y3.1906 I-1.3631 J0.7532
G3 X305.9719 Y3.0406 I3.1504 J-2.2554
X306.2316 Y2.5632 I0.2597 J-0.1681
G1 X310.6859
G2 X311.5353 Y1.997 J-0.9202
G3 X312.3847 Y1.4307 I0.8494 J0.3539
G1 X317.0045
G3 X317.5694 Y1.9956 J0.5649
G1 Y8.6945
G3 X317.0045 Y9.2594 I-0.5649
G1 X304.8598
G3 X304.6588 Y8.813 J-0.2684
G2 X300.543 Y1.7989 I-3.2014 J-2.8361
X297.6282 Y4.1608 I0.8724 J4.0562
X297.6886 Y7.912 I4.048 J1.8109
X297.9857 Y8.3845 I2.3161 J-1.127
X298.3421 Y8.8142 I9.8103 J-7.7722
G3 X298.1389 Y9.2594 I-0.2032 J0.1762
G1 X209.8614
G3 X209.6579 Y8.8137 J-0.2693
G2 X210.7268 Y6.431 I-3.4198 J-2.9652
X210.243 Y3.8647 I-4.1745 J-0.5417
X205.6431 Y1.733 I-3.7463 J2.0551
X202.2233 Y5.4758 I0.8603 J4.2198
X202.4334 Y7.262 I3.9525 J0.4406
X203.3423 Y8.814 I4.6092 J-1.6573
G3 X203.139 Y9.2594 I-0.2033 J0.1763
G1 X192.9955
G3 X192.4306 Y8.6945 J-0.5649
G1 X192.4307 Y1.9956
G3 X192.9956 Y1.4307 I0.5649
G1 X312.3847
G2 X312.9704 Y1.0402 J-0.6345
G3 X313.556 Y0.6498 I0.5856 J0.244
G1 X317.7738
G3 X318.3503 Y1.2262 J0.5764
G1 Y9.4638
G3 X317.7739 Y10.0403 I-0.5764
G1 X192.2262
G3 X191.6498 Y9.4638 J-0.5764
G1 Y1.2263
G3 X192.2262 Y0.6498 I0.5764
G1 X313.556
G2 X314.6133 Y-0.0551 J-1.1454
G3 X315.6706 Y-0.7599 I1.0573 J0.4405
G1 X318.9669
X319.077 Y-0.7557
X319.1321 Y-0.748
X319.1871 Y-0.7363
X319.2422 Y-0.7201
X319.2972 Y-0.6992
X319.3383 Y-0.6801
X319.3793 Y-0.6582
X319.4073 Y-0.6413
X319.4348 Y-0.6229
X319.4624 Y-0.6029
X319.4899 Y-0.5807
X319.5254 Y-0.5481
X319.5775 Y-0.493
X319.6002 Y-0.4655
X319.621 Y-0.438
X319.6588 Y-0.3779
X319.6852 Y-0.3279
X319.709 Y-0.2728
X319.7281 Y-0.2178
X319.7376 Y-0.182
X319.7457 Y-0.1448
X319.752 Y-0.1077
X319.7579 Y-0.0526
X319.7599 Y0.0024
X319.76 Y11.8263
X319.7219 Y11.7824
X319.678 Y11.7346
X319.6275 Y11.6867
X319.6107 Y11.6723
X319.5641 Y11.6356
X319.5174 Y11.6033
X319.4479 Y11.5622
X319.4073 Y11.5417
X319.3523 Y11.5177
X319.2972 Y11.4977
X319.2422 Y11.4814
X319.1871 Y11.4686
X319.1321 Y11.4592
X319.0635 Y11.4521
X318.9669 Y11.45
X191.0289
X190.9365 Y11.4521
X190.9188 Y11.4535
X190.8637 Y11.4598
X190.8087 Y11.4695
X190.7536 Y11.4825
X190.6986 Y11.4991
X190.6435 Y11.5194
X190.5885 Y11.5438
X190.5521 Y11.5622
X190.5152 Y11.583
X190.4784 Y11.606
X190.4338 Y11.6371
X190.3893 Y11.6723
X190.3683 Y11.6905
X190.3202 Y11.7364
X190.2782 Y11.7824
X190.2491 Y11.8181
X190.2423 Y11.827
X190.24 Y11.8255
X190.2401 Y0.0024
X190.2422 Y-0.0526
X190.2481 Y-0.1077
X190.2582 Y-0.1636
X190.272 Y-0.2178
X190.291 Y-0.2728
X190.3147 Y-0.3279
X190.3394 Y-0.3747
X190.3791 Y-0.438
X190.3997 Y-0.4655
X190.4219 Y-0.493
X190.4465 Y-0.5205
X190.4784 Y-0.5518
X190.5059 Y-0.5771
X190.5334 Y-0.5996
X190.5609 Y-0.6201
X190.5885 Y-0.6386
X190.6206 Y-0.6582
X190.6596 Y-0.679
X190.6986 Y-0.6973
X190.7536 Y-0.7187
X190.8087 Y-0.7353
X190.8637 Y-0.7473
X190.9188 Y-0.7553
X191.0289 Y-0.7599
X315.6706
X315.7198 Y-0.7534
X315.7656 Y-0.7345
X315.8049 Y-0.7043
X315.8351 Y-0.6649
X315.8541 Y-0.6191
X315.8606 Y-0.5699
Y-0.5207 Z-6.0935
Y-0.4749 Z-6.0745
Y-0.4356 Z-6.0443
Y-0.4054 Z-6.005
Y-0.3864 Z-5.9592
Y-0.3799 Z-5.91
G0 Z5
X306.8521 Y3.8302
Z-5.1
G1 Z-5.91 F3200
X306.8462 Y3.8328 Z-5.9592
X306.8289 Y3.8405 Z-6.005
X306.8013 Y3.8528 Z-6.0443
X306.7653 Y3.8687 Z-6.0745
X306.7234 Y3.8873 Z-6.0935
X306.6785 Y3.9073 Z-6.1
X305.1248 Y4.5976
X305.0772 Y4.6116
X305.0276 Y4.6129
X304.9794 Y4.6013
X304.9359 Y4.5776
X304.8999 Y4.5434
X304.874 Y4.5011
G2 X301.3856 Y2.3475 I-3.3194 J1.4747
X298.5656 Y3.8184 I0.176 J3.776
X297.9699 Y6.9427 I2.7974 J2.1523
X299.7802 Y9.2011 I3.6006 J-1.0314
X302.6626 Y9.4642 I1.7461 J-3.2087
X305.1322 Y5.3482 I-1.1399 J-3.4829
X304.874 Y4.5011 I-3.5776 J0.6276
X303.2054 Y3.6917 I-1.3138 J0.5837
G3 X301.371 Y3.9652 I-2.2606 J-8.8731
G1 X301.3507 Y3.9661
X301.2406 Y3.9777
X301.1305 Y3.9946
X301.0204 Y4.0183
X300.9102 Y4.0483
X300.8246 Y4.0759
X300.6901 Y4.1283
X300.58 Y4.1805
X300.4698 Y4.2397
X300.3597 Y4.3093
X300.2497 Y4.3886
X300.1396 Y4.4808
X300.1017 Y4.5162
X300.0294 Y4.5875
X299.9925 Y4.6263
X299.8989 Y4.7364
X299.8178 Y4.8465
X299.7474 Y4.9566
X299.6872 Y5.0667
X299.6339 Y5.1768
X299.5891 Y5.2895
X299.5526 Y5.397
X299.5214 Y5.5071
X299.4974 Y5.6172
X299.4789 Y5.7301
X299.4673 Y5.8374
X299.4611 Y5.9475
X299.4612 Y6.0575
X299.4677 Y6.1676
X299.48 Y6.2777
X299.4983 Y6.3878
X299.5226 Y6.4979
X299.5542 Y6.608
X299.5919 Y6.7181
X299.6361 Y6.8282
X299.6897 Y6.9383
X299.7504 Y7.0484
X299.8211 Y7.1585
X299.9028 Y7.2686
X299.9193 Y7.2888
X299.9968 Y7.3787
X300.0294 Y7.4127
X300.1068 Y7.4888
X300.1396 Y7.5193
X300.2497 Y7.6114
X300.3597 Y7.6908
X300.4698 Y7.7601
X300.58 Y7.8196
X300.6901 Y7.8715
X300.8002 Y7.915
X300.838 Y7.9291
X300.9102 Y7.9517
X301.0204 Y7.9817
X301.1305 Y8.0063
X301.2406 Y8.0223
X301.3507 Y8.0339
X301.4608 Y8.039
X301.5709 Y8.0383
X301.681 Y8.0313
X301.7911 Y8.018
X301.9012 Y7.9998
X302.0113 Y7.9739
X302.1214 Y7.9418
X302.1602 Y7.9291
X302.2315 Y7.9033
X302.3416 Y7.8571
X302.4223 Y7.819
X302.4517 Y7.8034
X302.5618 Y7.741
X302.6719 Y7.6696
X302.782 Y7.586
X302.8935 Y7.4888
X303.003 Y7.3787
X303.0517 Y7.3236
X303.0971 Y7.2686
X303.1789 Y7.1585
X303.2494 Y7.0484
X303.3106 Y6.9383
X303.3325 Y6.8947
X303.3632 Y6.8282
X303.4086 Y6.7181
X303.4458 Y6.608
X303.4771 Y6.4979
X303.5017 Y6.3878
X303.5207 Y6.2777
X303.5324 Y6.1676
X303.5388 Y6.0575
X303.5389 Y5.9475
X303.5328 Y5.8374
X303.5213 Y5.7273
X303.5027 Y5.6172
X303.4783 Y5.5071
X303.4426 Y5.3815
X303.4104 Y5.2869
X303.3655 Y5.1768
X303.3325 Y5.1051
X303.313 Y5.0667
X303.2522 Y4.9566
X303.1822 Y4.8465
X303.101 Y4.7364
X303.0558 Y4.6814
X303.0022 Y4.6203
X302.8921 Y4.5099
X302.782 Y4.414
X302.6719 Y4.3304
X302.5618 Y4.259
X302.4321 Y4.186
X302.3416 Y4.143
X302.2315 Y4.0969
X302.1754 Y4.0759
X302.1214 Y4.0582
X302.0113 Y4.0261
X301.9012 Y4.0001
X301.7911 Y3.982
X301.681 Y3.9688
X301.5709 Y3.9617
X301.4608 Y3.961
X301.371 Y3.9652
X301.3216 Y3.961
X301.2749 Y3.9442
X301.2342 Y3.9158
X301.2022 Y3.8779
X301.1811 Y3.833
X301.1724 Y3.7842
X301.1701 Y3.7351 Z-6.0935
X301.168 Y3.6893 Z-6.0745
X301.1661 Y3.65 Z-6.0443
X301.1647 Y3.6198 Z-6.005
X301.1638 Y3.6009 Z-5.9592
X301.1635 Y3.5944 Z-5.91
G0 Z5
X302.8585 Y5.4846
Z-5.182
G1 Z-6.8601 F3200
X302.8583 Y5.4864 Z-6.8866 F1200
X302.8576 Y5.4919 Z-6.9125
X302.8565 Y5.5009 Z-6.9374
X302.8548 Y5.5132 Z-6.9608
X302.8525 Y5.5286 Z-6.9822
X302.8494 Y5.5468 Z-7.0013
X302.8454 Y5.5673 Z-7.0176
X302.8405 Y5.5897 Z-7.0309
X302.8346 Y5.6136 Z-7.0408
X302.8277 Y5.6383 Z-7.0472
X302.8199 Y5.6635 Z-7.05
G3 X302.8553 Y5.5102 Z-7.2425 I-0.8584 J-0.2786
X302.8634 Y5.3531 Z-7.435 I-0.8937 J-0.1253
X302.8442 Y5.197 Z-7.6276 I-0.9019 J0.0318
X302.7982 Y5.0466 Z-7.8201 I-0.8827 J0.1879
X302.7267 Y4.9064 Z-8.0126 I-0.8367 J0.3384
X301.42 Y6.1069 Z-8.1 I-0.7652 J0.4785
G1 X301.3897 Y6.0751 F3200
X301.3713 Y6.0352
X301.3669 Y5.9915
X301.3769 Y5.9487
X301.4003 Y5.9114
X301.4345 Y5.8838
X301.4758 Y5.8688
X301.5197 Y5.868
X301.5616 Y5.8815
X301.5967 Y5.9079
X301.6214 Y5.9443
X301.633 Y5.9867
X301.6301 Y6.0306
X301.6132 Y6.0711
X301.584 Y6.104
X301.5457 Y6.1256
X301.5025 Y6.1336
X301.459 Y6.1272
X301.42 Y6.1069
G2 X300.4701 Y5.7512 I-1.0818 J1.4424
G3 X300.082 Y4.814 I0.0415 J-0.5661
G1 X300.149 Y4.7364
X300.2497 Y4.6372
X300.3597 Y4.5437
X300.3949 Y4.5162
X300.4698 Y4.4641
X300.5616 Y4.4061
X300.6901 Y4.3371
X300.7802 Y4.296
X300.8002 Y4.2878
X300.9102 Y4.2467
X301.0204 Y4.2135
X301.1382 Y4.186
X301.2406 Y4.1689
X301.3507 Y4.1563
X301.4608 Y4.151
X301.5709 Y4.1517
X301.681 Y4.1592
X301.7911 Y4.1736
X301.8618 Y4.186
X301.9012 Y4.1943
X302.0113 Y4.2221
X302.1214 Y4.2581
X302.2315 Y4.3011
X302.3416 Y4.353
X302.4385 Y4.4061
X302.5618 Y4.4853
X302.6051 Y4.5162
X302.6719 Y4.5691
X302.7383 Y4.6263
X302.782 Y4.6669
X302.851 Y4.7364
X302.8921 Y4.7817
X302.946 Y4.8465
X303.0022 Y4.9209
X303.0274 Y4.9566
X303.097 Y5.0667
X303.1123 Y5.0935
X303.1563 Y5.1768
X303.207 Y5.2869
X303.2224 Y5.3259
X303.2484 Y5.397
X303.2826 Y5.5071
X303.3096 Y5.6172
X303.3294 Y5.7273
X303.3325 Y5.7487
X303.3424 Y5.8374
X303.3489 Y5.9475
X303.3488 Y6.0575
X303.342 Y6.1676
X303.3325 Y6.2513
X303.3286 Y6.2777
X303.3086 Y6.3878
X303.2813 Y6.4979
X303.2467 Y6.608
X303.2224 Y6.6741
X303.2048 Y6.7181
X303.1539 Y6.8282
X303.1123 Y6.9065
X303.0942 Y6.9383
X303.024 Y7.0484
X303.0022 Y7.0791
X302.9422 Y7.1585
X302.8921 Y7.2183
X302.8462 Y7.2686
X302.782 Y7.3331
X302.7328 Y7.3787
X302.6719 Y7.4309
X302.5981 Y7.4888
X302.5618 Y7.5148
X302.4517 Y7.586
X302.4297 Y7.5989
X302.3416 Y7.647
X302.2315 Y7.6989
X302.2083 Y7.7089
X302.1214 Y7.7419
X302.0113 Y7.7779
X301.9012 Y7.8057
X301.8374 Y7.819
X301.7911 Y7.8264
X301.681 Y7.8408
X301.5709 Y7.8483
X301.4608 Y7.849
X301.3507 Y7.8437
X301.2406 Y7.8311
X301.1626 Y7.819
X301.1305 Y7.8125
X301.0204 Y7.7865
X300.9102 Y7.7533
X300.7918 Y7.7089
X300.6901 Y7.6629
X300.5704 Y7.5989
X300.4698 Y7.5359
X300.4019 Y7.4888
X300.3597 Y7.4563
X300.2673 Y7.3787
X300.2497 Y7.3628
X300.1538 Y7.2686
X300.1396 Y7.2533
X300.0579 Y7.1585
X300.0294 Y7.1219
X299.976 Y7.0484
X299.9193 Y6.9607
X299.9058 Y6.9383
X299.8461 Y6.8282
X299.8092 Y6.75
X299.7953 Y6.7181
X299.7534 Y6.608
X299.7188 Y6.4979
X299.6992 Y6.4211
X299.6914 Y6.3878
X299.6714 Y6.2777
X299.6581 Y6.1676
X299.6512 Y6.0575
X299.6511 Y5.9475
X299.6576 Y5.8374
X299.6706 Y5.7273
X299.6904 Y5.6172
X299.6992 Y5.5789
X299.7174 Y5.5071
X299.7516 Y5.397
X299.7931 Y5.2869
X299.8092 Y5.25
X299.8437 Y5.1768
X299.903 Y5.0667
X299.9193 Y5.0394
X299.9727 Y4.9566
X300.0294 Y4.8781
X300.054 Y4.8465
X300.082 Y4.814
X300.1011 Y4.7949 Z-8.0981
X300.1222 Y4.779 Z-8.0923
X300.1444 Y4.7666 Z-8.0828
X300.1664 Y4.7577 Z-8.0698
X300.1874 Y4.7521 Z-8.0536
X300.2063 Y4.7492 Z-8.0344
X300.2226 Y4.7482 Z-8.0127
X300.2355 Y4.7485 Z-7.9889
X300.245 Y4.7492 Z-7.9635
X300.2507 Y4.7499 Z-7.937
X300.2526 Y4.7501 Z-7.91
G0 Z5
X212.2414 Y6.1401
Z-5.1
G1 Z-5.91 F3200
X212.235 Y6.1402 Z-5.9592
X212.216 Y6.1405 Z-6.005
X212.1858 Y6.1409 Z-6.0443
X212.1465 Y6.1414 Z-6.0745
X212.1006 Y6.1421 Z-6.0935
X212.0515 Y6.1427 Z-6.1
X210.3515 Y6.1659
X210.3022 Y6.1601
X210.2562 Y6.1417
X210.2164 Y6.1121
X210.1857 Y6.0732
X210.1661 Y6.0276
X210.1589 Y5.9785
G2 X210.1164 Y5.4771 I-3.5504 J0.0484
X205.6441 Y2.4476 I-3.6498 J0.572
X206.6412 Y9.6517 I0.8103 J3.5589
X209.3058 Y8.3361 I-0.2059 J-3.7731
X210.1589 Y5.9785 I-2.6972 J-2.3092
X208.9893 Y4.604 I-1.4152 J0.0193
G3 X207.2543 Y4.1065 I1.4955 J-8.4906
G1 X207.2138 Y4.0902
X207.1759 Y4.0759
X207.1037 Y4.0527
X206.9936 Y4.0217
X206.8835 Y3.997
X206.7734 Y3.9796
X206.6633 Y3.9673
X206.5532 Y3.9613
X206.4431
X206.333 Y3.9676
X206.2229 Y3.9801
X206.1128 Y3.9976
X206.0027 Y4.0226
X205.8926 Y4.0538
X205.8239 Y4.0759
X205.7825 Y4.0916
X205.6724 Y4.1364
X205.5623 Y4.1893
X205.4522 Y4.2504
X205.3421 Y4.3209
X205.2272 Y4.4061
X205.1219 Y4.4966
X205.1006 Y4.5162
X205.0118 Y4.6053
X204.9925 Y4.6263
X204.899 Y4.7364
X204.8177 Y4.8465
X204.7477 Y4.9566
X204.6815 Y5.077
X204.6345 Y5.1768
X204.59 Y5.2869
X204.5714 Y5.3369
X204.5526 Y5.397
X204.5216 Y5.5071
X204.4964 Y5.6172
X204.4795 Y5.7273
X204.4672 Y5.8374
X204.4613 Y5.9454
X204.4614 Y6.0575
X204.4677 Y6.1676
X204.4802 Y6.2777
X204.4974 Y6.3878
X204.5228 Y6.4979
X204.5541 Y6.608
X204.5714 Y6.6625
X204.5918 Y6.7181
X204.6367 Y6.8282
X204.6815 Y6.9235
X204.7506 Y7.0484
X204.821 Y7.1585
X204.9029 Y7.2686
X204.9972 Y7.3787
X205.0118 Y7.3946
X205.106 Y7.4888
X205.1219 Y7.5033
X205.2336 Y7.5989
X205.3421 Y7.6791
X205.4522 Y7.7495
X205.5776 Y7.819
X205.6724 Y7.8636
X205.7825 Y7.9086
X205.8385 Y7.9291
X205.8926 Y7.9462
X206.0027 Y7.9774
X206.1128 Y8.0028
X206.2229 Y8.0199
X206.333 Y8.0324
X206.4431 Y8.0387
X206.5532 Y8.0388
X206.6633 Y8.0327
X206.7734 Y8.0204
X206.8835 Y8.0035
X206.9936 Y7.9783
X207.1037 Y7.9473
X207.1621 Y7.9291
X207.2138 Y7.91
X207.3239 Y7.8653
X207.4221 Y7.819
X207.5441 Y7.7516
X207.6542 Y7.6816
X207.7664 Y7.5989
X207.8744 Y7.5068
X207.8942 Y7.4888
X207.9845 Y7.3986
X208.0029 Y7.3787
X208.0972 Y7.2686
X208.179 Y7.1585
X208.2495 Y7.0484
X208.3148 Y6.9304
X208.3633 Y6.8282
X208.4081 Y6.7181
X208.4249 Y6.6736
X208.4459 Y6.608
X208.4772 Y6.4979
X208.5025 Y6.3878
X208.5199 Y6.2777
X208.5324 Y6.1676
X208.5387 Y6.0575
X208.5388 Y5.9475
X208.5328 Y5.8374
X208.5206 Y5.7273
X208.5033 Y5.6172
X208.4784 Y5.5071
X208.4475 Y5.397
X208.4249 Y5.3266
X208.41 Y5.2869
X208.3656 Y5.1768
X208.313 Y5.0667
X208.2526 Y4.9566
X208.1824 Y4.8465
X208.0946 Y4.7281
X208.0075 Y4.6263
X207.9845 Y4.6015
X207.8993 Y4.5162
X207.8744 Y4.4932
X207.7643 Y4.3995
X207.6542 Y4.3184
X207.5441 Y4.2481
X207.4313 Y4.186
X207.3239 Y4.1347
X207.2543 Y4.1065
X207.2112 Y4.0821
X207.1758 Y4.0474
X207.1506 Y4.0046
X207.1374 Y3.9568
X207.1369 Y3.9072
X207.1494 Y3.8592
X207.1678 Y3.8136 Z-6.0935
X207.185 Y3.7711 Z-6.0745
X207.1997 Y3.7346 Z-6.0443
X207.211 Y3.7066 Z-6.005
X207.2181 Y3.689 Z-5.9592
X207.2206 Y3.683 Z-5.91
G0 Z5
X205.2728 Y5.2225
Z-5.1823
G1 Z-6.8601 F3200
X205.2744 Y5.2216 Z-6.8866 F1200
X205.2791 Y5.2188 Z-6.9125
X205.287 Y5.2143 Z-6.9374
X205.2979 Y5.2082 Z-6.9608
X205.3116 Y5.2009 Z-6.9822
X205.328 Y5.1925 Z-7.0013
X205.3468 Y5.1834 Z-7.0176
X205.3677 Y5.1738 Z-7.0309
X205.3903 Y5.1642 Z-7.0408
X205.4142 Y5.1549 Z-7.0472
X205.4391 Y5.146 Z-7.05
G3 X205.2952 Y5.2097 Z-7.2425 I0.2922 J0.8539
X205.1646 Y5.2974 Z-7.435 I0.436 J0.7902
X205.0513 Y5.4065 Z-7.6276 I0.5666 J0.7025
X204.9585 Y5.5336 Z-7.8201 I0.68 J0.5934
X204.8893 Y5.6748 Z-8.0126 I0.7727 J0.4663
X206.6338 Y5.9999 Z-8.1 I0.8419 J0.325
G1 X206.6265 Y6.0433 F3200
X206.6056 Y6.082
X206.5732 Y6.1118
X206.5329 Y6.1295
X206.489 Y6.1331
X206.4464 Y6.1223
X206.4095 Y6.0982
X206.3825 Y6.0635
X206.3682 Y6.0219
Y5.9779
X206.3825 Y5.9362
X206.4095 Y5.9015
X206.4464 Y5.8774
X206.489 Y5.8666
X206.5329 Y5.8703
X206.5732 Y5.8879
X206.6056 Y5.9177
X206.6265 Y5.9565
X206.6338 Y5.9999
G2 X206.9176 Y6.9727 I1.809
G3 X206.4041 Y7.8463 I-0.4795 J0.3059
G1 X206.333 Y7.8421
X206.2229 Y7.8285
X206.1628 Y7.819
X206.1128 Y7.8088
X206.0027 Y7.7817
X205.8926 Y7.747
X205.7825 Y7.7051
X205.6724 Y7.6543
X205.5623 Y7.5944
X205.4522 Y7.5243
X205.4018 Y7.4888
X205.3421 Y7.4425
X205.2671 Y7.3787
X205.232 Y7.3465
X205.154 Y7.2686
X205.1219 Y7.2335
X205.0579 Y7.1585
X205.0118 Y7.0989
X204.9759 Y7.0484
X204.9017 Y6.9313
X204.8459 Y6.8282
X204.7916 Y6.7098
X204.7534 Y6.608
X204.7185 Y6.4979
X204.6913 Y6.3878
X204.6815 Y6.3396
X204.6716 Y6.2777
X204.658 Y6.1676
X204.6514 Y6.0575
X204.6513 Y5.9475
X204.6575 Y5.8374
X204.6709 Y5.7273
X204.6815 Y5.6604
X204.6903 Y5.6172
X204.7172 Y5.5071
X204.7516 Y5.397
X204.793 Y5.2869
X204.8435 Y5.1768
X204.9028 Y5.0667
X204.9725 Y4.9566
X205.0118 Y4.9011
X205.054 Y4.8465
X205.1219 Y4.7665
X205.1493 Y4.7364
X205.232 Y4.6535
X205.2616 Y4.6263
X205.3421 Y4.5575
X205.3949 Y4.5162
X205.4522 Y4.4758
X205.5623 Y4.4056
X205.6724 Y4.3457
X205.7825 Y4.2949
X205.8926 Y4.253
X206.0027 Y4.2183
X206.1128 Y4.1912
X206.1384 Y4.186
X206.2229 Y4.1715
X206.333 Y4.1579
X206.4431 Y4.1513
X206.5532
X206.6633 Y4.1576
X206.7734 Y4.171
X206.8616 Y4.186
X206.8835 Y4.1904
X206.9936 Y4.2173
X207.1037 Y4.2517
X207.2201 Y4.296
X207.3239 Y4.3439
X207.4386 Y4.4061
X207.5441 Y4.4733
X207.6051 Y4.5162
X207.6542 Y4.5546
X207.7385 Y4.6263
X207.7643 Y4.6499
X207.8508 Y4.7364
X207.8744 Y4.7624
X207.946 Y4.8465
X207.9845 Y4.8959
X208.0275 Y4.9566
X208.0972 Y5.0667
X208.1565 Y5.1768
X208.207 Y5.2869
X208.2484 Y5.397
X208.2828 Y5.5071
X208.3097 Y5.6172
X208.3148 Y5.6422
X208.3292 Y5.7273
X208.3425 Y5.8374
X208.3488 Y5.9475
X208.3487 Y6.0575
X208.342 Y6.1676
X208.3284 Y6.2777
X208.3148 Y6.3578
X208.3087 Y6.3878
X208.2815 Y6.4979
X208.2466 Y6.608
X208.2047 Y6.7184
X208.1541 Y6.8282
X208.0943 Y6.9383
X208.0242 Y7.0484
X207.9845 Y7.1041
X207.9421 Y7.1585
X207.8744 Y7.2376
X207.846 Y7.2686
X207.7643 Y7.3501
X207.733 Y7.3787
X207.6542 Y7.4455
X207.5982 Y7.4888
X207.5441 Y7.5267
X207.4298 Y7.5989
X207.3239 Y7.6562
X207.2088 Y7.7089
X207.1037 Y7.7483
X206.9936 Y7.7827
X206.8835 Y7.8096
X206.8373 Y7.819
X206.7734 Y7.829
X206.6633 Y7.8424
X206.5532 Y7.8487
X206.4431
X206.4041 Y7.8463
X206.3773 Y7.8428 Z-8.0981
X206.3518 Y7.8357 Z-8.0923
X206.3285 Y7.8256 Z-8.0828
X206.3081 Y7.8135 Z-8.0698
X206.2909 Y7.8002 Z-8.0536
X206.2771 Y7.7869 Z-8.0344
X206.2665 Y7.7746 Z-8.0127
X206.2588 Y7.7642 Z-7.9889
X206.2536 Y7.7562 Z-7.9635
X206.2507 Y7.7513 Z-7.937
X206.2497 Y7.7496 Z-7.91
G0 Z5
X154.1227 Y-1.9949
Z-5.1
G1 Z-5.91 F3200
Y-1.9884 Z-5.9592
Y-1.9694 Z-6.005
Y-1.9393 Z-6.0443
Y-1.8999 Z-6.0745
Y-1.8541 Z-6.0935
Y-1.8049 Z-6.1
X154.1229 Y-1.7948
X154.5016 Y5.2897
X154.4969 Y5.3429
X154.4776 Y5.3928
X154.4452 Y5.4353
X154.4022 Y5.467
X154.352 Y5.4856
X154.2987 Y5.4894
X154.2464 Y5.4782
X154.1993 Y5.4529
X154.1612 Y5.4155
X154.1349 Y5.3689
X154.1227 Y5.3169
G3 X154.5456 Y4.8541 I0.423 J-0.0381
G1 X155.6066
G3 Y5.836 J0.4909
G1 X154.5564
G3 X154.1328 Y5.4413 J-0.4247
G2 X154.1227 Y5.3169 I-5.7029 J0.4034
X153.6315 Y4.6508 I-0.7975 J0.0739
G3 X153.7928 Y3.839 I0.1613 J-0.3898
G1 X156.5846
G3 X157.161 Y4.4155 J0.5764
G1 Y6.2746
G3 X156.5846 Y6.851 I-0.5764
G1 X153.6595
G3 X153.1315 Y6.295 J-0.5287
G2 X153.1057 Y5.3241 I-6.204 J-0.3208
X152.9341 Y4.3681 I-6.6481 J0.6996
G3 X153.3449 Y3.839 I0.4108 J-0.105
G1 X153.7928
G2 X154.7495 Y3.2012 J-1.0364
G3 X155.7063 Y2.5634 I0.9567 J0.3986
G1 X157.8602
G3 X158.4366 Y3.1398 J0.5764
G1 X158.4367 Y7.5502
G3 X157.8602 Y8.1267 I-0.5764
G1 X151.996
G3 X151.6154 Y7.6075 J-0.3991
G2 X151.3202 Y3.6048 I-5.1715 J-1.6309
X151.155 Y3.3174 I-2.093 J1.0117
G3 X150.9724 Y3.0408 I14.8124 J-9.9815
X151.2321 Y2.5634 I0.2597 J-0.1681
G1 X155.7063
X155.7554 Y2.5699
X155.8013 Y2.5889
X155.8406 Y2.6191
X155.8708 Y2.6584
X155.8898 Y2.7042
X155.8963 Y2.7534
Y2.8026 Z-6.0935
Y2.8484 Z-6.0745
Y2.8878 Z-6.0443
Y2.918 Z-6.005
Y2.9369 Z-5.9592
Y2.9434 Z-5.91
G0 Z5
X99 Y-1.9949
Z-5.1
G1 Z-5.91 F3200
Y-1.9884 Z-5.9592
Y-1.9695 Z-6.005
Y-1.9393 Z-6.0443
Y-1.8999 Z-6.0745
Y-1.8541 Z-6.0935
Y-1.8049 Z-6.1
X98.9999 Y-1.7993
X98.8101 Y4.6584
X98.8153 Y4.7087
X98.8336 Y4.7557
X98.8637 Y4.7963
X98.9034 Y4.8276
X98.9499 Y4.8473
X99 Y4.854
X138.4546
G3 X138.8774 Y5.3179 J0.4247
G2 X138.8673 Y5.4414 I5.5898 J0.5194
G3 X138.4437 Y5.8361 I-0.4236 J-0.03
G1 X59.5563
G3 X59.1327 Y5.4414 J-0.4247
G2 X59.1226 Y5.3179 I-5.5999 J0.396
G3 X59.5455 Y4.854 I0.4228 J-0.0393
G1 X99
G2 X99.7615 Y4.3463 J-0.825
G3 X100.523 Y3.8387 I0.7615 J0.3173
G1 X139.6556
G3 X140.0664 Y4.3677 J0.424
G2 X139.8947 Y5.3245 I6.4765 J1.6563
X139.869 Y6.2963 I6.1731 J0.6495
G3 X139.342 Y6.8514 I-0.527 J0.0274
G1 X58.6581
G3 X58.131 Y6.2963 J-0.5277
G2 X57.934 Y4.3667 I-6.3269 J-0.3289
G3 X58.344 Y3.8387 I0.4099 J-0.1049
G1 X100.523
G2 X101.4796 Y3.2009 J-1.0363
G3 X102.4362 Y2.5632 I0.9566 J0.3986
G1 X141.7684
G3 X142.0281 Y3.0406 J0.3093
G2 X141.2258 Y5.0598 I4.6753 J3.0267
X141.2693 Y7.2321 I5.3275 J0.9799
X141.3231 Y7.421 I1.7144 J-0.3869
G3 X141.3848 Y7.6074 I-6.5629 J2.2755
X141.004 Y8.1269 I-0.3809 J0.1201
G1 X56.9957
G3 X56.6151 Y7.6078 J-0.3991
G2 X56.3243 Y3.6126 I-5.1725 J-1.6317
X56.1569 Y3.3212 I-2.1144 J1.021
G3 X55.9717 Y3.0408 I14.806 J-9.9801
X56.2316 Y2.5632 I0.2598 J-0.1681
G1 X102.4362
X102.4854 Y2.5697
X102.5312 Y2.5887
X102.5706 Y2.6189
X102.6007 Y2.6582
X102.6197 Y2.704
X102.6262 Y2.7532
Y2.8024 Z-6.0935
Y2.8482 Z-6.0745
Y2.8875 Z-6.0443
Y2.9177 Z-6.005
Y2.9367 Z-5.9592
Y2.9432 Z-5.91
G0 Z5
X31.0057 Y5.3459
Z-5.1
G1 Z-5.91 F3200
X31.0122 Z-5.9592
X31.0311 Z-6.005
X31.0613 Z-6.0443
X31.1007 Y5.3458 Z-6.0745
X31.1465 Z-6.0935
X31.1957 Z-6.1
X31.2013 Y5.3459
X37.659 Y5.535
X37.7092 Y5.5298
X37.7563 Y5.5115
X37.7969 Y5.4814
X37.8282 Y5.4417
X37.8478 Y5.3952
X37.8546 Y5.3451
Y5.2787
G3 X38.2792 Y4.854 I0.4247
G1 X43.4546
G3 X43.8774 Y5.3179 J0.4247
G2 X43.8673 Y5.4414 I5.5898 J0.5194
G3 X43.4437 Y5.8361 I-0.4236 J-0.03
G1 X38.2792
G3 X37.8546 Y5.4115 J-0.4247
G1 Y5.3451
G2 X37.2991 Y4.73 I-0.6183 J0.0001
G3 X37.118 Y3.9213 I0.0444 J-0.4346
X37.4154 Y3.8386 I0.2974 J0.4937
G1 X44.6556
G3 X45.0665 Y4.3677 J0.4241
G2 X44.8947 Y5.3246 I6.4758 J1.6561
X44.869 Y6.2964 I6.1736 J0.6494
G3 X44.342 Y6.8515 I-0.527 J0.0274
G1 X37.4158
G3 X36.8393 Y6.275 J-0.5765
G1 X36.8391 Y4.415
G3 X37.118 Y3.9213 I0.5763 J-0.0001
G2 X37.8054 Y3.1358 I-0.884 J-1.4672
G3 X38.6781 Y2.5632 I0.8727 J0.3786
G1 X46.7687
G3 X47.0283 Y3.0406 J0.3093
G2 X46.2668 Y7.2224 I4.643 J3.0057
X46.3211 Y7.415 I1.76 J-0.3916
G3 X46.384 Y7.6049 I-9.6781 J3.3146
X46.0033 Y8.1269 I-0.3807 J0.1221
G1 X36.1405
G3 X35.564 Y7.5504 J-0.5765
G1 X35.5635 Y3.1396
G3 X36.1399 Y2.5632 I0.5763 J-0.0001
G1 X38.6781
G2 X39.5275 Y1.9969 J-0.9202
G3 X40.377 Y1.4306 I0.8495 J0.3539
G1 X159.0045
G3 X159.5694 Y1.9955 J0.5649
G1 X159.5695 Y8.6946
G3 X159.0046 Y9.2595 I-0.5649
G1 X149.8612
G3 X149.6578 Y8.8139 J-0.2692
G2 X150.7161 Y6.5473 I-3.4477 J-2.9901
X150.3533 Y4.0722 I-4.116 J-0.6609
X142.255 Y5.2609 I-3.8624 J1.8669
X142.4072 Y7.1578 I3.9922 J0.6343
X143.3434 Y8.8145 I4.6235 J-1.5201
G3 X143.1395 Y9.2595 I-0.204 J0.1757
G1 X54.8606
G3 X54.658 Y8.8137 J-0.269
G2 X55.7619 Y5.6964 I-3.3847 J-2.9527
X54.3037 Y2.7283 I-4.0524 J0.1486
X48.4991 Y3.0037 I-2.7519 J3.3063
X48.3411 Y8.8126 I3.0099 J2.9885
G3 X48.1406 Y9.2595 I-0.2005 J0.1785
G1 X34.9965
G3 X34.4316 Y8.6946 J-0.565
G1 X34.4308 Y1.9955
G3 X34.9956 Y1.4306 I0.5648 J-0.0001
G1 X40.377
G2 X40.9592 Y1.0428 J-0.6311
G3 X41.5415 Y0.6551 I0.5818 J0.2426
G1 X146.5478 Y0.731
X159.7738 Y0.6498
G3 X160.3503 Y1.2262 J0.5764
G1 Y9.4639
G3 X159.7739 Y10.0403 I-0.5764
G1 X34.2273
G3 X33.6508 Y9.4639 J-0.5765
G1 X33.6499 Y1.2262
G3 X34.2263 Y0.6498 I0.5763 J-0.0001
G1 X41.5415 Y0.6551
G2 X42.6033 Y-0.0524 I0.0008 J-1.1492
G3 X43.665 Y-0.7599 I1.0618 J0.443
G1 X160.9711
X161.0813 Y-0.7553
X161.1363 Y-0.7473
X161.1913 Y-0.7353
X161.2464 Y-0.7187
X161.3015 Y-0.6973
X161.3404 Y-0.679
X161.3794 Y-0.6582
X161.4116 Y-0.6386
X161.4391 Y-0.6201
X161.4666 Y-0.5996
X161.4941 Y-0.5771
X161.5255 Y-0.5481
X161.5535 Y-0.5205
X161.5781 Y-0.493
X161.6003 Y-0.4655
X161.621 Y-0.438
X161.6606 Y-0.3747
X161.6854 Y-0.3279
X161.7091 Y-0.2728
X161.728 Y-0.2178
X161.7419 Y-0.1636
X161.7519 Y-0.1077
X161.7579 Y-0.0526
X161.7599 Y0.0024
X161.76 Y11.8255
X161.7578 Y11.827
X161.7219 Y11.7824
X161.6799 Y11.7364
X161.6318 Y11.6905
X161.6107 Y11.6723
X161.5662 Y11.6371
X161.5217 Y11.606
X161.4848 Y11.583
X161.4479 Y11.5622
X161.4116 Y11.5438
X161.3565 Y11.5194
X161.3015 Y11.4991
X161.2464 Y11.4825
X161.1913 Y11.4695
X161.1363 Y11.4598
X161.0813 Y11.4535
X161.0635 Y11.4521
X160.9711 Y11.45
X33.0331
X32.9365 Y11.4521
X32.868 Y11.4592
X32.8129 Y11.4686
X32.7579 Y11.4814
X32.7028 Y11.4977
X32.6478 Y11.5177
X32.5927 Y11.5417
X32.5521 Y11.5622
X32.4826 Y11.6033
X32.436 Y11.6356
X32.3893 Y11.6723
X32.3725 Y11.6867
X32.322 Y11.7346
X32.2782 Y11.7824
X32.2512 Y11.8154
X32.2414 Y11.8281
X32.2401 Y0.0024
X32.2422 Y-0.0526
X32.2481 Y-0.1077
X32.2543 Y-0.1448
X32.2624 Y-0.1819
X32.272 Y-0.2178
X32.291 Y-0.2728
X32.3148 Y-0.3279
X32.3412 Y-0.3779
X32.3791 Y-0.438
X32.3999 Y-0.4655
X32.4226 Y-0.493
X32.4826 Y-0.5556
X32.5101 Y-0.5807
X32.5377 Y-0.6029
X32.5652 Y-0.6229
X32.5927 Y-0.6412
X32.6208 Y-0.6582
X32.6618 Y-0.6801
X32.7028 Y-0.6992
X32.7579 Y-0.7201
X32.8129 Y-0.7363
X32.868 Y-0.748
X32.923 Y-0.7557
X33.0331 Y-0.7599
X43.665
X43.6962 Y-0.7547
X43.7239 Y-0.7394
X43.7451 Y-0.716
X47.8021 Y5.6495
X47.8142 Y5.6777
X47.8167 Y5.7083
G2 X51.5963 Y9.653 I3.637 J0.2982
X54.2858 Y8.3562 I-0.1539 J-3.7565
X55.118 Y5.4886 I-2.7042 J-2.3392
X50.6033 Y2.4578 I-3.6397 J0.5438
X47.8167 Y5.7083 I0.8504 J3.5488
X48.8877 Y7.2383 I1.4576 J0.1195
G3 X50.6511 Y7.8536 I-3.618 J13.2028
G1 X50.7595 Y7.9
X50.8696 Y7.9389
X50.9797 Y7.9715
X51.0898 Y7.9977
X51.1999 Y8.0168
X51.31 Y8.0305
X51.4201 Y8.0378
X51.5302 Y8.0392
X51.6403 Y8.0347
X51.7504 Y8.0234
X51.8605 Y8.0077
X51.9706 Y7.9838
X52.0807 Y7.9545
X52.1616 Y7.9291
X52.3009 Y7.8757
X52.4204 Y7.819
X52.5211 Y7.7655
X52.6312 Y7.6969
X52.7413 Y7.6185
X52.8514 Y7.5273
X52.8927 Y7.4888
X52.9615 Y7.4214
X53.0029 Y7.3787
X53.0716 Y7.3
X53.0972 Y7.2686
X53.1817 Y7.1542
X53.2494 Y7.0484
X53.3104 Y6.9383
X53.3639 Y6.8282
X53.4081 Y6.7181
X53.4459 Y6.608
X53.478 Y6.4979
X53.5017 Y6.3878
X53.512 Y6.3304
X53.5199 Y6.2777
X53.5324 Y6.1676
X53.5387 Y6.0575
X53.5388 Y5.9475
X53.5328 Y5.8374
X53.5205 Y5.7273
X53.512 Y5.6701
X53.5027 Y5.6172
X53.4791 Y5.5071
X53.4475 Y5.397
X53.41 Y5.2869
X53.3661 Y5.1768
X53.313 Y5.0667
X53.2523 Y4.9566
X53.1817 Y4.846
X53.1012 Y4.7364
X53.0716 Y4.7002
X53.0074 Y4.6263
X52.9615 Y4.5789
X52.8978 Y4.5162
X52.8514 Y4.4731
X52.7413 Y4.3814
X52.6204 Y4.296
X52.5211 Y4.2345
X52.411 Y4.176
X52.3009 Y4.1241
X52.1751 Y4.0759
X52.0807 Y4.0455
X51.9706 Y4.0161
X51.8605 Y3.9932
X51.7504 Y3.9766
X51.6503 Y3.9658
X51.5302 Y3.9608
X51.4201 Y3.9622
X51.31 Y3.9695
X51.1999 Y3.9833
X51.0898 Y4.0021
X50.9797 Y4.0285
X50.8696 Y4.0611
X50.8256 Y4.0759
X50.7595 Y4.1003
X50.6494 Y4.1471
X50.5684 Y4.186
X50.5393 Y4.2016
X50.4292 Y4.2646
X50.3191 Y4.3369
X50.209 Y4.4213
X50.0989 Y4.5184
X49.9888 Y4.6307
X49.9422 Y4.6835
X49.8991 Y4.7364
X49.8179 Y4.8465
X49.748 Y4.9566
X49.6868 Y5.0667
X49.6584 Y5.1246
X49.6345 Y5.1768
X49.5895 Y5.2869
X49.5483 Y5.4104
X49.5216 Y5.5071
X49.4974 Y5.6172
X49.4794 Y5.7273
X49.4672 Y5.8374
X49.4613 Y5.9475
X49.4614 Y6.0575
X49.4677 Y6.1676
X49.4801 Y6.2777
X49.4983 Y6.3878
X49.5228 Y6.4979
X49.5483 Y6.5899
X49.5913 Y6.7181
X49.6367 Y6.8282
X49.6584 Y6.8752
X49.6893 Y6.9383
X49.7508 Y7.0484
X49.8213 Y7.1585
X49.903 Y7.2686
X49.9441 Y7.3189
X49.9974 Y7.3787
X50.1066 Y7.4888
X50.209 Y7.5786
X50.3191 Y7.6632
X50.4292 Y7.7354
X50.5393 Y7.7985
X50.5788 Y7.819
X50.6494 Y7.8529
X50.6511 Y7.8536
X50.6938 Y7.8789
X50.7284 Y7.9144
X50.7528 Y7.9576
X50.765 Y8.0057
X50.7645 Y8.0553
X50.7511 Y8.103
X50.7318 Y8.1482 Z-6.0935
X50.7138 Y8.1904 Z-6.0745
X50.6983 Y8.2266 Z-6.0443
X50.6864 Y8.2543 Z-6.005
X50.679 Y8.2718 Z-5.9592
X50.6764 Y8.2777 Z-5.91
G0 Z5
X52.8582 Y5.4843
Z-5.182
G1 Z-6.8601 F3200
X52.8579 Y5.4861 Z-6.8866 F1200
X52.8573 Y5.4916 Z-6.9125
X52.8562 Y5.5006 Z-6.9374
X52.8545 Y5.5129 Z-6.9608
X52.8522 Y5.5283 Z-6.9822
X52.849 Y5.5465 Z-7.0013
X52.8451 Y5.567 Z-7.0176
X52.8401 Y5.5894 Z-7.0309
X52.8342 Y5.6133 Z-7.0408
X52.8274 Y5.6381 Z-7.0472
X52.8196 Y5.6632 Z-7.05
G3 X52.8549 Y5.5099 Z-7.2425 I-0.8584 J-0.2786
X52.8631 Y5.3528 Z-7.435 I-0.8938 J-0.1253
X52.8439 Y5.1967 Z-7.6276 I-0.9019 J0.0318
X52.7978 Y5.0463 Z-7.8201 I-0.8827 J0.188
X52.7264 Y4.9061 Z-8.0126 I-0.8367 J0.3384
X51.4197 Y6.1067 Z-8.1 I-0.7652 J0.4785
G1 X51.3894 Y6.0749 F3200
X51.371 Y6.035
X51.3666 Y5.9913
X51.3766 Y5.9486
X51.4 Y5.9114
X51.4341 Y5.8838
X51.4754 Y5.8688
X51.5193 Y5.868
X51.5611 Y5.8815
X51.5962 Y5.9079
X51.6209 Y5.9442
X51.6324 Y5.9865
X51.6296 Y6.0304
X51.6127 Y6.0709
X51.5835 Y6.1037
X51.5453 Y6.1253
X51.5021 Y6.1333
X51.4587 Y6.1269
X51.4197 Y6.1067
G2 X50.4738 Y5.7463 I-1.1008 J1.4677
G3 X50.0814 Y4.8133 I0.0483 J-0.5693
G1 X50.0989 Y4.7922
X50.1493 Y4.7364
X50.209 Y4.6756
X50.2616 Y4.6263
X50.3191 Y4.5765
X50.3949 Y4.5162
X50.4292 Y4.4917
X50.5393 Y4.4196
X50.5614 Y4.4061
X50.6494 Y4.3579
X50.7595 Y4.305
X50.7799 Y4.296
X50.8696 Y4.2615
X50.9797 Y4.2245
X51.0898 Y4.1965
X51.1384 Y4.186
X51.1999 Y4.175
X51.31 Y4.16
X51.4201 Y4.1522
X51.5302 Y4.1508
X51.6403 Y4.1555
X51.7504 Y4.1678
X51.8616 Y4.186
X51.9706 Y4.2112
X52.0807 Y4.2435
X52.1908 Y4.2843
X52.2201 Y4.296
X52.3009 Y4.3329
X52.411 Y4.3906
X52.4386 Y4.4061
X52.5211 Y4.458
X52.6051 Y4.5162
X52.6312 Y4.5365
X52.7413 Y4.6289
X52.8514 Y4.7371
X52.9008 Y4.7918
X52.9615 Y4.8662
X53.0272 Y4.9566
X53.0716 Y5.0251
X53.0969 Y5.0667
X53.1565 Y5.1768
X53.1817 Y5.2296
X53.207 Y5.2869
X53.2484 Y5.397
X53.2829 Y5.5071
X53.2918 Y5.5405
X53.3097 Y5.6172
X53.3292 Y5.7273
X53.3425 Y5.8374
X53.3488 Y5.9475
X53.3487 Y6.0575
X53.342 Y6.1676
X53.3284 Y6.2777
X53.3087 Y6.3878
X53.2918 Y6.4595
X53.2815 Y6.4979
X53.2466 Y6.608
X53.2049 Y6.7181
X53.1817 Y6.7705
X53.154 Y6.8282
X53.0941 Y6.9383
X53.0716 Y6.9749
X53.0239 Y7.0484
X52.9615 Y7.1338
X52.9421 Y7.1585
X52.8988 Y7.2107
X52.846 Y7.2686
X52.733 Y7.3787
X52.6312 Y7.4635
X52.5982 Y7.4888
X52.5211 Y7.542
X52.4298 Y7.5989
X52.411 Y7.6095
X52.3009 Y7.6672
X52.2085 Y7.7089
X52.0807 Y7.7565
X51.9706 Y7.7888
X51.8605 Y7.8143
X51.8373 Y7.819
X51.7504 Y7.8322
X51.6403 Y7.8445
X51.5302 Y7.8492
X51.4201 Y7.8478
X51.31 Y7.84
X51.1999 Y7.825
X51.1628 Y7.819
X51.0898 Y7.8035
X50.9797 Y7.7755
X50.8696 Y7.7385
X50.7915 Y7.7089
X50.7595 Y7.695
X50.6494 Y7.6422
X50.5702 Y7.5989
X50.5393 Y7.5804
X50.4292 Y7.5083
X50.4018 Y7.4888
X50.3191 Y7.4235
X50.2671 Y7.3787
X50.209 Y7.3244
X50.154 Y7.2686
X50.0989 Y7.2078
X50.0579 Y7.1585
X49.9888 Y7.0667
X49.9761 Y7.0484
X49.906 Y6.9383
X49.8787 Y6.8898
X49.846 Y6.8282
X49.7952 Y6.7181
X49.7686 Y6.6496
X49.7534 Y6.608
X49.7185 Y6.4979
X49.6913 Y6.3878
X49.6716 Y6.2777
X49.658 Y6.1676
X49.6514 Y6.0575
X49.6513 Y5.9475
X49.6585 Y5.8275
X49.6709 Y5.7273
X49.6903 Y5.6172
X49.7172 Y5.5071
X49.7516 Y5.397
X49.7686 Y5.3504
X49.793 Y5.2869
X49.8435 Y5.1768
X49.8787 Y5.1102
X49.9032 Y5.0667
X49.9728 Y4.9566
X49.9888 Y4.9333
X50.054 Y4.8465
X50.0814 Y4.8133
X50.1001 Y4.7937 Z-8.0981
X50.1208 Y4.7773 Z-8.0923
X50.1427 Y4.7644 Z-8.0828
X50.1646 Y4.7551 Z-8.0698
X50.1854 Y4.7491 Z-8.0536
X50.2043 Y4.7457 Z-8.0344
X50.2205 Y4.7444 Z-8.0127
X50.2335 Y4.7443 Z-7.9889
X50.2429 Y4.7448 Z-7.9635
X50.2487 Y4.7454 Z-7.937
X50.2506 Y4.7456 Z-7.91
G0 Z5
X140.7628 Y5.6914
Z-5.1
G1 Z-5.91 F3200
X140.7693 Y5.6915 Z-5.9592
X140.7883 Y5.6917 Z-6.005
X140.8184 Y5.6921 Z-6.0443
X140.8578 Y5.6926 Z-6.0745
X140.9036 Y5.6932 Z-6.0935
X140.9528 Y5.6938 Z-6.1
X142.6528 Y5.7151
X142.7019 Y5.7222
X142.7474 Y5.7418
X142.7864 Y5.7724
X142.8161 Y5.8122
X142.8345 Y5.8582
X142.8404 Y5.9075
G2 X142.8627 Y6.3503 I3.5246 J0.0442
X147.5301 Y9.5056 I3.6836 J-0.4192
X146.5436 Y2.3458 I-0.9746 J-3.5135
X143.8081 Y3.5253 I0.0098 J3.7847
X142.8404 Y5.9075 I2.5569 J2.4264
X143.9605 Y7.3233 I1.4322 J0.018
G3 X145.6819 Y7.8672 I-2.2803 J10.2135
G1 X145.7771 Y7.9066
X145.8391 Y7.9291
X145.8872 Y7.9445
X145.9973 Y7.976
X146.1074 Y8.0016
X146.2175 Y8.0192
X146.3276 Y8.032
X146.4377 Y8.0386
X146.5478 Y8.0389
X146.6579 Y8.0332
X146.7681 Y8.0212
X146.8781 Y8.0046
X146.9883 Y7.9796
X147.0983 Y7.949
X147.1624 Y7.9291
X147.2085 Y7.9119
X147.3186 Y7.8677
X147.4286 Y7.8152
X147.5388 Y7.7548
X147.6489 Y7.6852
X147.7665 Y7.5989
X147.8691 Y7.5118
X147.8941 Y7.4888
X147.9792 Y7.4041
X148.0029 Y7.3787
X148.0893 Y7.2787
X148.179 Y7.1585
X148.2499 Y7.0484
X148.3105 Y6.9383
X148.3635 Y6.8282
X148.4081 Y6.7181
X148.4196 Y6.6878
X148.4459 Y6.608
X148.4772 Y6.4979
X148.5018 Y6.3878
X148.5199 Y6.2777
X148.5297 Y6.1985
X148.5324 Y6.1676
X148.5387 Y6.0575
X148.5388 Y5.9475
X148.5328 Y5.8374
X148.5297 Y5.8026
X148.5205 Y5.7273
X148.5027 Y5.6172
X148.4784 Y5.5071
X148.4475 Y5.397
X148.4196 Y5.3123
X148.3659 Y5.1768
X148.3095 Y5.0601
X148.2529 Y4.9566
X148.1824 Y4.8465
X148.1012 Y4.7364
X148.0076 Y4.6263
X147.9792 Y4.5961
X147.899 Y4.5162
X147.8691 Y4.4882
X147.759 Y4.3953
X147.6489 Y4.3149
X147.5388 Y4.2447
X147.4286 Y4.1848
X147.3186 Y4.1322
X147.2085 Y4.0881
X147.1757 Y4.0759
X147.0983 Y4.051
X146.9883 Y4.0204
X146.8781 Y3.9961
X146.7681 Y3.9788
X146.6579 Y3.9668
X146.5478 Y3.9612
X146.4377 Y3.9614
X146.3276 Y3.968
X146.2175 Y3.9808
X146.1074 Y3.9985
X145.9973 Y4.024
X145.8872 Y4.0555
X145.8238 Y4.0759
X145.7771 Y4.0937
X145.667 Y4.139
X145.5683 Y4.186
X145.4468 Y4.2536
X145.3367 Y4.3245
X145.2266 Y4.4067
X145.1165 Y4.5017
X145.1008 Y4.5162
X145.0064 Y4.6111
X144.9926 Y4.6263
X144.8963 Y4.7399
X144.8177 Y4.8465
X144.7477 Y4.9566
X144.6761 Y5.087
X144.6345 Y5.1768
X144.5899 Y5.2869
X144.566 Y5.3539
X144.5526 Y5.397
X144.5216 Y5.5071
X144.497 Y5.6172
X144.4795 Y5.7273
X144.4672 Y5.8374
X144.4613 Y5.9475
Y6.0575
X144.4677 Y6.1676
X144.4802 Y6.2777
X144.498 Y6.3878
X144.5228 Y6.4979
X144.5541 Y6.608
X144.566 Y6.6456
X144.5917 Y6.7181
X144.6367 Y6.8282
X144.6761 Y6.9134
X144.7506 Y7.0484
X144.821 Y7.1585
X144.9029 Y7.2686
X145.0064 Y7.3887
X145.1062 Y7.4888
X145.2339 Y7.5989
X145.3367 Y7.6756
X145.4468 Y7.7465
X145.5775 Y7.819
X145.667 Y7.8611
X145.6819 Y7.8672
X145.7249 Y7.892
X145.76 Y7.9271
X145.7848 Y7.97
X145.7976 Y8.0179
Y8.0675
X145.7848 Y8.1154
X145.766 Y8.1609 Z-6.0935
X145.7485 Y8.2032 Z-6.0745
X145.7334 Y8.2396 Z-6.0443
X145.7219 Y8.2675 Z-6.005
X145.7146 Y8.285 Z-5.9592
X145.7122 Y8.291 Z-5.91
G0 Z5
X145.2727 Y5.2226
Z-5.1823
G1 Z-6.8601 F3200
X145.2743 Y5.2217 Z-6.8866 F1200
X145.279 Y5.2189 Z-6.9125
X145.2869 Y5.2144 Z-6.9374
X145.2978 Y5.2083 Z-6.9608
X145.3115 Y5.201 Z-6.9822
X145.3279 Y5.1926 Z-7.0013
X145.3467 Y5.1835 Z-7.0176
X145.3676 Y5.174 Z-7.0309
X145.3902 Y5.1644 Z-7.0408
X145.4141 Y5.155 Z-7.0472
X145.4389 Y5.1461 Z-7.05
G3 X145.2951 Y5.2098 Z-7.2425 I0.2922 J0.8539
X145.1645 Y5.2975 Z-7.435 I0.436 J0.7902
X145.0512 Y5.4066 Z-7.6276 I0.5666 J0.7025
X144.9584 Y5.5337 Z-7.8201 I0.68 J0.5934
X144.8892 Y5.6749 Z-8.0126 I0.7727 J0.4663
X146.6336 Y6 Z-8.1 I0.8419 J0.325
G1 X146.6264 Y6.0434 F3200
X146.6054 Y6.0821
X146.5731 Y6.1119
X146.5328 Y6.1296
X146.4889 Y6.1332
X146.4463 Y6.1224
X146.4094 Y6.0983
X146.3824 Y6.0636
X146.3681 Y6.022
Y5.978
X146.3824 Y5.9364
X146.4094 Y5.9016
X146.4463 Y5.8776
X146.4889 Y5.8668
X146.5328 Y5.8704
X146.5731 Y5.8881
X146.6054 Y5.9179
X146.6264 Y5.9566
X146.6336 Y6
G2 X146.9183 Y6.9729 I1.805
G3 X146.4038 Y7.8464 I-0.4787 J0.3063
G1 X146.3276 Y7.8416
X146.2175 Y7.8277
X146.1628 Y7.819
X146.1074 Y7.8077
X145.9973 Y7.7802
X145.8872 Y7.7451
X145.7913 Y7.7089
X145.667 Y7.6515
X145.5569 Y7.5914
X145.4468 Y7.5207
X145.4018 Y7.4888
X145.3367 Y7.4382
X145.2671 Y7.3787
X145.2266 Y7.3414
X145.154 Y7.2686
X145.1165 Y7.2276
X145.0579 Y7.1585
X145.0064 Y7.0914
X144.9759 Y7.0484
X144.9057 Y6.9383
X144.8459 Y6.8282
X144.7952 Y6.7181
X144.7534 Y6.608
X144.7185 Y6.4979
X144.6913 Y6.3878
X144.6761 Y6.3072
X144.6716 Y6.2777
X144.658 Y6.1676
X144.6514 Y6.0575
X144.6513 Y5.9475
X144.6575 Y5.8374
X144.6709 Y5.7273
X144.6761 Y5.6928
X144.6903 Y5.6172
X144.7172 Y5.5071
X144.7516 Y5.397
X144.793 Y5.2869
X144.8436 Y5.1768
X144.9028 Y5.0667
X144.9725 Y4.9566
X145.0064 Y4.9086
X145.054 Y4.8465
X145.1165 Y4.7724
X145.1493 Y4.7364
X145.2266 Y4.6586
X145.2616 Y4.6263
X145.3367 Y4.5619
X145.3949 Y4.5162
X145.4468 Y4.4793
X145.5614 Y4.4061
X145.667 Y4.3485
X145.7799 Y4.296
X145.8872 Y4.2549
X145.9973 Y4.2198
X146.1074 Y4.1923
X146.1384 Y4.186
X146.2175 Y4.1723
X146.3276 Y4.1584
X146.4377 Y4.1514
X146.5478 Y4.1512
X146.6579 Y4.1571
X146.7681 Y4.1702
X146.8781 Y4.1893
X146.9883 Y4.2159
X147.0983 Y4.2498
X147.2085 Y4.291
X147.3186 Y4.3413
X147.4386 Y4.4061
X147.5388 Y4.4697
X147.6051 Y4.5162
X147.6488 Y4.5504
X147.7385 Y4.6263
X147.759 Y4.6449
X147.8508 Y4.7364
X147.8691 Y4.7564
X147.946 Y4.8465
X147.9792 Y4.8887
X148.0275 Y4.9566
X148.0893 Y5.0531
X148.1565 Y5.1768
X148.207 Y5.2869
X148.2484 Y5.397
X148.2828 Y5.5071
X148.3097 Y5.6172
X148.3291 Y5.7273
X148.3425 Y5.8374
X148.3488 Y5.9475
X148.3487 Y6.0575
X148.342 Y6.1676
X148.3284 Y6.2777
X148.3087 Y6.3878
X148.2815 Y6.4979
X148.2466 Y6.608
X148.2048 Y6.7181
X148.1541 Y6.8282
X148.0893 Y6.9469
X148.0242 Y7.0484
X147.9792 Y7.1113
X147.9421 Y7.1585
X147.8691 Y7.2436
X147.846 Y7.2686
X147.759 Y7.3551
X147.733 Y7.3787
X147.6488 Y7.4497
X147.5982 Y7.4888
X147.5388 Y7.5303
X147.4286 Y7.5995
X147.3186 Y7.6587
X147.2085 Y7.7091
X147.0983 Y7.7502
X146.9883 Y7.7841
X146.8781 Y7.8107
X146.8373 Y7.819
X146.7681 Y7.8299
X146.6579 Y7.8429
X146.5478 Y7.8489
X146.4377 Y7.8486
X146.4038 Y7.8464
X146.377 Y7.8428 Z-8.0981
X146.3515 Y7.8356 Z-8.0923
X146.3283 Y7.8254 Z-8.0828
X146.3079 Y7.8132 Z-8.0698
X146.2908 Y7.7999 Z-8.0536
X146.277 Y7.7866 Z-8.0344
X146.2664 Y7.7742 Z-8.0127
X146.2588 Y7.7638 Z-7.9889
X146.2536 Y7.7558 Z-7.9635
X146.2507 Y7.7508 Z-7.937
X146.2497 Y7.7492 Z-7.91
G0 Z5
X176.8936 Y250.2866
Z-7.7601
G1 X176.892 Y250.2875 Z-7.7866 F1200
X176.8872 Y250.2903 Z-7.8125
X176.8793 Y250.2948 Z-7.8374
X176.8685 Y250.3009 Z-7.8608
X176.8547 Y250.3082 Z-7.8822
X176.8383 Y250.3166 Z-7.9013
X176.8196 Y250.3257 Z-7.9176
X176.7987 Y250.3352 Z-7.9309
X176.776 Y250.3448 Z-7.9408
X176.7521 Y250.3542 Z-7.9472
X176.7273 Y250.3631 Z-7.95
G3 X176.8711 Y250.2994 Z-8.1425 I-0.2922 J-0.8539
X177.0017 Y250.2117 Z-8.335 I-0.436 J-0.7902
X177.1151 Y250.1026 Z-8.5276 I-0.5666 J-0.7025
X177.2078 Y249.9755 Z-8.7201 I-0.68 J-0.5934
X177.277 Y249.8343 Z-8.9126 I-0.7727 J-0.4663
X175.5326 Y249.5092 Z-9 I-0.8419 J-0.325
G1 Y13.2472 F3200
G3 X175.9573 Y12.8226 I0.4247
G1 X176.0428
G3 X176.4674 Y13.2472 J0.4247
G1 Y249.552
G3 X176.0428 Y249.9766 I-0.4247
G1 X175.9573
G3 X175.5326 Y249.552 J-0.4247
G1 Y249.5092
G2 X175.0489 Y248.7837 I-0.786
G3 X174.5652 Y248.0582 I0.3023 J-0.7255
G1 Y12.4317
G3 X175.1417 Y11.8552 I0.5764
G1 X176.8584
G3 X177.4348 Y12.4317 J0.5764
G1 Y250.3675
G3 X176.8584 Y250.9439 I-0.5765
G1 X175.1417 Y250.944
G3 X174.5652 Y250.3676 J-0.5764
G1 Y248.0582
G2 X173.8649 Y247.0077 I-1.1381
G3 X173.1646 Y245.9572 I0.4377 J-1.0505
G1 Y11.031
G3 X173.741 Y10.4545 I0.5764
G1 X178.259
G3 X178.8355 Y11.031 J0.5764
G1 Y251.7681
G3 X178.259 Y252.3445 I-0.5765
G1 X173.741 Y252.3448
G3 X173.1646 Y251.7684 J-0.5764
G1 Y245.9572
G2 X172.4642 Y244.9066 I-1.1381
G3 X171.7639 Y243.8561 I0.4377 J-1.0505
G1 Y9.6303
G3 X172.3403 Y9.0539 I0.5764
G1 X179.6597
G3 X180.2362 Y9.6303 J0.5764
G1 Y253.1687
G3 X179.6597 Y253.7452 I-0.5765
G1 X172.3403 Y253.7456
G3 X171.7639 Y253.1692 J-0.5764
G1 Y243.8561
G2 X171.0635 Y242.8056 I-1.1381
G3 X170.3632 Y241.7551 I0.4377 J-1.0505
G1 Y8.2296
G3 X170.9396 Y7.6532 I0.5764
G1 X181.0604
G3 X181.6369 Y8.2296 J0.5764
G1 Y254.5693
G3 X181.0604 Y255.1458 I-0.5765
G1 X170.9396 Y255.1463
G3 X170.3632 Y254.5699 J-0.5764
G1 Y241.7551
G2 X169.6628 Y240.7046 I-1.1381
G3 X168.9625 Y239.6541 I0.4377 J-1.0505
G1 Y6.8289
G3 X169.5389 Y6.2525 I0.5764
G1 X182.4611
G3 X183.0375 Y6.8289 J0.5764
G1 Y255.9699
G3 X182.4611 Y256.5464 I-0.5765
G1 X169.5389 Y256.5471
G3 X168.9625 Y255.9707 J-0.5764
G1 Y239.6541
G2 X168.2621 Y238.6035 I-1.1381
G3 X167.5618 Y237.553 I0.4377 J-1.0505
G1 Y5.4282
G3 X168.1382 Y4.8518 I0.5764
G1 X183.8618
G3 X184.4382 Y5.4282 J0.5764
G1 Y257.3705
G3 X183.8618 Y257.947 I-0.5765
G1 X168.1382 Y257.9478
G3 X167.5618 Y257.3715 J-0.5764
G1 Y237.553
G2 X166.8615 Y236.5025 I-1.1381
G3 X166.1611 Y235.452 I0.4377 J-1.0505
G1 Y4.0275
G3 X166.7375 Y3.4511 I0.5764
G1 X185.2625
G3 X185.8389 Y4.0275 J0.5764
G1 Y258.7711
G3 X185.2625 Y259.3476 I-0.5765
G1 X166.7375 Y259.3486
G3 X166.1611 Y258.7722 J-0.5764
G1 Y235.452
G2 X165.4608 Y234.4015 I-1.1381
G3 X164.7604 Y233.351 I0.4377 J-1.0505
G1 Y2.6268
G3 X165.3369 Y2.0504 I0.5764
G1 X186.6632
G3 X187.2396 Y2.6268 J0.5764
G1 Y260.1718
G3 X186.6632 Y260.7482 I-0.5765
G1 X165.3368 Y260.7494
G3 X164.7604 Y260.173 J-0.5764
G1 Y233.351
G2 X164.0601 Y232.3004 I-1.1381
G3 X163.3597 Y231.2499 I0.4377 J-1.0505
G1 Y1.2261
G3 X163.9362 Y0.6497 I0.5764
G1 X188.0639
G3 X188.6403 Y1.2261 J0.5764
G1 Y261.5724
G3 X188.0639 Y262.1488 I-0.5765
G1 X163.9362 Y262.1501
G3 X163.3597 Y261.5738 J-0.5764
G1 Y231.2499
G2 X162.6549 Y230.1926 I-1.1454
G3 X161.95 Y229.1354 I0.4405 J-1.0573
G1 Y0.0024
X161.9486 Y-0.0526
X161.9439 Y-0.1077
X161.936 Y-0.1627
X161.9247 Y-0.2178
X161.91 Y-0.2728
X161.8916 Y-0.3279
X161.8733 Y-0.3741
X161.852 Y-0.4203
X161.843 Y-0.438
X161.8121 Y-0.493
X161.776 Y-0.5481
X161.7419 Y-0.5934
X161.7148 Y-0.6258
X161.6851 Y-0.6582
X161.6318 Y-0.7095
X161.5865 Y-0.7474
X161.5721 Y-0.7584
X161.617 Y-0.76
X190.4259
X190.3978 Y-0.7348
X190.3683 Y-0.7095
X190.3149 Y-0.6582
X190.2853 Y-0.6258
X190.2582 Y-0.5934
X190.224 Y-0.5481
X190.188 Y-0.493
X190.157 Y-0.438
X190.1481 Y-0.4203
X190.1268 Y-0.3741
X190.1084 Y-0.3279
X190.09 Y-0.2728
X190.0753 Y-0.2178
X190.0641 Y-0.1627
X190.0561 Y-0.1077
X190.0515 Y-0.0526
X190.05 Y0.0024
Y262.7954
X190.0514 Y262.8504
X190.0559 Y262.9055
X190.0637 Y262.9605
X190.0748 Y263.0156
X190.0894 Y263.0706
X190.1076 Y263.1257
X190.1263 Y263.173
X190.1559 Y263.2357
X190.1866 Y263.2908
X190.2225 Y263.3459
X190.2582 Y263.3934
X190.2843 Y263.4247
X190.3128 Y263.456
X190.3683 Y263.5095
X190.4136 Y263.5474
X190.4279 Y263.5584
X161.5742 Y263.56
X161.6022 Y263.5348
X161.6318 Y263.5095
X161.6872 Y263.456
X161.7157 Y263.4247
X161.7419 Y263.3934
X161.7775 Y263.3459
X161.8134 Y263.2908
X161.8442 Y263.2357
X161.8737 Y263.173
X161.8925 Y263.1257
X161.9107 Y263.0706
X161.9252 Y263.0156
X161.9364 Y262.9605
X161.9441 Y262.9055
X161.9487 Y262.8504
X161.95 Y262.7954
Y229.1354
X161.9519 Y229.1084 Z-8.9981
X161.9575 Y229.0825 Z-8.9923
X161.9662 Y229.0587 Z-8.9828
X161.9771 Y229.0376 Z-8.9698
X161.9893 Y229.0196 Z-8.9536
X162.0017 Y229.0051 Z-8.9344
X162.0134 Y228.9937 Z-8.9127
X162.0233 Y228.9854 Z-8.8889
X162.031 Y228.9798 Z-8.8635
X162.0357 Y228.9765 Z-8.837
X162.0374 Y228.9755 Z-8.81
G0 Z6

G53 Z5
M5
G4 P1.0
G53 X0 Y0
M30
%
