%
(Made in : Autodesk CAM Post Processor)
(G Code optimized for OpenBuilds OX CNC 1000 x 750 with GRBL V0.9j controller)

(Program Name : 1001)
(2 Operations :)
(1 : Contour2  2 )
(  Tool : Flat End Mill 2 Flutes, Diam = 1.9mm, Len = 12.7mm)
(  Spindle : RPM = 30000, set router dial to 6)
(  Machining time : 1 min 45 sec)
(2 : Horizontal1  2 )
(  Tool : Flat End Mill 2 Flutes, Diam = 1.9mm, Len = 12.7mm)
(  Spindle : RPM = 30000, set router dial to 6)
(  Machining time : 2 min 51 sec)

G90 G94
G17
G21

(Operation 1 of 2 : Contour2  2 )

G53 G0 Z5
G54
S30000 M3
G4 P1.0
X163.5002 Y264.1535
Z6
Z0.1604
G1 Z-1.81 F3200
X163.4945 Y264.1505 Z-1.8592
X163.4778 Y264.1415 Z-1.905
X163.4512 Y264.1273 Z-1.9444
X163.4165 Y264.1087 Z-1.9745
X163.376 Y264.0871 Z-1.9935
X163.3327 Y264.064 Z-2
X161.9151 Y263.3065
X161.8747 Y263.2776
X161.8433 Y263.2393
X161.8228 Y263.1941
X161.8147 Y263.1451
X161.8196 Y263.0958
X161.837 Y263.0493
X161.8388 Y263.0461
X161.8521 Y263.0201
X161.855 Y263.0142
X161.8795 Y262.9591
X161.9 Y262.9041
X161.9168 Y262.849
X161.93 Y262.794
X161.9398 Y262.7389
X161.9463 Y262.6839
X161.9496 Y262.6288
X161.95 Y262.5738
Y12.4445
X161.9478 Y12.3344
X161.9423 Y12.2794
X161.9336 Y12.2243
X161.9216 Y12.1693
X161.906 Y12.1142
X161.8868 Y12.0592
X161.8636 Y12.0042
X161.8521 Y11.98
X161.8296 Y11.937
X161.8041 Y11.8941
X161.7749 Y11.8504
X161.742 Y11.8068
X161.7232 Y11.784
X161.6807 Y11.7373
X161.6319 Y11.6906
X161.6126 Y11.6739
X161.5672 Y11.6379
X161.5218 Y11.6061
X161.4508 Y11.5638
X161.4117 Y11.5438
X161.3567 Y11.5195
X161.3016 Y11.4991
X161.2466 Y11.4825
X161.1915 Y11.4695
X161.1376 Y11.46
X161.0837 Y11.4537
X161.0814 Y11.4535
X160.9713 Y11.45
X33.0346
X32.9245 Y11.453
X32.9163 Y11.4537
X32.8654 Y11.4596
X32.8144 Y11.4683
X32.7594 Y11.481
X32.7043 Y11.4972
X32.6493 Y11.5171
X32.5942 Y11.541
X32.5717 Y11.552
X32.5604 Y11.5578
X32.5548 Y11.5608
X32.5506 Y11.563
X32.5009 Y11.5812
X32.4482 Y11.585
X32.3964 Y11.574
X32.3497 Y11.5493
X32.3116 Y11.5126
X32.2851 Y11.4668
X31.6832 Y9.9822
X31.6647 Y9.9366 Z-1.9935
X31.6475 Y9.8942 Z-1.9745
X31.6327 Y9.8577 Z-1.9444
X31.6214 Y9.8297 Z-1.905
X31.6142 Y9.8121 Z-1.8592
X31.6118 Y9.8061 Z-1.81
G0 Z5
X163.5073 Y264.1573
Z-2.81
G1 X163.5016 Y264.1543 Z-2.8592 F3200
X163.4849 Y264.1453 Z-2.905
X163.4583 Y264.1311 Z-2.9443
X163.4236 Y264.1126 Z-2.9745
X163.3831 Y264.091 Z-2.9935
X163.3398 Y264.0678 Z-3
X161.9151 Y263.3065
X161.8747 Y263.2776
X161.8433 Y263.2393
X161.8228 Y263.1941
X161.8147 Y263.1451
X161.8196 Y263.0958
X161.837 Y263.0493
X161.8388 Y263.0461
X161.8521 Y263.0201
X161.855 Y263.0142
X161.8795 Y262.9591
X161.9 Y262.9041
X161.9168 Y262.849
X161.93 Y262.794
X161.9398 Y262.7389
X161.9463 Y262.6839
X161.9496 Y262.6288
X161.95 Y262.5738
Y12.4445
X161.9478 Y12.3344
X161.9423 Y12.2794
X161.9336 Y12.2243
X161.9216 Y12.1693
X161.906 Y12.1142
X161.8868 Y12.0592
X161.8636 Y12.0042
X161.8521 Y11.98
X161.8296 Y11.937
X161.8041 Y11.8941
X161.7749 Y11.8504
X161.742 Y11.8068
X161.7232 Y11.784
X161.6807 Y11.7373
X161.6319 Y11.6906
X161.6126 Y11.6739
X161.5672 Y11.6379
X161.5218 Y11.6061
X161.4508 Y11.5638
X161.4117 Y11.5438
X161.3567 Y11.5195
X161.3016 Y11.4991
X161.2466 Y11.4825
X161.1915 Y11.4695
X161.1376 Y11.46
X161.0837 Y11.4537
X161.0814 Y11.4535
X160.9713 Y11.45
X33.0346
X32.9245 Y11.453
X32.9163 Y11.4537
X32.8654 Y11.4596
X32.8144 Y11.4683
X32.7594 Y11.481
X32.7043 Y11.4972
X32.6493 Y11.5171
X32.5942 Y11.541
X32.5717 Y11.552
X32.5604 Y11.5578
X32.5548 Y11.5608
X32.5506 Y11.563
X32.5009 Y11.5812
X32.4482 Y11.585
X32.3964 Y11.574
X32.3497 Y11.5493
X32.3116 Y11.5126
X32.2851 Y11.4668
X31.6792 Y9.9723
X31.6607 Y9.9267 Z-2.9935
X31.6435 Y9.8842 Z-2.9745
X31.6287 Y9.8478 Z-2.9444
X31.6173 Y9.8198 Z-2.905
X31.6102 Y9.8022 Z-2.8592
X31.6078 Y9.7962 Z-2.81
G0 Z5
X163.5073 Y264.1573
Z-3.81
G1 X163.5016 Y264.1543 Z-3.8592 F3200
X163.4849 Y264.1453 Z-3.905
X163.4583 Y264.1311 Z-3.9443
X163.4236 Y264.1126 Z-3.9745
X163.3831 Y264.091 Z-3.9935
X163.3398 Y264.0678 Z-4
X161.9151 Y263.3065
X161.8747 Y263.2776
X161.8433 Y263.2393
X161.8228 Y263.1941
X161.8147 Y263.1451
X161.8196 Y263.0958
X161.837 Y263.0493
X161.8388 Y263.0461
X161.8521 Y263.0201
X161.855 Y263.0142
X161.8795 Y262.9591
X161.9 Y262.9041
X161.9168 Y262.849
X161.93 Y262.794
X161.9398 Y262.7389
X161.9463 Y262.6839
X161.9496 Y262.6288
X161.95 Y262.5738
Y12.4445
X161.9478 Y12.3344
X161.9423 Y12.2794
X161.9336 Y12.2243
X161.9216 Y12.1693
X161.906 Y12.1142
X161.8868 Y12.0592
X161.8636 Y12.0042
X161.8521 Y11.98
X161.8296 Y11.937
X161.8041 Y11.8941
X161.7749 Y11.8504
X161.742 Y11.8068
X161.7232 Y11.784
X161.6807 Y11.7373
X161.6319 Y11.6906
X161.6126 Y11.6739
X161.5672 Y11.6379
X161.5218 Y11.6061
X161.4508 Y11.5638
X161.4117 Y11.5438
X161.3567 Y11.5195
X161.3016 Y11.4991
X161.2466 Y11.4825
X161.1915 Y11.4695
X161.1376 Y11.46
X161.0837 Y11.4537
X161.0814 Y11.4535
X160.9713 Y11.45
X33.0346
X32.9245 Y11.453
X32.9163 Y11.4537
X32.8654 Y11.4596
X32.8144 Y11.4683
X32.7594 Y11.481
X32.7043 Y11.4972
X32.6493 Y11.5171
X32.5942 Y11.541
X32.5717 Y11.552
X32.5604 Y11.5578
X32.5548 Y11.5608
X32.5506 Y11.563
X32.5009 Y11.5812
X32.4482 Y11.585
X32.3964 Y11.574
X32.3497 Y11.5493
X32.3116 Y11.5126
X32.2851 Y11.4668
X31.6792 Y9.9723
X31.6607 Y9.9267 Z-3.9935
X31.6435 Y9.8842 Z-3.9745
X31.6287 Y9.8478 Z-3.9444
X31.6173 Y9.8198 Z-3.905
X31.6102 Y9.8022 Z-3.8592
X31.6078 Y9.7962 Z-3.81
G0 Z5
X163.5073 Y264.1573
Z-4.81
G1 X163.5016 Y264.1543 Z-4.8592 F3200
X163.4849 Y264.1453 Z-4.905
X163.4583 Y264.1311 Z-4.9443
X163.4236 Y264.1126 Z-4.9745
X163.3831 Y264.091 Z-4.9935
X163.3398 Y264.0678 Z-5
X161.9151 Y263.3065
X161.8747 Y263.2776
X161.8433 Y263.2393
X161.8228 Y263.1941
X161.8147 Y263.1451
X161.8196 Y263.0958
X161.837 Y263.0493
X161.8388 Y263.0461
X161.8521 Y263.0201
X161.855 Y263.0142
X161.8795 Y262.9591
X161.9 Y262.9041
X161.9168 Y262.849
X161.93 Y262.794
X161.9398 Y262.7389
X161.9463 Y262.6839
X161.9496 Y262.6288
X161.95 Y262.5738
Y12.4445
X161.9478 Y12.3344
X161.9423 Y12.2794
X161.9336 Y12.2243
X161.9216 Y12.1693
X161.906 Y12.1142
X161.8868 Y12.0592
X161.8636 Y12.0042
X161.8521 Y11.98
X161.8296 Y11.937
X161.8041 Y11.8941
X161.7749 Y11.8504
X161.742 Y11.8068
X161.7232 Y11.784
X161.6807 Y11.7373
X161.6319 Y11.6906
X161.6126 Y11.6739
X161.5672 Y11.6379
X161.5218 Y11.6061
X161.4508 Y11.5638
X161.4117 Y11.5438
X161.3567 Y11.5195
X161.3016 Y11.4991
X161.2466 Y11.4825
X161.1915 Y11.4695
X161.1376 Y11.46
X161.0837 Y11.4537
X161.0814 Y11.4535
X160.9713 Y11.45
X33.0346
X32.9245 Y11.453
X32.9163 Y11.4537
X32.8654 Y11.4596
X32.8144 Y11.4683
X32.7594 Y11.481
X32.7043 Y11.4972
X32.6493 Y11.5171
X32.5942 Y11.541
X32.5717 Y11.552
X32.5604 Y11.5578
X32.5548 Y11.5608
X32.5506 Y11.563
X32.5009 Y11.5812
X32.4482 Y11.585
X32.3964 Y11.574
X32.3497 Y11.5493
X32.3116 Y11.5126
X32.2851 Y11.4668
X31.6792 Y9.9723
X31.6607 Y9.9267 Z-4.9935
X31.6435 Y9.8842 Z-4.9745
X31.6287 Y9.8478 Z-4.9444
X31.6173 Y9.8198 Z-4.905
X31.6102 Y9.8022 Z-4.8592
X31.6078 Y9.7962 Z-4.81
G0 Z5
X163.5073 Y264.1573
Z-5.81
G1 X163.5016 Y264.1543 Z-5.8592 F3200
X163.4849 Y264.1453 Z-5.905
X163.4583 Y264.1311 Z-5.9443
X163.4236 Y264.1126 Z-5.9745
X163.3831 Y264.091 Z-5.9935
X163.3398 Y264.0678 Z-6
X161.9151 Y263.3065
X161.8747 Y263.2776
X161.8433 Y263.2393
X161.8228 Y263.1941
X161.8147 Y263.1451
X161.8196 Y263.0958
X161.837 Y263.0493
X161.8388 Y263.0461
X161.8521 Y263.0201
X161.855 Y263.0142
X161.8795 Y262.9591
X161.9 Y262.9041
X161.9168 Y262.849
X161.93 Y262.794
X161.9398 Y262.7389
X161.9463 Y262.6839
X161.9496 Y262.6288
X161.95 Y262.5738
Y12.4445
X161.9478 Y12.3344
X161.9423 Y12.2794
X161.9336 Y12.2243
X161.9216 Y12.1693
X161.906 Y12.1142
X161.8868 Y12.0592
X161.8636 Y12.0042
X161.8521 Y11.98
X161.8296 Y11.937
X161.8041 Y11.8941
X161.7749 Y11.8504
X161.742 Y11.8068
X161.7232 Y11.784
X161.6807 Y11.7373
X161.6319 Y11.6906
X161.6126 Y11.6739
X161.5672 Y11.6379
X161.5218 Y11.6061
X161.4508 Y11.5638
X161.4117 Y11.5438
X161.3567 Y11.5195
X161.3016 Y11.4991
X161.2466 Y11.4825
X161.1915 Y11.4695
X161.1376 Y11.46
X161.0837 Y11.4537
X161.0814 Y11.4535
X160.9713 Y11.45
X33.0346
X32.9245 Y11.453
X32.9163 Y11.4537
X32.8654 Y11.4596
X32.8144 Y11.4683
X32.7594 Y11.481
X32.7043 Y11.4972
X32.6493 Y11.5171
X32.5942 Y11.541
X32.5717 Y11.552
X32.5604 Y11.5578
X32.5548 Y11.5608
X32.5506 Y11.563
X32.5009 Y11.5812
X32.4482 Y11.585
X32.3964 Y11.574
X32.3497 Y11.5493
X32.3116 Y11.5126
X32.2851 Y11.4668
X31.6792 Y9.9723
X31.6607 Y9.9267 Z-5.9935
X31.6435 Y9.8842 Z-5.9745
X31.6287 Y9.8478 Z-5.9444
X31.6173 Y9.8198 Z-5.905
X31.6102 Y9.8022 Z-5.8592
X31.6078 Y9.7962 Z-5.81
G0 Z5
X163.5073 Y264.1573
Z-6.81
G1 X163.5016 Y264.1543 Z-6.8592 F3200
X163.4849 Y264.1453 Z-6.905
X163.4583 Y264.1311 Z-6.9443
X163.4236 Y264.1126 Z-6.9745
X163.3831 Y264.091 Z-6.9935
X163.3398 Y264.0678 Z-7
X161.9151 Y263.3065
X161.8747 Y263.2776
X161.8433 Y263.2393
X161.8228 Y263.1941
X161.8147 Y263.1451
X161.8196 Y263.0958
X161.837 Y263.0493
X161.8388 Y263.0461
X161.8521 Y263.0201
X161.855 Y263.0142
X161.8795 Y262.9591
X161.9 Y262.9041
X161.9168 Y262.849
X161.93 Y262.794
X161.9398 Y262.7389
X161.9463 Y262.6839
X161.9496 Y262.6288
X161.95 Y262.5738
Y0.0041
X161.9487 Y-0.0509
X161.9441 Y-0.106
X161.9363 Y-0.161
X161.9251 Y-0.2161
X161.9105 Y-0.2711
X161.8923 Y-0.3262
X161.8737 Y-0.3731
X161.8521 Y-0.42
X161.8439 Y-0.4363
X161.8403 Y-0.4431
X161.8376 Y-0.4483
X161.8194 Y-0.4987
X161.816 Y-0.5523
X161.8276 Y-0.6046
X161.8535 Y-0.6516
X161.8915 Y-0.6895
X161.9385 Y-0.7153
X163.001 Y-1.1149
X163.047 Y-1.1322 Z-6.9935
X163.0899 Y-1.1483 Z-6.9745
X163.1268 Y-1.1622 Z-6.9444
X163.155 Y-1.1728 Z-6.905
X163.1728 Y-1.1795 Z-6.8592
X163.1788 Y-1.1818 Z-6.81
G0 Z5
X163.5073 Y264.1573
Z-7.0944
G1 Z-7.81 F3200
X163.5016 Y264.1543 Z-7.8592
X163.4849 Y264.1453 Z-7.905
X163.4583 Y264.1311 Z-7.9443
X163.4236 Y264.1126 Z-7.9745
X163.3831 Y264.091 Z-7.9935
X163.3398 Y264.0678 Z-8
X161.9151 Y263.3065
X161.8747 Y263.2776
X161.8433 Y263.2393
X161.8228 Y263.1941
X161.8147 Y263.1451
X161.8196 Y263.0958
X161.837 Y263.0493
X161.8388 Y263.0461
X161.8521 Y263.0201
X161.855 Y263.0142
X161.8795 Y262.9591
X161.9 Y262.9041
X161.9168 Y262.849
X161.93 Y262.794
X161.9398 Y262.7389
X161.9463 Y262.6839
X161.9496 Y262.6288
X161.95 Y262.5738
Y0.0041
X161.9487 Y-0.0509
X161.9441 Y-0.106
X161.9363 Y-0.161
X161.9251 Y-0.2161
X161.9105 Y-0.2711
X161.8923 Y-0.3262
X161.8737 Y-0.3731
X161.8521 Y-0.42
X161.8439 Y-0.4363
X161.8403 Y-0.4431
X161.8376 Y-0.4483
X161.8195 Y-0.498
X161.8158 Y-0.5508
X161.8269 Y-0.6025
X161.8517 Y-0.6492
X161.8885 Y-0.6873
X161.9344 Y-0.7137
X163.4102 Y-1.3085
X163.4558 Y-1.3269 Z-7.9935
X163.4983 Y-1.344 Z-7.9745
X163.5348 Y-1.3587 Z-7.9443
X163.5628 Y-1.37 Z-7.905
X163.5804 Y-1.3771 Z-7.8592
X163.5864 Y-1.3795 Z-7.81
G0 Z5
X161.95 Y232.8066
Z2
G1 Z-7.7599 F3200
Y232.8128 Z-7.808 F1200
Y232.831 Z-7.853
Y232.8599 Z-7.8919
Y232.8978 Z-7.9222
Y232.9421 Z-7.9419
Y232.99 Z-7.9498
Y262.5738 Z-8.9829
X161.9496 Y262.6288 Z-8.9848
X161.9463 Y262.6839 Z-8.9867
X161.9398 Y262.7389 Z-8.9886
X161.93 Y262.794 Z-8.9906
X161.9168 Y262.849 Z-8.9926
X161.9 Y262.9041 Z-8.9946
X161.8795 Y262.9591 Z-8.9966
X161.855 Y263.0142 Z-8.9987
X161.8521 Y263.0201 Z-8.999
X161.8401 Y263.0435 Z-8.9999
X161.8388 Y263.0461 Z-9
X161.837 Y263.0493
X161.8388 Y263.0461 F3200
X161.8521 Y263.0201
X161.855 Y263.0142
X161.8795 Y262.9591
X161.9 Y262.9041
X161.9168 Y262.849
X161.93 Y262.794
X161.9398 Y262.7389
X161.9463 Y262.6839
X161.9496 Y262.6288
X161.95 Y262.5738
Y0.0041
X161.9487 Y-0.0509
X161.9441 Y-0.106
X161.9363 Y-0.161
X161.9251 Y-0.2161
X161.9105 Y-0.2711
X161.8923 Y-0.3262
X161.8737 Y-0.3731
X161.8521 Y-0.42
X161.8439 Y-0.4363
X161.8403 Y-0.4431
X161.8376 Y-0.4483
G0 Z5
X320.5528 Y9.8993
Z0.1599
G1 Z-1.81 F3200
X320.5497 Y9.905 Z-1.8592
X320.5408 Y9.9217 Z-1.905
X320.5266 Y9.9484 Z-1.9444
X320.5081 Y9.9831 Z-1.9745
X320.4865 Y10.0235 Z-1.9935
X320.4633 Y10.0669 Z-2
X319.7065 Y11.4849
X319.6777 Y11.5252
X319.6394 Y11.5567
X319.5942 Y11.5772
X319.5453 Y11.5853
X319.4959 Y11.5805
X319.4495 Y11.563
X319.4452 Y11.5608
X319.4396 Y11.5578
X319.4283 Y11.552
X319.4058 Y11.541
X319.3508 Y11.5171
X319.2957 Y11.4972
X319.2407 Y11.481
X319.1856 Y11.4683
X319.1346 Y11.4596
X319.0837 Y11.4537
X319.0755 Y11.453
X318.9654 Y11.45
X191.0287
X190.9186 Y11.4535
X190.9163 Y11.4537
X190.8624 Y11.46
X190.8085 Y11.4695
X190.7535 Y11.4825
X190.6984 Y11.4991
X190.6434 Y11.5195
X190.5883 Y11.5438
X190.5492 Y11.5638
X190.4782 Y11.6061
X190.4328 Y11.6379
X190.3874 Y11.6739
X190.3681 Y11.6906
X190.3193 Y11.7373
X190.2768 Y11.784
X190.258 Y11.8068
X190.2251 Y11.8504
X190.196 Y11.8941
X190.1705 Y11.937
X190.1479 Y11.98
X190.1364 Y12.0042
X190.1133 Y12.0592
X190.094 Y12.1142
X190.0785 Y12.1693
X190.0664 Y12.2243
X190.0577 Y12.2794
X190.0523 Y12.3344
X190.05 Y12.4445
Y262.5738
X190.0504 Y262.6288
X190.0537 Y262.6839
X190.0602 Y262.7389
X190.07 Y262.794
X190.0832 Y262.849
X190.1 Y262.9041
X190.1205 Y262.9591
X190.1451 Y263.0142
X190.1479 Y263.0201
X190.1613 Y263.0461
X190.163 Y263.0493
X190.1812 Y263.099
X190.185 Y263.1518
X190.1741 Y263.2035
X190.1493 Y263.2503
X190.1127 Y263.2884
X190.0669 Y263.3149
X188.5826 Y263.9175
X188.537 Y263.936 Z-1.9935
X188.4946 Y263.9533 Z-1.9745
X188.4581 Y263.9681 Z-1.9443
X188.4302 Y263.9794 Z-1.905
X188.4126 Y263.9866 Z-1.8592
X188.4066 Y263.989 Z-1.81
G0 Z5
X320.5566 Y9.8922
Z-2.81
G1 X320.5535 Y9.8979 Z-2.8592 F3200
X320.5446 Y9.9146 Z-2.905
X320.5304 Y9.9413 Z-2.9443
X320.5119 Y9.976 Z-2.9745
X320.4903 Y10.0164 Z-2.9935
X320.4671 Y10.0598 Z-3
X319.7065 Y11.4849
X319.6777 Y11.5252
X319.6394 Y11.5567
X319.5942 Y11.5772
X319.5453 Y11.5853
X319.4959 Y11.5805
X319.4495 Y11.563
X319.4452 Y11.5608
X319.4396 Y11.5578
X319.4283 Y11.552
X319.4058 Y11.541
X319.3508 Y11.5171
X319.2957 Y11.4972
X319.2407 Y11.481
X319.1856 Y11.4683
X319.1346 Y11.4596
X319.0837 Y11.4537
X319.0755 Y11.453
X318.9654 Y11.45
X191.0287
X190.9186 Y11.4535
X190.9163 Y11.4537
X190.8624 Y11.46
X190.8085 Y11.4695
X190.7535 Y11.4825
X190.6984 Y11.4991
X190.6434 Y11.5195
X190.5883 Y11.5438
X190.5492 Y11.5638
X190.4782 Y11.6061
X190.4328 Y11.6379
X190.3874 Y11.6739
X190.3681 Y11.6906
X190.3193 Y11.7373
X190.2768 Y11.784
X190.258 Y11.8068
X190.2251 Y11.8504
X190.196 Y11.8941
X190.1705 Y11.937
X190.1479 Y11.98
X190.1364 Y12.0042
X190.1133 Y12.0592
X190.094 Y12.1142
X190.0785 Y12.1693
X190.0664 Y12.2243
X190.0577 Y12.2794
X190.0523 Y12.3344
X190.05 Y12.4445
Y262.5738
X190.0504 Y262.6288
X190.0537 Y262.6839
X190.0602 Y262.7389
X190.07 Y262.794
X190.0832 Y262.849
X190.1 Y262.9041
X190.1205 Y262.9591
X190.1451 Y263.0142
X190.1479 Y263.0201
X190.1613 Y263.0461
X190.163 Y263.0493
X190.1812 Y263.099
X190.185 Y263.1518
X190.1741 Y263.2035
X190.1493 Y263.2503
X190.1127 Y263.2884
X190.0669 Y263.3149
X188.5727 Y263.9216
X188.5271 Y263.9401 Z-2.9935
X188.4847 Y263.9573 Z-2.9745
X188.4482 Y263.9721 Z-2.9444
X188.4202 Y263.9835 Z-2.905
X188.4026 Y263.9906 Z-2.8592
X188.3966 Y263.993 Z-2.81
G0 Z5
X320.5566 Y9.8922
Z-3.81
G1 X320.5535 Y9.8979 Z-3.8592 F3200
X320.5446 Y9.9146 Z-3.905
X320.5304 Y9.9413 Z-3.9443
X320.5119 Y9.976 Z-3.9745
X320.4903 Y10.0164 Z-3.9935
X320.4671 Y10.0598 Z-4
X319.7065 Y11.4849
X319.6777 Y11.5252
X319.6394 Y11.5567
X319.5942 Y11.5772
X319.5453 Y11.5853
X319.4959 Y11.5805
X319.4495 Y11.563
X319.4452 Y11.5608
X319.4396 Y11.5578
X319.4283 Y11.552
X319.4058 Y11.541
X319.3508 Y11.5171
X319.2957 Y11.4972
X319.2407 Y11.481
X319.1856 Y11.4683
X319.1346 Y11.4596
X319.0837 Y11.4537
X319.0755 Y11.453
X318.9654 Y11.45
X191.0287
X190.9186 Y11.4535
X190.9163 Y11.4537
X190.8624 Y11.46
X190.8085 Y11.4695
X190.7535 Y11.4825
X190.6984 Y11.4991
X190.6434 Y11.5195
X190.5883 Y11.5438
X190.5492 Y11.5638
X190.4782 Y11.6061
X190.4328 Y11.6379
X190.3874 Y11.6739
X190.3681 Y11.6906
X190.3193 Y11.7373
X190.2768 Y11.784
X190.258 Y11.8068
X190.2251 Y11.8504
X190.196 Y11.8941
X190.1705 Y11.937
X190.1479 Y11.98
X190.1364 Y12.0042
X190.1133 Y12.0592
X190.094 Y12.1142
X190.0785 Y12.1693
X190.0664 Y12.2243
X190.0577 Y12.2794
X190.0523 Y12.3344
X190.05 Y12.4445
Y262.5738
X190.0504 Y262.6288
X190.0537 Y262.6839
X190.0602 Y262.7389
X190.07 Y262.794
X190.0832 Y262.849
X190.1 Y262.9041
X190.1205 Y262.9591
X190.1451 Y263.0142
X190.1479 Y263.0201
X190.1613 Y263.0461
X190.163 Y263.0493
X190.1812 Y263.099
X190.185 Y263.1518
X190.1741 Y263.2035
X190.1493 Y263.2503
X190.1127 Y263.2884
X190.0669 Y263.3149
X188.5727 Y263.9216
X188.5271 Y263.9401 Z-3.9935
X188.4847 Y263.9573 Z-3.9745
X188.4482 Y263.9721 Z-3.9444
X188.4202 Y263.9835 Z-3.905
X188.4026 Y263.9906 Z-3.8592
X188.3966 Y263.993 Z-3.81
G0 Z5
X320.5566 Y9.8922
Z-4.1942
G1 Z-4.81 F3200
X320.5535 Y9.8979 Z-4.8592
X320.5446 Y9.9146 Z-4.905
X320.5304 Y9.9413 Z-4.9443
X320.5119 Y9.976 Z-4.9745
X320.4903 Y10.0164 Z-4.9935
X320.4671 Y10.0598 Z-5
X319.7065 Y11.4849
X319.6777 Y11.5252
X319.6394 Y11.5567
X319.5942 Y11.5772
X319.5453 Y11.5853
X319.4959 Y11.5805
X319.4495 Y11.563
X319.4452 Y11.5608
X319.4396 Y11.5578
X319.4283 Y11.552
X319.4058 Y11.541
X319.3508 Y11.5171
X319.2957 Y11.4972
X319.2407 Y11.481
X319.1856 Y11.4683
X319.1346 Y11.4596
X319.0837 Y11.4537
X319.0755 Y11.453
X318.9654 Y11.45
X191.0287
X190.9186 Y11.4535
X190.9163 Y11.4537
X190.8624 Y11.46
X190.8085 Y11.4695
X190.7535 Y11.4825
X190.6984 Y11.4991
X190.6434 Y11.5195
X190.5883 Y11.5438
X190.5492 Y11.5638
X190.4782 Y11.6061
X190.4328 Y11.6379
X190.3874 Y11.6739
X190.3681 Y11.6906
X190.3193 Y11.7373
X190.2768 Y11.784
X190.258 Y11.8068
X190.2251 Y11.8504
X190.196 Y11.8941
X190.1705 Y11.937
X190.1479 Y11.98
X190.1364 Y12.0042
X190.1133 Y12.0592
X190.094 Y12.1142
X190.0785 Y12.1693
X190.0664 Y12.2243
X190.0577 Y12.2794
X190.0523 Y12.3344
X190.05 Y12.4445
Y262.5738
X190.0504 Y262.6288
X190.0537 Y262.6839
X190.0602 Y262.7389
X190.07 Y262.794
X190.0832 Y262.849
X190.1 Y262.9041
X190.1205 Y262.9591
X190.1451 Y263.0142
X190.1479 Y263.0201
X190.1613 Y263.0461
X190.163 Y263.0493
X190.1812 Y263.099
X190.185 Y263.1518
X190.1741 Y263.2035
X190.1493 Y263.2503
X190.1127 Y263.2884
X190.0669 Y263.3149
X188.5727 Y263.9216
X188.5271 Y263.9401 Z-4.9935
X188.4847 Y263.9573 Z-4.9745
X188.4482 Y263.9721 Z-4.9444
X188.4202 Y263.9835 Z-4.905
X188.4026 Y263.9906 Z-4.8592
X188.3966 Y263.993 Z-4.81
G0 Z5
X320.5566 Y9.8922
Z-4.1942
G1 Z-5.81 F3200
X320.5535 Y9.8979 Z-5.8592
X320.5446 Y9.9146 Z-5.905
X320.5304 Y9.9413 Z-5.9443
X320.5119 Y9.976 Z-5.9745
X320.4903 Y10.0164 Z-5.9935
X320.4671 Y10.0598 Z-6
X319.7065 Y11.4849
X319.6777 Y11.5252
X319.6394 Y11.5567
X319.5942 Y11.5772
X319.5453 Y11.5853
X319.4959 Y11.5805
X319.4495 Y11.563
X319.4452 Y11.5608
X319.4396 Y11.5578
X319.4283 Y11.552
X319.4058 Y11.541
X319.3508 Y11.5171
X319.2957 Y11.4972
X319.2407 Y11.481
X319.1856 Y11.4683
X319.1346 Y11.4596
X319.0837 Y11.4537
X319.0755 Y11.453
X318.9654 Y11.45
X191.0287
X190.9186 Y11.4535
X190.9163 Y11.4537
X190.8624 Y11.46
X190.8085 Y11.4695
X190.7535 Y11.4825
X190.6984 Y11.4991
X190.6434 Y11.5195
X190.5883 Y11.5438
X190.5492 Y11.5638
X190.4782 Y11.6061
X190.4328 Y11.6379
X190.3874 Y11.6739
X190.3681 Y11.6906
X190.3193 Y11.7373
X190.2768 Y11.784
X190.258 Y11.8068
X190.2251 Y11.8504
X190.196 Y11.8941
X190.1705 Y11.937
X190.1479 Y11.98
X190.1364 Y12.0042
X190.1133 Y12.0592
X190.094 Y12.1142
X190.0785 Y12.1693
X190.0664 Y12.2243
X190.0577 Y12.2794
X190.0523 Y12.3344
X190.05 Y12.4445
Y262.5738
X190.0504 Y262.6288
X190.0537 Y262.6839
X190.0602 Y262.7389
X190.07 Y262.794
X190.0832 Y262.849
X190.1 Y262.9041
X190.1205 Y262.9591
X190.1451 Y263.0142
X190.1479 Y263.0201
X190.1613 Y263.0461
X190.163 Y263.0493
X190.1812 Y263.099
X190.185 Y263.1518
X190.1741 Y263.2035
X190.1493 Y263.2503
X190.1127 Y263.2884
X190.0669 Y263.3149
X188.5727 Y263.9216
X188.5271 Y263.9401 Z-5.9935
X188.4847 Y263.9573 Z-5.9745
X188.4482 Y263.9721 Z-5.9444
X188.4202 Y263.9835 Z-5.905
X188.4026 Y263.9906 Z-5.8592
X188.3966 Y263.993 Z-5.81
G0 Z5
X188.9064 Y-1.3308
Z-4.8128
G1 Z-6.81 F3200
X188.9121 Y-1.3277 Z-6.8592
X188.9289 Y-1.3188 Z-6.905
X188.9556 Y-1.3046 Z-6.9444
X188.9903 Y-1.2862 Z-6.9745
X189.0308 Y-1.2647 Z-6.9935
X189.0742 Y-1.2416 Z-7
X190.0838 Y-0.7052
X190.1242 Y-0.6764
X190.1558 Y-0.6382
X190.1763 Y-0.5931
X190.1845 Y-0.5441
X190.1798 Y-0.4948
X190.1624 Y-0.4483
X190.1597 Y-0.4431
X190.1561 Y-0.4363
X190.1479 Y-0.42
X190.1263 Y-0.3731
X190.1078 Y-0.3262
X190.0895 Y-0.2711
X190.0749 Y-0.2161
X190.0638 Y-0.161
X190.0559 Y-0.106
X190.0514 Y-0.0509
X190.05 Y0.0041
Y262.5738
X190.0504 Y262.6288
X190.0537 Y262.6839
X190.0602 Y262.7389
X190.07 Y262.794
X190.0832 Y262.849
X190.1 Y262.9041
X190.1205 Y262.9591
X190.1451 Y263.0142
X190.1479 Y263.0201
X190.1613 Y263.0461
X190.163 Y263.0493
X190.1812 Y263.099
X190.185 Y263.1518
X190.1741 Y263.2035
X190.1493 Y263.2503
X190.1127 Y263.2884
X190.0669 Y263.3149
X188.5727 Y263.9216
X188.5271 Y263.9401 Z-6.9935
X188.4847 Y263.9573 Z-6.9745
X188.4482 Y263.9721 Z-6.9444
X188.4202 Y263.9835 Z-6.905
X188.4026 Y263.9906 Z-6.8592
X188.3966 Y263.993 Z-6.81
G0 Z5
X188.5084 Y-1.5422
Z-5.8196
G1 Z-7.81 F3200
X188.5142 Y-1.5392 Z-7.8592
X188.5309 Y-1.5303 Z-7.905
X188.5576 Y-1.5161 Z-7.9443
X188.5923 Y-1.4976 Z-7.9745
X188.6328 Y-1.4761 Z-7.9935
X188.6762 Y-1.4531 Z-8
X190.0838 Y-0.7052
X190.1242 Y-0.6764
X190.1558 Y-0.6382
X190.1763 Y-0.5931
X190.1845 Y-0.5441
X190.1798 Y-0.4948
X190.1624 Y-0.4483
X190.1597 Y-0.4431
X190.1561 Y-0.4363
X190.1479 Y-0.42
X190.1263 Y-0.3731
X190.1078 Y-0.3262
X190.0895 Y-0.2711
X190.0749 Y-0.2161
X190.0638 Y-0.161
X190.0559 Y-0.106
X190.0514 Y-0.0509
X190.05 Y0.0041
Y262.5738
X190.0504 Y262.6288
X190.0537 Y262.6839
X190.0602 Y262.7389
X190.07 Y262.794
X190.0832 Y262.849
X190.1 Y262.9041
X190.1205 Y262.9591
X190.1451 Y263.0142
X190.1479 Y263.0201
X190.1613 Y263.0461
X190.163 Y263.0493
X190.1812 Y263.099
X190.185 Y263.1518
X190.1741 Y263.2035
X190.1493 Y263.2503
X190.1127 Y263.2884
X190.0669 Y263.3149
X188.5727 Y263.9216
X188.5271 Y263.9401 Z-7.9935
X188.4847 Y263.9573 Z-7.9745
X188.4482 Y263.9721 Z-7.9444
X188.4202 Y263.9835 Z-7.905
X188.4026 Y263.9906 Z-7.8592
X188.3966 Y263.993 Z-7.81
G0 Z5
X190.05 Y29.7946
Z2
G1 Z-7.7599 F3200
Y29.7884 Z-7.808 F1200
Y29.7702 Z-7.853
Y29.7412 Z-7.8919
Y29.7034 Z-7.9222
Y29.6591 Z-7.9419
Y29.6112 Z-7.9498
Y0.0041 Z-8.9837
X190.0514 Y-0.0509 Z-8.9856
X190.0559 Y-0.106 Z-8.9875
X190.0638 Y-0.161 Z-8.9895
X190.0749 Y-0.2161 Z-8.9914
X190.0895 Y-0.2711 Z-8.9934
X190.1078 Y-0.3262 Z-8.9954
X190.1263 Y-0.3731 Z-8.9972
X190.1479 Y-0.42 Z-8.999
X190.1561 Y-0.4363 Z-8.9996
X190.1593 Y-0.4424 Z-8.9999
X190.1597 Y-0.4431
X190.1624 Y-0.4483 Z-9
X190.1597 Y-0.4431 F3200
X190.1561 Y-0.4363
X190.1479 Y-0.42
X190.1263 Y-0.3731
X190.1078 Y-0.3262
X190.0895 Y-0.2711
X190.0749 Y-0.2161
X190.0638 Y-0.161
X190.0559 Y-0.106
X190.0514 Y-0.0509
X190.05 Y0.0041
Y262.5738
X190.0504 Y262.6288
X190.0537 Y262.6839
X190.0602 Y262.7389
X190.07 Y262.794
X190.0832 Y262.849
X190.1 Y262.9041
X190.1205 Y262.9591
X190.1451 Y263.0142
X190.1479 Y263.0201
X190.1613 Y263.0461
X190.163 Y263.0493
X190.1862 Y263.0927 Z-8.9935
X190.2078 Y263.1331 Z-8.9745
X190.2263 Y263.1678 Z-8.9443
X190.2406 Y263.1945 Z-8.905
X190.2495 Y263.2112 Z-8.8592
X190.2525 Y263.2169 Z-8.81
G0 Z6

(Operation 2 of 2 : Horizontal1  2 )

G54
S30000 M3
X154.1227 Y-1.9949
Z6
Z-5.1
G1 Z-5.91 F3200
Y-1.9884 Z-5.9592
Y-1.9694 Z-6.005
Y-1.9393 Z-6.0443
Y-1.8999 Z-6.0745
Y-1.8541 Z-6.0935
Y-1.8049 Z-6.1
X154.1229 Y-1.7948
X154.5016 Y5.2897
X154.4969 Y5.3429
X154.4776 Y5.3928
X154.4452 Y5.4353
X154.4022 Y5.467
X154.352 Y5.4856
X154.2987 Y5.4894
X154.2464 Y5.4782
X154.1993 Y5.4529
X154.1612 Y5.4155
X154.1349 Y5.3689
X154.1227 Y5.3169
G3 X154.5456 Y4.8541 I0.423 J-0.0381
G1 X155.6066
G3 Y5.836 J0.4909
G1 X154.5564
G3 X154.1328 Y5.4413 J-0.4247
G2 X154.1227 Y5.3169 I-5.7029 J0.4034
X153.6315 Y4.6508 I-0.7975 J0.0739
G3 X153.7928 Y3.839 I0.1613 J-0.3898
G1 X156.5846
G3 X157.161 Y4.4155 J0.5764
G1 Y6.2746
G3 X156.5846 Y6.851 I-0.5764
G1 X153.6595
G3 X153.1315 Y6.295 J-0.5287
G2 X153.1057 Y5.3241 I-6.204 J-0.3208
X152.9341 Y4.3681 I-6.6481 J0.6996
G3 X153.3449 Y3.839 I0.4108 J-0.105
G1 X153.7928
G2 X154.7495 Y3.2012 J-1.0364
G3 X155.7063 Y2.5634 I0.9567 J0.3986
G1 X157.8602
G3 X158.4366 Y3.1398 J0.5764
G1 X158.4367 Y7.5502
G3 X157.8602 Y8.1267 I-0.5764
G1 X151.996
G3 X151.6154 Y7.6075 J-0.3991
G2 X151.3202 Y3.6048 I-5.1715 J-1.6309
X151.155 Y3.3174 I-2.093 J1.0117
G3 X150.9724 Y3.0408 I14.8124 J-9.9815
X151.2321 Y2.5634 I0.2597 J-0.1681
G1 X155.7063
X155.7554 Y2.5699
X155.8013 Y2.5889
X155.8406 Y2.6191
X155.8708 Y2.6584
X155.8898 Y2.7042
X155.8963 Y2.7534
Y2.8026 Z-6.0935
Y2.8484 Z-6.0745
Y2.8878 Z-6.0443
Y2.918 Z-6.005
Y2.9369 Z-5.9592
Y2.9434 Z-5.91
G0 Z5
X99 Y-1.9949
Z-5.1
G1 Z-5.91 F3200
Y-1.9884 Z-5.9592
Y-1.9695 Z-6.005
Y-1.9393 Z-6.0443
Y-1.8999 Z-6.0745
Y-1.8541 Z-6.0935
Y-1.8049 Z-6.1
X98.9999 Y-1.7993
X98.8101 Y4.6584
X98.8153 Y4.7087
X98.8336 Y4.7557
X98.8637 Y4.7963
X98.9034 Y4.8276
X98.9499 Y4.8473
X99 Y4.854
X138.4546
G3 X138.8774 Y5.3179 J0.4247
G2 X138.8673 Y5.4414 I5.5898 J0.5194
G3 X138.4437 Y5.8361 I-0.4236 J-0.03
G1 X59.5563
G3 X59.1327 Y5.4414 J-0.4247
G2 X59.1226 Y5.3179 I-5.5999 J0.396
G3 X59.5455 Y4.854 I0.4228 J-0.0393
G1 X99
G2 X99.7615 Y4.3463 J-0.825
G3 X100.523 Y3.8387 I0.7615 J0.3173
G1 X139.6556
G3 X140.0664 Y4.3677 J0.424
G2 X139.8947 Y5.3245 I6.4765 J1.6563
X139.869 Y6.2963 I6.1731 J0.6495
G3 X139.342 Y6.8514 I-0.527 J0.0274
G1 X58.6581
G3 X58.131 Y6.2963 J-0.5277
G2 X57.934 Y4.3667 I-6.3269 J-0.3289
G3 X58.344 Y3.8387 I0.4099 J-0.1049
G1 X100.523
G2 X101.4796 Y3.2009 J-1.0363
G3 X102.4362 Y2.5632 I0.9566 J0.3986
G1 X141.7684
G3 X142.0281 Y3.0406 J0.3093
G2 X141.2258 Y5.0598 I4.6753 J3.0267
X141.2693 Y7.2321 I5.3275 J0.9799
X141.3231 Y7.421 I1.7144 J-0.3869
G3 X141.3848 Y7.6074 I-6.5629 J2.2755
X141.004 Y8.1269 I-0.3809 J0.1201
G1 X56.9957
G3 X56.6151 Y7.6078 J-0.3991
G2 X56.3243 Y3.6126 I-5.1725 J-1.6317
X56.1569 Y3.3212 I-2.1144 J1.021
G3 X55.9717 Y3.0408 I14.806 J-9.9801
X56.2316 Y2.5632 I0.2598 J-0.1681
G1 X102.4362
X102.4854 Y2.5697
X102.5312 Y2.5887
X102.5706 Y2.6189
X102.6007 Y2.6582
X102.6197 Y2.704
X102.6262 Y2.7532
Y2.8024 Z-6.0935
Y2.8482 Z-6.0745
Y2.8875 Z-6.0443
Y2.9177 Z-6.005
Y2.9367 Z-5.9592
Y2.9432 Z-5.91
G0 Z5
X31.0057 Y5.3459
Z-5.1
G1 Z-5.91 F3200
X31.0122 Z-5.9592
X31.0311 Z-6.005
X31.0613 Z-6.0443
X31.1007 Y5.3458 Z-6.0745
X31.1465 Z-6.0935
X31.1957 Z-6.1
X31.2013 Y5.3459
X37.659 Y5.535
X37.7092 Y5.5298
X37.7563 Y5.5115
X37.7969 Y5.4814
X37.8282 Y5.4417
X37.8478 Y5.3952
X37.8546 Y5.3451
Y5.2787
G3 X38.2792 Y4.854 I0.4247
G1 X43.4546
G3 X43.8774 Y5.3179 J0.4247
G2 X43.8673 Y5.4414 I5.5898 J0.5194
G3 X43.4437 Y5.8361 I-0.4236 J-0.03
G1 X38.2792
G3 X37.8546 Y5.4115 J-0.4247
G1 Y5.3451
G2 X37.2991 Y4.73 I-0.6183 J0.0001
G3 X37.118 Y3.9213 I0.0444 J-0.4346
X37.4154 Y3.8386 I0.2974 J0.4937
G1 X44.6556
G3 X45.0665 Y4.3677 J0.4241
G2 X44.8947 Y5.3246 I6.4758 J1.6561
X44.869 Y6.2964 I6.1736 J0.6494
G3 X44.342 Y6.8515 I-0.527 J0.0274
G1 X37.4158
G3 X36.8393 Y6.275 J-0.5765
G1 X36.8391 Y4.415
G3 X37.118 Y3.9213 I0.5763 J-0.0001
G2 X37.8054 Y3.1358 I-0.884 J-1.4672
G3 X38.6781 Y2.5632 I0.8727 J0.3786
G1 X46.7687
G3 X47.0283 Y3.0406 J0.3093
G2 X46.2668 Y7.2224 I4.643 J3.0057
X46.3211 Y7.415 I1.76 J-0.3916
G3 X46.384 Y7.6049 I-9.6781 J3.3146
X46.0033 Y8.1269 I-0.3807 J0.1221
G1 X36.1405
G3 X35.564 Y7.5504 J-0.5765
G1 X35.5635 Y3.1396
G3 X36.1399 Y2.5632 I0.5763 J-0.0001
G1 X38.6781
G2 X39.5275 Y1.9969 J-0.9202
G3 X40.377 Y1.4306 I0.8495 J0.3539
G1 X159.0045
G3 X159.5694 Y1.9955 J0.5649
G1 X159.5695 Y8.6946
G3 X159.0046 Y9.2595 I-0.5649
G1 X149.8612
G3 X149.6578 Y8.8139 J-0.2692
G2 X150.7161 Y6.5473 I-3.4477 J-2.9901
X150.3533 Y4.0722 I-4.116 J-0.6609
X142.255 Y5.2609 I-3.8624 J1.8669
X142.4072 Y7.1578 I3.9922 J0.6343
X143.3434 Y8.8145 I4.6235 J-1.5201
G3 X143.1395 Y9.2595 I-0.204 J0.1757
G1 X54.8606
G3 X54.658 Y8.8137 J-0.269
G2 X55.7619 Y5.6964 I-3.3847 J-2.9527
X54.3037 Y2.7283 I-4.0524 J0.1486
X48.4991 Y3.0037 I-2.7519 J3.3063
X48.3411 Y8.8126 I3.0099 J2.9885
G3 X48.1406 Y9.2595 I-0.2005 J0.1785
G1 X34.9965
G3 X34.4316 Y8.6946 J-0.565
G1 X34.4308 Y1.9955
G3 X34.9956 Y1.4306 I0.5648 J-0.0001
G1 X40.377
G2 X40.9592 Y1.0428 J-0.6311
G3 X41.5415 Y0.6551 I0.5818 J0.2426
G1 X146.5478 Y0.731
X159.7738 Y0.6498
G3 X160.3503 Y1.2262 J0.5764
G1 Y9.4639
G3 X159.7739 Y10.0403 I-0.5764
G1 X34.2273
G3 X33.6508 Y9.4639 J-0.5765
G1 X33.6499 Y1.2262
G3 X34.2263 Y0.6498 I0.5763 J-0.0001
G1 X41.5415 Y0.6551
G2 X42.6033 Y-0.0524 I0.0008 J-1.1492
G3 X43.665 Y-0.7599 I1.0618 J0.443
G1 X160.9711
X161.0813 Y-0.7553
X161.1363 Y-0.7473
X161.1913 Y-0.7353
X161.2464 Y-0.7187
X161.3015 Y-0.6973
X161.3404 Y-0.679
X161.3794 Y-0.6582
X161.4116 Y-0.6386
X161.4391 Y-0.6201
X161.4666 Y-0.5996
X161.4941 Y-0.5771
X161.5255 Y-0.5481
X161.5535 Y-0.5205
X161.5781 Y-0.493
X161.6003 Y-0.4655
X161.621 Y-0.438
X161.6606 Y-0.3747
X161.6854 Y-0.3279
X161.7091 Y-0.2728
X161.728 Y-0.2178
X161.7419 Y-0.1636
X161.7519 Y-0.1077
X161.7579 Y-0.0526
X161.7599 Y0.0024
X161.76 Y11.8255
X161.7578 Y11.827
X161.7219 Y11.7824
X161.6799 Y11.7364
X161.6318 Y11.6905
X161.6107 Y11.6723
X161.5662 Y11.6371
X161.5217 Y11.606
X161.4848 Y11.583
X161.4479 Y11.5622
X161.4116 Y11.5438
X161.3565 Y11.5194
X161.3015 Y11.4991
X161.2464 Y11.4825
X161.1913 Y11.4695
X161.1363 Y11.4598
X161.0813 Y11.4535
X161.0635 Y11.4521
X160.9711 Y11.45
X33.0331
X32.9365 Y11.4521
X32.868 Y11.4592
X32.8129 Y11.4686
X32.7579 Y11.4814
X32.7028 Y11.4977
X32.6478 Y11.5177
X32.5927 Y11.5417
X32.5521 Y11.5622
X32.4826 Y11.6033
X32.436 Y11.6356
X32.3893 Y11.6723
X32.3725 Y11.6867
X32.322 Y11.7346
X32.2782 Y11.7824
X32.2512 Y11.8154
X32.2414 Y11.8281
X32.2401 Y0.0024
X32.2422 Y-0.0526
X32.2481 Y-0.1077
X32.2543 Y-0.1448
X32.2624 Y-0.1819
X32.272 Y-0.2178
X32.291 Y-0.2728
X32.3148 Y-0.3279
X32.3412 Y-0.3779
X32.3791 Y-0.438
X32.3999 Y-0.4655
X32.4226 Y-0.493
X32.4826 Y-0.5556
X32.5101 Y-0.5807
X32.5377 Y-0.6029
X32.5652 Y-0.6229
X32.5927 Y-0.6412
X32.6208 Y-0.6582
X32.6618 Y-0.6801
X32.7028 Y-0.6992
X32.7579 Y-0.7201
X32.8129 Y-0.7363
X32.868 Y-0.748
X32.923 Y-0.7557
X33.0331 Y-0.7599
X43.665
X43.6962 Y-0.7547
X43.7239 Y-0.7394
X43.7451 Y-0.716
X47.8021 Y5.6495
X47.8142 Y5.6777
X47.8167 Y5.7083
G2 X51.5963 Y9.653 I3.637 J0.2982
X54.2858 Y8.3562 I-0.1539 J-3.7565
X55.118 Y5.4886 I-2.7042 J-2.3392
X50.6033 Y2.4578 I-3.6397 J0.5438
X47.8167 Y5.7083 I0.8504 J3.5488
X48.8877 Y7.2383 I1.4576 J0.1195
G3 X50.6511 Y7.8536 I-3.618 J13.2028
G1 X50.7595 Y7.9
X50.8696 Y7.9389
X50.9797 Y7.9715
X51.0898 Y7.9977
X51.1999 Y8.0168
X51.31 Y8.0305
X51.4201 Y8.0378
X51.5302 Y8.0392
X51.6403 Y8.0347
X51.7504 Y8.0234
X51.8605 Y8.0077
X51.9706 Y7.9838
X52.0807 Y7.9545
X52.1616 Y7.9291
X52.3009 Y7.8757
X52.4204 Y7.819
X52.5211 Y7.7655
X52.6312 Y7.6969
X52.7413 Y7.6185
X52.8514 Y7.5273
X52.8927 Y7.4888
X52.9615 Y7.4214
X53.0029 Y7.3787
X53.0716 Y7.3
X53.0972 Y7.2686
X53.1817 Y7.1542
X53.2494 Y7.0484
X53.3104 Y6.9383
X53.3639 Y6.8282
X53.4081 Y6.7181
X53.4459 Y6.608
X53.478 Y6.4979
X53.5017 Y6.3878
X53.512 Y6.3304
X53.5199 Y6.2777
X53.5324 Y6.1676
X53.5387 Y6.0575
X53.5388 Y5.9475
X53.5328 Y5.8374
X53.5205 Y5.7273
X53.512 Y5.6701
X53.5027 Y5.6172
X53.4791 Y5.5071
X53.4475 Y5.397
X53.41 Y5.2869
X53.3661 Y5.1768
X53.313 Y5.0667
X53.2523 Y4.9566
X53.1817 Y4.846
X53.1012 Y4.7364
X53.0716 Y4.7002
X53.0074 Y4.6263
X52.9615 Y4.5789
X52.8978 Y4.5162
X52.8514 Y4.4731
X52.7413 Y4.3814
X52.6204 Y4.296
X52.5211 Y4.2345
X52.411 Y4.176
X52.3009 Y4.1241
X52.1751 Y4.0759
X52.0807 Y4.0455
X51.9706 Y4.0161
X51.8605 Y3.9932
X51.7504 Y3.9766
X51.6503 Y3.9658
X51.5302 Y3.9608
X51.4201 Y3.9622
X51.31 Y3.9695
X51.1999 Y3.9833
X51.0898 Y4.0021
X50.9797 Y4.0285
X50.8696 Y4.0611
X50.8256 Y4.0759
X50.7595 Y4.1003
X50.6494 Y4.1471
X50.5684 Y4.186
X50.5393 Y4.2016
X50.4292 Y4.2646
X50.3191 Y4.3369
X50.209 Y4.4213
X50.0989 Y4.5184
X49.9888 Y4.6307
X49.9422 Y4.6835
X49.8991 Y4.7364
X49.8179 Y4.8465
X49.748 Y4.9566
X49.6868 Y5.0667
X49.6584 Y5.1246
X49.6345 Y5.1768
X49.5895 Y5.2869
X49.5483 Y5.4104
X49.5216 Y5.5071
X49.4974 Y5.6172
X49.4794 Y5.7273
X49.4672 Y5.8374
X49.4613 Y5.9475
X49.4614 Y6.0575
X49.4677 Y6.1676
X49.4801 Y6.2777
X49.4983 Y6.3878
X49.5228 Y6.4979
X49.5483 Y6.5899
X49.5913 Y6.7181
X49.6367 Y6.8282
X49.6584 Y6.8752
X49.6893 Y6.9383
X49.7508 Y7.0484
X49.8213 Y7.1585
X49.903 Y7.2686
X49.9441 Y7.3189
X49.9974 Y7.3787
X50.1066 Y7.4888
X50.209 Y7.5786
X50.3191 Y7.6632
X50.4292 Y7.7354
X50.5393 Y7.7985
X50.5788 Y7.819
X50.6494 Y7.8529
X50.6511 Y7.8536
X50.6938 Y7.8789
X50.7284 Y7.9144
X50.7528 Y7.9576
X50.765 Y8.0057
X50.7645 Y8.0553
X50.7511 Y8.103
X50.7318 Y8.1482 Z-6.0935
X50.7138 Y8.1904 Z-6.0745
X50.6983 Y8.2266 Z-6.0443
X50.6864 Y8.2543 Z-6.005
X50.679 Y8.2718 Z-5.9592
X50.6764 Y8.2777 Z-5.91
G0 Z5
X140.757 Y5.898
Z-5.1
G1 Z-5.91 F3200
X140.7635 Y5.8978 Z-5.9592
X140.7825 Y5.8973 Z-6.005
X140.8127 Y5.8966 Z-6.0443
X140.852 Y5.8957 Z-6.0745
X140.8978 Y5.8945 Z-6.0935
X140.947 Y5.8934 Z-6.1
X142.6466 Y5.852
X142.6959 Y5.8573
X142.7422 Y5.8752
X142.7822 Y5.9044
X142.8134 Y5.943
X142.8335 Y5.9884
X142.8411 Y6.0374
G2 X142.8627 Y6.3503 I3.5239 J-0.0857
X147.5301 Y9.5056 I3.6836 J-0.4192
X146.5436 Y2.3458 I-0.9746 J-3.5135
X143.8081 Y3.5253 I0.0098 J3.7847
X142.8411 Y6.0374 I2.5569 J2.4264
X144.0175 Y7.3962 I1.4127 J-0.0343
G3 X145.7448 Y7.8932 I-1.3419 J7.9132
G1 X145.7771 Y7.9066
X145.8391 Y7.9291
X145.8872 Y7.9445
X145.9973 Y7.976
X146.1074 Y8.0016
X146.2175 Y8.0192
X146.3276 Y8.032
X146.4377 Y8.0386
X146.5478 Y8.0389
X146.6579 Y8.0332
X146.7681 Y8.0212
X146.8781 Y8.0046
X146.9883 Y7.9796
X147.0983 Y7.949
X147.1624 Y7.9291
X147.2085 Y7.9119
X147.3186 Y7.8677
X147.4286 Y7.8152
X147.5388 Y7.7548
X147.6489 Y7.6852
X147.7665 Y7.5989
X147.8691 Y7.5118
X147.8941 Y7.4888
X147.9792 Y7.4041
X148.0029 Y7.3787
X148.0893 Y7.2787
X148.179 Y7.1585
X148.2499 Y7.0484
X148.3105 Y6.9383
X148.3635 Y6.8282
X148.4081 Y6.7181
X148.4196 Y6.6878
X148.4459 Y6.608
X148.4772 Y6.4979
X148.5018 Y6.3878
X148.5199 Y6.2777
X148.5297 Y6.1985
X148.5324 Y6.1676
X148.5387 Y6.0575
X148.5388 Y5.9475
X148.5328 Y5.8374
X148.5297 Y5.8026
X148.5205 Y5.7273
X148.5027 Y5.6172
X148.4784 Y5.5071
X148.4475 Y5.397
X148.4196 Y5.3123
X148.3659 Y5.1768
X148.3095 Y5.0601
X148.2529 Y4.9566
X148.1824 Y4.8465
X148.1012 Y4.7364
X148.0076 Y4.6263
X147.9792 Y4.5961
X147.899 Y4.5162
X147.8691 Y4.4882
X147.759 Y4.3953
X147.6489 Y4.3149
X147.5388 Y4.2447
X147.4286 Y4.1848
X147.3186 Y4.1322
X147.2085 Y4.0881
X147.1757 Y4.0759
X147.0983 Y4.051
X146.9883 Y4.0204
X146.8781 Y3.9961
X146.7681 Y3.9788
X146.6579 Y3.9668
X146.5478 Y3.9612
X146.4377 Y3.9614
X146.3276 Y3.968
X146.2175 Y3.9808
X146.1074 Y3.9985
X145.9973 Y4.024
X145.8872 Y4.0555
X145.8238 Y4.0759
X145.7771 Y4.0937
X145.667 Y4.139
X145.5683 Y4.186
X145.4468 Y4.2536
X145.3367 Y4.3245
X145.2266 Y4.4067
X145.1165 Y4.5017
X145.1008 Y4.5162
X145.0064 Y4.6111
X144.9926 Y4.6263
X144.8963 Y4.7399
X144.8177 Y4.8465
X144.7477 Y4.9566
X144.6761 Y5.087
X144.6345 Y5.1768
X144.5899 Y5.2869
X144.566 Y5.3539
X144.5526 Y5.397
X144.5216 Y5.5071
X144.497 Y5.6172
X144.4795 Y5.7273
X144.4672 Y5.8374
X144.4613 Y5.9475
Y6.0575
X144.4677 Y6.1676
X144.4802 Y6.2777
X144.498 Y6.3878
X144.5228 Y6.4979
X144.5541 Y6.608
X144.566 Y6.6456
X144.5917 Y6.7181
X144.6367 Y6.8282
X144.6761 Y6.9134
X144.7506 Y7.0484
X144.821 Y7.1585
X144.9029 Y7.2686
X145.0064 Y7.3887
X145.1062 Y7.4888
X145.2339 Y7.5989
X145.3367 Y7.6756
X145.4468 Y7.7465
X145.5775 Y7.819
X145.667 Y7.8611
X145.7448 Y7.8932
X145.7877 Y7.918
X145.8228 Y7.9531
X145.8476 Y7.996
X145.8605 Y8.0439
Y8.0935
X145.8477 Y8.1415
X145.8289 Y8.1869 Z-6.0935
X145.8114 Y8.2292 Z-6.0745
X145.7963 Y8.2656 Z-6.0443
X145.7848 Y8.2935 Z-6.005
X145.7775 Y8.311 Z-5.9592
X145.775 Y8.317 Z-5.91
G0 Z5
X189.0051 Y5.0242
Z-5.1
G1 Z-5.91 F3200
X189.0115 Y5.0243 Z-5.9592
X189.0305 Y5.0245 Z-6.005
X189.0607 Y5.0248 Z-6.0443
X189.1001 Y5.0251 Z-6.0745
X189.1459 Y5.0256 Z-6.0935
X189.1951 Y5.0261 Z-6.1
X195.8739 Y5.0927
X195.9151 Y5.0886
X195.9544 Y5.0757
X195.9901 Y5.0545
X196.0202 Y5.0261
G3 X196.3934 Y4.8541 I0.3732 J0.3189
G1 X198.4544
G3 X198.8773 Y5.3181 J0.4247
G2 X198.8672 Y5.4413 I5.59 J0.5193
G3 X198.4436 Y5.836 I-0.4236 J-0.03
G1 X196.3934
G3 X196.0202 Y5.0261 J-0.4909
G2 X196.3743 Y4.3264 I-1.2609 J-1.0774
G3 X196.9887 Y3.8391 I0.6144 J0.1437
G1 X199.655
G3 X200.0658 Y4.3682 J0.424
G2 X199.8942 Y5.3245 I6.4788 J1.656
X199.8685 Y6.2958 I6.1749 J0.6496
G3 X199.3414 Y6.851 I-0.5271 J0.0273
G1 X195.4155
G3 X194.8391 Y6.2745 J-0.5764
G1 Y4.4156
G3 X195.4155 Y3.8391 I0.5764
G1 X196.9887
G2 X197.9453 Y3.2014 J-1.0363
G3 X198.9019 Y2.5636 I0.9566 J0.3986
G1 X201.7676
G3 X202.0273 Y3.041 J0.3093
G2 X201.2231 Y5.068 I4.6862 J3.0323
X201.273 Y7.2482 I5.2945 J0.9694
X201.3251 Y7.4287 I1.6936 J-0.391
G3 X201.3843 Y7.6071 I-5.9708 J2.0789
X201.0034 Y8.1265 I-0.3809 J0.12
G1 X194.14
G3 X193.5636 Y7.55 J-0.5764
G1 Y3.1401
G3 X194.14 Y2.5636 I0.5764
G1 X198.9019
X198.9511 Y2.5701
X198.9969 Y2.5891
X199.0363 Y2.6193
X199.0665 Y2.6586
X199.0855 Y2.7044
X199.0919 Y2.7536
Y2.8028 Z-6.0935
Y2.8486 Z-6.0745
Y2.888 Z-6.0443
Y2.9182 Z-6.005
Y2.9372 Z-5.9592
Y2.9436 Z-5.91
G0 Z5
X254 Y-1.9949
Z-5.1
G1 Z-5.91 F3200
Y-1.9884 Z-5.9592
Y-1.9695 Z-6.005
Y-1.9393 Z-6.0443
Y-1.8999 Z-6.0745
Y-1.8541 Z-6.0935
Y-1.8049 Z-6.1
Y-1.7993
X253.8101 Y4.6584
X253.8154 Y4.7087
X253.8337 Y4.7558
X253.8637 Y4.7964
X253.9034 Y4.8276
X253.95 Y4.8473
X254 Y4.854
X293.4546
G3 X293.8774 Y5.318 J0.4247
G2 X293.8673 Y5.4414 I5.5899 J0.5194
G3 X293.4437 Y5.8361 I-0.4236 J-0.03
G1 X214.5564
G3 X214.1328 Y5.4414 J-0.4247
G2 X214.1227 Y5.318 I-5.5999 J0.396
G3 X214.5455 Y4.854 I0.4229 J-0.0393
G1 X254
G2 X254.7615 Y4.3464 J-0.8249
G3 X255.5229 Y3.8388 I0.7615 J0.3173
G1 X294.6558
G3 X295.0662 Y4.3673 J0.4236
G2 X294.8944 Y5.3244 I6.4699 J1.6552
X294.8687 Y6.2965 I6.1777 J0.6493
G3 X294.342 Y6.8513 I-0.5267 J0.0274
G1 X213.6582
G3 X213.1312 Y6.2962 J-0.5277
G2 X213.1055 Y5.3245 I-6.1989 J-0.3222
X212.9337 Y4.3678 I-6.6491 J0.6996
G3 X213.3445 Y3.8388 I0.4108 J-0.105
G1 X255.5229
G2 X256.4796 Y3.201 J-1.0363
G3 X257.4362 Y2.5633 I0.9566 J0.3986
G1 X296.7684 Y2.5632
G3 X297.0281 Y3.0407 J0.3094
G2 X296.304 Y4.6297 I5.0069 J3.241
X296.1107 Y6.3652 I4.967 J1.4318
X296.2094 Y6.9949 I3.2927 J-0.1938
X296.3849 Y7.6076 I11.6026 J-2.9913
G3 X296.0042 Y8.1268 I-0.3807 J0.1201
G1 X211.9958
G3 X211.6152 Y7.6077 J-0.3991
G2 X211.8311 Y5.4353 I-5.0776 J-1.6016
X211.1764 Y3.3527 I-5.54 J0.5973
X211.077 Y3.1947 I-1.3671 J0.75
G3 X210.9719 Y3.0405 I3.2323 J-2.315
X211.2315 Y2.5633 I0.2595 J-0.168
G1 X257.4362
X257.4854 Y2.5697
X257.5312 Y2.5887
X257.5705 Y2.6189
X257.6007 Y2.6582
X257.6197 Y2.7041
X257.6262 Y2.7533
Y2.8024 Z-6.0935
Y2.8483 Z-6.0745
Y2.8876 Z-6.0443
Y2.9178 Z-6.005
Y2.9368 Z-5.9592
Y2.9433 Z-5.91
G0 Z5
X309.1226 Y-1.9949
Z-5.1
G1 Z-5.91 F3200
Y-1.9884 Z-5.9592
Y-1.9695 Z-6.005
Y-1.9393 Z-6.0443
Y-1.8999 Z-6.0745
Y-1.8541 Z-6.0935
Y-1.8049 Z-6.1
X309.1229 Y-1.7948
X309.5016 Y5.2903
X309.4969 Y5.3435
X309.4776 Y5.3933
X309.4452 Y5.4357
X309.4023 Y5.4675
X309.3522 Y5.4861
X309.2989 Y5.49
X309.2467 Y5.4789
X309.1996 Y5.4537
X309.1613 Y5.4164
X309.135 Y5.3699
X309.1226 Y5.318
G3 X309.5455 Y4.854 I0.4229 J-0.0393
G1 X313.7214
G3 X314.1461 Y5.2787 J0.4247
G1 Y5.4114
G3 X313.7214 Y5.8361 I-0.4247
G1 X309.5563
G3 X309.1327 Y5.4414 J-0.4247
G2 X309.1226 Y5.318 I-5.5999 J0.396
X308.621 Y4.6557 I-0.7842 J0.0729
G3 X308.7726 Y3.8388 I0.1516 J-0.3944
G1 X314.5849
G3 X315.1613 Y4.4152 J0.5764
G1 Y6.2749
G3 X314.5849 Y6.8513 I-0.5764
G1 X308.6581
G3 X308.1313 Y6.2964 J-0.5275
G2 X308.1315 Y5.57 I-7.0246 J-0.3653
X308.0522 Y4.8479 I-6.2495 J0.3212
X307.9979 Y4.6066 I-2.2596 J0.3821
G3 X307.9336 Y4.3678 I9.4708 J-2.677
X308.3444 Y3.8388 I0.4108 J-0.105
G1 X308.7726
G2 X309.7292 Y3.201 J-1.0364
G3 X310.6859 Y2.5632 I0.9566 J0.3986
G1 X315.8604
G3 X316.4368 Y3.1397 J0.5764
G1 Y7.5504
G3 X315.8604 Y8.1268 I-0.5764
G1 X306.9967
G3 X306.6154 Y7.6068 J-0.3999
G2 X306.8307 Y5.4298 I-5.0843 J-1.6022
X306.1709 Y3.344 I-5.5182 J0.5985
X306.074 Y3.1906 I-1.3631 J0.7532
G3 X305.9719 Y3.0406 I3.1504 J-2.2554
X306.2316 Y2.5632 I0.2597 J-0.1681
G1 X310.6859
G2 X311.5353 Y1.997 J-0.9202
G3 X312.3847 Y1.4307 I0.8494 J0.3539
G1 X317.0045
G3 X317.5694 Y1.9956 J0.5649
G1 Y8.6945
G3 X317.0045 Y9.2594 I-0.5649
G1 X304.8598
G3 X304.6588 Y8.813 J-0.2684
G2 X300.543 Y1.7989 I-3.2014 J-2.8361
X297.6282 Y4.1608 I0.8724 J4.0562
X297.6886 Y7.912 I4.048 J1.8109
X297.9857 Y8.3845 I2.3161 J-1.127
X298.3421 Y8.8142 I9.8103 J-7.7722
G3 X298.1389 Y9.2594 I-0.2032 J0.1762
G1 X209.8614
G3 X209.6579 Y8.8137 J-0.2693
G2 X210.7268 Y6.431 I-3.4198 J-2.9652
X210.243 Y3.8647 I-4.1745 J-0.5417
X205.6431 Y1.733 I-3.7463 J2.0551
X202.2233 Y5.4758 I0.8603 J4.2198
X202.4334 Y7.262 I3.9525 J0.4406
X203.3423 Y8.814 I4.6092 J-1.6573
G3 X203.139 Y9.2594 I-0.2033 J0.1763
G1 X192.9955
G3 X192.4306 Y8.6945 J-0.5649
G1 X192.4307 Y1.9956
G3 X192.9956 Y1.4307 I0.5649
G1 X312.3847
G2 X312.9704 Y1.0402 J-0.6345
G3 X313.556 Y0.6498 I0.5856 J0.244
G1 X317.7738
G3 X318.3503 Y1.2262 J0.5764
G1 Y9.4638
G3 X317.7739 Y10.0403 I-0.5764
G1 X192.2262
G3 X191.6498 Y9.4638 J-0.5764
G1 Y1.2263
G3 X192.2262 Y0.6498 I0.5764
G1 X313.556
G2 X314.6133 Y-0.0551 J-1.1454
G3 X315.6706 Y-0.7599 I1.0573 J0.4405
G1 X318.9669
X319.077 Y-0.7557
X319.1321 Y-0.748
X319.1871 Y-0.7363
X319.2422 Y-0.7201
X319.2972 Y-0.6992
X319.3383 Y-0.6801
X319.3793 Y-0.6582
X319.4073 Y-0.6413
X319.4348 Y-0.6229
X319.4624 Y-0.6029
X319.4899 Y-0.5807
X319.5254 Y-0.5481
X319.5775 Y-0.493
X319.6002 Y-0.4655
X319.621 Y-0.438
X319.6588 Y-0.3779
X319.6852 Y-0.3279
X319.709 Y-0.2728
X319.7281 Y-0.2178
X319.7376 Y-0.182
X319.7457 Y-0.1448
X319.752 Y-0.1077
X319.7579 Y-0.0526
X319.7599 Y0.0024
X319.76 Y11.8263
X319.7219 Y11.7824
X319.678 Y11.7346
X319.6275 Y11.6867
X319.6107 Y11.6723
X319.5641 Y11.6356
X319.5174 Y11.6033
X319.4479 Y11.5622
X319.4073 Y11.5417
X319.3523 Y11.5177
X319.2972 Y11.4977
X319.2422 Y11.4814
X319.1871 Y11.4686
X319.1321 Y11.4592
X319.0635 Y11.4521
X318.9669 Y11.45
X191.0289
X190.9365 Y11.4521
X190.9188 Y11.4535
X190.8637 Y11.4598
X190.8087 Y11.4695
X190.7536 Y11.4825
X190.6986 Y11.4991
X190.6435 Y11.5194
X190.5885 Y11.5438
X190.5521 Y11.5622
X190.5152 Y11.583
X190.4784 Y11.606
X190.4338 Y11.6371
X190.3893 Y11.6723
X190.3683 Y11.6905
X190.3202 Y11.7364
X190.2782 Y11.7824
X190.2491 Y11.8181
X190.2423 Y11.827
X190.24 Y11.8255
X190.2401 Y0.0024
X190.2422 Y-0.0526
X190.2481 Y-0.1077
X190.2582 Y-0.1636
X190.272 Y-0.2178
X190.291 Y-0.2728
X190.3147 Y-0.3279
X190.3394 Y-0.3747
X190.3791 Y-0.438
X190.3997 Y-0.4655
X190.4219 Y-0.493
X190.4465 Y-0.5205
X190.4784 Y-0.5518
X190.5059 Y-0.5771
X190.5334 Y-0.5996
X190.5609 Y-0.6201
X190.5885 Y-0.6386
X190.6206 Y-0.6582
X190.6596 Y-0.679
X190.6986 Y-0.6973
X190.7536 Y-0.7187
X190.8087 Y-0.7353
X190.8637 Y-0.7473
X190.9188 Y-0.7553
X191.0289 Y-0.7599
X315.6706
X315.7198 Y-0.7534
X315.7656 Y-0.7345
X315.8049 Y-0.7043
X315.8351 Y-0.6649
X315.8541 Y-0.6191
X315.8606 Y-0.5699
Y-0.5207 Z-6.0935
Y-0.4749 Z-6.0745
Y-0.4356 Z-6.0443
Y-0.4054 Z-6.005
Y-0.3864 Z-5.9592
Y-0.3799 Z-5.91
G0 Z5
X306.8521 Y3.8302
Z-5.1
G1 Z-5.91 F3200
X306.8462 Y3.8328 Z-5.9592
X306.8289 Y3.8405 Z-6.005
X306.8013 Y3.8528 Z-6.0443
X306.7653 Y3.8687 Z-6.0745
X306.7234 Y3.8873 Z-6.0935
X306.6785 Y3.9073 Z-6.1
X305.1248 Y4.5976
X305.0772 Y4.6116
X305.0276 Y4.6129
X304.9794 Y4.6013
X304.9359 Y4.5776
X304.8999 Y4.5434
X304.874 Y4.5011
G2 X301.3856 Y2.3475 I-3.3194 J1.4747
X298.5656 Y3.8184 I0.176 J3.776
X297.9699 Y6.9427 I2.7974 J2.1523
X299.7802 Y9.2011 I3.6006 J-1.0314
X302.6626 Y9.4642 I1.7461 J-3.2087
X305.1322 Y5.3482 I-1.1399 J-3.4829
X304.874 Y4.5011 I-3.5776 J0.6276
X303.2054 Y3.6917 I-1.3138 J0.5837
G3 X301.371 Y3.9652 I-2.2606 J-8.8731
G1 X301.3507 Y3.9661
X301.2406 Y3.9777
X301.1305 Y3.9946
X301.0204 Y4.0183
X300.9102 Y4.0483
X300.8246 Y4.0759
X300.6901 Y4.1283
X300.58 Y4.1805
X300.4698 Y4.2397
X300.3597 Y4.3093
X300.2497 Y4.3886
X300.1396 Y4.4808
X300.1017 Y4.5162
X300.0294 Y4.5875
X299.9925 Y4.6263
X299.8989 Y4.7364
X299.8178 Y4.8465
X299.7474 Y4.9566
X299.6872 Y5.0667
X299.6339 Y5.1768
X299.5891 Y5.2895
X299.5526 Y5.397
X299.5214 Y5.5071
X299.4974 Y5.6172
X299.4789 Y5.7301
X299.4673 Y5.8374
X299.4611 Y5.9475
X299.4612 Y6.0575
X299.4677 Y6.1676
X299.48 Y6.2777
X299.4983 Y6.3878
X299.5226 Y6.4979
X299.5542 Y6.608
X299.5919 Y6.7181
X299.6361 Y6.8282
X299.6897 Y6.9383
X299.7504 Y7.0484
X299.8211 Y7.1585
X299.9028 Y7.2686
X299.9193 Y7.2888
X299.9968 Y7.3787
X300.0294 Y7.4127
X300.1068 Y7.4888
X300.1396 Y7.5193
X300.2497 Y7.6114
X300.3597 Y7.6908
X300.4698 Y7.7601
X300.58 Y7.8196
X300.6901 Y7.8715
X300.8002 Y7.915
X300.838 Y7.9291
X300.9102 Y7.9517
X301.0204 Y7.9817
X301.1305 Y8.0063
X301.2406 Y8.0223
X301.3507 Y8.0339
X301.4608 Y8.039
X301.5709 Y8.0383
X301.681 Y8.0313
X301.7911 Y8.018
X301.9012 Y7.9998
X302.0113 Y7.9739
X302.1214 Y7.9418
X302.1602 Y7.9291
X302.2315 Y7.9033
X302.3416 Y7.8571
X302.4223 Y7.819
X302.4517 Y7.8034
X302.5618 Y7.741
X302.6719 Y7.6696
X302.782 Y7.586
X302.8935 Y7.4888
X303.003 Y7.3787
X303.0517 Y7.3236
X303.0971 Y7.2686
X303.1789 Y7.1585
X303.2494 Y7.0484
X303.3106 Y6.9383
X303.3325 Y6.8947
X303.3632 Y6.8282
X303.4086 Y6.7181
X303.4458 Y6.608
X303.4771 Y6.4979
X303.5017 Y6.3878
X303.5207 Y6.2777
X303.5324 Y6.1676
X303.5388 Y6.0575
X303.5389 Y5.9475
X303.5328 Y5.8374
X303.5213 Y5.7273
X303.5027 Y5.6172
X303.4783 Y5.5071
X303.4426 Y5.3815
X303.4104 Y5.2869
X303.3655 Y5.1768
X303.3325 Y5.1051
X303.313 Y5.0667
X303.2522 Y4.9566
X303.1822 Y4.8465
X303.101 Y4.7364
X303.0558 Y4.6814
X303.0022 Y4.6203
X302.8921 Y4.5099
X302.782 Y4.414
X302.6719 Y4.3304
X302.5618 Y4.259
X302.4321 Y4.186
X302.3416 Y4.143
X302.2315 Y4.0969
X302.1754 Y4.0759
X302.1214 Y4.0582
X302.0113 Y4.0261
X301.9012 Y4.0001
X301.7911 Y3.982
X301.681 Y3.9688
X301.5709 Y3.9617
X301.4608 Y3.961
X301.371 Y3.9652
X301.3216 Y3.961
X301.2749 Y3.9442
X301.2342 Y3.9158
X301.2022 Y3.8779
X301.1811 Y3.833
X301.1724 Y3.7842
X301.1701 Y3.7351 Z-6.0935
X301.168 Y3.6893 Z-6.0745
X301.1661 Y3.65 Z-6.0443
X301.1647 Y3.6198 Z-6.005
X301.1638 Y3.6009 Z-5.9592
X301.1635 Y3.5944 Z-5.91
G0 Z5
X212.2424 Y6.072
Z-5.1
G1 Z-5.91 F3200
X212.2359 Y6.0722 Z-5.9592
X212.217 Y6.0727 Z-6.005
X212.1868 Y6.0735 Z-6.0443
X212.1474 Y6.0745 Z-6.0745
X212.1016 Y6.0757 Z-6.0935
X212.0525 Y6.0769 Z-6.1
X210.3529 Y6.1207
X210.3036 Y6.1154
X210.2573 Y6.0976
X210.2172 Y6.0685
X210.186 Y6.0299
X210.1658 Y5.9846
X210.1581 Y5.9356
G2 X210.1164 Y5.4771 I-3.5495 J0.0913
X205.6441 Y2.4476 I-3.6498 J0.572
X206.6412 Y9.6517 I0.8103 J3.5589
X209.3058 Y8.3361 I-0.2059 J-3.7731
X210.1581 Y5.9356 I-2.6972 J-2.3092
X208.9701 Y4.5801 I-1.4087 J0.0362
G3 X207.2334 Y4.0981 I1.248 J-7.8673
G1 X207.2138 Y4.0902
X207.1759 Y4.0759
X207.1037 Y4.0527
X206.9936 Y4.0217
X206.8835 Y3.997
X206.7734 Y3.9796
X206.6633 Y3.9673
X206.5532 Y3.9613
X206.4431
X206.333 Y3.9676
X206.2229 Y3.9801
X206.1128 Y3.9976
X206.0027 Y4.0226
X205.8926 Y4.0538
X205.8239 Y4.0759
X205.7825 Y4.0916
X205.6724 Y4.1364
X205.5623 Y4.1893
X205.4522 Y4.2504
X205.3421 Y4.3209
X205.2272 Y4.4061
X205.1219 Y4.4966
X205.1006 Y4.5162
X205.0118 Y4.6053
X204.9925 Y4.6263
X204.899 Y4.7364
X204.8177 Y4.8465
X204.7477 Y4.9566
X204.6815 Y5.077
X204.6345 Y5.1768
X204.59 Y5.2869
X204.5714 Y5.3369
X204.5526 Y5.397
X204.5216 Y5.5071
X204.4964 Y5.6172
X204.4795 Y5.7273
X204.4672 Y5.8374
X204.4613 Y5.9454
X204.4614 Y6.0575
X204.4677 Y6.1676
X204.4802 Y6.2777
X204.4974 Y6.3878
X204.5228 Y6.4979
X204.5541 Y6.608
X204.5714 Y6.6625
X204.5918 Y6.7181
X204.6367 Y6.8282
X204.6815 Y6.9235
X204.7506 Y7.0484
X204.821 Y7.1585
X204.9029 Y7.2686
X204.9972 Y7.3787
X205.0118 Y7.3946
X205.106 Y7.4888
X205.1219 Y7.5033
X205.2336 Y7.5989
X205.3421 Y7.6791
X205.4522 Y7.7495
X205.5776 Y7.819
X205.6724 Y7.8636
X205.7825 Y7.9086
X205.8385 Y7.9291
X205.8926 Y7.9462
X206.0027 Y7.9774
X206.1128 Y8.0028
X206.2229 Y8.0199
X206.333 Y8.0324
X206.4431 Y8.0387
X206.5532 Y8.0388
X206.6633 Y8.0327
X206.7734 Y8.0204
X206.8835 Y8.0035
X206.9936 Y7.9783
X207.1037 Y7.9473
X207.1621 Y7.9291
X207.2138 Y7.91
X207.3239 Y7.8653
X207.4221 Y7.819
X207.5441 Y7.7516
X207.6542 Y7.6816
X207.7664 Y7.5989
X207.8744 Y7.5068
X207.8942 Y7.4888
X207.9845 Y7.3986
X208.0029 Y7.3787
X208.0972 Y7.2686
X208.179 Y7.1585
X208.2495 Y7.0484
X208.3148 Y6.9304
X208.3633 Y6.8282
X208.4081 Y6.7181
X208.4249 Y6.6736
X208.4459 Y6.608
X208.4772 Y6.4979
X208.5025 Y6.3878
X208.5199 Y6.2777
X208.5324 Y6.1676
X208.5387 Y6.0575
X208.5388 Y5.9475
X208.5328 Y5.8374
X208.5206 Y5.7273
X208.5033 Y5.6172
X208.4784 Y5.5071
X208.4475 Y5.397
X208.4249 Y5.3266
X208.41 Y5.2869
X208.3656 Y5.1768
X208.313 Y5.0667
X208.2526 Y4.9566
X208.1824 Y4.8465
X208.0946 Y4.7281
X208.0075 Y4.6263
X207.9845 Y4.6015
X207.8993 Y4.5162
X207.8744 Y4.4932
X207.7643 Y4.3995
X207.6542 Y4.3184
X207.5441 Y4.2481
X207.4313 Y4.186
X207.3239 Y4.1347
X207.2334 Y4.0981
X207.1902 Y4.0736
X207.1548 Y4.0389
X207.1297 Y3.9961
X207.1164 Y3.9483
X207.116 Y3.8987
X207.1284 Y3.8507
X207.1468 Y3.8051 Z-6.0935
X207.164 Y3.7626 Z-6.0745
X207.1787 Y3.7262 Z-6.0443
X207.1901 Y3.6982 Z-6.005
X207.1972 Y3.6806 Z-5.9592
X207.1996 Y3.6746 Z-5.91
G0 Z5
X176.7773 Y248.4152
Z-7.7601
G1 X176.7783 Y248.4168 Z-7.7866 F1200
X176.781 Y248.4216 Z-7.8125
X176.7856 Y248.4294 Z-7.8374
X176.7916 Y248.4403 Z-7.8608
X176.799 Y248.4541 Z-7.8822
X176.8074 Y248.4704 Z-7.9013
X176.8165 Y248.4892 Z-7.9176
X176.826 Y248.5101 Z-7.9309
X176.8356 Y248.5327 Z-7.9408
X176.845 Y248.5567 Z-7.9472
X176.8539 Y248.5815 Z-7.95
G3 X176.7901 Y248.4377 Z-8.1425 I-0.8539 J0.2922
X176.7024 Y248.3071 Z-8.335 I-0.7902 J0.4361
X176.5933 Y248.1937 Z-8.5276 I-0.7024 J0.5667
X176.4662 Y248.101 Z-8.7201 I-0.5934 J0.68
X176.325 Y248.0318 Z-8.9126 I-0.4663 J0.7727
X176 Y249.7762 Z-9 I-0.325 J0.8419
G1 X175.9571 F3200
G3 X175.5324 Y249.3516 J-0.4247
G1 X175.5329 Y13.3512
G3 X176.4672 I0.4671
G1 X176.4676 Y249.3516
G3 X176.043 Y249.7762 I-0.4247
G1 X176
G2 X175.4144 Y250.2985 J0.5896
G3 X174.6476 Y250.4653 I-0.4118 J-0.0473
X174.5648 Y250.1676 I0.4935 J-0.2977
G1 X174.5652 Y12.4316
G3 X175.1416 Y11.8552 I0.5764
G1 X176.8584
G3 X177.4348 Y12.4316 J0.5764
G1 X177.4353 Y250.1674
G3 X176.8588 Y250.7439 I-0.5765
G1 X175.1412 Y250.744
G3 X174.6476 Y250.4653 J-0.5764
G2 X173.7895 Y249.7146 I-1.6037 J0.9673
G3 X173.1641 Y248.7614 I0.4137 J-0.9532
G1 X173.1645 Y11.0309
G3 X173.741 Y10.4545 I0.5764
G1 X178.2591
G3 X178.8355 Y11.0309 J0.5764
G1 X178.836 Y251.568
G3 X178.2595 Y252.1445 I-0.5765
G1 X173.7405 Y252.1447
G3 X173.1641 Y251.5684 J-0.5764
G1 Y248.7614
G2 X172.4637 Y247.7108 I-1.1381
G3 X171.7634 Y246.6603 I0.4377 J-1.0505
G1 X171.7638 Y9.6303
G3 X172.3403 Y9.0538 I0.5764
G1 X179.6598
G3 X180.2362 Y9.6303 J0.5764
G1 X180.2366 Y252.9686
G3 X179.6602 Y253.5451 I-0.5765
G1 X172.3398 Y253.5455
G3 X171.7634 Y252.9691 J-0.5764
G1 Y246.6603
G2 X171.063 Y245.6098 I-1.1381
G3 X170.3627 Y244.5593 I0.4377 J-1.0505
G1 X170.3631 Y8.2296
G3 X170.9396 Y7.6531 I0.5764
G1 X181.0605
G3 X181.6369 Y8.2296 J0.5764
G1 X181.6373 Y254.3692
G3 X181.0609 Y254.9457 I-0.5765
G1 X170.9391 Y254.9463
G3 X170.3627 Y254.3699 J-0.5764
G1 Y244.5593
G2 X169.6624 Y243.5088 I-1.1381
G3 X168.962 Y242.4583 I0.4377 J-1.0505
G1 X168.9625 Y6.8289
G3 X169.5389 Y6.2525 I0.5764
G1 X182.4611
G3 X183.0376 Y6.8289 J0.5764
G1 X183.038 Y255.7698
G3 X182.4616 Y256.3463 I-0.5765
G1 X169.5384 Y256.347
G3 X168.962 Y255.7707 J-0.5764
G1 Y242.4583
G2 X168.2617 Y241.4078 I-1.1381
G3 X167.5614 Y240.3572 I0.4377 J-1.0505
G1 X167.5618 Y5.4282
G3 X168.1382 Y4.8518 I0.5764
G1 X183.8618
G3 X184.4382 Y5.4282 J0.5764
G1 X184.4387 Y257.1704
G3 X183.8623 Y257.7469 I-0.5765
G1 X168.1377 Y257.7478
G3 X167.5613 Y257.1714 J-0.5764
G1 X167.5614 Y240.3572
G2 X166.861 Y239.3067 I-1.1381
G3 X166.1607 Y238.2562 I0.4377 J-1.0505
G1 X166.1611 Y4.0275
G3 X166.7375 Y3.4511 I0.5764
G1 X185.2625
G3 X185.8389 Y4.0275 J0.5764
G1 X185.8394 Y258.571
G3 X185.263 Y259.1475 I-0.5765
G1 X166.737 Y259.1486
G3 X166.1606 Y258.5722 J-0.5764
G1 X166.1607 Y238.2562
G2 X165.4603 Y237.2057 I-1.138
G3 X164.76 Y236.1552 I0.4377 J-1.0505
G1 X164.7604 Y2.6268
G3 X165.3368 Y2.0504 I0.5764
G1 X186.6632
G3 X187.2396 Y2.6268 J0.5764
G1 X187.2401 Y259.9716
G3 X186.6637 Y260.5481 I-0.5765
G1 X165.3363 Y260.5494
G3 X164.7599 Y259.973 J-0.5764
G1 X164.76 Y236.1552
G2 X164.0596 Y235.1047 I-1.1381
G3 X163.3593 Y234.0541 I0.4377 J-1.0505
G1 X163.3597 Y1.2261
G3 X163.9362 Y0.6497 I0.5764
G1 X188.0639
G3 X188.6403 Y1.2261 J0.5764
G1 X188.6408 Y261.3722
G3 X188.0643 Y261.9487 I-0.5765
G1 X163.9357 Y261.9501
G3 X163.3593 Y261.3738 J-0.5764
G1 Y234.0541
G2 X162.6544 Y232.9969 I-1.1454
G3 X161.9496 Y231.9396 I0.4405 J-1.0573
G1 X161.95 Y0.0024
X161.9486 Y-0.0526
X161.9439 Y-0.1077
X161.936 Y-0.1627
X161.9247 Y-0.2178
X161.91 Y-0.2728
X161.8916 Y-0.3279
X161.8733 Y-0.3741
X161.852 Y-0.4203
X161.843 Y-0.438
X161.8121 Y-0.493
X161.776 Y-0.5481
X161.7419 Y-0.5934
X161.7148 Y-0.6258
X161.6851 Y-0.6582
X161.6318 Y-0.7095
X161.5865 Y-0.7474
X161.5721 Y-0.7584
X161.617 Y-0.76
X190.4259
X190.3978 Y-0.7348
X190.3683 Y-0.7095
X190.3149 Y-0.6582
X190.2853 Y-0.6258
X190.2582 Y-0.5934
X190.224 Y-0.5481
X190.188 Y-0.493
X190.157 Y-0.438
X190.1481 Y-0.4203
X190.1268 Y-0.3741
X190.1084 Y-0.3279
X190.09 Y-0.2728
X190.0753 Y-0.2178
X190.0641 Y-0.1627
X190.0561 Y-0.1077
X190.0515 Y-0.0526
X190.05 Y0.0024
X190.0505 Y262.6302
X190.0538 Y262.6853
X190.0604 Y262.7403
X190.0703 Y262.7954
X190.0836 Y262.8504
X190.1005 Y262.9055
X190.1211 Y262.9605
X190.1481 Y263.0204
X190.1761 Y263.073
X190.2087 Y263.1257
X190.2323 Y263.1595
X190.2582 Y263.1935
X190.2941 Y263.2357
X190.3312 Y263.2747
X190.3683 Y263.3095
X190.4207 Y263.3529
X190.4277 Y263.3582
X161.5747 Y263.36
X161.5884 Y263.3459
X161.6318 Y263.3095
X161.6688 Y263.2747
X161.7059 Y263.2357
X161.7419 Y263.1935
X161.7677 Y263.1595
X161.7913 Y263.1257
X161.8239 Y263.073
X161.8543 Y263.0156
X161.879 Y262.9605
X161.8996 Y262.9055
X161.9164 Y262.8504
X161.9297 Y262.7954
X161.9396 Y262.7403
X161.9462 Y262.6853
X161.9495 Y262.6302
X161.9496 Y231.9396
X161.9515 Y231.9126 Z-8.9981
X161.9571 Y231.8867 Z-8.9923
X161.9657 Y231.8629 Z-8.9828
X161.9767 Y231.8418 Z-8.9698
X161.9889 Y231.8239 Z-8.9536
X162.0013 Y231.8093 Z-8.9344
X162.013 Y231.7979 Z-8.9127
X162.0229 Y231.7896 Z-8.8889
X162.0305 Y231.784 Z-8.8635
X162.0353 Y231.7807 Z-8.837
X162.0369 Y231.7797 Z-8.81
G0 Z6

G53 Z5
M5
G4 P1.0
G53 X0 Y0
M30
%
