%
(Made in : Autodesk CAM Post Processor)
(G Code optimized for OpenBuilds OX CNC 1000 x 750 with GRBL V0.9j controller)

(Program Name : 1001)
(2 Operations :)
(1 : Contour2  2 )
(  Tool : Flat End Mill 2 Flutes, Diam = 1.9mm, Len = 12.7mm)
(  Spindle : RPM = 30000, set router dial to 6)
(  Machining time : 11 min 50 sec)
(2 : Horizontal1  2 )
(  Tool : Flat End Mill 2 Flutes, Diam = 1.9mm, Len = 12.7mm)
(  Spindle : RPM = 30000, set router dial to 6)
(  Machining time : 2 min 51 sec)

G90 G94
G17
G21

(Operation 1 of 2 : Contour2  2 )

G53 G0 Z5
G54
S30000 M3
G4 P1.0
X-0.2424 Y269.7317
Z6
Z0.1821
G1 Z-1.81 F3200
X-0.2423 Y269.7252 Z-1.8592
X-0.242 Y269.7062 Z-1.905
X-0.2417 Y269.6761 Z-1.9443
X-0.2412 Y269.6367 Z-1.9745
X-0.2406 Y269.5909 Z-1.9935
X-0.24 Y269.5417 Z-2
X-0.2199 Y267.9372
X-0.2129 Y267.8881
X-0.1933 Y267.8425
X-0.1626 Y267.8036
X-0.1229 Y267.7739
X-0.0768 Y267.7555
X-0.0276 Y267.7496
X0.0045 Y267.75
X29.5028
X29.552 Y267.7565
X29.5978 Y267.7755
X29.6372 Y267.8057
X29.6714 Y267.832
X29.7113 Y267.8485
X29.7542 Y267.8541
X30.1821
X30.225 Y267.8485
X30.2649 Y267.832
X30.2991 Y267.8057
X30.3385 Y267.7755
X30.3843 Y267.7565
X30.4335 Y267.75
X32.0484
X32.05 Y267.7517
Y269.4167
X32.0435 Y269.4659
X32.0245 Y269.5117
X31.9944 Y269.5511
X31.955 Y269.5813
X31.9092 Y269.6002
X31.86 Y269.6067
X31.8528 Y269.6068
X30.4626 Y269.6594
G3 X29.5759 Y269.0536 I-0.0341 J-0.9019
G1 X29.5738 Y269.0473 Z-2.0001 F1200
G3 X29.6371 Y269.1913 Z-2.1926 I0.8547 J-0.2898
X29.7244 Y269.3222 Z-2.385 I0.7914 J-0.4338
X29.8332 Y269.4358 Z-2.5774 I0.704 J-0.5646
X29.96 Y269.5289 Z-2.7699 I0.5953 J-0.6783
X30.1011 Y269.5985 Z-2.9623 I0.4685 J-0.7714
X29.526 Y268.7641 Z-2.9999 I0.3274 J-0.841
G1 Y268.7575 Z-3
Y268.6575 F3200
G3 X30.4335 Y267.75 I0.9075
G1 X32.0484
X32.05 Y267.7517
Y269.4167
Y275.9035 Z-2
Y276.5555
X32.0523 Y276.6656
X32.0577 Y276.7206
X32.0664 Y276.7757
X32.0784 Y276.8307
X32.0858 Y276.8582
X32.0877 Y276.8651
X32.0882 Y276.8669
X32.1321 Y276.9864
X32.1916 Y277.099
X32.193 Y277.1013
X32.1959 Y277.106
X32.2277 Y277.1533
X32.2639 Y277.2006
X32.2768 Y277.2161
X32.3219 Y277.2653
X32.374 Y277.3146
X32.3874 Y277.3261
X32.4358 Y277.3643
X32.4841 Y277.3977
X32.5492 Y277.4362
X32.5942 Y277.459
X32.6493 Y277.4829
X32.7043 Y277.5028
X32.7594 Y277.519
X32.8144 Y277.5317
X32.8654 Y277.5404
X32.9163 Y277.5463
X32.9245 Y277.547
X32.952 Y277.5488
X32.9658 Y277.5494
X32.971 Y277.5496
X33.0199 Y277.5577
X33.0651 Y277.5782
X33.1034 Y277.6096
X33.1268 Y277.6285
X33.1546 Y277.6402
X33.1844 Y277.6437
X33.4599 Y277.6371
X33.4996 Y277.6285
X33.5333 Y277.6057
X33.5727 Y277.5755
X33.6185 Y277.5565
X33.6677 Y277.55
X160.9713
X161.0814 Y277.5465
X161.0837 Y277.5463
X161.1376 Y277.54
X161.1915 Y277.5305
X161.2466 Y277.5175
X161.2741 Y277.5096
X161.2878 Y277.5054
X161.2947 Y277.5031
X161.3997 Y277.4619
X161.4048 Y277.4594
X161.4117 Y277.4562
X161.4508 Y277.4362
X161.5218 Y277.3939
X161.5672 Y277.3621
X161.6126 Y277.3261
X161.6319 Y277.3094
X161.6807 Y277.2627
X161.7027 Y277.2394
X161.7079 Y277.2336
X161.7118 Y277.2292
X161.7332 Y277.208
X161.785 Y277.1438
X161.8311 Y277.0603
X161.8325 Y277.0576
X161.8355 Y277.0523
X161.8412 Y277.0415
X161.8521 Y277.0201
X161.8636 Y276.9959
X161.8868 Y276.9408
X161.906 Y276.8858
X161.9216 Y276.8307
X161.9336 Y276.7757
X161.9423 Y276.7206
X161.9478 Y276.6656
X161.9486 Y276.6518
X161.949 Y276.645
X161.9491 Y276.6415
X161.9578 Y276.5927
X161.9789 Y276.5478
X162.0108 Y276.5098
X162.0442 Y276.4692
X162.0648 Y276.4209
X162.0711 Y276.3687
X162.0598 Y275.896
X162.0528 Y275.8497
X162.0343 Y275.8066
X162.0057 Y275.7695
X161.9755 Y275.7302
X161.9565 Y275.6844
X161.95 Y275.6352
Y27.8557
Y27.5839
Y26.8391
X161.9565 Y26.7899
X161.9755 Y26.7441
X162.0057 Y26.7047
X162.0212 Y26.6829
X162.0286 Y26.6573
X162.052 Y26.4589
X162.0502 Y26.4302
X162.0384 Y26.404
X162.0181 Y26.3836
X161.9815 Y26.3501
X161.9548 Y26.3084
X161.9398 Y26.2611
X161.93 Y26.206
X161.9168 Y26.151
X161.9 Y26.0959
X161.8795 Y26.0409
X161.855 Y25.9858
X161.8521 Y25.98
X161.8244 Y25.9279
X161.7923 Y25.8758
X161.7683 Y25.8413
X161.742 Y25.8068
X161.7072 Y25.7657
X161.6696 Y25.7261
X161.6319 Y25.6906
X161.5902 Y25.6556
X161.556 Y25.6297
X161.5218 Y25.6061
X161.4684 Y25.5735
X161.4151 Y25.5455
X161.3781 Y25.5214
X161.3201 Y25.4876
X161.255 Y25.4713
X161.1003 Y25.4553
X161.0952 Y25.4548
X161.0814 Y25.4535
X160.9713 Y25.45
X160.1886
X160.1378 Y25.4431
X160.0907 Y25.4229
X160.0508 Y25.3908
X160.0208 Y25.3493
X160.0031 Y25.3012
X159.9988 Y25.2502
X160.0083 Y25.1998
X160.3529 Y24.1679
G3 X162.0874 Y24.2469 I0.856 J0.2858
G1 X162.0889 Y24.2534 Z-2.0001 F1200
G3 X162.0408 Y24.1036 Z-2.1926 I-0.88 J0.2003
X161.9674 Y23.9645 Z-2.385 I-0.8318 J0.3501
X161.8709 Y23.8402 Z-2.5774 I-0.7584 J0.4892
X161.7543 Y23.7346 Z-2.7699 I-0.6619 J0.6135
X161.6212 Y23.6508 Z-2.9623 I-0.5454 J0.7191
X162.1073 Y24.5399 Z-2.9999 I-0.4122 J0.8029
G1 X162.1067 Y24.5465 Z-3
X162.0964 Y24.646 F3200
G3 X161.1003 Y25.4553 I-0.9027 J-0.0934
G1 X161.0952 Y25.4548
X161.0814 Y25.4535
X160.9713 Y25.45
X160.1886
X160.1362 Y25.4426
X160.0879 Y25.4211
X160.0473 Y25.3871
X160.0178 Y25.3433
X160.0014 Y25.2929
X159.9996 Y25.2401
X160.1688 Y23.6363
X160.174 Y23.5874 Z-2.9935
X160.1788 Y23.5418 Z-2.9745
X160.1829 Y23.5027 Z-2.9444
X160.1861 Y23.4727 Z-2.905
X160.188 Y23.4538 Z-2.8592
X160.1887 Y23.4474 Z-2.81
G0 Z5
X163.9349 Y26.0988
Z-2.81
G1 X163.9285 Y26.1 Z-2.8592 F3200
X163.9099 Y26.1033 Z-2.905
X163.8801 Y26.1086 Z-2.9443
X163.8414 Y26.1155 Z-2.9745
X163.7963 Y26.1235 Z-2.9935
X163.7479 Y26.1321 Z-3
X162.1602 Y26.4148
X162.1106 Y26.4171
X162.0622 Y26.4064
X162.0181 Y26.3836
X161.9815 Y26.3501
X161.9548 Y26.3084
X161.9398 Y26.2611
X161.93 Y26.206
X161.9168 Y26.151
X161.9 Y26.0959
X161.8795 Y26.0409
X161.855 Y25.9858
X161.8521 Y25.98
X161.8244 Y25.9279
X161.7923 Y25.8758
X161.7683 Y25.8413
X161.742 Y25.8068
X161.7072 Y25.7657
X161.6696 Y25.7261
X161.6319 Y25.6906
X161.5902 Y25.6556
X161.556 Y25.6297
X161.5218 Y25.6061
X161.4684 Y25.5735
X161.4151 Y25.5455
X161.3721 Y25.5146
X161.3394 Y25.4731
X161.3193 Y25.4241
X161.3136 Y25.3715
X161.3225 Y25.3194
X161.3455 Y25.2717
X162.2414 Y23.9308
X162.2687 Y23.8899 Z-2.9935
X162.2942 Y23.8518 Z-2.9745
X162.316 Y23.8191 Z-2.9443
X162.3328 Y23.794 Z-2.905
X162.3433 Y23.7782 Z-2.8592
X162.3469 Y23.7728 Z-2.81
G0 Z5
X163.9507 Y27.7739
Z-2.81
G1 X163.9443 Z-2.8592 F3200
X163.9253 Z-2.905
X163.8951 Z-2.9444
X163.8557 Z-2.9745
X163.8099 Z-2.9935
X163.7607 Z-3
X162.14
X162.0908 Y27.7674
X162.045 Y27.7485
X162.0057 Y27.7183
X161.9755 Y27.6789
X161.9565 Y27.6331
X161.95 Y27.5839
Y26.8391
X161.9574 Y26.7867
X161.9789 Y26.7384
X162.0129 Y26.6978
X162.0568 Y26.6683
X162.1071 Y26.6519
X162.1599 Y26.6501
X163.7637 Y26.8193
X163.8126 Y26.8244 Z-2.9935
X163.8582 Y26.8293 Z-2.9745
X163.8973 Y26.8334 Z-2.9443
X163.9274 Y26.8365 Z-2.905
X163.9462 Y26.8385 Z-2.8592
X163.9527 Y26.8392 Z-2.81
G0 Z5
X161.4946 Y23.4901
Z-3.81
G1 X161.4939 Y23.4965 Z-3.8592 F3200
X161.492 Y23.5154 Z-3.905
X161.4889 Y23.5455 Z-3.9444
X161.4848 Y23.5846 Z-3.9745
X161.4801 Y23.6302 Z-3.9935
X161.4751 Y23.6791 Z-4
X161.3089 Y25.2859
X161.2974 Y25.3341
X161.2738 Y25.3778
X161.2397 Y25.4138
X161.1974 Y25.4398
X161.1499 Y25.4539
X161.1003 Y25.4553
X161.0952 Y25.4548
X161.0814 Y25.4535
X160.9713 Y25.45
X160.1886
X160.1362 Y25.4426
X160.0879 Y25.4211
X160.0473 Y25.3871
X160.0178 Y25.3433
X160.0014 Y25.2929
X159.9996 Y25.2401
X160.1688 Y23.6363
X160.174 Y23.5874 Z-3.9935
X160.1788 Y23.5418 Z-3.9745
X160.1829 Y23.5027 Z-3.9444
X160.1861 Y23.4727 Z-3.905
X160.188 Y23.4538 Z-3.8592
X160.1887 Y23.4474 Z-3.81
G0 Z5
X188.0573 Y26.6491
Z0.1711
G1 Z-1.81 F3200
X188.0638 Z-1.8592
X188.0828 Z-1.905
X188.113 Z-1.9444
X188.1523 Z-1.9745
X188.1982 Z-1.9935
X188.2473 Z-2
X189.86
X189.9092 Y26.6555
X189.955 Y26.6745
X189.9944 Y26.7047
X190.0246 Y26.7441
X190.0435 Y26.7899
X190.05 Y26.8391
Y27.4669
X190.0427 Y27.5193
X190.0211 Y27.5676
X189.9871 Y27.6082
X189.9433 Y27.6377
X189.893 Y27.6541
X189.8401 Y27.6559
X188.247 Y27.4878
X188.1981 Y27.4827 Z-1.9935
X188.1525 Y27.4779 Z-1.9745
X188.1134 Y27.4737 Z-1.9443
X188.0833 Y27.4706 Z-1.905
X188.0645 Y27.4686 Z-1.8592
X188.058 Y27.4679 Z-1.81
G0 Z5
X189.8768 Y23.6791
Z0.1596
G1 Z-1.81 F3200
X189.8796 Y23.6849 Z-1.8592
X189.888 Y23.702 Z-1.905
X189.9013 Y23.7291 Z-1.9444
X189.9187 Y23.7644 Z-1.9745
X189.9389 Y23.8055 Z-1.9935
X189.9606 Y23.8496 Z-2
X190.6699 Y25.2919
X190.6858 Y25.3389
X190.689 Y25.3884
X190.6793 Y25.4371
X190.6573 Y25.4815
X190.6246 Y25.5188
X190.5833 Y25.5463
X190.5783 Y25.5488
X190.5716 Y25.5521
X190.5583 Y25.559
X190.5316 Y25.5735
X190.4782 Y25.6061
X190.444 Y25.6297
X190.4098 Y25.6556
X190.3681 Y25.6906
X190.3305 Y25.7261
X190.2928 Y25.7657
X190.258 Y25.8068
X190.2317 Y25.8413
X190.2078 Y25.8758
X190.1756 Y25.9279
X190.1479 Y25.98
X190.1451 Y25.9858
X190.1205 Y26.0409
X190.1 Y26.0959
X190.0832 Y26.151
X190.07 Y26.206
X190.0602 Y26.2611
X190.0438 Y26.3114
X190.0141 Y26.3552
X189.9736 Y26.3891
X189.9252 Y26.4105
X189.8728 Y26.4178
X189.8204 Y26.4103
X188.2814 Y25.9656
X188.2342 Y25.9519 Z-1.9935
X188.1902 Y25.9392 Z-1.9745
X188.1524 Y25.9283 Z-1.9443
X188.1234 Y25.9199 Z-1.905
X188.1051 Y25.9147 Z-1.8592
X188.0989 Y25.9129 Z-1.81
G0 Z5
X191.9997 Y23.4573
Z0.1711
G1 Z-1.81 F3200
Y23.4638 Z-1.8592
Y23.4828 Z-1.905
Y23.513 Z-1.9444
Y23.5523 Z-1.9745
Y23.5982 Z-1.9935
Y23.6473 Z-2
Y25.26
X191.9933 Y25.3092
X191.9743 Y25.355
X191.9441 Y25.3944
X191.9048 Y25.4246
X191.8589 Y25.4435
X191.8098 Y25.45
X191.0287
X190.9186 Y25.4535
X190.8911 Y25.4563
X190.8415 Y25.4548
X190.794 Y25.4405
X190.7518 Y25.4144
X190.7179 Y25.3782
X190.6944 Y25.3345
X190.683 Y25.2863
X190.6713 Y25.2372
X190.6472 Y25.1929
X190.6122 Y25.1565
X190.5689 Y25.1307
X190.5203 Y25.1171
X190.4698 Y25.1168
X190.4211 Y25.1298
X190.3775 Y25.1552
X190.3421 Y25.1912
X190.3174 Y25.2352
X190.3052 Y25.2841
X190.3062 Y25.3346
X190.3068 Y25.3891
X190.2919 Y25.4416
X190.2627 Y25.4876
X190.2215 Y25.5235
X190.1719 Y25.5462
X190.1179 Y25.5538
G3 X190.7376 Y23.9926 I0.0027 J-0.9025
G1 X190.7424 Y23.9972 Z-2.0001 F1200
G3 X190.6194 Y23.8991 Z-2.1926 I-0.6218 J0.6542
X190.4812 Y23.824 Z-2.385 I-0.4987 J0.7522
X190.332 Y23.7739 Z-2.5774 I-0.3605 J0.8274
X190.1765 Y23.7506 Z-2.7699 I-0.2114 J0.8774
X190.0192 Y23.7545 Z-2.9623 I-0.0558 J0.9008
X190.9164 Y24.2256 Z-2.9999 I0.1015 J0.8968
G1 X190.9195 Y24.2315 Z-3
X190.9661 Y24.32 F3200
G3 X190.5849 Y25.5455 I-0.8033 J0.4222
G1 X190.5316 Y25.5735
X190.4782 Y25.6061
X190.444 Y25.6297
X190.4098 Y25.6556
X190.3681 Y25.6906
X190.3305 Y25.7261
X190.2928 Y25.7657
X190.258 Y25.8068
X190.2317 Y25.8413
X190.2078 Y25.8758
X190.1756 Y25.9279
X190.1479 Y25.98
X190.1451 Y25.9858
X190.1205 Y26.0409
X190.1 Y26.0959
X190.0832 Y26.151
X190.07 Y26.206
X190.0602 Y26.2611
X190.0452 Y26.3084
X190.0185 Y26.3501
X189.9819 Y26.3836
X189.9616 Y26.404
X189.9499 Y26.4302
X189.9481 Y26.4589
X189.9714 Y26.6573
X189.9789 Y26.6829
X189.9944 Y26.7047
X190.0246 Y26.7441
X190.0435 Y26.7899
X190.05 Y26.8391
Y27.4669
X190.0427 Y27.5193
X190.0211 Y27.5676
X189.9871 Y27.6082
X189.9433 Y27.6377
X189.893 Y27.6541
X189.8401 Y27.6559
X188.2363 Y27.4867
X188.1874 Y27.4815 Z-2.9935
X188.1418 Y27.4767 Z-2.9745
X188.1027 Y27.4726 Z-2.9443
X188.0727 Y27.4694 Z-2.905
X188.0538 Y27.4675 Z-2.8592
X188.0474 Y27.4668 Z-2.81
G0 Z5
X191.9997 Y23.4493
Z-2.81
G1 Y23.4558 Z-2.8592 F3200
Y23.4747 Z-2.905
Y23.5049 Z-2.9444
Y23.5443 Z-2.9745
Y23.5901 Z-2.9935
Y23.6393 Z-3
Y25.26
X191.9933 Y25.3092
X191.9743 Y25.355
X191.9441 Y25.3944
X191.9048 Y25.4246
X191.8589 Y25.4435
X191.8098 Y25.45
X191.0287
X190.9186 Y25.4535
X190.8911 Y25.4563
X190.8415 Y25.4548
X190.794 Y25.4405
X190.7518 Y25.4144
X190.7179 Y25.3782
X190.6944 Y25.3345
X190.683 Y25.2863
X190.6713 Y25.2372
X190.6472 Y25.1929
X190.6122 Y25.1565
X190.5689 Y25.1307
X190.5203 Y25.1171
X190.4698 Y25.1168
X190.4211 Y25.1298
X190.3775 Y25.1552
X190.3421 Y25.1912
X190.3174 Y25.2352
X190.3052 Y25.2841
X190.3062 Y25.3346
X190.3068 Y25.3891
X190.2919 Y25.4416
X190.2627 Y25.4876
X190.2215 Y25.5235
X190.1719 Y25.5462
X190.1179 Y25.5538
G3 X190.7376 Y23.9926 I0.0027 J-0.9025
G1 X190.7424 Y23.9972 Z-3.0001 F1200
G3 X190.6194 Y23.8991 Z-3.1926 I-0.6218 J0.6542
X190.4812 Y23.824 Z-3.385 I-0.4987 J0.7522
X190.332 Y23.7739 Z-3.5774 I-0.3605 J0.8274
X190.1765 Y23.7506 Z-3.7699 I-0.2114 J0.8774
X190.0192 Y23.7545 Z-3.9623 I-0.0558 J0.9008
X190.9164 Y24.2256 Z-3.9999 I0.1015 J0.8968
G1 X190.9195 Y24.2315 Z-4
X190.9661 Y24.32 F3200
G3 X190.5849 Y25.5455 I-0.8033 J0.4222
G1 X190.5316 Y25.5735
X190.4782 Y25.6061
X190.444 Y25.6297
X190.4098 Y25.6556
X190.3681 Y25.6906
X190.3305 Y25.7261
X190.2928 Y25.7657
X190.258 Y25.8068
X190.2317 Y25.8413
X190.2078 Y25.8758
X190.1756 Y25.9279
X190.1479 Y25.98
X190.1451 Y25.9858
X190.1205 Y26.0409
X190.1 Y26.0959
X190.0832 Y26.151
X190.07 Y26.206
X190.0602 Y26.2611
X190.0452 Y26.3084
X190.0185 Y26.3501
X189.9819 Y26.3836
X189.9616 Y26.404
X189.9499 Y26.4302
X189.9481 Y26.4589
X189.9714 Y26.6573
X189.9789 Y26.6829
X189.9944 Y26.7047
X190.0246 Y26.7441
X190.0435 Y26.7899
X190.05 Y26.8391
Y27.4669
X190.0427 Y27.5193
X190.0211 Y27.5676
X189.9871 Y27.6082
X189.9433 Y27.6377
X189.893 Y27.6541
X189.8401 Y27.6559
X188.2363 Y27.4867
X188.1874 Y27.4815 Z-3.9935
X188.1418 Y27.4767 Z-3.9745
X188.1027 Y27.4726 Z-3.9443
X188.0727 Y27.4694 Z-3.905
X188.0538 Y27.4675 Z-3.8592
X188.0474 Y27.4668 Z-3.81
G0 Z5
X191.9997 Y23.4493
Z-3.81
G1 Y23.4558 Z-3.8592 F3200
Y23.4747 Z-3.905
Y23.5049 Z-3.9444
Y23.5443 Z-3.9745
Y23.5901 Z-3.9935
Y23.6393 Z-4
Y25.26
X191.9933 Y25.3092
X191.9743 Y25.355
X191.9441 Y25.3944
X191.9048 Y25.4246
X191.8589 Y25.4435
X191.8098 Y25.45
X191.0287
X190.9186 Y25.4535
X190.8911 Y25.4563
X190.8415 Y25.4548
X190.794 Y25.4405
X190.7518 Y25.4144
X190.7179 Y25.3782
X190.6944 Y25.3345
X190.683 Y25.2863
X190.6713 Y25.2372
X190.6472 Y25.1929
X190.6122 Y25.1565
X190.5689 Y25.1307
X190.5203 Y25.1171
X190.4698 Y25.1168
X190.4211 Y25.1298
X190.3775 Y25.1552
X190.3421 Y25.1912
X190.3174 Y25.2352
X190.3052 Y25.2841
X190.3062 Y25.3346
X190.3068 Y25.3891
X190.2919 Y25.4416
X190.2627 Y25.4876
X190.2215 Y25.5235
X190.1719 Y25.5462
X190.1179 Y25.5538
G3 X190.7376 Y23.9926 I0.0027 J-0.9025
G1 X190.7424 Y23.9972 Z-4.0001 F1200
G3 X190.6194 Y23.8991 Z-4.1926 I-0.6218 J0.6542
X190.4812 Y23.824 Z-4.385 I-0.4987 J0.7522
X190.332 Y23.7739 Z-4.5774 I-0.3605 J0.8274
X190.1765 Y23.7506 Z-4.7699 I-0.2114 J0.8774
X190.0192 Y23.7545 Z-4.9623 I-0.0558 J0.9008
X190.9164 Y24.2256 Z-4.9999 I0.1015 J0.8968
G1 X190.9195 Y24.2315 Z-5
X190.9661 Y24.32 F3200
G3 X190.5849 Y25.5455 I-0.8033 J0.4222
G1 X190.5316 Y25.5735
X190.4782 Y25.6061
X190.444 Y25.6297
X190.4098 Y25.6556
X190.3681 Y25.6906
X190.3305 Y25.7261
X190.2928 Y25.7657
X190.258 Y25.8068
X190.2317 Y25.8413
X190.2078 Y25.8758
X190.1756 Y25.9279
X190.1479 Y25.98
X190.1451 Y25.9858
X190.1205 Y26.0409
X190.1 Y26.0959
X190.0832 Y26.151
X190.07 Y26.206
X190.0602 Y26.2611
X190.0452 Y26.3084
X190.0185 Y26.3501
X189.9819 Y26.3836
X189.9616 Y26.404
X189.9499 Y26.4302
X189.9481 Y26.4589
X189.9714 Y26.6573
X189.9789 Y26.6829
X189.9944 Y26.7047
X190.0246 Y26.7441
X190.0435 Y26.7899
X190.05 Y26.8391
Y27.4669
X190.0427 Y27.5193
X190.0211 Y27.5676
X189.9871 Y27.6082
X189.9433 Y27.6377
X189.893 Y27.6541
X189.8401 Y27.6559
X188.2363 Y27.4867
X188.1874 Y27.4815 Z-4.9935
X188.1418 Y27.4767 Z-4.9745
X188.1027 Y27.4726 Z-4.9443
X188.0727 Y27.4694 Z-4.905
X188.0538 Y27.4675 Z-4.8592
X188.0474 Y27.4668 Z-4.81
G0 Z5
X191.9997 Y23.4493
Z-4.81
G1 Y23.4558 Z-4.8592 F3200
Y23.4747 Z-4.905
Y23.5049 Z-4.9444
Y23.5443 Z-4.9745
Y23.5901 Z-4.9935
Y23.6393 Z-5
Y25.26
X191.9933 Y25.3092
X191.9743 Y25.355
X191.9441 Y25.3944
X191.9048 Y25.4246
X191.8589 Y25.4435
X191.8098 Y25.45
X191.0287
X190.9186 Y25.4535
X190.8911 Y25.4563
X190.8415 Y25.4548
X190.794 Y25.4405
X190.7518 Y25.4144
X190.7179 Y25.3782
X190.6944 Y25.3345
X190.683 Y25.2863
X190.6699 Y25.2336
X190.6425 Y25.1868
X190.6029 Y25.1496
X190.5545 Y25.1252
X190.5011 Y25.1154
X190.4472 Y25.1212
X190.397 Y25.1419
X190.3548 Y25.176
X190.3239 Y25.2206
X190.3069 Y25.2721
X190.3051 Y25.3264
X190.3033 Y25.381
X190.286 Y25.4328
X190.2547 Y25.4776
X190.2119 Y25.5116
X190.1612 Y25.532
X190.1068 Y25.5372
G3 X190.79 Y23.9976 I0.045 J-0.9014
G1 X190.7947 Y24.0023 Z-5.0001 F1200
G3 X190.6749 Y23.9003 Z-5.1926 I-0.6428 J0.6335
X190.5392 Y23.8207 Z-5.385 I-0.5231 J0.7355
X190.3918 Y23.7658 Z-5.5774 I-0.3874 J0.8151
X190.2371 Y23.7373 Z-5.7699 I-0.24 J0.87
X190.0798 Y23.7362 Z-5.9623 I-0.0852 J0.8985
X190.9611 Y24.2363 Z-5.9999 I0.0721 J0.8996
G1 X190.964 Y24.2423 Z-6
X191.0076 Y24.3323 F3200
G3 X190.5866 Y25.5447 I-0.8167 J0.3957
G1 X190.5849 Y25.5455
X190.5316 Y25.5735
X190.4782 Y25.6061
X190.444 Y25.6297
X190.4098 Y25.6556
X190.3681 Y25.6906
X190.3305 Y25.7261
X190.2928 Y25.7657
X190.258 Y25.8068
X190.2317 Y25.8413
X190.2078 Y25.8758
X190.1756 Y25.9279
X190.1479 Y25.98
X190.1451 Y25.9858
X190.1205 Y26.0409
X190.1 Y26.0959
X190.0832 Y26.151
X190.07 Y26.206
X190.0602 Y26.2611
X190.0452 Y26.3084
X190.0185 Y26.3501
X189.9819 Y26.3836
X189.9616 Y26.404
X189.9499 Y26.4302
X189.9481 Y26.4589
X189.9714 Y26.6573
X189.9789 Y26.6829
X189.9944 Y26.7047
X190.0246 Y26.7441
X190.0435 Y26.7899
X190.05 Y26.8391
Y27.4669
X190.0427 Y27.5193
X190.0211 Y27.5676
X189.9871 Y27.6082
X189.9433 Y27.6377
X189.893 Y27.6541
X189.8401 Y27.6559
X188.2363 Y27.4867
X188.1874 Y27.4815 Z-5.9935
X188.1418 Y27.4767 Z-5.9745
X188.1027 Y27.4726 Z-5.9443
X188.0727 Y27.4694 Z-5.905
X188.0538 Y27.4675 Z-5.8592
X188.0474 Y27.4668 Z-5.81
G0 Z5
X191.9997 Y23.4493
Z-5.81
G1 Y23.4558 Z-5.8592 F3200
Y23.4747 Z-5.905
Y23.5049 Z-5.9444
Y23.5443 Z-5.9745
Y23.5901 Z-5.9935
Y23.6393 Z-6
Y25.26
X191.9933 Y25.3092
X191.9743 Y25.355
X191.9441 Y25.3944
X191.9048 Y25.4246
X191.8589 Y25.4435
X191.8098 Y25.45
X191.0287
X190.9186 Y25.4535
X190.8911 Y25.4563
X190.8415 Y25.4548
X190.794 Y25.4405
X190.7518 Y25.4144
X190.7179 Y25.3782
X190.6944 Y25.3345
X190.683 Y25.2863
X190.6699 Y25.2336
X190.6425 Y25.1868
X190.6029 Y25.1496
X190.5545 Y25.1252
X190.5011 Y25.1154
X190.4472 Y25.1212
X190.397 Y25.1419
X190.3548 Y25.176
X190.3239 Y25.2206
X190.3069 Y25.2721
X190.3051 Y25.3264
X190.3033 Y25.381
X190.286 Y25.4328
X190.2547 Y25.4776
X190.2119 Y25.5116
X190.1612 Y25.532
X190.1068 Y25.5372
G3 X190.79 Y23.9976 I0.045 J-0.9014
G1 X190.7947 Y24.0023 Z-6.0001 F1200
G3 X190.6749 Y23.9003 Z-6.1926 I-0.6428 J0.6335
X190.5392 Y23.8207 Z-6.385 I-0.5231 J0.7355
X190.3918 Y23.7658 Z-6.5774 I-0.3874 J0.8151
X190.2371 Y23.7373 Z-6.7699 I-0.24 J0.87
X190.0798 Y23.7362 Z-6.9623 I-0.0852 J0.8985
X190.9611 Y24.2363 Z-6.9999 I0.0721 J0.8996
G1 X190.964 Y24.2423 Z-7
X191.0076 Y24.3323 F3200
G3 X190.5866 Y25.5447 I-0.8167 J0.3957
G1 X190.5849 Y25.5455
X190.5316 Y25.5735
X190.4782 Y25.6061
X190.444 Y25.6297
X190.4098 Y25.6556
X190.3681 Y25.6906
X190.3305 Y25.7261
X190.2928 Y25.7657
X190.258 Y25.8068
X190.2317 Y25.8413
X190.2078 Y25.8758
X190.1756 Y25.9279
X190.1479 Y25.98
X190.1451 Y25.9858
X190.1205 Y26.0409
X190.1 Y26.0959
X190.0832 Y26.151
X190.07 Y26.206
X190.0602 Y26.2611
X190.0452 Y26.3084
X190.0185 Y26.3501
X189.9819 Y26.3836
X189.9616 Y26.404
X189.9499 Y26.4302
X189.9481 Y26.4589
X189.9714 Y26.6573
X189.9789 Y26.6829
X189.9944 Y26.7047
X190.0246 Y26.7441
X190.0435 Y26.7899
X190.05 Y26.8391
Y27.4669
X190.0427 Y27.5193
X190.0211 Y27.5676
X189.9871 Y27.6082
X189.9433 Y27.6377
X189.893 Y27.6541
X189.8401 Y27.6559
X188.2363 Y27.4867
X188.1874 Y27.4815 Z-6.9935
X188.1418 Y27.4767 Z-6.9745
X188.1027 Y27.4726 Z-6.9443
X188.0727 Y27.4694 Z-6.905
X188.0538 Y27.4675 Z-6.8592
X188.0474 Y27.4668 Z-6.81
G0 Z5
X191.9997 Y23.4493
Z-6.81
G1 Y23.4558 Z-6.8592 F3200
Y23.4747 Z-6.905
Y23.5049 Z-6.9444
Y23.5443 Z-6.9745
Y23.5901 Z-6.9935
Y23.6393 Z-7
Y25.26
X191.9933 Y25.3092
X191.9743 Y25.355
X191.9441 Y25.3944
X191.9048 Y25.4246
X191.8589 Y25.4435
X191.8098 Y25.45
X191.0287
X190.9186 Y25.4535
X190.8911 Y25.4563
X190.8415 Y25.4548
X190.794 Y25.4405
X190.7518 Y25.4144
X190.7179 Y25.3782
X190.6944 Y25.3345
X190.683 Y25.2863
X190.6699 Y25.2336
X190.6425 Y25.1868
X190.6029 Y25.1496
X190.5545 Y25.1252
X190.5011 Y25.1154
X190.4472 Y25.1212
X190.397 Y25.1419
X190.3548 Y25.176
X190.3239 Y25.2206
X190.3069 Y25.2721
X190.3051 Y25.3264
X190.3033 Y25.381
X190.286 Y25.4328
X190.2547 Y25.4776
X190.2119 Y25.5116
X190.1612 Y25.532
X190.1068 Y25.5372
G3 X190.79 Y23.9976 I0.045 J-0.9014
G1 X190.7947 Y24.0023 Z-7.0001 F1200
G3 X190.6749 Y23.9003 Z-7.1926 I-0.6428 J0.6335
X190.5392 Y23.8207 Z-7.385 I-0.5231 J0.7355
X190.3918 Y23.7658 Z-7.5774 I-0.3874 J0.8151
X190.2371 Y23.7373 Z-7.7699 I-0.24 J0.87
X190.0798 Y23.7362 Z-7.9623 I-0.0852 J0.8985
X190.9611 Y24.2363 Z-7.9999 I0.0721 J0.8996
G1 X190.964 Y24.2423 Z-8
X191.0076 Y24.3323 F3200
G3 X190.5866 Y25.5447 I-0.8167 J0.3957
G1 X190.5849 Y25.5455
X190.5316 Y25.5735
X190.4782 Y25.6061
X190.444 Y25.6297
X190.4098 Y25.6556
X190.3681 Y25.6906
X190.3305 Y25.7261
X190.2928 Y25.7657
X190.258 Y25.8068
X190.2317 Y25.8413
X190.2078 Y25.8758
X190.1756 Y25.9279
X190.1479 Y25.98
X190.1451 Y25.9858
X190.1205 Y26.0409
X190.1 Y26.0959
X190.0832 Y26.151
X190.07 Y26.206
X190.0602 Y26.2611
X190.0452 Y26.3084
X190.0185 Y26.3501
X189.9819 Y26.3836
X189.9616 Y26.404
X189.9499 Y26.4302
X189.9481 Y26.4589
X189.9714 Y26.6573
X189.9789 Y26.6829
X189.9944 Y26.7047
X190.0246 Y26.7441
X190.0435 Y26.7899
X190.05 Y26.8391
Y27.4669
X190.0427 Y27.5193
X190.0211 Y27.5676
X189.9871 Y27.6082
X189.9433 Y27.6377
X189.893 Y27.6541
X189.8401 Y27.6559
X188.2363 Y27.4867
X188.1874 Y27.4815 Z-7.9935
X188.1418 Y27.4767 Z-7.9745
X188.1027 Y27.4726 Z-7.9443
X188.0727 Y27.4694 Z-7.905
X188.0538 Y27.4675 Z-7.8592
X188.0474 Y27.4668 Z-7.81
G0 Z5
X191.9997 Y23.4493
Z-7.81
G1 Y23.4558 Z-7.8592 F3200
Y23.4747 Z-7.905
Y23.5049 Z-7.9444
Y23.5443 Z-7.9745
Y23.5901 Z-7.9935
Y23.6393 Z-8
Y25.26
X191.9933 Y25.3092
X191.9743 Y25.355
X191.9441 Y25.3944
X191.9048 Y25.4246
X191.8589 Y25.4435
X191.8098 Y25.45
X191.0287
X190.9186 Y25.4535
X190.8911 Y25.4563
X190.8415 Y25.4548
X190.794 Y25.4405
X190.7518 Y25.4144
X190.7179 Y25.3782
X190.6944 Y25.3345
X190.683 Y25.2863
X190.6699 Y25.2336
X190.6425 Y25.1868
X190.6029 Y25.1496
X190.5545 Y25.1252
X190.5011 Y25.1154
X190.4472 Y25.1212
X190.397 Y25.1419
X190.3548 Y25.176
X190.3239 Y25.2206
X190.3069 Y25.2721
X190.3051 Y25.3264
X190.3033 Y25.381
X190.286 Y25.4328
X190.2547 Y25.4776
X190.2119 Y25.5116
X190.1612 Y25.532
X190.1068 Y25.5372
G3 X190.79 Y23.9976 I0.045 J-0.9014
G1 X190.7947 Y24.0023 Z-8.0001 F1200
G3 X190.6749 Y23.9003 Z-8.1926 I-0.6428 J0.6335
X190.5392 Y23.8207 Z-8.385 I-0.5231 J0.7355
X190.3918 Y23.7658 Z-8.5774 I-0.3874 J0.8151
X190.2371 Y23.7373 Z-8.7699 I-0.24 J0.87
X190.0798 Y23.7362 Z-8.9623 I-0.0852 J0.8985
X190.9611 Y24.2363 Z-8.9999 I0.0721 J0.8996
G1 X190.964 Y24.2423 Z-9
X191.0076 Y24.3323 F3200
G3 X190.5866 Y25.5447 I-0.8167 J0.3957
G1 X190.5849 Y25.5455
X190.5316 Y25.5735
X190.4782 Y25.6061
X190.444 Y25.6297
X190.4098 Y25.6556
X190.3681 Y25.6906
X190.3305 Y25.7261
X190.2928 Y25.7657
X190.258 Y25.8068
X190.2317 Y25.8413
X190.2078 Y25.8758
X190.1756 Y25.9279
X190.1479 Y25.98
X190.1451 Y25.9858
X190.1205 Y26.0409
X190.1 Y26.0959
X190.0832 Y26.151
X190.07 Y26.206
X190.0602 Y26.2611
X190.0516 Y26.3095 Z-8.9935
X190.0436 Y26.3546 Z-8.9745
X190.0367 Y26.3933 Z-8.9444
X190.0314 Y26.4231 Z-8.905
X190.0281 Y26.4418 Z-8.8592
X190.0269 Y26.4481 Z-8.81
G0 Z5
X190.05 Y26.8802
Z2
G1 Z-7.7599 F3200
Y26.8754 Z-7.802 F1200
Y26.8615 Z-7.842
Y26.8391 Z-7.8779
Y26.8788 Z-7.9154
Y26.9276 Z-7.94
Y26.9813 Z-7.9498
Y27.4687 Z-7.9668
Y26.8391 Z-7.9888
Y27.4687 Z-8.0108
Y26.8391 Z-8.0327
Y27.4687 Z-8.0547
Y26.8391 Z-8.0767
Y27.4687 Z-8.0987
Y26.8391 Z-8.1207
Y27.4687 Z-8.1427
Y26.8391 Z-8.1647
Y27.4687 Z-8.1866
Y26.8391 Z-8.2086
Y27.4687 Z-8.2306
Y26.8391 Z-8.2526
Y27.4687 Z-8.2746
Y26.8391 Z-8.2966
Y27.4687 Z-8.3186
Y26.8391 Z-8.3405
Y27.4687 Z-8.3625
Y26.8391 Z-8.3845
Y27.4687 Z-8.4065
Y26.8391 Z-8.4285
Y27.4687 Z-8.4505
Y26.8391 Z-8.4725
Y27.4687 Z-8.4944
Y26.8391 Z-8.5164
Y27.4687 Z-8.5384
Y26.8391 Z-8.5604
Y27.4687 Z-8.5824
Y26.8391 Z-8.6044
Y27.4687 Z-8.6264
Y26.8391 Z-8.6483
Y27.4687 Z-8.6703
Y26.8391 Z-8.6923
Y27.4687 Z-8.7143
Y26.8391 Z-8.7363
Y27.4687 Z-8.7583
Y26.8391 Z-8.7803
Y27.4687 Z-8.8022
Y26.8391 Z-8.8242
Y27.4687 Z-8.8462
Y26.8391 Z-8.8682
Y27.4687 Z-8.8902
Y26.8391 Z-8.9122
Y27.4687 Z-8.9342
Y26.8391 Z-8.9561
Y27.4687 Z-8.9781
Y26.8457 Z-8.9999
Y26.8391 Z-9
Y27.4687 F3200
G0 Z5
X191.9997 Y23.4493
Z-8.81
G1 Y23.4558 Z-8.8592 F3200
Y23.4747 Z-8.905
Y23.5049 Z-8.9444
Y23.5443 Z-8.9745
Y23.5901 Z-8.9935
Y23.6393 Z-9
Y25.26
X191.9933 Y25.3092
X191.9743 Y25.355
X191.9441 Y25.3944
X191.9048 Y25.4246
X191.8589 Y25.4435
X191.8098 Y25.45
X191.0287
X190.9186 Y25.4535
X190.8911 Y25.4563
X190.8392 Y25.4544
X190.7898 Y25.4385
X190.7465 Y25.4099
X190.7126 Y25.3706
X190.6906 Y25.3236
X190.6821 Y25.2724
X190.6878 Y25.2208
X190.9396 Y24.2219
G3 X192.6673 Y24.1464 I0.8751 J0.2206
G1 X192.6695 Y24.1527 Z-9.0001 F1200
G3 X192.6062 Y24.0087 Z-9.1926 I-0.8547 J0.2898
X192.5188 Y23.8779 Z-9.385 I-0.7914 J0.4338
X192.4101 Y23.7642 Z-9.5774 I-0.7041 J0.5646
X192.2832 Y23.6711 Z-9.7699 I-0.5953 J0.6783
X192.1422 Y23.6015 Z-9.9623 I-0.4685 J0.7714
X192.7172 Y24.4359 Z-9.9999 I-0.3274 J0.841
G1 X192.7173 Y24.4425 Z-10
Y24.5425 F3200
G3 X191.8098 Y25.45 I-0.9075
G1 X190.5006
X190.4511 Y25.4435
X190.4051 Y25.4243
X190.3656 Y25.3937
X190.3355 Y25.354
X190.3167 Y25.3078
X190.3106 Y25.2583
X190.3176 Y25.2089
X190.3372 Y25.163
X191.0388 Y23.9817
G3 X192.6673 Y24.1464 I0.776 J0.4608
G1 X192.6695 Y24.1527 Z-10.0001 F1200
G3 X192.6062 Y24.0087 Z-10.1926 I-0.8547 J0.2898
X192.5188 Y23.8779 Z-10.385 I-0.7914 J0.4338
X192.4101 Y23.7642 Z-10.5774 I-0.7041 J0.5646
X192.2832 Y23.6711 Z-10.7699 I-0.5953 J0.6783
X192.1422 Y23.6015 Z-10.9623 I-0.4685 J0.7714
X192.7172 Y24.4359 Z-10.9999 I-0.3274 J0.841
G1 X192.7173 Y24.4425 Z-11
Y24.5425 F3200
G3 X191.8098 Y25.45 I-0.9075
G1 X190.5006
X190.4511 Y25.4435
X190.4051 Y25.4243
X190.3656 Y25.3937
X190.3355 Y25.354
X190.3167 Y25.3078
X190.3106 Y25.2583
X190.3176 Y25.2089
X190.3372 Y25.163
X191.0388 Y23.9817
G3 X192.6673 Y24.1464 I0.776 J0.4608
G1 X192.6695 Y24.1527 Z-11.0001 F1200
G3 X192.6062 Y24.0087 Z-11.1926 I-0.8547 J0.2898
X192.5188 Y23.8779 Z-11.385 I-0.7914 J0.4338
X192.4101 Y23.7642 Z-11.5774 I-0.7041 J0.5646
X192.2832 Y23.6711 Z-11.7699 I-0.5953 J0.6783
X192.1422 Y23.6015 Z-11.9623 I-0.4685 J0.7714
X192.7172 Y24.4359 Z-11.9999 I-0.3274 J0.841
G1 X192.7173 Y24.4425 Z-12
Y24.5425 F3200
G3 X191.8098 Y25.45 I-0.9075
G1 X190.5006
X190.4511 Y25.4435
X190.4051 Y25.4243
X190.3656 Y25.3937
X190.3355 Y25.354
X190.3167 Y25.3078
X190.3106 Y25.2583
X190.3176 Y25.2089
X190.3372 Y25.163
X191.0388 Y23.9817
G3 X192.6673 Y24.1464 I0.776 J0.4608
G1 X192.6695 Y24.1527 Z-12.0001 F1200
G3 X192.6062 Y24.0087 Z-12.1926 I-0.8547 J0.2898
X192.5188 Y23.8779 Z-12.385 I-0.7914 J0.4338
X192.4101 Y23.7642 Z-12.5774 I-0.7041 J0.5646
X192.2832 Y23.6711 Z-12.7699 I-0.5953 J0.6783
X192.1422 Y23.6015 Z-12.9623 I-0.4685 J0.7714
X192.7172 Y24.4359 Z-12.9999 I-0.3274 J0.841
G1 X192.7173 Y24.4425 Z-13
Y24.5425 F3200
G3 X191.8098 Y25.45 I-0.9075
G1 X190.5006
X190.4511 Y25.4435
X190.4051 Y25.4243
X190.3656 Y25.3937
X190.3355 Y25.354
X190.3167 Y25.3078
X190.3106 Y25.2583
X190.3176 Y25.2089
X190.3372 Y25.163
X191.0388 Y23.9817
G3 X192.6673 Y24.1464 I0.776 J0.4608
G1 X192.6695 Y24.1527 Z-13.0001 F1200
G3 X192.6062 Y24.0087 Z-13.1926 I-0.8547 J0.2898
X192.5188 Y23.8779 Z-13.385 I-0.7914 J0.4338
X192.4101 Y23.7642 Z-13.5774 I-0.7041 J0.5646
X192.2832 Y23.6711 Z-13.7699 I-0.5953 J0.6783
X192.1422 Y23.6015 Z-13.9623 I-0.4685 J0.7714
X192.7172 Y24.4359 Z-13.9999 I-0.3274 J0.841
G1 X192.7173 Y24.4425 Z-14
Y24.5425 F3200
G3 X191.8098 Y25.45 I-0.9075
G1 X190.5006
X190.4511 Y25.4435
X190.4051 Y25.4243
X190.3656 Y25.3937
X190.3355 Y25.354
X190.3167 Y25.3078
X190.3106 Y25.2583
X190.3176 Y25.2089
X190.3372 Y25.163
X191.0388 Y23.9817
G3 X192.6673 Y24.1464 I0.776 J0.4608
G1 X192.6695 Y24.1527 Z-14.0001 F1200
G3 X192.6062 Y24.0087 Z-14.1926 I-0.8547 J0.2898
X192.5188 Y23.8779 Z-14.385 I-0.7914 J0.4338
X192.4101 Y23.7642 Z-14.5774 I-0.7041 J0.5646
X192.2832 Y23.6711 Z-14.7699 I-0.5953 J0.6783
X192.1422 Y23.6015 Z-14.9623 I-0.4685 J0.7714
X192.7172 Y24.4359 Z-14.9999 I-0.3274 J0.841
G1 X192.7173 Y24.4425 Z-15
Y24.5425 F3200
G3 X191.8098 Y25.45 I-0.9075
G1 X190.5006
X190.4511 Y25.4435
X190.4051 Y25.4243
X190.3656 Y25.3937
X190.3355 Y25.354
X190.3167 Y25.3078
X190.3106 Y25.2583
X190.3176 Y25.2089
X190.3372 Y25.163
X191.0388 Y23.9817
G3 X192.6673 Y24.1464 I0.776 J0.4608
G1 X192.6695 Y24.1527 Z-15.0001 F1200
G3 X192.6062 Y24.0087 Z-15.1926 I-0.8547 J0.2898
X192.5188 Y23.8779 Z-15.385 I-0.7914 J0.4338
X192.4101 Y23.7642 Z-15.5774 I-0.7041 J0.5646
X192.2832 Y23.6711 Z-15.7699 I-0.5953 J0.6783
X192.1422 Y23.6015 Z-15.9623 I-0.4685 J0.7714
X192.7172 Y24.4359 Z-15.9999 I-0.3274 J0.841
G1 X192.7173 Y24.4425 Z-16
Y24.5425 F3200
G3 X191.8098 Y25.45 I-0.9075
G1 X190.5006
X190.4511 Y25.4435
X190.4051 Y25.4243
X190.3656 Y25.3937
X190.3355 Y25.354
X190.3167 Y25.3078
X190.3106 Y25.2583
X190.3176 Y25.2089
X190.3372 Y25.163
X191.0388 Y23.9817
G3 X192.6673 Y24.1464 I0.776 J0.4608
G1 X192.6695 Y24.1527 Z-16.0001 F1200
G3 X192.6062 Y24.0087 Z-16.1926 I-0.8547 J0.2898
X192.5188 Y23.8779 Z-16.385 I-0.7914 J0.4338
X192.4101 Y23.7642 Z-16.5774 I-0.7041 J0.5646
X192.2832 Y23.6711 Z-16.7699 I-0.5953 J0.6783
X192.1422 Y23.6015 Z-16.9623 I-0.4685 J0.7714
X192.7172 Y24.4359 Z-16.9999 I-0.3274 J0.841
G1 X192.7173 Y24.4425 Z-17
Y24.5425 F3200
G3 X191.8098 Y25.45 I-0.9075
G1 X190.5006
X190.4511 Y25.4435
X190.4051 Y25.4243
X190.3656 Y25.3937
X190.3355 Y25.354
X190.3167 Y25.3078
X190.3106 Y25.2583
X190.3176 Y25.2089
X190.3372 Y25.163
X191.0388 Y23.9817
G3 X192.6673 Y24.1464 I0.776 J0.4608
G1 X192.6695 Y24.1527 Z-17.0001 F1200
G3 X192.6062 Y24.0087 Z-17.1926 I-0.8547 J0.2898
X192.5188 Y23.8779 Z-17.385 I-0.7914 J0.4338
X192.4101 Y23.7642 Z-17.5774 I-0.7041 J0.5646
X192.2832 Y23.6711 Z-17.7699 I-0.5953 J0.6783
X192.1422 Y23.6015 Z-17.9623 I-0.4685 J0.7714
X192.7172 Y24.4359 Z-17.9999 I-0.3274 J0.841
G1 X192.7173 Y24.4425 Z-18
Y24.5425 F3200
G3 X191.8098 Y25.45 I-0.9075
G1 X190.5006
X190.4511 Y25.4435
X190.4051 Y25.4243
X190.3656 Y25.3937
X190.3355 Y25.354
X190.3167 Y25.3078
X190.3106 Y25.2583
X190.3176 Y25.2089
X190.3372 Y25.163
X191.0388 Y23.9817
G3 X192.6673 Y24.1464 I0.776 J0.4608
G1 X192.6695 Y24.1527 Z-18.0001 F1200
G3 X192.6062 Y24.0087 Z-18.1926 I-0.8547 J0.2898
X192.5188 Y23.8779 Z-18.385 I-0.7914 J0.4338
X192.4101 Y23.7642 Z-18.5774 I-0.7041 J0.5646
X192.2832 Y23.6711 Z-18.7699 I-0.5953 J0.6783
X192.1422 Y23.6015 Z-18.9623 I-0.4685 J0.7714
X192.7172 Y24.4359 Z-18.9999 I-0.3274 J0.841
G1 X192.7173 Y24.4425 Z-19
Y24.5425 F3200
G3 X191.8098 Y25.45 I-0.9075
G1 X190.5006
X190.4511 Y25.4435
X190.4051 Y25.4243
X190.3656 Y25.3937
X190.3355 Y25.354
X190.3167 Y25.3078
X190.3106 Y25.2583
X190.3176 Y25.2089
X190.3372 Y25.163
X191.0388 Y23.9817
G3 X192.6986 Y24.2601 I0.776 J0.4608
G1 X192.7 Y24.2666 Z-19.0001 F1200
G3 X192.656 Y24.1156 Z-19.1926 I-0.8852 J0.1759
X192.5864 Y23.9745 Z-19.385 I-0.8412 J0.3269
X192.4934 Y23.8476 Z-19.5774 I-0.7717 J0.468
X192.7172 Y24.4359 Z-19.5999 I-0.6787 J0.5949
G1 X192.7173 Y24.4425 Z-19.6
Y24.5425 F3200
G3 X191.8098 Y25.45 I-0.9075
G1 X190.5006
X190.4511 Y25.4435
X190.4051 Y25.4243
X190.3656 Y25.3937
X190.3355 Y25.354
X190.3167 Y25.3078
X190.3106 Y25.2583
X190.3176 Y25.2089
X190.3372 Y25.163
X191.0388 Y23.9817
G3 X192.6986 Y24.2601 I0.776 J0.4608
G1 X192.7 Y24.2666 Z-19.6001 F1200
G3 X192.656 Y24.1156 Z-19.7926 I-0.8852 J0.1759
X192.5864 Y23.9745 Z-19.985 I-0.8412 J0.3269
X192.4934 Y23.8476 Z-20.1774 I-0.7717 J0.468
X192.7172 Y24.4359 Z-20.1999 I-0.6787 J0.5949
G1 X192.7173 Y24.4425 Z-20.2
Y24.5425 F3200
G3 X191.8098 Y25.45 I-0.9075
G1 X190.5006
X190.4482 Y25.4426
X190.3999 Y25.4211
X190.3594 Y25.3871
X190.3298 Y25.3433
X190.3135 Y25.2929
X190.3116 Y25.2401
X190.4808 Y23.6363
X190.486 Y23.5874 Z-20.1935
X190.4908 Y23.5418 Z-20.1745
X190.4949 Y23.5027 Z-20.1444
X190.4981 Y23.4727 Z-20.105
X190.5001 Y23.4538 Z-20.0592
X190.5007 Y23.4474 Z-20.01
G0 Z5
X278.1967 Y60.008
Z0.1823
G1 Z-1.81 F3200
X278.1914 Y60.0043 Z-1.8592
X278.1757 Y59.9936 Z-1.905
X278.1507 Y59.9767 Z-1.9444
X278.1182 Y59.9546 Z-1.9746
X278.0803 Y59.9288 Z-1.9935
X278.0396 Y59.9012 Z-2
X276.6992 Y58.9902
X276.6621 Y58.9572
X276.6349 Y58.9157
X276.6193 Y58.8686
X276.6165 Y58.8191
X276.6265 Y58.7705
X276.6488 Y58.7262
X276.6593 Y58.7107
X276.6781 Y58.6832
X276.6869 Y58.671
X276.7578 Y58.5731
X276.7969 Y58.5215
X276.8433 Y58.463
X276.907 Y58.3858
X276.9351 Y58.3529
X277.0172 Y58.2611
X277.0337 Y58.2428
X277.1273 Y58.1453
X277.1396 Y58.1327
X277.2374 Y58.0387
X277.2543 Y58.0227
X277.3474 Y57.9401
X277.3792 Y57.9126
X277.4576 Y57.8479
X277.5148 Y57.8025
X277.5677 Y57.762
X277.6632 Y57.6924
X277.6778 Y57.6822
X277.7878 Y57.6079
X277.8272 Y57.5823
X277.8979 Y57.5383
X278.0081 Y57.4741
X278.0114 Y57.4722
X278.1182 Y57.414
X278.2204 Y57.3621
X278.2283 Y57.3583
X278.3383 Y57.3069
X278.4485 Y57.2593
X278.466 Y57.252
X278.5586 Y57.2153
X278.6687 Y57.1754
X278.7685 Y57.1419
X278.7787 Y57.1385
X278.8889 Y57.1057
X278.999 Y57.0758
X279.1091 Y57.0493
X279.1909 Y57.0318
X279.2191 Y57.0263
X279.3293 Y57.006
X279.4394 Y56.9892
X279.5495 Y56.9753
X279.6596 Y56.9645
X279.7697 Y56.9568
X279.8006 Y56.9551
X280.1481 Y56.95
X323.5604
X323.7617
X325.0482
X325.05 Y56.9513
Y58.4888
X325.0435 Y58.538
X325.0246 Y58.5838
X324.9944 Y58.6232
X324.9758 Y58.6474
X324.9641 Y58.6756
X324.9601 Y58.7058
Y59.0081
X324.9641 Y59.0383
X324.9758 Y59.0665
X324.9944 Y59.0907
X325.0246 Y59.1301
X325.0435 Y59.1759
X325.05 Y59.2251
Y60.6047
X325.0432 Y60.6551
X325.0232 Y60.7019
X324.9916 Y60.7417
X324.9505 Y60.7717
X324.9029 Y60.7898
X324.8522 Y60.7945
X324.8021 Y60.7856
X324.7561 Y60.7638
X323.5491 Y59.9758
G3 X323.7465 Y58.3675 I0.4934 J-0.7557
G1 X323.7527 Y58.3654 Z-2.0001 F1200
G3 X323.6087 Y58.4287 Z-2.1926 I0.2898 J0.8547
X323.4779 Y58.516 Z-2.385 I0.4338 J0.7914
X323.3642 Y58.6248 Z-2.5774 I0.5646 J0.704
X323.2711 Y58.7516 Z-2.7699 I0.6783 J0.5953
X323.2015 Y58.8927 Z-2.9623 I0.7714 J0.4685
X324.0359 Y58.3176 Z-2.9999 I0.841 J0.3274
G1 X324.0425 Z-3
X324.1425 F3200
G3 X325.05 Y59.2251 J0.9075
G1 Y60.6047
X325.0424 Y60.6578
X325.0203 Y60.7067
X324.9854 Y60.7474
X324.9404 Y60.7768
X324.8891 Y60.7924
X324.8354 Y60.7931
X324.7837 Y60.7787
X324.7381 Y60.7504
X324.7022 Y60.7104
X324.6789 Y60.6621
X323.5805 Y57.1974
X323.5718 Y57.1474
X323.5766 Y57.0968
X323.5947 Y57.0493
X323.6247 Y57.0083
X323.6645 Y56.9767
X323.7113 Y56.9568
X323.7617 Y56.95
X325.0482
X325.05 Y56.9513
Y58.4888
X325.0435 Y58.538
X325.0246 Y58.5838
X324.9944 Y58.6232
X324.955 Y58.6534
X324.9092 Y58.6724
X324.86 Y58.6788
X324.8064 Y58.6865
X324.7571 Y58.7091
X324.7162 Y58.7446
X324.687 Y58.7903
X324.6719 Y58.8423
X324.672 Y58.8965
X324.6875 Y58.9484
X324.7169 Y58.9938
X324.758 Y59.0291
X324.8074 Y59.0514
X324.8529 Y59.0713
X324.8917 Y59.1022
X324.9212 Y59.1422
X324.9393 Y59.1884
X324.9448 Y59.2377
G3 X323.7465 Y58.3675 I-0.9023 J-0.0176
G1 X323.7527 Y58.3654 Z-3.0001 F1200
G3 X323.6087 Y58.4287 Z-3.1926 I0.2898 J0.8547
X323.4779 Y58.516 Z-3.385 I0.4338 J0.7914
X323.3642 Y58.6248 Z-3.5774 I0.5646 J0.704
X323.2711 Y58.7516 Z-3.7699 I0.6783 J0.5953
X323.2015 Y58.8927 Z-3.9623 I0.7714 J0.4685
X324.0359 Y58.3176 Z-3.9999 I0.841 J0.3274
G1 X324.0425 Z-4
X324.1425 F3200
G3 X325.05 Y59.2251 J0.9075
G1 Y60.6047
X325.0427 Y60.657
X325.0211 Y60.7054
X324.9871 Y60.7459
X324.9433 Y60.7754
X324.893 Y60.7918
X324.8401 Y60.7936
X323.2363 Y60.6244
X323.1874 Y60.6193 Z-3.9935
X323.1418 Y60.6145 Z-3.9745
X323.1027 Y60.6103 Z-3.9443
X323.0727 Y60.6072 Z-3.905
X323.0538 Y60.6052 Z-3.8592
X323.0474 Y60.6045 Z-3.81
G0 Z5
X323.2829 Y64.02
Z1.7144
G1 Z-0.7601 F3200
X323.283 Y64.0181 Z-0.7866
X323.2835 Y64.0126 Z-0.8125
X323.2843 Y64.0036 Z-0.8374
X323.2857 Y63.9913 Z-0.8608
X323.2876 Y63.9758 Z-0.8822
X323.2903 Y63.9576 Z-0.9013
X323.2939 Y63.937 Z-0.9176
X323.2985 Y63.9145 Z-0.9309
X323.3041 Y63.8906 Z-0.9408
X323.3109 Y63.8658 Z-0.9472
X323.3186 Y63.8406 Z-0.95
G3 X323.2882 Y63.9717 Z-1.1147 I0.7339 J0.2394
X323.281 Y64.106 Z-1.2793 I0.7643 J0.1083
X323.2972 Y64.2396 Z-1.444 I0.7715 J-0.026
X323.3364 Y64.3683 Z-1.6087 I0.7553 J-0.1596
X323.3974 Y64.4883 Z-1.7734 I0.7161 J-0.2884
X323.4782 Y64.5959 Z-1.938 I0.6551 J-0.4083
X324.0459 Y63.308 Z-1.9999 I0.5743 J-0.5159
G1 X324.0525 Z-2
X324.86
X324.9092 Y63.3145
X324.955 Y63.3335
X324.9944 Y63.3637
X325.0246 Y63.403
X325.0435 Y63.4488
X325.05 Y63.498
Y65.0486
X325.0482 Y65.05
X323.7668
X323.5604
X320.0974
X319.4471
X313.543
X313.4346
X305.1478
X300.0883
X293.8608
X293.2604
X291.7878
X290.6902
X287.9119
X285.1749
X282.9953
X282.0112
X280.3339
X279.7766 Y65.0436
X279.7697 Y65.0432
X279.6596 Y65.0355
X279.5495 Y65.0247
X279.4394 Y65.0108
X279.3293 Y64.994
X279.2191 Y64.9737
X279.1448 Y64.9585
X279.1091 Y64.9507
X278.999 Y64.9242
X278.8889 Y64.8943
X278.7787 Y64.8615
X278.7389 Y64.8484
X278.7038 Y64.8367
X278.6994 Y64.8352
X278.5362 Y64.776
X278.5035 Y64.7631
X278.4485 Y64.7407
X278.4427 Y64.7383
X278.3383 Y64.6931
X278.2283 Y64.6417
X278.2003 Y64.6282
X278.1182 Y64.5861
X278.0081 Y64.5259
X277.9941 Y64.5181
X277.8979 Y64.4617
X277.8123 Y64.408
X277.7878 Y64.3921
X277.6778 Y64.3178
X277.6493 Y64.2979
X277.5677 Y64.2381
X277.5023 Y64.1878
X277.4576 Y64.1521
X277.368 Y64.0777
X277.3474 Y64.0599
X277.2441 Y63.9676
X277.2374 Y63.9613
X277.13 Y63.8575
X277.1273 Y63.8548
X277.0248 Y63.7474
X277.0172 Y63.739
X276.9266 Y63.6374
X276.907 Y63.6142
X276.8354 Y63.5273
X276.7969 Y63.4785
X276.7506 Y63.4172
X276.6869 Y63.329
X276.6714 Y63.3071
X276.6586 Y63.2882
X276.5895 Y63.1846
X276.5869 Y63.1805
X276.5768 Y63.1641
X276.5295 Y63.0869
X276.4666 Y62.9791
X276.4653 Y62.9768
X276.4059 Y62.8667
X276.3565 Y62.7686
X276.3507 Y62.7566
X276.3001 Y62.6465
X276.2524 Y62.5364
X276.2465 Y62.521
X276.2102 Y62.4263
X276.1698 Y62.3162
X276.1364 Y62.2136
X276.1341 Y62.2062
X276.1013 Y62.0961
X276.0723 Y61.986
X276.046 Y61.8759
X276.0262 Y61.7795
X276.0236 Y61.7658
X276.0039 Y61.6557
X275.9872 Y61.5456
X275.9735 Y61.4355
X275.9632 Y61.3254
X275.9557 Y61.2153
X275.9513 Y61.1052
X275.95 Y60.9951
X275.9515 Y60.885
X275.9563 Y60.775
X275.964 Y60.6649
X275.9746 Y60.5548
X275.9886 Y60.4447
X276.0055 Y60.3346
X276.0255 Y60.2245
X276.0262 Y60.2205
X276.0482 Y60.1144
X276.0611 Y60.0594
X276.0747 Y60.0043
X276.0818 Y59.9768
X276.089 Y59.9493
X276.1042 Y59.8942
X276.1364 Y59.7865
X276.1371 Y59.7841
X276.1733 Y59.674
X276.2138 Y59.5639
X276.2465 Y59.479
X276.2565 Y59.4538
X276.3045 Y59.3438
X276.3555 Y59.2337
X276.3565 Y59.2314
X276.4109 Y59.1236
X276.4666 Y59.0209
X276.4708 Y59.0135
X276.5354 Y58.9034
X276.5768 Y58.836
X276.5858 Y58.8213
X276.617 Y58.7828
X276.6572 Y58.7537
X276.7035 Y58.736
X276.7529 Y58.7309
X276.8018 Y58.7387
X276.8471 Y58.7589
X276.8928 Y58.7793
X276.9422 Y58.787
X276.992 Y58.7815
X277.0385 Y58.7633
X277.0788 Y58.7336
X277.1098 Y58.6944
X277.1295 Y58.6484
X277.1366 Y58.5989
X277.1439 Y58.5484
X277.1644 Y58.5018
X277.1965 Y58.4622
X277.238 Y58.4326
X277.2859 Y58.4151
G3 X277.2449 Y60.1682 I0.1934 J0.8815
G1 X277.2385 Y60.1665 Z-2.0001 F1200
G3 X277.3932 Y60.1951 Z-2.1926 I0.2408 J-0.8698
X277.5505 Y60.1964 Z-2.385 I0.0861 J-0.8984
X277.7057 Y60.1703 Z-2.5774 I-0.0712 J-0.8997
X277.8539 Y60.1177 Z-2.7699 I-0.2264 J-0.8737
X277.9908 Y60.0402 Z-2.9623 I-0.3746 J-0.8211
X276.9775 Y60.0468 Z-2.9999 I-0.5115 J-0.7435
G1 X276.972 Y60.0431 Z-3
X276.8893 Y59.9869 F3200
G3 X276.6488 Y58.7262 I0.5101 J-0.7506
G1 X276.6593 Y58.7107
X276.6781 Y58.6832
X276.6869 Y58.671
X276.7578 Y58.5731
X276.7969 Y58.5215
X276.8433 Y58.463
X276.907 Y58.3858
X276.9351 Y58.3529
X277.0172 Y58.2611
X277.0337 Y58.2428
X277.1273 Y58.1453
X277.1396 Y58.1327
X277.2374 Y58.0387
X277.2543 Y58.0227
X277.3474 Y57.9401
X277.3792 Y57.9126
X277.4576 Y57.8479
X277.5148 Y57.8025
X277.5677 Y57.762
X277.6632 Y57.6924
X277.6778 Y57.6822
X277.7878 Y57.6079
X277.8272 Y57.5823
X277.8979 Y57.5383
X278.0081 Y57.4741
X278.0114 Y57.4722
X278.1182 Y57.414
X278.2204 Y57.3621
X278.2283 Y57.3583
X278.3383 Y57.3069
X278.4485 Y57.2593
X278.466 Y57.252
X278.5586 Y57.2153
X278.6687 Y57.1754
X278.7685 Y57.1419
X278.7787 Y57.1385
X278.8889 Y57.1057
X278.999 Y57.0758
X279.1091 Y57.0493
X279.1909 Y57.0318
X279.2191 Y57.0263
X279.3293 Y57.006
X279.4394 Y56.9892
X279.5495 Y56.9753
X279.6596 Y56.9645
X279.7697 Y56.9568
X279.8006 Y56.9551
X280.1481 Y56.95
X323.5604
X323.6096 Y56.9565
X323.6554 Y56.9755
X323.6947 Y57.0056
X323.7249 Y57.045
X323.7439 Y57.0908
X323.7504 Y57.14
X323.7569 Y57.1892
X323.7759 Y57.2351
X323.8062 Y57.2745
X323.8456 Y57.3047
X323.8916 Y57.3236
X323.9408 Y57.33
X323.99 Y57.3234
X324.0359 Y57.3043
X324.0752 Y57.2739
X324.1119 Y57.2451
X324.1546 Y57.2261
X324.2006 Y57.218
X324.2471 Y57.2215
X324.2915 Y57.2362
X324.3309 Y57.2612
G3 X322.9041 Y58.2536 I-0.5742 J0.6963
G1 X322.9019 Y58.2473 Z-3.0001 F1200
G3 X322.9653 Y58.3913 Z-3.1926 I0.8547 J-0.2898
X323.0526 Y58.5221 Z-3.385 I0.7914 J-0.4338
X323.1614 Y58.6358 Z-3.5774 I0.704 J-0.5646
X323.2882 Y58.7289 Z-3.7699 I0.5953 J-0.6783
X323.4293 Y58.7985 Z-3.9623 I0.4685 J-0.7714
X322.8542 Y57.9641 Z-3.9999 I0.3274 J-0.841
G1 Y57.9575 Z-4
Y57.8575 F3200
G3 X323.7617 Y56.95 I0.9075
G1 X325.0482
X325.05 Y56.9513
Y58.4888
X325.0435 Y58.538
X325.0246 Y58.5838
X324.9944 Y58.6232
X324.955 Y58.6534
X324.9092 Y58.6724
X324.86 Y58.6788
X324.8064 Y58.6865
X324.7571 Y58.7091
X324.7162 Y58.7446
X324.687 Y58.7903
X324.6719 Y58.8423
X324.672 Y58.8965
X324.6875 Y58.9484
X324.7169 Y58.9938
X324.758 Y59.0291
X324.8074 Y59.0514
X324.8529 Y59.0713
X324.8917 Y59.1022
X324.9212 Y59.1422
X324.9393 Y59.1884
X324.9448 Y59.2377
G3 X323.7465 Y58.3675 I-0.9023 J-0.0176
G1 X323.7527 Y58.3654 Z-4.0001 F1200
G3 X323.6087 Y58.4287 Z-4.1926 I0.2898 J0.8547
X323.4779 Y58.516 Z-4.385 I0.4338 J0.7914
X323.3642 Y58.6248 Z-4.5774 I0.5646 J0.704
X323.2711 Y58.7516 Z-4.7699 I0.6783 J0.5953
X323.2015 Y58.8927 Z-4.9623 I0.7714 J0.4685
X324.0359 Y58.3176 Z-4.9999 I0.841 J0.3274
G1 X324.0425 Z-5
X324.1425 F3200
G3 X325.05 Y59.2251 J0.9075
G1 Y60.6047
X325.0427 Y60.657
X325.0211 Y60.7054
X324.9871 Y60.7459
X324.9433 Y60.7754
X324.893 Y60.7918
X324.8401 Y60.7936
X323.2363 Y60.6244
X323.1874 Y60.6193 Z-4.9935
X323.1418 Y60.6145 Z-4.9745
X323.1027 Y60.6103 Z-4.9443
X323.0727 Y60.6072 Z-4.905
X323.0538 Y60.6052 Z-4.8592
X323.0474 Y60.6045 Z-4.81
G0 Z5
X323.2829 Y64.02
Z1.7144
G1 Z-1.7601 F3200
X323.283 Y64.0181 Z-1.7866
X323.2835 Y64.0126 Z-1.8125
X323.2843 Y64.0036 Z-1.8374
X323.2857 Y63.9913 Z-1.8608
X323.2876 Y63.9758 Z-1.8822
X323.2903 Y63.9576 Z-1.9013
X323.2939 Y63.937 Z-1.9176
X323.2985 Y63.9145 Z-1.9309
X323.3041 Y63.8906 Z-1.9408
X323.3109 Y63.8658 Z-1.9472
X323.3186 Y63.8406 Z-1.95
G3 X323.2882 Y63.9717 Z-2.1147 I0.7339 J0.2394
X323.281 Y64.106 Z-2.2793 I0.7643 J0.1083
X323.2972 Y64.2396 Z-2.444 I0.7715 J-0.026
X323.3364 Y64.3683 Z-2.6087 I0.7553 J-0.1596
X323.3974 Y64.4883 Z-2.7734 I0.7161 J-0.2884
X323.4782 Y64.5959 Z-2.938 I0.6551 J-0.4083
X324.0459 Y63.308 Z-2.9999 I0.5743 J-0.5159
G1 X324.0525 Z-3
X324.86
X324.9092 Y63.3145
X324.955 Y63.3335
X324.9944 Y63.3637
X325.0246 Y63.403
X325.0435 Y63.4488
X325.05 Y63.498
Y65.0486
X325.0482 Y65.05
X323.7668
X323.5604
X320.0974
X319.4471
X313.5395
X313.4346
X305.0429
X300.1004
X293.8608
X293.2639
X291.7878
X290.6902
X287.8397
X285.1749
X282.8628
X282.0112
X280.3339
X279.7766 Y65.0436
X279.7697 Y65.0432
X279.6596 Y65.0355
X279.5495 Y65.0247
X279.4394 Y65.0108
X279.3293 Y64.994
X279.2191 Y64.9737
X279.1448 Y64.9585
X279.1091 Y64.9507
X278.999 Y64.9242
X278.8889 Y64.8943
X278.7787 Y64.8615
X278.7389 Y64.8484
X278.7038 Y64.8367
X278.6994 Y64.8352
X278.5362 Y64.776
X278.5035 Y64.7631
X278.4485 Y64.7407
X278.4427 Y64.7383
X278.3383 Y64.6931
X278.2283 Y64.6417
X278.2003 Y64.6282
X278.1182 Y64.5861
X278.0081 Y64.5259
X277.9941 Y64.5181
X277.8979 Y64.4617
X277.8123 Y64.408
X277.7878 Y64.3921
X277.6778 Y64.3178
X277.6493 Y64.2979
X277.5677 Y64.2381
X277.5023 Y64.1878
X277.4576 Y64.1521
X277.368 Y64.0777
X277.3474 Y64.0599
X277.2441 Y63.9676
X277.2374 Y63.9613
X277.13 Y63.8575
X277.1273 Y63.8548
X277.0248 Y63.7474
X277.0172 Y63.739
X276.9266 Y63.6374
X276.907 Y63.6142
X276.8354 Y63.5273
X276.7969 Y63.4785
X276.7506 Y63.4172
X276.6869 Y63.329
X276.6714 Y63.3071
X276.6586 Y63.2882
X276.5895 Y63.1846
X276.5869 Y63.1805
X276.5768 Y63.1641
X276.5295 Y63.0869
X276.4666 Y62.9791
X276.4653 Y62.9768
X276.4059 Y62.8667
X276.3565 Y62.7686
X276.3507 Y62.7566
X276.3001 Y62.6465
X276.2524 Y62.5364
X276.2465 Y62.521
X276.2102 Y62.4263
X276.1698 Y62.3162
X276.1364 Y62.2136
X276.1341 Y62.2062
X276.1013 Y62.0961
X276.0723 Y61.986
X276.046 Y61.8759
X276.0262 Y61.7795
X276.0236 Y61.7658
X276.0039 Y61.6557
X275.9872 Y61.5456
X275.9735 Y61.4355
X275.9632 Y61.3254
X275.9557 Y61.2153
X275.9513 Y61.1052
X275.95 Y60.9951
X275.9515 Y60.885
X275.9563 Y60.775
X275.964 Y60.6649
X275.9746 Y60.5548
X275.9886 Y60.4447
X276.0055 Y60.3346
X276.0255 Y60.2245
X276.0262 Y60.2205
X276.0482 Y60.1144
X276.0611 Y60.0594
X276.0747 Y60.0043
X276.0818 Y59.9768
X276.089 Y59.9493
X276.1042 Y59.8942
X276.1364 Y59.7865
X276.1371 Y59.7841
X276.1733 Y59.674
X276.2138 Y59.5639
X276.2465 Y59.479
X276.2565 Y59.4538
X276.3045 Y59.3438
X276.3555 Y59.2337
X276.3565 Y59.2314
X276.4109 Y59.1236
X276.4666 Y59.0209
X276.4708 Y59.0135
X276.5354 Y58.9034
X276.5768 Y58.836
X276.5858 Y58.8213
X276.617 Y58.7828
X276.6572 Y58.7537
X276.7035 Y58.736
X276.7529 Y58.7309
X276.8018 Y58.7387
X276.8471 Y58.7589
X276.8928 Y58.7793
X276.9422 Y58.787
X276.992 Y58.7815
X277.0385 Y58.7633
X277.0788 Y58.7336
X277.1098 Y58.6944
X277.1295 Y58.6484
X277.1366 Y58.5989
X277.1439 Y58.5484
X277.1644 Y58.5018
X277.1965 Y58.4622
X277.238 Y58.4326
X277.2859 Y58.4151
G3 X277.2449 Y60.1682 I0.1934 J0.8815
G1 X277.2385 Y60.1665 Z-3.0001 F1200
G3 X277.3932 Y60.1951 Z-3.1926 I0.2408 J-0.8698
X277.5505 Y60.1964 Z-3.385 I0.0861 J-0.8984
X277.7057 Y60.1703 Z-3.5774 I-0.0712 J-0.8997
X277.8539 Y60.1177 Z-3.7699 I-0.2264 J-0.8737
X277.9908 Y60.0402 Z-3.9623 I-0.3746 J-0.8211
X276.9775 Y60.0468 Z-3.9999 I-0.5115 J-0.7435
G1 X276.972 Y60.0431 Z-4
X276.8893 Y59.9869 F3200
G3 X276.6488 Y58.7262 I0.5101 J-0.7506
G1 X276.6593 Y58.7107
X276.6781 Y58.6832
X276.6869 Y58.671
X276.7578 Y58.5731
X276.7969 Y58.5215
X276.8433 Y58.463
X276.907 Y58.3858
X276.9351 Y58.3529
X277.0172 Y58.2611
X277.0337 Y58.2428
X277.1273 Y58.1453
X277.1396 Y58.1327
X277.2374 Y58.0387
X277.2543 Y58.0227
X277.3474 Y57.9401
X277.3792 Y57.9126
X277.4576 Y57.8479
X277.5148 Y57.8025
X277.5677 Y57.762
X277.6632 Y57.6924
X277.6778 Y57.6822
X277.7878 Y57.6079
X277.8272 Y57.5823
X277.8979 Y57.5383
X278.0081 Y57.4741
X278.0114 Y57.4722
X278.1182 Y57.414
X278.2204 Y57.3621
X278.2283 Y57.3583
X278.3383 Y57.3069
X278.4485 Y57.2593
X278.466 Y57.252
X278.5586 Y57.2153
X278.6687 Y57.1754
X278.7685 Y57.1419
X278.7787 Y57.1385
X278.8889 Y57.1057
X278.999 Y57.0758
X279.1091 Y57.0493
X279.1909 Y57.0318
X279.2191 Y57.0263
X279.3293 Y57.006
X279.4394 Y56.9892
X279.5495 Y56.9753
X279.6596 Y56.9645
X279.7697 Y56.9568
X279.8006 Y56.9551
X280.1481 Y56.95
X323.5604
X323.6096 Y56.9565
X323.6554 Y56.9755
X323.6947 Y57.0056
X323.7249 Y57.045
X323.7439 Y57.0908
X323.7504 Y57.14
X323.7569 Y57.1892
X323.7759 Y57.2351
X323.8062 Y57.2745
X323.8456 Y57.3047
X323.8916 Y57.3236
X323.9408 Y57.33
X323.99 Y57.3234
X324.0359 Y57.3043
X324.0752 Y57.2739
X324.1119 Y57.2451
X324.1546 Y57.2261
X324.2006 Y57.218
X324.2471 Y57.2215
X324.2915 Y57.2362
X324.3309 Y57.2612
G3 X322.9041 Y58.2536 I-0.5742 J0.6963
G1 X322.9019 Y58.2473 Z-4.0001 F1200
G3 X322.9653 Y58.3913 Z-4.1926 I0.8547 J-0.2898
X323.0526 Y58.5221 Z-4.385 I0.7914 J-0.4338
X323.1614 Y58.6358 Z-4.5774 I0.704 J-0.5646
X323.2882 Y58.7289 Z-4.7699 I0.5953 J-0.6783
X323.4293 Y58.7985 Z-4.9623 I0.4685 J-0.7714
X322.8542 Y57.9641 Z-4.9999 I0.3274 J-0.841
G1 Y57.9575 Z-5
Y57.8575 F3200
G3 X323.7617 Y56.95 I0.9075
G1 X325.0482
X325.05 Y56.9513
Y58.4888
X325.0435 Y58.538
X325.0246 Y58.5838
X324.9944 Y58.6232
X324.955 Y58.6534
X324.9092 Y58.6724
X324.86 Y58.6788
X324.8064 Y58.6865
X324.7571 Y58.7091
X324.7162 Y58.7446
X324.687 Y58.7903
X324.6719 Y58.8423
X324.672 Y58.8965
X324.6875 Y58.9484
X324.7169 Y58.9938
X324.758 Y59.0291
X324.8074 Y59.0514
X324.8529 Y59.0713
X324.8917 Y59.1022
X324.9212 Y59.1422
X324.9393 Y59.1884
X324.9448 Y59.2377
G3 X323.7465 Y58.3675 I-0.9023 J-0.0176
G1 X323.7527 Y58.3654 Z-5.0001 F1200
G3 X323.6087 Y58.4287 Z-5.1926 I0.2898 J0.8547
X323.4779 Y58.516 Z-5.385 I0.4338 J0.7914
X323.3642 Y58.6248 Z-5.5774 I0.5646 J0.704
X323.2711 Y58.7516 Z-5.7699 I0.6783 J0.5953
X323.2015 Y58.8927 Z-5.9623 I0.7714 J0.4685
X324.0359 Y58.3176 Z-5.9999 I0.841 J0.3274
G1 X324.0425 Z-6
X324.1425 F3200
G3 X325.05 Y59.2251 J0.9075
G1 Y60.6047
X325.0427 Y60.657
X325.0211 Y60.7054
X324.9871 Y60.7459
X324.9433 Y60.7754
X324.893 Y60.7918
X324.8401 Y60.7936
X323.2363 Y60.6244
X323.1874 Y60.6193 Z-5.9935
X323.1418 Y60.6145 Z-5.9745
X323.1027 Y60.6103 Z-5.9443
X323.0727 Y60.6072 Z-5.905
X323.0538 Y60.6052 Z-5.8592
X323.0474 Y60.6045 Z-5.81
G0 Z5
X323.2829 Y64.02
Z1.7144
G1 Z-2.7601 F3200
X323.283 Y64.0181 Z-2.7866
X323.2835 Y64.0126 Z-2.8125
X323.2843 Y64.0036 Z-2.8374
X323.2857 Y63.9913 Z-2.8608
X323.2876 Y63.9758 Z-2.8822
X323.2903 Y63.9576 Z-2.9013
X323.2939 Y63.937 Z-2.9176
X323.2985 Y63.9145 Z-2.9309
X323.3041 Y63.8906 Z-2.9408
X323.3109 Y63.8658 Z-2.9472
X323.3186 Y63.8406 Z-2.95
G3 X323.2882 Y63.9717 Z-3.1147 I0.7339 J0.2394
X323.281 Y64.106 Z-3.2793 I0.7643 J0.1083
X323.2972 Y64.2396 Z-3.444 I0.7715 J-0.026
X323.3364 Y64.3683 Z-3.6087 I0.7553 J-0.1596
X323.3974 Y64.4883 Z-3.7734 I0.7161 J-0.2884
X323.4782 Y64.5959 Z-3.938 I0.6551 J-0.4083
X324.0459 Y63.308 Z-3.9999 I0.5743 J-0.5159
G1 X324.0525 Z-4
X324.86
X324.9092 Y63.3145
X324.955 Y63.3335
X324.9944 Y63.3637
X325.0246 Y63.403
X325.0435 Y63.4488
X325.05 Y63.498
Y65.0486
X325.0482 Y65.05
X323.7668
X323.5604
X320.0974
X319.4471
X313.5395
X313.4346
X304.9396
X300.1142
X293.8608
X293.269
X291.7878
X290.6902
X287.7657
X285.1749
X282.8387
X282.0112
X280.3339
X279.7766 Y65.0436
X279.7697 Y65.0432
X279.6596 Y65.0355
X279.5495 Y65.0247
X279.4394 Y65.0108
X279.3293 Y64.994
X279.2191 Y64.9737
X279.1448 Y64.9585
X279.1091 Y64.9507
X278.999 Y64.9242
X278.8889 Y64.8943
X278.7787 Y64.8615
X278.7389 Y64.8484
X278.7038 Y64.8367
X278.6994 Y64.8352
X278.5362 Y64.776
X278.5035 Y64.7631
X278.4485 Y64.7407
X278.4427 Y64.7383
X278.3383 Y64.6931
X278.2283 Y64.6417
X278.2003 Y64.6282
X278.1182 Y64.5861
X278.0081 Y64.5259
X277.9941 Y64.5181
X277.8979 Y64.4617
X277.8123 Y64.408
X277.7878 Y64.3921
X277.6778 Y64.3178
X277.6493 Y64.2979
X277.5677 Y64.2381
X277.5023 Y64.1878
X277.4576 Y64.1521
X277.368 Y64.0777
X277.3474 Y64.0599
X277.2441 Y63.9676
X277.2374 Y63.9613
X277.13 Y63.8575
X277.1273 Y63.8548
X277.0248 Y63.7474
X277.0172 Y63.739
X276.9266 Y63.6374
X276.907 Y63.6142
X276.8354 Y63.5273
X276.7969 Y63.4785
X276.7506 Y63.4172
X276.6869 Y63.329
X276.6714 Y63.3071
X276.6586 Y63.2882
X276.5895 Y63.1846
X276.5869 Y63.1805
X276.5768 Y63.1641
X276.5295 Y63.0869
X276.4666 Y62.9791
X276.4653 Y62.9768
X276.4059 Y62.8667
X276.3565 Y62.7686
X276.3507 Y62.7566
X276.3001 Y62.6465
X276.2524 Y62.5364
X276.2465 Y62.521
X276.2102 Y62.4263
X276.1698 Y62.3162
X276.1364 Y62.2136
X276.1341 Y62.2062
X276.1013 Y62.0961
X276.0723 Y61.986
X276.046 Y61.8759
X276.0262 Y61.7795
X276.0236 Y61.7658
X276.0039 Y61.6557
X275.9872 Y61.5456
X275.9735 Y61.4355
X275.9632 Y61.3254
X275.9557 Y61.2153
X275.9513 Y61.1052
X275.95 Y60.9951
X275.9515 Y60.885
X275.9563 Y60.775
X275.964 Y60.6649
X275.9746 Y60.5548
X275.9886 Y60.4447
X276.0055 Y60.3346
X276.0255 Y60.2245
X276.0262 Y60.2205
X276.0482 Y60.1144
X276.0611 Y60.0594
X276.0747 Y60.0043
X276.0818 Y59.9768
X276.089 Y59.9493
X276.1042 Y59.8942
X276.1364 Y59.7865
X276.1371 Y59.7841
X276.1733 Y59.674
X276.2138 Y59.5639
X276.2465 Y59.479
X276.2565 Y59.4538
X276.3045 Y59.3438
X276.3555 Y59.2337
X276.3565 Y59.2314
X276.4109 Y59.1236
X276.4666 Y59.0209
X276.4708 Y59.0135
X276.5354 Y58.9034
X276.5768 Y58.836
X276.5858 Y58.8213
X276.617 Y58.7828
X276.6572 Y58.7537
X276.7035 Y58.736
X276.7529 Y58.7309
X276.8018 Y58.7387
X276.8471 Y58.7589
X276.8928 Y58.7793
X276.9422 Y58.787
X276.992 Y58.7815
X277.0385 Y58.7633
X277.0788 Y58.7336
X277.1098 Y58.6944
X277.1295 Y58.6484
X277.1366 Y58.5989
X277.1439 Y58.5484
X277.1644 Y58.5018
X277.1965 Y58.4622
X277.238 Y58.4326
X277.2859 Y58.4151
G3 X277.2449 Y60.1682 I0.1934 J0.8815
G1 X277.2385 Y60.1665 Z-4.0001 F1200
G3 X277.3932 Y60.1951 Z-4.1926 I0.2408 J-0.8698
X277.5505 Y60.1964 Z-4.385 I0.0861 J-0.8984
X277.7057 Y60.1703 Z-4.5774 I-0.0712 J-0.8997
X277.8539 Y60.1177 Z-4.7699 I-0.2264 J-0.8737
X277.9908 Y60.0402 Z-4.9623 I-0.3746 J-0.8211
X276.9775 Y60.0468 Z-4.9999 I-0.5115 J-0.7435
G1 X276.972 Y60.0431 Z-5
X276.8893 Y59.9869 F3200
G3 X276.6488 Y58.7262 I0.5101 J-0.7506
G1 X276.6593 Y58.7107
X276.6781 Y58.6832
X276.6869 Y58.671
X276.7578 Y58.5731
X276.7969 Y58.5215
X276.8433 Y58.463
X276.907 Y58.3858
X276.9351 Y58.3529
X277.0172 Y58.2611
X277.0337 Y58.2428
X277.1273 Y58.1453
X277.1396 Y58.1327
X277.2374 Y58.0387
X277.2543 Y58.0227
X277.3474 Y57.9401
X277.3792 Y57.9126
X277.4576 Y57.8479
X277.5148 Y57.8025
X277.5677 Y57.762
X277.6632 Y57.6924
X277.6778 Y57.6822
X277.7878 Y57.6079
X277.8272 Y57.5823
X277.8979 Y57.5383
X278.0081 Y57.4741
X278.0114 Y57.4722
X278.1182 Y57.414
X278.2204 Y57.3621
X278.2283 Y57.3583
X278.3383 Y57.3069
X278.4485 Y57.2593
X278.466 Y57.252
X278.5586 Y57.2153
X278.6687 Y57.1754
X278.7685 Y57.1419
X278.7787 Y57.1385
X278.8889 Y57.1057
X278.999 Y57.0758
X279.1091 Y57.0493
X279.1909 Y57.0318
X279.2191 Y57.0263
X279.3293 Y57.006
X279.4394 Y56.9892
X279.5495 Y56.9753
X279.6596 Y56.9645
X279.7697 Y56.9568
X279.8006 Y56.9551
X280.1481 Y56.95
X323.5604
X323.6096 Y56.9565
X323.6554 Y56.9755
X323.6947 Y57.0056
X323.7249 Y57.045
X323.7439 Y57.0908
X323.7504 Y57.14
X323.7569 Y57.1892
X323.7759 Y57.2351
X323.8062 Y57.2745
X323.8456 Y57.3047
X323.8916 Y57.3236
X323.9408 Y57.33
X323.99 Y57.3234
X324.0359 Y57.3043
X324.0752 Y57.2739
X324.1119 Y57.2451
X324.1546 Y57.2261
X324.2006 Y57.218
X324.2471 Y57.2215
X324.2915 Y57.2362
X324.3309 Y57.2612
G3 X322.9041 Y58.2536 I-0.5742 J0.6963
G1 X322.9019 Y58.2473 Z-5.0001 F1200
G3 X322.9653 Y58.3913 Z-5.1926 I0.8547 J-0.2898
X323.0526 Y58.5221 Z-5.385 I0.7914 J-0.4338
X323.1614 Y58.6358 Z-5.5774 I0.704 J-0.5646
X323.2882 Y58.7289 Z-5.7699 I0.5953 J-0.6783
X323.4293 Y58.7985 Z-5.9623 I0.4685 J-0.7714
X322.8542 Y57.9641 Z-5.9999 I0.3274 J-0.841
G1 Y57.9575 Z-6
Y57.8575 F3200
G3 X323.7617 Y56.95 I0.9075
G1 X325.0482
X325.05 Y56.9513
Y58.4888
X325.0435 Y58.538
X325.0246 Y58.5838
X324.9944 Y58.6232
X324.955 Y58.6534
X324.9092 Y58.6724
X324.86 Y58.6788
X324.8064 Y58.6865
X324.7571 Y58.7091
X324.7162 Y58.7446
X324.687 Y58.7903
X324.6719 Y58.8423
X324.672 Y58.8965
X324.6875 Y58.9484
X324.7169 Y58.9938
X324.758 Y59.0291
X324.8074 Y59.0514
X324.8529 Y59.0713
X324.8917 Y59.1022
X324.9212 Y59.1422
X324.9393 Y59.1884
X324.9448 Y59.2377
G3 X323.7465 Y58.3675 I-0.9023 J-0.0176
G1 X323.7527 Y58.3654 Z-6.0001 F1200
G3 X323.6087 Y58.4287 Z-6.1926 I0.2898 J0.8547
X323.4779 Y58.516 Z-6.385 I0.4338 J0.7914
X323.3642 Y58.6248 Z-6.5774 I0.5646 J0.704
X323.2711 Y58.7516 Z-6.7699 I0.6783 J0.5953
X323.2015 Y58.8927 Z-6.9623 I0.7714 J0.4685
X324.0359 Y58.3176 Z-6.9999 I0.841 J0.3274
G1 X324.0425 Z-7
X324.1425 F3200
G3 X325.05 Y59.2251 J0.9075
G1 Y60.6047
X325.0427 Y60.657
X325.0211 Y60.7054
X324.9871 Y60.7459
X324.9433 Y60.7754
X324.893 Y60.7918
X324.8401 Y60.7936
X323.2363 Y60.6244
X323.1874 Y60.6193 Z-6.9935
X323.1418 Y60.6145 Z-6.9745
X323.1027 Y60.6103 Z-6.9443
X323.0727 Y60.6072 Z-6.905
X323.0538 Y60.6052 Z-6.8592
X323.0474 Y60.6045 Z-6.81
G0 Z5
X323.2829 Y64.02
Z1.7144
G1 Z-3.7601 F3200
X323.283 Y64.0181 Z-3.7866
X323.2835 Y64.0126 Z-3.8125
X323.2843 Y64.0036 Z-3.8374
X323.2857 Y63.9913 Z-3.8608
X323.2876 Y63.9758 Z-3.8822
X323.2903 Y63.9576 Z-3.9013
X323.2939 Y63.937 Z-3.9176
X323.2985 Y63.9145 Z-3.9309
X323.3041 Y63.8906 Z-3.9408
X323.3109 Y63.8658 Z-3.9472
X323.3186 Y63.8406 Z-3.95
G3 X323.2882 Y63.9717 Z-4.1147 I0.7339 J0.2394
X323.281 Y64.106 Z-4.2793 I0.7643 J0.1083
X323.2972 Y64.2396 Z-4.444 I0.7715 J-0.026
X323.3364 Y64.3683 Z-4.6087 I0.7553 J-0.1596
X323.3974 Y64.4883 Z-4.7734 I0.7161 J-0.2884
X323.4782 Y64.5959 Z-4.938 I0.6551 J-0.4083
X324.0459 Y63.308 Z-4.9999 I0.5743 J-0.5159
G1 X324.0525 Z-5
X324.86
X324.9092 Y63.3145
X324.955 Y63.3335
X324.9944 Y63.3637
X325.0246 Y63.403
X325.0435 Y63.4488
X325.05 Y63.498
Y65.0486
X325.0482 Y65.05
X323.7668
X323.5604
X320.0974
X319.4471
X313.5395
X313.4346
X304.8347
X301.9446
X300.6784
X300.1262
X293.8608
X293.2725
X291.7878
X290.6902
X287.6917
X285.1783
X282.8387
X282.0112
X280.3339
X279.7766 Y65.0436
X279.7697 Y65.0432
X279.6596 Y65.0355
X279.5495 Y65.0247
X279.4394 Y65.0108
X279.3293 Y64.994
X279.2191 Y64.9737
X279.1448 Y64.9585
X279.1091 Y64.9507
X278.999 Y64.9242
X278.8889 Y64.8943
X278.7787 Y64.8615
X278.7389 Y64.8484
X278.7038 Y64.8367
X278.6994 Y64.8352
X278.5362 Y64.776
X278.5035 Y64.7631
X278.4485 Y64.7407
X278.4427 Y64.7383
X278.3383 Y64.6931
X278.2283 Y64.6417
X278.2003 Y64.6282
X278.1182 Y64.5861
X278.0081 Y64.5259
X277.9941 Y64.5181
X277.8979 Y64.4617
X277.8123 Y64.408
X277.7878 Y64.3921
X277.6778 Y64.3178
X277.6493 Y64.2979
X277.5677 Y64.2381
X277.5023 Y64.1878
X277.4576 Y64.1521
X277.368 Y64.0777
X277.3474 Y64.0599
X277.2441 Y63.9676
X277.2374 Y63.9613
X277.13 Y63.8575
X277.1273 Y63.8548
X277.0248 Y63.7474
X277.0172 Y63.739
X276.9266 Y63.6374
X276.907 Y63.6142
X276.8354 Y63.5273
X276.7969 Y63.4785
X276.7506 Y63.4172
X276.6869 Y63.329
X276.6714 Y63.3071
X276.6586 Y63.2882
X276.5895 Y63.1846
X276.5869 Y63.1805
X276.5768 Y63.1641
X276.5295 Y63.0869
X276.4666 Y62.9791
X276.4653 Y62.9768
X276.4059 Y62.8667
X276.3565 Y62.7686
X276.3507 Y62.7566
X276.3001 Y62.6465
X276.2524 Y62.5364
X276.2465 Y62.521
X276.2102 Y62.4263
X276.1698 Y62.3162
X276.1364 Y62.2136
X276.1341 Y62.2062
X276.1013 Y62.0961
X276.0723 Y61.986
X276.046 Y61.8759
X276.0262 Y61.7795
X276.0236 Y61.7658
X276.0039 Y61.6557
X275.9872 Y61.5456
X275.9735 Y61.4355
X275.9632 Y61.3254
X275.9557 Y61.2153
X275.9513 Y61.1052
X275.95 Y60.9951
X275.9515 Y60.885
X275.9563 Y60.775
X275.964 Y60.6649
X275.9746 Y60.5548
X275.9886 Y60.4447
X276.0055 Y60.3346
X276.0255 Y60.2245
X276.0262 Y60.2205
X276.0482 Y60.1144
X276.0611 Y60.0594
X276.0747 Y60.0043
X276.0818 Y59.9768
X276.089 Y59.9493
X276.1042 Y59.8942
X276.1364 Y59.7865
X276.1371 Y59.7841
X276.1733 Y59.674
X276.2138 Y59.5639
X276.2465 Y59.479
X276.2565 Y59.4538
X276.3045 Y59.3438
X276.3555 Y59.2337
X276.3565 Y59.2314
X276.4109 Y59.1236
X276.4666 Y59.0209
X276.4708 Y59.0135
X276.5354 Y58.9034
X276.5768 Y58.836
X276.5858 Y58.8213
X276.617 Y58.7828
X276.6572 Y58.7537
X276.7035 Y58.736
X276.7529 Y58.7309
X276.8018 Y58.7387
X276.8471 Y58.7589
X276.8928 Y58.7793
X276.9422 Y58.787
X276.992 Y58.7815
X277.0385 Y58.7633
X277.0788 Y58.7336
X277.1098 Y58.6944
X277.1295 Y58.6484
X277.1366 Y58.5989
X277.1439 Y58.5484
X277.1644 Y58.5018
X277.1965 Y58.4622
X277.238 Y58.4326
X277.2859 Y58.4151
G3 X277.2449 Y60.1682 I0.1934 J0.8815
G1 X277.2385 Y60.1665 Z-5.0001 F1200
G3 X277.3932 Y60.1951 Z-5.1926 I0.2408 J-0.8698
X277.5505 Y60.1964 Z-5.385 I0.0861 J-0.8984
X277.7057 Y60.1703 Z-5.5774 I-0.0712 J-0.8997
X277.8539 Y60.1177 Z-5.7699 I-0.2264 J-0.8737
X277.9908 Y60.0402 Z-5.9623 I-0.3746 J-0.8211
X276.9775 Y60.0468 Z-5.9999 I-0.5115 J-0.7435
G1 X276.972 Y60.0431 Z-6
X276.8893 Y59.9869 F3200
G3 X276.6488 Y58.7262 I0.5101 J-0.7506
G1 X276.6593 Y58.7107
X276.6781 Y58.6832
X276.6869 Y58.671
X276.7578 Y58.5731
X276.7969 Y58.5215
X276.8433 Y58.463
X276.907 Y58.3858
X276.9351 Y58.3529
X277.0172 Y58.2611
X277.0337 Y58.2428
X277.1273 Y58.1453
X277.1396 Y58.1327
X277.2374 Y58.0387
X277.2543 Y58.0227
X277.3474 Y57.9401
X277.3792 Y57.9126
X277.4576 Y57.8479
X277.5148 Y57.8025
X277.5677 Y57.762
X277.6632 Y57.6924
X277.6778 Y57.6822
X277.7878 Y57.6079
X277.8272 Y57.5823
X277.8979 Y57.5383
X278.0081 Y57.4741
X278.0114 Y57.4722
X278.1182 Y57.414
X278.2204 Y57.3621
X278.2283 Y57.3583
X278.3383 Y57.3069
X278.4485 Y57.2593
X278.466 Y57.252
X278.5586 Y57.2153
X278.6687 Y57.1754
X278.7685 Y57.1419
X278.7787 Y57.1385
X278.8889 Y57.1057
X278.999 Y57.0758
X279.1091 Y57.0493
X279.1909 Y57.0318
X279.2191 Y57.0263
X279.3293 Y57.006
X279.4394 Y56.9892
X279.5495 Y56.9753
X279.6596 Y56.9645
X279.7697 Y56.9568
X279.8006 Y56.9551
X280.1481 Y56.95
X323.5604
X323.6096 Y56.9565
X323.6554 Y56.9755
X323.6947 Y57.0056
X323.7249 Y57.045
X323.7439 Y57.0908
X323.7504 Y57.14
X323.7569 Y57.1892
X323.7759 Y57.2351
X323.8062 Y57.2745
X323.8456 Y57.3047
X323.8916 Y57.3236
X323.9408 Y57.33
X323.99 Y57.3234
X324.0359 Y57.3043
X324.0752 Y57.2739
X324.1119 Y57.2451
X324.1546 Y57.2261
X324.2006 Y57.218
X324.2471 Y57.2215
X324.2915 Y57.2362
X324.3309 Y57.2612
G3 X322.9041 Y58.2536 I-0.5742 J0.6963
G1 X322.9019 Y58.2473 Z-6.0001 F1200
G3 X322.9653 Y58.3913 Z-6.1926 I0.8547 J-0.2898
X323.0526 Y58.5221 Z-6.385 I0.7914 J-0.4338
X323.1614 Y58.6358 Z-6.5774 I0.704 J-0.5646
X323.2882 Y58.7289 Z-6.7699 I0.5953 J-0.6783
X323.4293 Y58.7985 Z-6.9623 I0.4685 J-0.7714
X322.8542 Y57.9641 Z-6.9999 I0.3274 J-0.841
G1 Y57.9575 Z-7
Y57.8575 F3200
G3 X323.7617 Y56.95 I0.9075
G1 X325.0482
X325.05 Y56.9513
Y58.4888
X325.0435 Y58.538
X325.0246 Y58.5838
X324.9944 Y58.6232
X324.955 Y58.6534
X324.9092 Y58.6724
X324.86 Y58.6788
X324.8064 Y58.6865
X324.7571 Y58.7091
X324.7162 Y58.7446
X324.687 Y58.7903
X324.6719 Y58.8423
X324.672 Y58.8965
X324.6875 Y58.9484
X324.7169 Y58.9938
X324.758 Y59.0291
X324.8074 Y59.0514
X324.8529 Y59.0713
X324.8917 Y59.1022
X324.9212 Y59.1422
X324.9393 Y59.1884
X324.9448 Y59.2377
G3 X323.7465 Y58.3675 I-0.9023 J-0.0176
G1 X323.7527 Y58.3654 Z-7.0001 F1200
G3 X323.6087 Y58.4287 Z-7.1926 I0.2898 J0.8547
X323.4779 Y58.516 Z-7.385 I0.4338 J0.7914
X323.3642 Y58.6248 Z-7.5774 I0.5646 J0.704
X323.2711 Y58.7516 Z-7.7699 I0.6783 J0.5953
X323.2015 Y58.8927 Z-7.9623 I0.7714 J0.4685
X324.0359 Y58.3176 Z-7.9999 I0.841 J0.3274
G1 X324.0425 Z-8
X324.1425 F3200
G3 X325.05 Y59.2251 J0.9075
G1 Y60.6047
X325.0427 Y60.657
X325.0211 Y60.7054
X324.9871 Y60.7459
X324.9433 Y60.7754
X324.893 Y60.7918
X324.8401 Y60.7936
X323.2363 Y60.6244
X323.1874 Y60.6193 Z-7.9935
X323.1418 Y60.6145 Z-7.9745
X323.1027 Y60.6103 Z-7.9443
X323.0727 Y60.6072 Z-7.905
X323.0538 Y60.6052 Z-7.8592
X323.0474 Y60.6045 Z-7.81
G0 Z5
X323.2829 Y64.02
Z1.7144
G1 Z-4.7601 F3200
X323.283 Y64.0181 Z-4.7866
X323.2835 Y64.0126 Z-4.8125
X323.2843 Y64.0036 Z-4.8374
X323.2857 Y63.9913 Z-4.8608
X323.2876 Y63.9758 Z-4.8822
X323.2903 Y63.9576 Z-4.9013
X323.2939 Y63.937 Z-4.9176
X323.2985 Y63.9145 Z-4.9309
X323.3041 Y63.8906 Z-4.9408
X323.3109 Y63.8658 Z-4.9472
X323.3186 Y63.8406 Z-4.95
G3 X323.2882 Y63.9717 Z-5.1147 I0.7339 J0.2394
X323.281 Y64.106 Z-5.2793 I0.7643 J0.1083
X323.2972 Y64.2396 Z-5.444 I0.7715 J-0.026
X323.3364 Y64.3683 Z-5.6087 I0.7553 J-0.1596
X323.3974 Y64.4883 Z-5.7734 I0.7161 J-0.2884
X323.4782 Y64.5959 Z-5.938 I0.6551 J-0.4083
X324.0459 Y63.308 Z-5.9999 I0.5743 J-0.5159
G1 X324.0525 Z-6
X324.86
X324.9092 Y63.3145
X324.955 Y63.3335
X324.9944 Y63.3637
X325.0246 Y63.403
X325.0435 Y63.4488
X325.05 Y63.498
Y65.0486
X325.0482 Y65.05
X323.7668
X323.5604
X320.0974
X319.4471
X313.5395
X313.4346
X304.7315
X302.8667
X300.6784
X300.1262
X293.8608
X293.2759
X291.7878
X290.6902
X287.6178
X285.2024
X282.8387
X282.0112
X280.3339
X279.7766 Y65.0436
X279.7697 Y65.0432
X279.6596 Y65.0355
X279.5495 Y65.0247
X279.4394 Y65.0108
X279.3293 Y64.994
X279.2191 Y64.9737
X279.1448 Y64.9585
X279.1091 Y64.9507
X278.999 Y64.9242
X278.8889 Y64.8943
X278.7787 Y64.8615
X278.7389 Y64.8484
X278.7038 Y64.8367
X278.6994 Y64.8352
X278.5362 Y64.776
X278.5035 Y64.7631
X278.4485 Y64.7407
X278.4427 Y64.7383
X278.3383 Y64.6931
X278.2283 Y64.6417
X278.2003 Y64.6282
X278.1182 Y64.5861
X278.0081 Y64.5259
X277.9941 Y64.5181
X277.8979 Y64.4617
X277.8123 Y64.408
X277.7878 Y64.3921
X277.6778 Y64.3178
X277.6493 Y64.2979
X277.5677 Y64.2381
X277.5023 Y64.1878
X277.4576 Y64.1521
X277.368 Y64.0777
X277.3474 Y64.0599
X277.2441 Y63.9676
X277.2374 Y63.9613
X277.13 Y63.8575
X277.1273 Y63.8548
X277.0248 Y63.7474
X277.0172 Y63.739
X276.9266 Y63.6374
X276.907 Y63.6142
X276.8354 Y63.5273
X276.7969 Y63.4785
X276.7506 Y63.4172
X276.6869 Y63.329
X276.6714 Y63.3071
X276.6586 Y63.2882
X276.5895 Y63.1846
X276.5869 Y63.1805
X276.5768 Y63.1641
X276.5295 Y63.0869
X276.4666 Y62.9791
X276.4653 Y62.9768
X276.4059 Y62.8667
X276.3565 Y62.7686
X276.3507 Y62.7566
X276.3001 Y62.6465
X276.2524 Y62.5364
X276.2465 Y62.521
X276.2102 Y62.4263
X276.1698 Y62.3162
X276.1364 Y62.2136
X276.1341 Y62.2062
X276.1013 Y62.0961
X276.0723 Y61.986
X276.046 Y61.8759
X276.0262 Y61.7795
X276.0236 Y61.7658
X276.0039 Y61.6557
X275.9872 Y61.5456
X275.9735 Y61.4355
X275.9632 Y61.3254
X275.9557 Y61.2153
X275.9513 Y61.1052
X275.95 Y60.9951
X275.9515 Y60.885
X275.9563 Y60.775
X275.964 Y60.6649
X275.9746 Y60.5548
X275.9886 Y60.4447
X276.0055 Y60.3346
X276.0255 Y60.2245
X276.0262 Y60.2205
X276.0482 Y60.1144
X276.0611 Y60.0594
X276.0747 Y60.0043
X276.0818 Y59.9768
X276.089 Y59.9493
X276.1042 Y59.8942
X276.1364 Y59.7865
X276.1371 Y59.7841
X276.1733 Y59.674
X276.2138 Y59.5639
X276.2465 Y59.479
X276.2565 Y59.4538
X276.3045 Y59.3438
X276.3555 Y59.2337
X276.3565 Y59.2314
X276.4109 Y59.1236
X276.4666 Y59.0209
X276.4708 Y59.0135
X276.5354 Y58.9034
X276.5768 Y58.836
X276.5858 Y58.8213
X276.617 Y58.7828
X276.6572 Y58.7537
X276.7035 Y58.736
X276.7529 Y58.7309
X276.8018 Y58.7387
X276.8471 Y58.7589
X276.8928 Y58.7793
X276.9422 Y58.787
X276.992 Y58.7815
X277.0385 Y58.7633
X277.0788 Y58.7336
X277.1098 Y58.6944
X277.1295 Y58.6484
X277.1366 Y58.5989
X277.1439 Y58.5484
X277.1644 Y58.5018
X277.1965 Y58.4622
X277.238 Y58.4326
X277.2859 Y58.4151
G3 X277.2449 Y60.1682 I0.1934 J0.8815
G1 X277.2385 Y60.1665 Z-6.0001 F1200
G3 X277.3932 Y60.1951 Z-6.1926 I0.2408 J-0.8698
X277.5505 Y60.1964 Z-6.385 I0.0861 J-0.8984
X277.7057 Y60.1703 Z-6.5774 I-0.0712 J-0.8997
X277.8539 Y60.1177 Z-6.7699 I-0.2264 J-0.8737
X277.9908 Y60.0402 Z-6.9623 I-0.3746 J-0.8211
X276.9775 Y60.0468 Z-6.9999 I-0.5115 J-0.7435
G1 X276.972 Y60.0431 Z-7
X276.8893 Y59.9869 F3200
G3 X276.6488 Y58.7262 I0.5101 J-0.7506
G1 X276.6593 Y58.7107
X276.6781 Y58.6832
X276.6869 Y58.671
X276.7578 Y58.5731
X276.7969 Y58.5215
X276.8433 Y58.463
X276.907 Y58.3858
X276.9351 Y58.3529
X277.0172 Y58.2611
X277.0337 Y58.2428
X277.1273 Y58.1453
X277.1396 Y58.1327
X277.2374 Y58.0387
X277.2543 Y58.0227
X277.3474 Y57.9401
X277.3792 Y57.9126
X277.4576 Y57.8479
X277.5148 Y57.8025
X277.5677 Y57.762
X277.6632 Y57.6924
X277.6778 Y57.6822
X277.7878 Y57.6079
X277.8272 Y57.5823
X277.8979 Y57.5383
X278.0081 Y57.4741
X278.0114 Y57.4722
X278.1182 Y57.414
X278.2204 Y57.3621
X278.2283 Y57.3583
X278.3383 Y57.3069
X278.4485 Y57.2593
X278.466 Y57.252
X278.5586 Y57.2153
X278.6687 Y57.1754
X278.7685 Y57.1419
X278.7787 Y57.1385
X278.8889 Y57.1057
X278.999 Y57.0758
X279.1091 Y57.0493
X279.1909 Y57.0318
X279.2191 Y57.0263
X279.3293 Y57.006
X279.4394 Y56.9892
X279.5495 Y56.9753
X279.6596 Y56.9645
X279.7697 Y56.9568
X279.8006 Y56.9551
X280.1481 Y56.95
X323.5604
X323.6096 Y56.9565
X323.6554 Y56.9755
X323.6947 Y57.0056
X323.7249 Y57.045
X323.7439 Y57.0908
X323.7504 Y57.14
X323.7569 Y57.1892
X323.7759 Y57.2351
X323.8062 Y57.2745
X323.8456 Y57.3047
X323.8916 Y57.3236
X323.9408 Y57.33
X323.99 Y57.3234
X324.0359 Y57.3043
X324.0752 Y57.2739
X324.1119 Y57.2451
X324.1546 Y57.2261
X324.2006 Y57.218
X324.2471 Y57.2215
X324.2915 Y57.2362
X324.3309 Y57.2612
G3 X322.9041 Y58.2536 I-0.5742 J0.6963
G1 X322.9019 Y58.2473 Z-7.0001 F1200
G3 X322.9653 Y58.3913 Z-7.1926 I0.8547 J-0.2898
X323.0526 Y58.5221 Z-7.385 I0.7914 J-0.4338
X323.1614 Y58.6358 Z-7.5774 I0.704 J-0.5646
X323.2882 Y58.7289 Z-7.7699 I0.5953 J-0.6783
X323.4293 Y58.7985 Z-7.9623 I0.4685 J-0.7714
X322.8542 Y57.9641 Z-7.9999 I0.3274 J-0.841
G1 Y57.9575 Z-8
Y57.8575 F3200
G3 X323.7617 Y56.95 I0.9075
G1 X325.0482
X325.05 Y56.9513
Y58.4888
X325.0435 Y58.538
X325.0246 Y58.5838
X324.9944 Y58.6232
X324.955 Y58.6534
X324.9092 Y58.6724
X324.86 Y58.6788
X324.8064 Y58.6865
X324.7571 Y58.7091
X324.7162 Y58.7446
X324.687 Y58.7903
X324.6719 Y58.8423
X324.672 Y58.8965
X324.6875 Y58.9484
X324.7169 Y58.9938
X324.758 Y59.0291
X324.8074 Y59.0514
X324.8529 Y59.0713
X324.8917 Y59.1022
X324.9212 Y59.1422
X324.9393 Y59.1884
X324.9448 Y59.2377
G3 X323.7465 Y58.3675 I-0.9023 J-0.0176
G1 X323.7527 Y58.3654 Z-8.0001 F1200
G3 X323.6087 Y58.4287 Z-8.1926 I0.2898 J0.8547
X323.4779 Y58.516 Z-8.385 I0.4338 J0.7914
X323.3642 Y58.6248 Z-8.5774 I0.5646 J0.704
X323.2711 Y58.7516 Z-8.7699 I0.6783 J0.5953
X323.2015 Y58.8927 Z-8.9623 I0.7714 J0.4685
X324.0359 Y58.3176 Z-8.9999 I0.841 J0.3274
G1 X324.0425 Z-9
X324.1425 F3200
G3 X325.05 Y59.2251 J0.9075
G1 Y60.6047
X325.0427 Y60.657
X325.0211 Y60.7054
X324.9871 Y60.7459
X324.9433 Y60.7754
X324.893 Y60.7918
X324.8401 Y60.7936
X323.2363 Y60.6244
X323.1874 Y60.6193 Z-8.9935
X323.1418 Y60.6145 Z-8.9745
X323.1027 Y60.6103 Z-8.9443
X323.0727 Y60.6072 Z-8.905
X323.0538 Y60.6052 Z-8.8592
X323.0474 Y60.6045 Z-8.81
G0 Z5
X323.2829 Y64.02
Z1.7144
G1 Z-5.7601 F3200
X323.283 Y64.0181 Z-5.7866
X323.2835 Y64.0126 Z-5.8125
X323.2843 Y64.0036 Z-5.8374
X323.2857 Y63.9913 Z-5.8608
X323.2876 Y63.9758 Z-5.8822
X323.2903 Y63.9576 Z-5.9013
X323.2939 Y63.937 Z-5.9176
X323.2985 Y63.9145 Z-5.9309
X323.3041 Y63.8906 Z-5.9408
X323.3109 Y63.8658 Z-5.9472
X323.3186 Y63.8406 Z-5.95
G3 X323.2882 Y63.9717 Z-6.1147 I0.7339 J0.2394
X323.281 Y64.106 Z-6.2793 I0.7643 J0.1083
X323.2972 Y64.2396 Z-6.444 I0.7715 J-0.026
X323.3364 Y64.3683 Z-6.6087 I0.7553 J-0.1596
X323.3974 Y64.4883 Z-6.7734 I0.7161 J-0.2884
X323.4782 Y64.5959 Z-6.938 I0.6551 J-0.4083
X324.0459 Y63.308 Z-6.9999 I0.5743 J-0.5159
G1 X324.0525 Z-7
X324.86
X324.9092 Y63.3145
X324.955 Y63.3335
X324.9944 Y63.3637
X325.0246 Y63.403
X325.0435 Y63.4488
X325.05 Y63.498
Y65.0486
X325.0482 Y65.05
X323.7668
X323.5604
X320.0974
X319.4471
X313.5395
X313.4346
X304.6283
X302.8667
X300.6784
X300.1262
X293.8608
X293.2793
X291.7878
X290.6902
X287.5438
X285.2265
X282.8387
X282.0112
X280.3339
X279.7766 Y65.0436
X279.7697 Y65.0432
X279.6596 Y65.0355
X279.5495 Y65.0247
X279.4394 Y65.0108
X279.3293 Y64.994
X279.2191 Y64.9737
X279.1448 Y64.9585
X279.1091 Y64.9507
X278.999 Y64.9242
X278.8889 Y64.8943
X278.7787 Y64.8615
X278.7389 Y64.8484
X278.7038 Y64.8367
X278.6994 Y64.8352
X278.5362 Y64.776
X278.5035 Y64.7631
X278.4485 Y64.7407
X278.4427 Y64.7383
X278.3383 Y64.6931
X278.2283 Y64.6417
X278.2003 Y64.6282
X278.1182 Y64.5861
X278.0081 Y64.5259
X277.9941 Y64.5181
X277.8979 Y64.4617
X277.8123 Y64.408
X277.7878 Y64.3921
X277.6778 Y64.3178
X277.6493 Y64.2979
X277.5677 Y64.2381
X277.5023 Y64.1878
X277.4576 Y64.1521
X277.368 Y64.0777
X277.3474 Y64.0599
X277.2441 Y63.9676
X277.2374 Y63.9613
X277.13 Y63.8575
X277.1273 Y63.8548
X277.0248 Y63.7474
X277.0172 Y63.739
X276.9266 Y63.6374
X276.907 Y63.6142
X276.8354 Y63.5273
X276.7969 Y63.4785
X276.7506 Y63.4172
X276.6869 Y63.329
X276.6714 Y63.3071
X276.6586 Y63.2882
X276.5895 Y63.1846
X276.5869 Y63.1805
X276.5768 Y63.1641
X276.5295 Y63.0869
X276.4666 Y62.9791
X276.4653 Y62.9768
X276.4059 Y62.8667
X276.3565 Y62.7686
X276.3507 Y62.7566
X276.3001 Y62.6465
X276.2524 Y62.5364
X276.2465 Y62.521
X276.2102 Y62.4263
X276.1698 Y62.3162
X276.1364 Y62.2136
X276.1341 Y62.2062
X276.1013 Y62.0961
X276.0723 Y61.986
X276.046 Y61.8759
X276.0262 Y61.7795
X276.0236 Y61.7658
X276.0039 Y61.6557
X275.9872 Y61.5456
X275.9735 Y61.4355
X275.9632 Y61.3254
X275.9557 Y61.2153
X275.9513 Y61.1052
X275.95 Y60.9951
X275.9515 Y60.885
X275.9563 Y60.775
X275.964 Y60.6649
X275.9746 Y60.5548
X275.9886 Y60.4447
X276.0055 Y60.3346
X276.0255 Y60.2245
X276.0262 Y60.2205
X276.0482 Y60.1144
X276.0611 Y60.0594
X276.0747 Y60.0043
X276.0818 Y59.9768
X276.089 Y59.9493
X276.1042 Y59.8942
X276.1364 Y59.7865
X276.1371 Y59.7841
X276.1733 Y59.674
X276.2138 Y59.5639
X276.2465 Y59.479
X276.2565 Y59.4538
X276.3045 Y59.3438
X276.3555 Y59.2337
X276.3565 Y59.2314
X276.4109 Y59.1236
X276.4666 Y59.0209
X276.4708 Y59.0135
X276.5354 Y58.9034
X276.5768 Y58.836
X276.5858 Y58.8213
X276.617 Y58.7828
X276.6572 Y58.7537
X276.7035 Y58.736
X276.7529 Y58.7309
X276.8018 Y58.7387
X276.8471 Y58.7589
X276.8928 Y58.7793
X276.9422 Y58.787
X276.992 Y58.7815
X277.0385 Y58.7633
X277.0788 Y58.7336
X277.1098 Y58.6944
X277.1295 Y58.6484
X277.1366 Y58.5989
X277.1439 Y58.5484
X277.1644 Y58.5018
X277.1965 Y58.4622
X277.238 Y58.4326
X277.2859 Y58.4151
G3 X277.2449 Y60.1682 I0.1934 J0.8815
G1 X277.2385 Y60.1665 Z-7.0001 F1200
G3 X277.3932 Y60.1951 Z-7.1926 I0.2408 J-0.8698
X277.5505 Y60.1964 Z-7.385 I0.0861 J-0.8984
X277.7057 Y60.1703 Z-7.5774 I-0.0712 J-0.8997
X277.8539 Y60.1177 Z-7.7699 I-0.2264 J-0.8737
X277.9908 Y60.0402 Z-7.9623 I-0.3746 J-0.8211
X276.9775 Y60.0468 Z-7.9999 I-0.5115 J-0.7435
G1 X276.972 Y60.0431 Z-8
X276.8893 Y59.9869 F3200
G3 X276.6488 Y58.7262 I0.5101 J-0.7506
G1 X276.6593 Y58.7107
X276.6781 Y58.6832
X276.6869 Y58.671
X276.7578 Y58.5731
X276.7969 Y58.5215
X276.8433 Y58.463
X276.907 Y58.3858
X276.9351 Y58.3529
X277.0172 Y58.2611
X277.0337 Y58.2428
X277.1273 Y58.1453
X277.1396 Y58.1327
X277.2374 Y58.0387
X277.2543 Y58.0227
X277.3474 Y57.9401
X277.3792 Y57.9126
X277.4576 Y57.8479
X277.5148 Y57.8025
X277.5677 Y57.762
X277.6632 Y57.6924
X277.6778 Y57.6822
X277.7878 Y57.6079
X277.8272 Y57.5823
X277.8979 Y57.5383
X278.0081 Y57.4741
X278.0114 Y57.4722
X278.1182 Y57.414
X278.2204 Y57.3621
X278.2283 Y57.3583
X278.3383 Y57.3069
X278.4485 Y57.2593
X278.466 Y57.252
X278.5586 Y57.2153
X278.6687 Y57.1754
X278.7685 Y57.1419
X278.7787 Y57.1385
X278.8889 Y57.1057
X278.999 Y57.0758
X279.1091 Y57.0493
X279.1909 Y57.0318
X279.2191 Y57.0263
X279.3293 Y57.006
X279.4394 Y56.9892
X279.5495 Y56.9753
X279.6596 Y56.9645
X279.7697 Y56.9568
X279.8006 Y56.9551
X280.1481 Y56.95
X323.5604
X323.6096 Y56.9565
X323.6554 Y56.9755
X323.6947 Y57.0056
X323.7249 Y57.045
X323.7439 Y57.0908
X323.7504 Y57.14
X323.7569 Y57.1892
X323.7759 Y57.2351
X323.8062 Y57.2745
X323.8456 Y57.3047
X323.8916 Y57.3236
X323.9408 Y57.33
X323.99 Y57.3234
X324.0359 Y57.3043
X324.0752 Y57.2739
X324.1119 Y57.2451
X324.1546 Y57.2261
X324.2006 Y57.218
X324.2471 Y57.2215
X324.2915 Y57.2362
X324.3309 Y57.2612
G3 X322.9041 Y58.2536 I-0.5742 J0.6963
G1 X322.9019 Y58.2473 Z-8.0001 F1200
G3 X322.9653 Y58.3913 Z-8.1926 I0.8547 J-0.2898
X323.0526 Y58.5221 Z-8.385 I0.7914 J-0.4338
X323.1614 Y58.6358 Z-8.5774 I0.704 J-0.5646
X323.2882 Y58.7289 Z-8.7699 I0.5953 J-0.6783
X323.4293 Y58.7985 Z-8.9623 I0.4685 J-0.7714
X322.8542 Y57.9641 Z-8.9999 I0.3274 J-0.841
G1 Y57.9575 Z-9
Y57.8575 F3200
G3 X323.7617 Y56.95 I0.9075
G1 X325.0482
X325.05 Y56.9513
Y58.4888
X325.0435 Y58.538
X325.0246 Y58.5838
X324.9944 Y58.6232
X324.955 Y58.6534
X324.9092 Y58.6724
X324.86 Y58.6788
X324.8064 Y58.6865
X324.7571 Y58.7091
X324.7162 Y58.7446
X324.687 Y58.7903
X324.6719 Y58.8423
X324.672 Y58.8965
X324.6875 Y58.9484
X324.7169 Y58.9938
X324.758 Y59.0291
X324.8074 Y59.0514
X324.8529 Y59.0713
X324.8917 Y59.1022
X324.9212 Y59.1422
X324.9393 Y59.1884
X324.9448 Y59.2377
G3 X323.7465 Y58.3675 I-0.9023 J-0.0176
G1 X323.7527 Y58.3654 Z-9.0001 F1200
G3 X323.6087 Y58.4287 Z-9.1926 I0.2898 J0.8547
X323.4779 Y58.516 Z-9.385 I0.4338 J0.7914
X323.3642 Y58.6248 Z-9.5774 I0.5646 J0.704
X323.2711 Y58.7516 Z-9.7699 I0.6783 J0.5953
X323.2015 Y58.8927 Z-9.9623 I0.7714 J0.4685
X324.0359 Y58.3176 Z-9.9999 I0.841 J0.3274
G1 X324.0425 Z-10
X324.1425 F3200
G3 X325.05 Y59.2251 J0.9075
G1 Y60.6047
X325.0427 Y60.657
X325.0211 Y60.7054
X324.9871 Y60.7459
X324.9433 Y60.7754
X324.893 Y60.7918
X324.8401 Y60.7936
X323.2363 Y60.6244
X323.1874 Y60.6193 Z-9.9935
X323.1418 Y60.6145 Z-9.9745
X323.1027 Y60.6103 Z-9.9443
X323.0727 Y60.6072 Z-9.905
X323.0538 Y60.6052 Z-9.8592
X323.0474 Y60.6045 Z-9.81
G0 Z5
X323.2829 Y64.02
Z1.7144
G1 Z-6.7601 F3200
X323.283 Y64.0181 Z-6.7866
X323.2835 Y64.0126 Z-6.8125
X323.2843 Y64.0036 Z-6.8374
X323.2857 Y63.9913 Z-6.8608
X323.2876 Y63.9758 Z-6.8822
X323.2903 Y63.9576 Z-6.9013
X323.2939 Y63.937 Z-6.9176
X323.2985 Y63.9145 Z-6.9309
X323.3041 Y63.8906 Z-6.9408
X323.3109 Y63.8658 Z-6.9472
X323.3186 Y63.8406 Z-6.95
G3 X323.2882 Y63.9717 Z-7.1147 I0.7339 J0.2394
X323.281 Y64.106 Z-7.2793 I0.7643 J0.1083
X323.2972 Y64.2396 Z-7.444 I0.7715 J-0.026
X323.3364 Y64.3683 Z-7.6087 I0.7553 J-0.1596
X323.3974 Y64.4883 Z-7.7734 I0.7161 J-0.2884
X323.4782 Y64.5959 Z-7.938 I0.6551 J-0.4083
X324.0459 Y63.308 Z-7.9999 I0.5743 J-0.5159
G1 X324.0525 Z-8
X324.86
X324.9092 Y63.3145
X324.955 Y63.3335
X324.9944 Y63.3637
X325.0246 Y63.403
X325.0435 Y63.4488
X325.05 Y63.498
Y65.0486
X325.0482 Y65.05
X323.7668
X323.5604
X320.0974
X319.4471
X313.5395
X313.4346
X304.5233
X302.8667
X300.6784
X300.1262
X293.8608
X293.2845
X291.7878
X290.6902
X287.4715
X285.2506
X282.8387
X282.0112
X280.3339
X279.7766 Y65.0436
X279.7697 Y65.0432
X279.6596 Y65.0355
X279.5495 Y65.0247
X279.4394 Y65.0108
X279.3293 Y64.994
X279.2191 Y64.9737
X279.1448 Y64.9585
X279.1091 Y64.9507
X278.999 Y64.9242
X278.8889 Y64.8943
X278.7787 Y64.8615
X278.7389 Y64.8484
X278.7038 Y64.8367
X278.6994 Y64.8352
X278.5362 Y64.776
X278.5035 Y64.7631
X278.4485 Y64.7407
X278.4427 Y64.7383
X278.3383 Y64.6931
X278.2283 Y64.6417
X278.2003 Y64.6282
X278.1182 Y64.5861
X278.0081 Y64.5259
X277.9941 Y64.5181
X277.8979 Y64.4617
X277.8123 Y64.408
X277.7878 Y64.3921
X277.6778 Y64.3178
X277.6493 Y64.2979
X277.5677 Y64.2381
X277.5023 Y64.1878
X277.4576 Y64.1521
X277.368 Y64.0777
X277.3474 Y64.0599
X277.2441 Y63.9676
X277.2374 Y63.9613
X277.13 Y63.8575
X277.1273 Y63.8548
X277.0248 Y63.7474
X277.0172 Y63.739
X276.9266 Y63.6374
X276.907 Y63.6142
X276.8354 Y63.5273
X276.7969 Y63.4785
X276.7506 Y63.4172
X276.6869 Y63.329
X276.6714 Y63.3071
X276.6586 Y63.2882
X276.5895 Y63.1846
X276.5869 Y63.1805
X276.5768 Y63.1641
X276.5295 Y63.0869
X276.4666 Y62.9791
X276.4653 Y62.9768
X276.4059 Y62.8667
X276.3565 Y62.7686
X276.3507 Y62.7566
X276.3001 Y62.6465
X276.2524 Y62.5364
X276.2465 Y62.521
X276.2102 Y62.4263
X276.1698 Y62.3162
X276.1364 Y62.2136
X276.1341 Y62.2062
X276.1013 Y62.0961
X276.0723 Y61.986
X276.046 Y61.8759
X276.0262 Y61.7795
X276.0236 Y61.7658
X276.0039 Y61.6557
X275.9872 Y61.5456
X275.9735 Y61.4355
X275.9632 Y61.3254
X275.9557 Y61.2153
X275.9513 Y61.1052
X275.95 Y60.9951
X275.9515 Y60.885
X275.9563 Y60.775
X275.964 Y60.6649
X275.9746 Y60.5548
X275.9886 Y60.4447
X276.0055 Y60.3346
X276.0255 Y60.2245
X276.0262 Y60.2205
X276.0482 Y60.1144
X276.0611 Y60.0594
X276.0747 Y60.0043
X276.0818 Y59.9768
X276.089 Y59.9493
X276.1042 Y59.8942
X276.1364 Y59.7865
X276.1371 Y59.7841
X276.1733 Y59.674
X276.2138 Y59.5639
X276.2465 Y59.479
X276.2565 Y59.4538
X276.3045 Y59.3438
X276.3555 Y59.2337
X276.3565 Y59.2314
X276.4109 Y59.1236
X276.4666 Y59.0209
X276.4708 Y59.0135
X276.5354 Y58.9034
X276.5768 Y58.836
X276.5858 Y58.8213
X276.617 Y58.7828
X276.6572 Y58.7537
X276.7035 Y58.736
X276.7529 Y58.7309
X276.8018 Y58.7387
X276.8471 Y58.7589
X276.8928 Y58.7793
X276.9422 Y58.787
X276.992 Y58.7815
X277.0385 Y58.7633
X277.0788 Y58.7336
X277.1098 Y58.6944
X277.1295 Y58.6484
X277.1366 Y58.5989
X277.1439 Y58.5484
X277.1644 Y58.5018
X277.1965 Y58.4622
X277.238 Y58.4326
X277.2859 Y58.4151
G3 X277.2449 Y60.1682 I0.1934 J0.8815
G1 X277.2385 Y60.1665 Z-8.0001 F1200
G3 X277.3932 Y60.1951 Z-8.1926 I0.2408 J-0.8698
X277.5505 Y60.1964 Z-8.385 I0.0861 J-0.8984
X277.7057 Y60.1703 Z-8.5774 I-0.0712 J-0.8997
X277.8539 Y60.1177 Z-8.7699 I-0.2264 J-0.8737
X277.9908 Y60.0402 Z-8.9623 I-0.3746 J-0.8211
X276.9775 Y60.0468 Z-8.9999 I-0.5115 J-0.7435
G1 X276.972 Y60.0431 Z-9
X276.8893 Y59.9869 F3200
G3 X276.6488 Y58.7262 I0.5101 J-0.7506
G1 X276.6593 Y58.7107
X276.6781 Y58.6832
X276.6869 Y58.671
X276.7578 Y58.5731
X276.7969 Y58.5215
X276.8433 Y58.463
X276.907 Y58.3858
X276.9351 Y58.3529
X277.0172 Y58.2611
X277.0337 Y58.2428
X277.1273 Y58.1453
X277.1396 Y58.1327
X277.2374 Y58.0387
X277.2543 Y58.0227
X277.3474 Y57.9401
X277.3792 Y57.9126
X277.4576 Y57.8479
X277.5148 Y57.8025
X277.5677 Y57.762
X277.6632 Y57.6924
X277.6778 Y57.6822
X277.7878 Y57.6079
X277.8272 Y57.5823
X277.8979 Y57.5383
X278.0081 Y57.4741
X278.0114 Y57.4722
X278.1182 Y57.414
X278.2204 Y57.3621
X278.2283 Y57.3583
X278.3383 Y57.3069
X278.4485 Y57.2593
X278.466 Y57.252
X278.5586 Y57.2153
X278.6687 Y57.1754
X278.7685 Y57.1419
X278.7787 Y57.1385
X278.8889 Y57.1057
X278.999 Y57.0758
X279.1091 Y57.0493
X279.1909 Y57.0318
X279.2191 Y57.0263
X279.3293 Y57.006
X279.4394 Y56.9892
X279.5495 Y56.9753
X279.6596 Y56.9645
X279.7697 Y56.9568
X279.8006 Y56.9551
X280.1481 Y56.95
X323.5604
X323.6096 Y56.9565
X323.6554 Y56.9755
X323.6947 Y57.0056
X323.7249 Y57.045
X323.7439 Y57.0908
X323.7504 Y57.14
X323.7569 Y57.1892
X323.7759 Y57.2351
X323.8062 Y57.2745
X323.8456 Y57.3047
X323.8916 Y57.3236
X323.9408 Y57.33
X323.99 Y57.3234
X324.0359 Y57.3043
X324.0752 Y57.2739
X324.1119 Y57.2451
X324.1546 Y57.2261
X324.2006 Y57.218
X324.2471 Y57.2215
X324.2915 Y57.2362
X324.3309 Y57.2612
G3 X322.9041 Y58.2536 I-0.5742 J0.6963
G1 X322.9019 Y58.2473 Z-9.0001 F1200
G3 X322.9653 Y58.3913 Z-9.1926 I0.8547 J-0.2898
X323.0526 Y58.5221 Z-9.385 I0.7914 J-0.4338
X323.1614 Y58.6358 Z-9.5774 I0.704 J-0.5646
X323.2882 Y58.7289 Z-9.7699 I0.5953 J-0.6783
X323.4293 Y58.7985 Z-9.9623 I0.4685 J-0.7714
X322.8542 Y57.9641 Z-9.9999 I0.3274 J-0.841
G1 Y57.9575 Z-10
Y57.8575 F3200
G3 X323.7617 Y56.95 I0.9075
G1 X325.0482
X325.05 Y56.9513
Y58.4888
X325.0435 Y58.538
X325.0246 Y58.5838
X324.9944 Y58.6232
X324.955 Y58.6534
X324.9092 Y58.6724
X324.86 Y58.6788
X324.8064 Y58.6865
X324.7571 Y58.7091
X324.7162 Y58.7446
X324.687 Y58.7903
X324.6719 Y58.8423
X324.672 Y58.8965
X324.6875 Y58.9484
X324.7169 Y58.9938
X324.758 Y59.0291
X324.8074 Y59.0514
X324.8529 Y59.0713
X324.8917 Y59.1022
X324.9212 Y59.1422
X324.9393 Y59.1884
X324.9448 Y59.2377
G3 X323.7465 Y58.3675 I-0.9023 J-0.0176
G1 X323.7527 Y58.3654 Z-10.0001 F1200
G3 X323.6087 Y58.4287 Z-10.1926 I0.2898 J0.8547
X323.4779 Y58.516 Z-10.385 I0.4338 J0.7914
X323.3642 Y58.6248 Z-10.5774 I0.5646 J0.704
X323.2711 Y58.7516 Z-10.7699 I0.6783 J0.5953
X323.2015 Y58.8927 Z-10.9623 I0.7714 J0.4685
X324.0359 Y58.3176 Z-10.9999 I0.841 J0.3274
G1 X324.0425 Z-11
X324.1425 F3200
G3 X325.05 Y59.2251 J0.9075
G1 Y60.6047
X325.0427 Y60.657
X325.0211 Y60.7054
X324.9871 Y60.7459
X324.9433 Y60.7754
X324.893 Y60.7918
X324.8401 Y60.7936
X323.2363 Y60.6244
X323.1874 Y60.6193 Z-10.9935
X323.1418 Y60.6145 Z-10.9745
X323.1027 Y60.6103 Z-10.9443
X323.0727 Y60.6072 Z-10.905
X323.0538 Y60.6052 Z-10.8592
X323.0474 Y60.6045 Z-10.81
G0 Z5
X323.2829 Y64.02
Z1.7144
G1 Z-7.7601 F3200
X323.283 Y64.0181 Z-7.7866
X323.2835 Y64.0126 Z-7.8125
X323.2843 Y64.0036 Z-7.8374
X323.2857 Y63.9913 Z-7.8608
X323.2876 Y63.9758 Z-7.8822
X323.2903 Y63.9576 Z-7.9013
X323.2939 Y63.937 Z-7.9176
X323.2985 Y63.9145 Z-7.9309
X323.3041 Y63.8906 Z-7.9408
X323.3109 Y63.8658 Z-7.9472
X323.3186 Y63.8406 Z-7.95
G3 X323.2882 Y63.9717 Z-8.1147 I0.7339 J0.2394
X323.281 Y64.106 Z-8.2793 I0.7643 J0.1083
X323.2972 Y64.2396 Z-8.444 I0.7715 J-0.026
X323.3364 Y64.3683 Z-8.6087 I0.7553 J-0.1596
X323.3974 Y64.4883 Z-8.7734 I0.7161 J-0.2884
X323.4782 Y64.5959 Z-8.938 I0.6551 J-0.4083
X324.0459 Y63.308 Z-8.9999 I0.5743 J-0.5159
G1 X324.0525 Z-9
X324.86
X324.9092 Y63.3145
X324.955 Y63.3335
X324.9944 Y63.3637
X325.0246 Y63.403
X325.0435 Y63.4488
X325.05 Y63.498
Y65.0486
X325.0482 Y65.05
X323.7668
X323.5604
X320.0974
X319.4471
X313.5395
X313.4346
X304.4201
X302.8667
X300.6784
X300.1262
X293.8608
X293.2965
X291.7878
X290.6902
X287.3976
X285.2729
X282.8387
X282.0112
X280.3339
X279.7766 Y65.0436
X279.7697 Y65.0432
X279.6596 Y65.0355
X279.5495 Y65.0247
X279.4394 Y65.0108
X279.3293 Y64.994
X279.2191 Y64.9737
X279.1448 Y64.9585
X279.1091 Y64.9507
X278.999 Y64.9242
X278.8889 Y64.8943
X278.7787 Y64.8615
X278.7389 Y64.8484
X278.7038 Y64.8367
X278.6994 Y64.8352
X278.5362 Y64.776
X278.5035 Y64.7631
X278.4485 Y64.7407
X278.4427 Y64.7383
X278.3383 Y64.6931
X278.2283 Y64.6417
X278.2003 Y64.6282
X278.1182 Y64.5861
X278.0081 Y64.5259
X277.9941 Y64.5181
X277.8979 Y64.4617
X277.8123 Y64.408
X277.7878 Y64.3921
X277.6778 Y64.3178
X277.6493 Y64.2979
X277.5677 Y64.2381
X277.5023 Y64.1878
X277.4576 Y64.1521
X277.368 Y64.0777
X277.3474 Y64.0599
X277.2441 Y63.9676
X277.2374 Y63.9613
X277.13 Y63.8575
X277.1273 Y63.8548
X277.0248 Y63.7474
X277.0172 Y63.739
X276.9266 Y63.6374
X276.907 Y63.6142
X276.8354 Y63.5273
X276.7969 Y63.4785
X276.7506 Y63.4172
X276.6869 Y63.329
X276.6714 Y63.3071
X276.6586 Y63.2882
X276.5895 Y63.1846
X276.5869 Y63.1805
X276.5768 Y63.1641
X276.5295 Y63.0869
X276.4666 Y62.9791
X276.4653 Y62.9768
X276.4059 Y62.8667
X276.3565 Y62.7686
X276.3507 Y62.7566
X276.3001 Y62.6465
X276.2524 Y62.5364
X276.2465 Y62.521
X276.2102 Y62.4263
X276.1698 Y62.3162
X276.1364 Y62.2136
X276.1341 Y62.2062
X276.1013 Y62.0961
X276.0723 Y61.986
X276.046 Y61.8759
X276.0262 Y61.7795
X276.0236 Y61.7658
X276.0039 Y61.6557
X275.9872 Y61.5456
X275.9735 Y61.4355
X275.9632 Y61.3254
X275.9557 Y61.2153
X275.9513 Y61.1052
X275.95 Y60.9951
X275.9515 Y60.885
X275.9563 Y60.775
X275.964 Y60.6649
X275.9746 Y60.5548
X275.9886 Y60.4447
X276.0055 Y60.3346
X276.0255 Y60.2245
X276.0262 Y60.2205
X276.0482 Y60.1144
X276.0611 Y60.0594
X276.0747 Y60.0043
X276.0818 Y59.9768
X276.089 Y59.9493
X276.1042 Y59.8942
X276.1364 Y59.7865
X276.1371 Y59.7841
X276.1733 Y59.674
X276.2138 Y59.5639
X276.2465 Y59.479
X276.2565 Y59.4538
X276.3045 Y59.3438
X276.3555 Y59.2337
X276.3565 Y59.2314
X276.4109 Y59.1236
X276.4666 Y59.0209
X276.4708 Y59.0135
X276.5354 Y58.9034
X276.5768 Y58.836
X276.5858 Y58.8213
X276.617 Y58.7828
X276.6572 Y58.7537
X276.7035 Y58.736
X276.7529 Y58.7309
X276.8018 Y58.7387
X276.8471 Y58.7589
X276.8928 Y58.7793
X276.9422 Y58.787
X276.992 Y58.7815
X277.0385 Y58.7633
X277.0788 Y58.7336
X277.1098 Y58.6944
X277.1295 Y58.6484
X277.1366 Y58.5989
X277.1439 Y58.5484
X277.1644 Y58.5018
X277.1965 Y58.4622
X277.238 Y58.4326
X277.2859 Y58.4151
G3 X277.2449 Y60.1682 I0.1934 J0.8815
G1 X277.2385 Y60.1665 Z-9.0001 F1200
G3 X277.3932 Y60.1951 Z-9.1926 I0.2408 J-0.8698
X277.5505 Y60.1964 Z-9.385 I0.0861 J-0.8984
X277.7057 Y60.1703 Z-9.5774 I-0.0712 J-0.8997
X277.8539 Y60.1177 Z-9.7699 I-0.2264 J-0.8737
X277.9908 Y60.0402 Z-9.9623 I-0.3746 J-0.8211
X276.9775 Y60.0468 Z-9.9999 I-0.5115 J-0.7435
G1 X276.972 Y60.0431 Z-10
X276.8893 Y59.9869 F3200
G3 X276.6488 Y58.7262 I0.5101 J-0.7506
G1 X276.6593 Y58.7107
X276.6781 Y58.6832
X276.6869 Y58.671
X276.7578 Y58.5731
X276.7969 Y58.5215
X276.8433 Y58.463
X276.907 Y58.3858
X276.9351 Y58.3529
X277.0172 Y58.2611
X277.0337 Y58.2428
X277.1273 Y58.1453
X277.1396 Y58.1327
X277.2374 Y58.0387
X277.2543 Y58.0227
X277.3474 Y57.9401
X277.3792 Y57.9126
X277.4576 Y57.8479
X277.5148 Y57.8025
X277.5677 Y57.762
X277.6632 Y57.6924
X277.6778 Y57.6822
X277.7878 Y57.6079
X277.8272 Y57.5823
X277.8979 Y57.5383
X278.0081 Y57.4741
X278.0114 Y57.4722
X278.1182 Y57.414
X278.2204 Y57.3621
X278.2283 Y57.3583
X278.3383 Y57.3069
X278.4485 Y57.2593
X278.466 Y57.252
X278.5586 Y57.2153
X278.6687 Y57.1754
X278.7685 Y57.1419
X278.7787 Y57.1385
X278.8889 Y57.1057
X278.999 Y57.0758
X279.1091 Y57.0493
X279.1909 Y57.0318
X279.2191 Y57.0263
X279.3293 Y57.006
X279.4394 Y56.9892
X279.5495 Y56.9753
X279.6596 Y56.9645
X279.7697 Y56.9568
X279.8006 Y56.9551
X280.1481 Y56.95
X323.5604
X323.6096 Y56.9565
X323.6554 Y56.9755
X323.6947 Y57.0056
X323.7249 Y57.045
X323.7439 Y57.0908
X323.7504 Y57.14
X323.7569 Y57.1892
X323.7759 Y57.2351
X323.8062 Y57.2745
X323.8456 Y57.3047
X323.8916 Y57.3236
X323.9408 Y57.33
X323.99 Y57.3234
X324.0359 Y57.3043
X324.0752 Y57.2739
X324.1119 Y57.2451
X324.1546 Y57.2261
X324.2006 Y57.218
X324.2471 Y57.2215
X324.2915 Y57.2362
X324.3309 Y57.2612
G3 X322.9041 Y58.2536 I-0.5742 J0.6963
G1 X322.9019 Y58.2473 Z-10.0001 F1200
G3 X322.9653 Y58.3913 Z-10.1926 I0.8547 J-0.2898
X323.0526 Y58.5221 Z-10.385 I0.7914 J-0.4338
X323.1614 Y58.6358 Z-10.5774 I0.704 J-0.5646
X323.2882 Y58.7289 Z-10.7699 I0.5953 J-0.6783
X323.4293 Y58.7985 Z-10.9623 I0.4685 J-0.7714
X322.8542 Y57.9641 Z-10.9999 I0.3274 J-0.841
G1 Y57.9575 Z-11
Y57.8575 F3200
G3 X323.7617 Y56.95 I0.9075
G1 X325.0482
X325.05 Y56.9513
Y58.4888
X325.0435 Y58.538
X325.0246 Y58.5838
X324.9944 Y58.6232
X324.955 Y58.6534
X324.9092 Y58.6724
X324.86 Y58.6788
X324.8064 Y58.6865
X324.7571 Y58.7091
X324.7162 Y58.7446
X324.687 Y58.7903
X324.6719 Y58.8423
X324.672 Y58.8965
X324.6875 Y58.9484
X324.7169 Y58.9938
X324.758 Y59.0291
X324.8074 Y59.0514
X324.8529 Y59.0713
X324.8917 Y59.1022
X324.9212 Y59.1422
X324.9393 Y59.1884
X324.9448 Y59.2377
G3 X323.7465 Y58.3675 I-0.9023 J-0.0176
G1 X323.7527 Y58.3654 Z-11.0001 F1200
G3 X323.6087 Y58.4287 Z-11.1926 I0.2898 J0.8547
X323.4779 Y58.516 Z-11.385 I0.4338 J0.7914
X323.3642 Y58.6248 Z-11.5774 I0.5646 J0.704
X323.2711 Y58.7516 Z-11.7699 I0.6783 J0.5953
X323.2015 Y58.8927 Z-11.9623 I0.7714 J0.4685
X324.0359 Y58.3176 Z-11.9999 I0.841 J0.3274
G1 X324.0425 Z-12
X324.1425 F3200
G3 X325.05 Y59.2251 J0.9075
G1 Y60.6047
X325.0427 Y60.657
X325.0211 Y60.7054
X324.9871 Y60.7459
X324.9433 Y60.7754
X324.893 Y60.7918
X324.8401 Y60.7936
X323.2363 Y60.6244
X323.1874 Y60.6193 Z-11.9935
X323.1418 Y60.6145 Z-11.9745
X323.1027 Y60.6103 Z-11.9443
X323.0727 Y60.6072 Z-11.905
X323.0538 Y60.6052 Z-11.8592
X323.0474 Y60.6045 Z-11.81
G0 Z5
X323.2829 Y64.02
Z1.7144
G1 Z-8.7601 F3200
X323.283 Y64.0181 Z-8.7866
X323.2835 Y64.0126 Z-8.8125
X323.2843 Y64.0036 Z-8.8374
X323.2857 Y63.9913 Z-8.8608
X323.2876 Y63.9758 Z-8.8822
X323.2903 Y63.9576 Z-8.9013
X323.2939 Y63.937 Z-8.9176
X323.2985 Y63.9145 Z-8.9309
X323.3041 Y63.8906 Z-8.9408
X323.3109 Y63.8658 Z-8.9472
X323.3186 Y63.8406 Z-8.95
G3 X323.2882 Y63.9717 Z-9.1147 I0.7339 J0.2394
X323.281 Y64.106 Z-9.2793 I0.7643 J0.1083
X323.2972 Y64.2396 Z-9.444 I0.7715 J-0.026
X323.3364 Y64.3683 Z-9.6087 I0.7553 J-0.1596
X323.3974 Y64.4883 Z-9.7734 I0.7161 J-0.2884
X323.4782 Y64.5959 Z-9.938 I0.6551 J-0.4083
X324.0459 Y63.308 Z-9.9999 I0.5743 J-0.5159
G1 X324.0525 Z-10
X324.86
X324.9092 Y63.3145
X324.955 Y63.3335
X324.9944 Y63.3637
X325.0246 Y63.403
X325.0435 Y63.4488
X325.05 Y63.498
Y65.0486
X325.0482 Y65.05
X323.7668
X323.5604
X320.0974
X319.4471
X313.5395
X313.4346
X304.3169
X302.8667
X300.6784
X300.1262
X293.8608
X293.3275
X291.7878
X290.6902
X287.3236
X285.2971
X282.8387
X282.0112
X280.3339
X279.7766 Y65.0436
X279.7697 Y65.0432
X279.6596 Y65.0355
X279.5495 Y65.0247
X279.4394 Y65.0108
X279.3293 Y64.994
X279.2191 Y64.9737
X279.1448 Y64.9585
X279.1091 Y64.9507
X278.999 Y64.9242
X278.8889 Y64.8943
X278.7787 Y64.8615
X278.7389 Y64.8484
X278.7038 Y64.8367
X278.6994 Y64.8352
X278.5362 Y64.776
X278.5035 Y64.7631
X278.4485 Y64.7407
X278.4427 Y64.7383
X278.3383 Y64.6931
X278.2283 Y64.6417
X278.2003 Y64.6282
X278.1182 Y64.5861
X278.0081 Y64.5259
X277.9941 Y64.5181
X277.8979 Y64.4617
X277.8123 Y64.408
X277.7878 Y64.3921
X277.6778 Y64.3178
X277.6493 Y64.2979
X277.5677 Y64.2381
X277.5023 Y64.1878
X277.4576 Y64.1521
X277.368 Y64.0777
X277.3474 Y64.0599
X277.2441 Y63.9676
X277.2374 Y63.9613
X277.13 Y63.8575
X277.1273 Y63.8548
X277.0248 Y63.7474
X277.0172 Y63.739
X276.9266 Y63.6374
X276.907 Y63.6142
X276.8354 Y63.5273
X276.7969 Y63.4785
X276.7506 Y63.4172
X276.6869 Y63.329
X276.6714 Y63.3071
X276.6586 Y63.2882
X276.5895 Y63.1846
X276.5869 Y63.1805
X276.5768 Y63.1641
X276.5295 Y63.0869
X276.4666 Y62.9791
X276.4653 Y62.9768
X276.4059 Y62.8667
X276.3565 Y62.7686
X276.3507 Y62.7566
X276.3001 Y62.6465
X276.2524 Y62.5364
X276.2465 Y62.521
X276.2102 Y62.4263
X276.1698 Y62.3162
X276.1364 Y62.2136
X276.1341 Y62.2062
X276.1013 Y62.0961
X276.0723 Y61.986
X276.046 Y61.8759
X276.0262 Y61.7795
X276.0236 Y61.7658
X276.0039 Y61.6557
X275.9872 Y61.5456
X275.9735 Y61.4355
X275.9632 Y61.3254
X275.9557 Y61.2153
X275.9513 Y61.1052
X275.95 Y60.9951
X275.9515 Y60.885
X275.9563 Y60.775
X275.964 Y60.6649
X275.9746 Y60.5548
X275.9886 Y60.4447
X276.0055 Y60.3346
X276.0255 Y60.2245
X276.0262 Y60.2205
X276.0482 Y60.1144
X276.0611 Y60.0594
X276.0747 Y60.0043
X276.0818 Y59.9768
X276.089 Y59.9493
X276.1042 Y59.8942
X276.1364 Y59.7865
X276.1371 Y59.7841
X276.1733 Y59.674
X276.2138 Y59.5639
X276.2465 Y59.479
X276.2565 Y59.4538
X276.3045 Y59.3438
X276.3555 Y59.2337
X276.3565 Y59.2314
X276.4109 Y59.1236
X276.4666 Y59.0209
X276.4708 Y59.0135
X276.5354 Y58.9034
X276.5768 Y58.836
X276.5858 Y58.8213
X276.617 Y58.7828
X276.6572 Y58.7537
X276.7035 Y58.736
X276.7529 Y58.7309
X276.8018 Y58.7387
X276.8471 Y58.7589
X276.8928 Y58.7793
X276.9422 Y58.787
X276.992 Y58.7815
X277.0385 Y58.7633
X277.0788 Y58.7336
X277.1098 Y58.6944
X277.1295 Y58.6484
X277.1366 Y58.5989
X277.1439 Y58.5484
X277.1644 Y58.5018
X277.1965 Y58.4622
X277.238 Y58.4326
X277.2859 Y58.4151
G3 X277.2449 Y60.1682 I0.1934 J0.8815
G1 X277.2385 Y60.1665 Z-10.0001 F1200
G3 X277.3932 Y60.1951 Z-10.1926 I0.2408 J-0.8698
X277.5505 Y60.1964 Z-10.385 I0.0861 J-0.8984
X277.7057 Y60.1703 Z-10.5774 I-0.0712 J-0.8997
X277.8539 Y60.1177 Z-10.7699 I-0.2264 J-0.8737
X277.9908 Y60.0402 Z-10.9623 I-0.3746 J-0.8211
X276.9775 Y60.0468 Z-10.9999 I-0.5115 J-0.7435
G1 X276.972 Y60.0431 Z-11
X276.8893 Y59.9869 F3200
G3 X276.6488 Y58.7262 I0.5101 J-0.7506
G1 X276.6593 Y58.7107
X276.6781 Y58.6832
X276.6869 Y58.671
X276.7578 Y58.5731
X276.7969 Y58.5215
X276.8433 Y58.463
X276.907 Y58.3858
X276.9351 Y58.3529
X277.0172 Y58.2611
X277.0337 Y58.2428
X277.1273 Y58.1453
X277.1396 Y58.1327
X277.2374 Y58.0387
X277.2543 Y58.0227
X277.3474 Y57.9401
X277.3792 Y57.9126
X277.4576 Y57.8479
X277.5148 Y57.8025
X277.5677 Y57.762
X277.6632 Y57.6924
X277.6778 Y57.6822
X277.7878 Y57.6079
X277.8272 Y57.5823
X277.8979 Y57.5383
X278.0081 Y57.4741
X278.0114 Y57.4722
X278.1182 Y57.414
X278.2204 Y57.3621
X278.2283 Y57.3583
X278.3383 Y57.3069
X278.4485 Y57.2593
X278.466 Y57.252
X278.5586 Y57.2153
X278.6687 Y57.1754
X278.7685 Y57.1419
X278.7787 Y57.1385
X278.8889 Y57.1057
X278.999 Y57.0758
X279.1091 Y57.0493
X279.1909 Y57.0318
X279.2191 Y57.0263
X279.3293 Y57.006
X279.4394 Y56.9892
X279.5495 Y56.9753
X279.6596 Y56.9645
X279.7697 Y56.9568
X279.8006 Y56.9551
X280.1481 Y56.95
X323.5604
X323.6096 Y56.9565
X323.6554 Y56.9755
X323.6947 Y57.0056
X323.7249 Y57.045
X323.7439 Y57.0908
X323.7504 Y57.14
X323.7569 Y57.1892
X323.7759 Y57.2351
X323.8062 Y57.2745
X323.8456 Y57.3047
X323.8916 Y57.3236
X323.9408 Y57.33
X323.99 Y57.3234
X324.0359 Y57.3043
X324.0752 Y57.2739
X324.1119 Y57.2451
X324.1546 Y57.2261
X324.2006 Y57.218
X324.2471 Y57.2215
X324.2915 Y57.2362
X324.3309 Y57.2612
G3 X322.9041 Y58.2536 I-0.5742 J0.6963
G1 X322.9019 Y58.2473 Z-11.0001 F1200
G3 X322.9653 Y58.3913 Z-11.1926 I0.8547 J-0.2898
X323.0526 Y58.5221 Z-11.385 I0.7914 J-0.4338
X323.1614 Y58.6358 Z-11.5774 I0.704 J-0.5646
X323.2882 Y58.7289 Z-11.7699 I0.5953 J-0.6783
X323.4293 Y58.7985 Z-11.9623 I0.4685 J-0.7714
X322.8542 Y57.9641 Z-11.9999 I0.3274 J-0.841
G1 Y57.9575 Z-12
Y57.8575 F3200
G3 X323.7617 Y56.95 I0.9075
G1 X325.0482
X325.05 Y56.9513
Y58.4888
X325.0435 Y58.538
X325.0246 Y58.5838
X324.9944 Y58.6232
X324.955 Y58.6534
X324.9092 Y58.6724
X324.86 Y58.6788
X324.8064 Y58.6865
X324.7571 Y58.7091
X324.7162 Y58.7446
X324.687 Y58.7903
X324.6719 Y58.8423
X324.672 Y58.8965
X324.6875 Y58.9484
X324.7169 Y58.9938
X324.758 Y59.0291
X324.8074 Y59.0514
X324.8529 Y59.0713
X324.8917 Y59.1022
X324.9212 Y59.1422
X324.9393 Y59.1884
X324.9448 Y59.2377
G3 X323.7465 Y58.3675 I-0.9023 J-0.0176
G1 X323.7527 Y58.3654 Z-12.0001 F1200
G3 X323.6087 Y58.4287 Z-12.1926 I0.2898 J0.8547
X323.4779 Y58.516 Z-12.385 I0.4338 J0.7914
X323.3642 Y58.6248 Z-12.5774 I0.5646 J0.704
X323.2711 Y58.7516 Z-12.7699 I0.6783 J0.5953
X323.2015 Y58.8927 Z-12.9623 I0.7714 J0.4685
X324.0359 Y58.3176 Z-12.9999 I0.841 J0.3274
G1 X324.0425 Z-13
X324.1425 F3200
G3 X325.05 Y59.2251 J0.9075
G1 Y60.658
X325.0427 Y60.7104
X325.0211 Y60.7587
X324.9871 Y60.7992
X324.9433 Y60.8288
X324.893 Y60.8451
X324.8401 Y60.8469
X323.2363 Y60.6778
X323.1874 Y60.6726 Z-12.9935
X323.1418 Y60.6678 Z-12.9745
X323.1027 Y60.6637 Z-12.9443
X323.0727 Y60.6605 Z-12.905
X323.0538 Y60.6585 Z-12.8592
X323.0474 Y60.6578 Z-12.81
G0 Z5
X323.2829 Y64.02
Z1.7144
G1 Z-9.7601 F3200
X323.283 Y64.0181 Z-9.7866
X323.2835 Y64.0126 Z-9.8125
X323.2843 Y64.0036 Z-9.8374
X323.2857 Y63.9913 Z-9.8608
