%
(Made in : Autodesk CAM Post Processor)
(G Code optimized for OpenBuilds OX CNC 1000 x 750 with GRBL V0.9j controller)

(Program Name : 1001)
(2 Operations :)
(1 : Contour2  2 )
(  Tool : Flat End Mill 2 Flutes, Diam = 1.9mm, Len = 12.7mm)
(  Spindle : RPM = 30000, set router dial to 6)
(  Machining time : 1 min 52 sec)
(2 : Horizontal1  2 )
(  Tool : Flat End Mill 2 Flutes, Diam = 1.9mm, Len = 12.7mm)
(  Spindle : RPM = 30000, set router dial to 6)
(  Machining time : 3 min 24 sec)

G90 G94
G17
G21

(Operation 1 of 2 : Contour2  2 )

G53 G0 Z5
G54
S30000 M3
G4 P1.0
X163.5033 Y264.3488
Z6
Z0.1595
G1 Z-1.81 F3200
X163.4975 Y264.3458 Z-1.8592
X163.4808 Y264.3369 Z-1.905
X163.4541 Y264.3227 Z-1.9444
X163.4194 Y264.3042 Z-1.9745
X163.3789 Y264.2827 Z-1.9935
X163.3355 Y264.2596 Z-2
X161.9162 Y263.5053
X161.8758 Y263.4766
X161.8442 Y263.4383
X161.8236 Y263.3932
X161.8154 Y263.3443
X161.8202 Y263.2949
X161.8375 Y263.2484
X161.8403 Y263.2433
X161.8439 Y263.2364
X161.8575 Y263.2088
X161.8817 Y263.1538
X161.9018 Y263.0987
X161.9043 Y263.0913
X161.9192 Y263.0399
X161.9311 Y262.9886
X161.9406 Y262.9335
X161.9468 Y262.8785
X161.95 Y262.7683
Y21.4965
X161.9499 Y21.3864
X161.9475 Y21.3313
X161.9419 Y21.2763
X161.933 Y21.2212
X161.9208 Y21.1662
X161.9043 Y21.1087
X161.8856 Y21.056
X161.8622 Y21.001
X161.8345 Y20.9459
X161.7941 Y20.8786
X161.7643 Y20.8358
X161.7269 Y20.7883
X161.684 Y20.7407
X161.6692 Y20.7257
X161.6216 Y20.6815
X161.5739 Y20.6429
X161.5359 Y20.6156
X161.4998 Y20.5921
X161.4638 Y20.5709
X161.4087 Y20.5424
X161.3536 Y20.5183
X161.3198 Y20.5054
X161.2435 Y20.4817
X161.1885 Y20.4689
X161.1334 Y20.4594
X161.0783 Y20.4532
X161.0233 Y20.4503
X160.9131 Y20.45
X33.0602
X32.9501 Y20.4513
X32.8951 Y20.4558
X32.84 Y20.4636
X32.7849 Y20.4747
X32.7299 Y20.4892
X32.6802 Y20.5054
X32.6198 Y20.5294
X32.5647 Y20.5556
X32.5509 Y20.5628
X32.5011 Y20.5807
X32.4484 Y20.5842
X32.3967 Y20.5729
X32.3501 Y20.5479
X32.3122 Y20.5109
X32.286 Y20.465
X31.6931 Y18.9768
X31.6749 Y18.9311 Z-1.9935
X31.658 Y18.8885 Z-1.9745
X31.6434 Y18.852 Z-1.9444
X31.6322 Y18.8239 Z-1.905
X31.6252 Y18.8063 Z-1.8592
X31.6228 Y18.8003 Z-1.81
G0 Z5
X163.5103 Y264.3526
Z-2.81
G1 X163.5046 Y264.3495 Z-2.8592 F3200
X163.4879 Y264.3406 Z-2.905
X163.4612 Y264.3265 Z-2.9443
X163.4265 Y264.308 Z-2.9745
X163.386 Y264.2865 Z-2.9935
X163.3426 Y264.2634 Z-3
X161.9162 Y263.5053
X161.8758 Y263.4766
X161.8442 Y263.4383
X161.8236 Y263.3932
X161.8154 Y263.3443
X161.8202 Y263.2949
X161.8375 Y263.2484
X161.8403 Y263.2433
X161.8439 Y263.2364
X161.8575 Y263.2088
X161.8817 Y263.1538
X161.9018 Y263.0987
X161.9043 Y263.0913
X161.9192 Y263.0399
X161.9311 Y262.9886
X161.9406 Y262.9335
X161.9468 Y262.8785
X161.95 Y262.7683
Y21.4965
X161.9499 Y21.3864
X161.9475 Y21.3313
X161.9419 Y21.2763
X161.933 Y21.2212
X161.9208 Y21.1662
X161.9043 Y21.1087
X161.8856 Y21.056
X161.8622 Y21.001
X161.8345 Y20.9459
X161.7941 Y20.8786
X161.7643 Y20.8358
X161.7269 Y20.7883
X161.684 Y20.7407
X161.6692 Y20.7257
X161.6216 Y20.6815
X161.5739 Y20.6429
X161.5359 Y20.6156
X161.4998 Y20.5921
X161.4638 Y20.5709
X161.4087 Y20.5424
X161.3536 Y20.5183
X161.3198 Y20.5054
X161.2435 Y20.4817
X161.1885 Y20.4689
X161.1334 Y20.4594
X161.0783 Y20.4532
X161.0233 Y20.4503
X160.9131 Y20.45
X33.0602
X32.9501 Y20.4513
X32.8951 Y20.4558
X32.84 Y20.4636
X32.7849 Y20.4747
X32.7299 Y20.4892
X32.6802 Y20.5054
X32.6198 Y20.5294
X32.5647 Y20.5556
X32.5509 Y20.5628
X32.5011 Y20.5807
X32.4484 Y20.5842
X32.3967 Y20.5729
X32.3501 Y20.5479
X32.3122 Y20.5109
X32.286 Y20.465
X31.6892 Y18.9668
X31.671 Y18.9211 Z-2.9935
X31.654 Y18.8786 Z-2.9745
X31.6394 Y18.842 Z-2.9444
X31.6283 Y18.814 Z-2.905
X31.6212 Y18.7963 Z-2.8592
X31.6188 Y18.7903 Z-2.81
G0 Z5
X163.5103 Y264.3526
Z-3.81
G1 X163.5046 Y264.3495 Z-3.8592 F3200
X163.4879 Y264.3406 Z-3.905
X163.4612 Y264.3265 Z-3.9443
X163.4265 Y264.308 Z-3.9745
X163.386 Y264.2865 Z-3.9935
X163.3426 Y264.2634 Z-4
X161.9162 Y263.5053
X161.8758 Y263.4766
X161.8442 Y263.4383
X161.8236 Y263.3932
X161.8154 Y263.3443
X161.8202 Y263.2949
X161.8375 Y263.2484
X161.8403 Y263.2433
X161.8439 Y263.2364
X161.8575 Y263.2088
X161.8817 Y263.1538
X161.9018 Y263.0987
X161.9043 Y263.0913
X161.9192 Y263.0399
X161.9311 Y262.9886
X161.9406 Y262.9335
X161.9468 Y262.8785
X161.95 Y262.7683
Y21.4965
X161.9499 Y21.3864
X161.9475 Y21.3313
X161.9419 Y21.2763
X161.933 Y21.2212
X161.9208 Y21.1662
X161.9043 Y21.1087
X161.8856 Y21.056
X161.8622 Y21.001
X161.8345 Y20.9459
X161.7941 Y20.8786
X161.7643 Y20.8358
X161.7269 Y20.7883
X161.684 Y20.7407
X161.6692 Y20.7257
X161.6216 Y20.6815
X161.5739 Y20.6429
X161.5359 Y20.6156
X161.4998 Y20.5921
X161.4638 Y20.5709
X161.4087 Y20.5424
X161.3536 Y20.5183
X161.3198 Y20.5054
X161.2435 Y20.4817
X161.1885 Y20.4689
X161.1334 Y20.4594
X161.0783 Y20.4532
X161.0233 Y20.4503
X160.9131 Y20.45
X33.0602
X32.9501 Y20.4513
X32.8951 Y20.4558
X32.84 Y20.4636
X32.7849 Y20.4747
X32.7299 Y20.4892
X32.6802 Y20.5054
X32.6198 Y20.5294
X32.5647 Y20.5556
X32.5509 Y20.5628
X32.5011 Y20.5807
X32.4484 Y20.5842
X32.3967 Y20.5729
X32.3501 Y20.5479
X32.3122 Y20.5109
X32.286 Y20.465
X31.6892 Y18.9668
X31.671 Y18.9211 Z-3.9935
X31.654 Y18.8786 Z-3.9745
X31.6394 Y18.842 Z-3.9444
X31.6283 Y18.814 Z-3.905
X31.6212 Y18.7963 Z-3.8592
X31.6188 Y18.7903 Z-3.81
G0 Z5
X163.5103 Y264.3526
Z-4.81
G1 X163.5046 Y264.3495 Z-4.8592 F3200
X163.4879 Y264.3406 Z-4.905
X163.4612 Y264.3265 Z-4.9443
X163.4265 Y264.308 Z-4.9745
X163.386 Y264.2865 Z-4.9935
X163.3426 Y264.2634 Z-5
X161.9162 Y263.5053
X161.8758 Y263.4766
X161.8442 Y263.4383
X161.8236 Y263.3932
X161.8154 Y263.3443
X161.8202 Y263.2949
X161.8375 Y263.2484
X161.8403 Y263.2433
X161.8439 Y263.2364
X161.8575 Y263.2088
X161.8817 Y263.1538
X161.9018 Y263.0987
X161.9043 Y263.0913
X161.9192 Y263.0399
X161.9311 Y262.9886
X161.9406 Y262.9335
X161.9468 Y262.8785
X161.95 Y262.7683
Y21.4965
X161.9499 Y21.3864
X161.9475 Y21.3313
X161.9419 Y21.2763
X161.933 Y21.2212
X161.9208 Y21.1662
X161.9043 Y21.1087
X161.8856 Y21.056
X161.8622 Y21.001
X161.8345 Y20.9459
X161.7941 Y20.8786
X161.7643 Y20.8358
X161.7269 Y20.7883
X161.684 Y20.7407
X161.6692 Y20.7257
X161.6216 Y20.6815
X161.5739 Y20.6429
X161.5359 Y20.6156
X161.4998 Y20.5921
X161.4638 Y20.5709
X161.4087 Y20.5424
X161.3536 Y20.5183
X161.3198 Y20.5054
X161.2435 Y20.4817
X161.1885 Y20.4689
X161.1334 Y20.4594
X161.0783 Y20.4532
X161.0233 Y20.4503
X160.9131 Y20.45
X33.0602
X32.9501 Y20.4513
X32.8951 Y20.4558
X32.84 Y20.4636
X32.7849 Y20.4747
X32.7299 Y20.4892
X32.6802 Y20.5054
X32.6198 Y20.5294
X32.5647 Y20.5556
X32.5509 Y20.5628
X32.5011 Y20.5807
X32.4484 Y20.5842
X32.3967 Y20.5729
X32.3501 Y20.5479
X32.3122 Y20.5109
X32.286 Y20.465
X31.6892 Y18.9668
X31.671 Y18.9211 Z-4.9935
X31.654 Y18.8786 Z-4.9745
X31.6394 Y18.842 Z-4.9444
X31.6283 Y18.814 Z-4.905
X31.6212 Y18.7963 Z-4.8592
X31.6188 Y18.7903 Z-4.81
G0 Z5
X163.5103 Y264.3526
Z-5.81
G1 X163.5046 Y264.3495 Z-5.8592 F3200
X163.4879 Y264.3406 Z-5.905
X163.4612 Y264.3265 Z-5.9443
X163.4265 Y264.308 Z-5.9745
X163.386 Y264.2865 Z-5.9935
X163.3426 Y264.2634 Z-6
X161.9162 Y263.5053
X161.8758 Y263.4766
X161.8442 Y263.4383
X161.8236 Y263.3932
X161.8154 Y263.3443
X161.8202 Y263.2949
X161.8375 Y263.2484
X161.8403 Y263.2433
X161.8439 Y263.2364
X161.8575 Y263.2088
X161.8817 Y263.1538
X161.9018 Y263.0987
X161.9043 Y263.0913
X161.9192 Y263.0399
X161.9311 Y262.9886
X161.9406 Y262.9335
X161.9468 Y262.8785
X161.95 Y262.7683
Y21.4965
X161.9499 Y21.3864
X161.9475 Y21.3313
X161.9419 Y21.2763
X161.933 Y21.2212
X161.9208 Y21.1662
X161.9043 Y21.1087
X161.8856 Y21.056
X161.8622 Y21.001
X161.8345 Y20.9459
X161.7941 Y20.8786
X161.7643 Y20.8358
X161.7269 Y20.7883
X161.684 Y20.7407
X161.6692 Y20.7257
X161.6216 Y20.6815
X161.5739 Y20.6429
X161.5359 Y20.6156
X161.4998 Y20.5921
X161.4638 Y20.5709
X161.4087 Y20.5424
X161.3536 Y20.5183
X161.3198 Y20.5054
X161.2435 Y20.4817
X161.1885 Y20.4689
X161.1334 Y20.4594
X161.0783 Y20.4532
X161.0233 Y20.4503
X160.9131 Y20.45
X33.0602
X32.9501 Y20.4513
X32.8951 Y20.4558
X32.84 Y20.4636
X32.7849 Y20.4747
X32.7299 Y20.4892
X32.6802 Y20.5054
X32.6198 Y20.5294
X32.5647 Y20.5556
X32.5509 Y20.5628
X32.5011 Y20.5807
X32.4484 Y20.5842
X32.3967 Y20.5729
X32.3501 Y20.5479
X32.3122 Y20.5109
X32.286 Y20.465
X31.6892 Y18.9668
X31.671 Y18.9211 Z-5.9935
X31.654 Y18.8786 Z-5.9745
X31.6394 Y18.842 Z-5.9444
X31.6283 Y18.814 Z-5.905
X31.6212 Y18.7963 Z-5.8592
X31.6188 Y18.7903 Z-5.81
G0 Z5
X163.5103 Y264.3526
Z-6.81
G1 X163.5046 Y264.3495 Z-6.8592 F3200
X163.4879 Y264.3406 Z-6.905
X163.4612 Y264.3265 Z-6.9443
X163.4265 Y264.308 Z-6.9745
X163.386 Y264.2865 Z-6.9935
X163.3426 Y264.2634 Z-7
X161.9162 Y263.5053
X161.8758 Y263.4766
X161.8442 Y263.4383
X161.8236 Y263.3932
X161.8154 Y263.3443
X161.8202 Y263.2949
X161.8375 Y263.2484
X161.8403 Y263.2433
X161.8439 Y263.2364
X161.8575 Y263.2088
X161.8817 Y263.1538
X161.9018 Y263.0987
X161.9043 Y263.0913
X161.9192 Y263.0399
X161.9311 Y262.9886
X161.9406 Y262.9335
X161.9468 Y262.8785
X161.95 Y262.7683
Y21.4965
X161.9499 Y21.3864
X161.9475 Y21.3313
X161.9419 Y21.2763
X161.933 Y21.2212
X161.9208 Y21.1662
X161.9043 Y21.1087
X161.8856 Y21.056
X161.8622 Y21.001
X161.8345 Y20.9459
X161.7941 Y20.8786
X161.7643 Y20.8358
X161.7269 Y20.7883
X161.684 Y20.7407
X161.6692 Y20.7257
X161.6216 Y20.6815
X161.5739 Y20.6429
X161.5359 Y20.6156
X161.4998 Y20.5921
X161.4638 Y20.5709
X161.4087 Y20.5424
X161.3536 Y20.5183
X161.3198 Y20.5054
X161.2435 Y20.4817
X161.1885 Y20.4689
X161.1334 Y20.4594
X161.0783 Y20.4532
X161.0233 Y20.4503
X160.9131 Y20.45
X33.0602
X32.9501 Y20.4513
X32.8951 Y20.4558
X32.84 Y20.4636
X32.7849 Y20.4747
X32.7299 Y20.4892
X32.6802 Y20.5054
X32.6198 Y20.5294
X32.5647 Y20.5556
X32.5509 Y20.5628
X32.5011 Y20.5807
X32.4484 Y20.5842
X32.3967 Y20.5729
X32.3501 Y20.5479
X32.3122 Y20.5109
X32.286 Y20.465
X31.6892 Y18.9668
X31.671 Y18.9211 Z-6.9935
X31.654 Y18.8786 Z-6.9745
X31.6394 Y18.842 Z-6.9444
X31.6283 Y18.814 Z-6.905
X31.6212 Y18.7963 Z-6.8592
X31.6188 Y18.7903 Z-6.81
G0 Z5
X163.5103 Y264.3526
Z-7.0929
G1 Z-7.81 F3200
X163.5046 Y264.3495 Z-7.8592
X163.4879 Y264.3406 Z-7.905
X163.4612 Y264.3265 Z-7.9443
X163.4265 Y264.308 Z-7.9745
X163.386 Y264.2865 Z-7.9935
X163.3426 Y264.2634 Z-8
X161.9162 Y263.5053
X161.8758 Y263.4766
X161.8442 Y263.4383
X161.8236 Y263.3932
X161.8154 Y263.3443
X161.8202 Y263.2949
X161.8375 Y263.2484
X161.8403 Y263.2433
X161.8439 Y263.2364
X161.8575 Y263.2088
X161.8817 Y263.1538
X161.9018 Y263.0987
X161.9043 Y263.0913
X161.9192 Y263.0399
X161.9311 Y262.9886
X161.9406 Y262.9335
X161.9468 Y262.8785
X161.95 Y262.7683
Y21.4965
X161.9499 Y21.3864
X161.9475 Y21.3313
X161.9419 Y21.2763
X161.933 Y21.2212
X161.9208 Y21.1662
X161.9043 Y21.1087
X161.8856 Y21.056
X161.8622 Y21.001
X161.8345 Y20.9459
X161.7941 Y20.8786
X161.7643 Y20.8358
X161.7269 Y20.7883
X161.684 Y20.7407
X161.6692 Y20.7257
X161.6216 Y20.6815
X161.5739 Y20.6429
X161.5359 Y20.6156
X161.4998 Y20.5921
X161.4638 Y20.5709
X161.4087 Y20.5424
X161.3536 Y20.5183
X161.3198 Y20.5054
X161.2435 Y20.4817
X161.1885 Y20.4689
X161.1334 Y20.4594
X161.0783 Y20.4532
X161.0233 Y20.4503
X160.9131 Y20.45
X33.0602
X32.9501 Y20.4513
X32.8951 Y20.4558
X32.84 Y20.4636
X32.7849 Y20.4747
X32.7299 Y20.4892
X32.6802 Y20.5054
X32.6198 Y20.5294
X32.5647 Y20.5556
X32.5509 Y20.5628
X32.5011 Y20.5807
X32.4484 Y20.5842
X32.3967 Y20.5729
X32.3501 Y20.5479
X32.3122 Y20.5109
X32.286 Y20.465
X31.6892 Y18.9668
X31.671 Y18.9211 Z-7.9935
X31.654 Y18.8786 Z-7.9745
X31.6394 Y18.842 Z-7.9444
X31.6283 Y18.814 Z-7.905
X31.6212 Y18.7963 Z-7.8592
X31.6188 Y18.7903 Z-7.81
G0 Z5
X161.95 Y233.0055
Z2
G1 Z-7.7599 F3200
Y233.0117 Z-7.808 F1200
Y233.0299 Z-7.853
Y233.0588 Z-7.8919
Y233.0967 Z-7.9222
Y233.141 Z-7.9419
Y233.1889 Z-7.9498
Y262.7683 Z-8.9827
X161.9468 Y262.8785 Z-8.9866
X161.9406 Y262.9335 Z-8.9885
X161.9311 Y262.9886 Z-8.9904
X161.9192 Y263.0399 Z-8.9923
X161.9043 Y263.0913 Z-8.9941
X161.9018 Y263.0987 Z-8.9944
X161.8817 Y263.1538 Z-8.9965
X161.8575 Y263.2088 Z-8.9986
X161.8439 Y263.2364 Z-8.9996
X161.8406 Y263.2426 Z-8.9999
X161.8403 Y263.2433
X161.8375 Y263.2484 Z-9
X161.8403 Y263.2433 F3200
X161.8439 Y263.2364
X161.8575 Y263.2088
X161.8817 Y263.1538
X161.9018 Y263.0987
X161.9043 Y263.0913
X161.9192 Y263.0399
X161.9311 Y262.9886
X161.9406 Y262.9335
X161.9468 Y262.8785
X161.95 Y262.7683
Y0.0232
X161.9495 Y-0.0318
X161.946 Y-0.0869
X161.9393 Y-0.142
X161.9294 Y-0.197
X161.9181 Y-0.2441
X161.9043 Y-0.2913
X161.899 Y-0.3071
X161.8783 Y-0.3622
X161.8535 Y-0.4173
X161.8402 Y-0.4433
X161.8368 Y-0.4498
X161.8137 Y-0.4932 Z-8.9935
X161.7921 Y-0.5337 Z-8.9745
X161.7736 Y-0.5684 Z-8.9444
X161.7594 Y-0.595 Z-8.905
X161.7505 Y-0.6118 Z-8.8592
X161.7475 Y-0.6175 Z-8.81
G0 Z5
X320.5411 Y18.8948
Z0.1869
G1 Z-1.81 F3200
X320.5381 Y18.9005 Z-1.8592
X320.5292 Y18.9173 Z-1.905
X320.5152 Y18.944 Z-1.9444
X320.4969 Y18.9789 Z-1.9745
X320.4755 Y19.0194 Z-1.9935
X320.4526 Y19.0629 Z-2
X319.7057 Y20.4831
X319.6771 Y20.5236
X319.639 Y20.5554
X319.5939 Y20.5761
X319.545 Y20.5845
X319.4956 Y20.58
X319.4491 Y20.5628
X319.4353 Y20.5556
X319.3803 Y20.5294
X319.3199 Y20.5054
X319.2701 Y20.4892
X319.2151 Y20.4747
X319.16 Y20.4636
X319.105 Y20.4558
X319.0499 Y20.4513
X318.9398 Y20.45
X191.0869
X190.9768 Y20.4503
X190.9217 Y20.4532
X190.8666 Y20.4594
X190.8116 Y20.4689
X190.7565 Y20.4817
X190.6802 Y20.5054
X190.6464 Y20.5183
X190.5913 Y20.5424
X190.5363 Y20.5709
X190.5002 Y20.5921
X190.4641 Y20.6156
X190.4261 Y20.6429
X190.3785 Y20.6815
X190.3308 Y20.7257
X190.316 Y20.7407
X190.2732 Y20.7883
X190.2357 Y20.8358
X190.2059 Y20.8786
X190.1656 Y20.9459
X190.1379 Y21.001
X190.1145 Y21.056
X190.0958 Y21.1087
X190.0792 Y21.1662
X190.067 Y21.2212
X190.0581 Y21.2763
X190.0525 Y21.3313
X190.0501 Y21.3864
X190.05 Y21.4965
Y262.7683
X190.0533 Y262.8785
X190.0594 Y262.9335
X190.0689 Y262.9886
X190.0808 Y263.0399
X190.0958 Y263.0913
X190.0982 Y263.0987
X190.1183 Y263.1538
X190.1425 Y263.2088
X190.1562 Y263.2364
X190.1598 Y263.2433
X190.1625 Y263.2484
X190.1806 Y263.2981
X190.1843 Y263.3509
X190.1732 Y263.4026
X190.1484 Y263.4493
X190.1116 Y263.4873
X190.0658 Y263.5138
X188.5802 Y264.113
X188.5345 Y264.1314 Z-1.9935
X188.4921 Y264.1485 Z-1.9745
X188.4556 Y264.1633 Z-1.9444
X188.4276 Y264.1746 Z-1.905
X188.41 Y264.1817 Z-1.8592
X188.4039 Y264.1841 Z-1.81
G0 Z5
X320.5461 Y18.8853
Z-2.81
G1 X320.543 Y18.891 Z-2.8592 F3200
X320.5342 Y18.9078 Z-2.905
X320.5201 Y18.9345 Z-2.9444
X320.5018 Y18.9694 Z-2.9745
X320.4805 Y19.0099 Z-2.9935
X320.4576 Y19.0534 Z-3
X319.7057 Y20.4831
X319.6771 Y20.5236
X319.639 Y20.5554
X319.5939 Y20.5761
X319.545 Y20.5845
X319.4956 Y20.58
X319.4491 Y20.5628
X319.4353 Y20.5556
X319.3803 Y20.5294
X319.3199 Y20.5054
X319.2701 Y20.4892
X319.2151 Y20.4747
X319.16 Y20.4636
X319.105 Y20.4558
X319.0499 Y20.4513
X318.9398 Y20.45
X191.0869
X190.9768 Y20.4503
X190.9217 Y20.4532
X190.8666 Y20.4594
X190.8116 Y20.4689
X190.7565 Y20.4817
X190.6802 Y20.5054
X190.6464 Y20.5183
X190.5913 Y20.5424
X190.5363 Y20.5709
X190.5002 Y20.5921
X190.4641 Y20.6156
X190.4261 Y20.6429
X190.3785 Y20.6815
X190.3308 Y20.7257
X190.316 Y20.7407
X190.2732 Y20.7883
X190.2357 Y20.8358
X190.2059 Y20.8786
X190.1656 Y20.9459
X190.1379 Y21.001
X190.1145 Y21.056
X190.0958 Y21.1087
X190.0792 Y21.1662
X190.067 Y21.2212
X190.0581 Y21.2763
X190.0525 Y21.3313
X190.0501 Y21.3864
X190.05 Y21.4965
Y262.7683
X190.0533 Y262.8785
X190.0594 Y262.9335
X190.0689 Y262.9886
X190.0808 Y263.0399
X190.0958 Y263.0913
X190.0982 Y263.0987
X190.1183 Y263.1538
X190.1425 Y263.2088
X190.1562 Y263.2364
X190.1598 Y263.2433
X190.1625 Y263.2484
X190.1806 Y263.2981
X190.1843 Y263.3509
X190.1732 Y263.4026
X190.1484 Y263.4493
X190.1116 Y263.4873
X190.0658 Y263.5138
X188.5702 Y264.117
X188.5246 Y264.1354 Z-2.9935
X188.4821 Y264.1526 Z-2.9745
X188.4456 Y264.1673 Z-2.9443
X188.4176 Y264.1786 Z-2.905
X188.4 Y264.1857 Z-2.8592
X188.394 Y264.1881 Z-2.81
G0 Z5
X320.5461 Y18.8853
Z-3.81
G1 X320.543 Y18.891 Z-3.8592 F3200
X320.5342 Y18.9078 Z-3.905
X320.5201 Y18.9345 Z-3.9444
X320.5018 Y18.9694 Z-3.9745
X320.4805 Y19.0099 Z-3.9935
X320.4576 Y19.0534 Z-4
X319.7057 Y20.4831
X319.6771 Y20.5236
X319.639 Y20.5554
X319.5939 Y20.5761
X319.545 Y20.5845
X319.4956 Y20.58
X319.4491 Y20.5628
X319.4353 Y20.5556
X319.3803 Y20.5294
X319.3199 Y20.5054
X319.2701 Y20.4892
X319.2151 Y20.4747
X319.16 Y20.4636
X319.105 Y20.4558
X319.0499 Y20.4513
X318.9398 Y20.45
X191.0869
X190.9768 Y20.4503
X190.9217 Y20.4532
X190.8666 Y20.4594
X190.8116 Y20.4689
X190.7565 Y20.4817
X190.6802 Y20.5054
X190.6464 Y20.5183
X190.5913 Y20.5424
X190.5363 Y20.5709
X190.5002 Y20.5921
X190.4641 Y20.6156
X190.4261 Y20.6429
X190.3785 Y20.6815
X190.3308 Y20.7257
X190.316 Y20.7407
X190.2732 Y20.7883
X190.2357 Y20.8358
X190.2059 Y20.8786
X190.1656 Y20.9459
X190.1379 Y21.001
X190.1145 Y21.056
X190.0958 Y21.1087
X190.0792 Y21.1662
X190.067 Y21.2212
X190.0581 Y21.2763
X190.0525 Y21.3313
X190.0501 Y21.3864
X190.05 Y21.4965
Y262.7683
X190.0533 Y262.8785
X190.0594 Y262.9335
X190.0689 Y262.9886
X190.0808 Y263.0399
X190.0958 Y263.0913
X190.0982 Y263.0987
X190.1183 Y263.1538
X190.1425 Y263.2088
X190.1562 Y263.2364
X190.1598 Y263.2433
X190.1625 Y263.2484
X190.1806 Y263.2981
X190.1843 Y263.3509
X190.1732 Y263.4026
X190.1484 Y263.4493
X190.1116 Y263.4873
X190.0658 Y263.5138
X188.5702 Y264.117
X188.5246 Y264.1354 Z-3.9935
X188.4821 Y264.1526 Z-3.9745
X188.4456 Y264.1673 Z-3.9443
X188.4176 Y264.1786 Z-3.905
X188.4 Y264.1857 Z-3.8592
X188.394 Y264.1881 Z-3.81
G0 Z5
X320.5461 Y18.8853
Z-4.81
G1 X320.543 Y18.891 Z-4.8592 F3200
X320.5342 Y18.9078 Z-4.905
X320.5201 Y18.9345 Z-4.9444
X320.5018 Y18.9694 Z-4.9745
X320.4805 Y19.0099 Z-4.9935
X320.4576 Y19.0534 Z-5
X319.7057 Y20.4831
X319.6771 Y20.5236
X319.639 Y20.5554
X319.5939 Y20.5761
X319.545 Y20.5845
X319.4956 Y20.58
X319.4491 Y20.5628
X319.4353 Y20.5556
X319.3803 Y20.5294
X319.3199 Y20.5054
X319.2701 Y20.4892
X319.2151 Y20.4747
X319.16 Y20.4636
X319.105 Y20.4558
X319.0499 Y20.4513
X318.9398 Y20.45
X191.0869
X190.9768 Y20.4503
X190.9217 Y20.4532
X190.8666 Y20.4594
X190.8116 Y20.4689
X190.7565 Y20.4817
X190.6802 Y20.5054
X190.6464 Y20.5183
X190.5913 Y20.5424
X190.5363 Y20.5709
X190.5002 Y20.5921
X190.4641 Y20.6156
X190.4261 Y20.6429
X190.3785 Y20.6815
X190.3308 Y20.7257
X190.316 Y20.7407
X190.2732 Y20.7883
X190.2357 Y20.8358
X190.2059 Y20.8786
X190.1656 Y20.9459
X190.1379 Y21.001
X190.1145 Y21.056
X190.0958 Y21.1087
X190.0792 Y21.1662
X190.067 Y21.2212
X190.0581 Y21.2763
X190.0525 Y21.3313
X190.0501 Y21.3864
X190.05 Y21.4965
Y262.7683
X190.0533 Y262.8785
X190.0594 Y262.9335
X190.0689 Y262.9886
X190.0808 Y263.0399
X190.0958 Y263.0913
X190.0982 Y263.0987
X190.1183 Y263.1538
X190.1425 Y263.2088
X190.1562 Y263.2364
X190.1598 Y263.2433
X190.1625 Y263.2484
X190.1806 Y263.2981
X190.1843 Y263.3509
X190.1732 Y263.4026
X190.1484 Y263.4493
X190.1116 Y263.4873
X190.0658 Y263.5138
X188.5702 Y264.117
X188.5246 Y264.1354 Z-4.9935
X188.4821 Y264.1526 Z-4.9745
X188.4456 Y264.1673 Z-4.9443
X188.4176 Y264.1786 Z-4.905
X188.4 Y264.1857 Z-4.8592
X188.394 Y264.1881 Z-4.81
G0 Z5
X320.5461 Y18.8853
Z-5.81
G1 X320.543 Y18.891 Z-5.8592 F3200
X320.5342 Y18.9078 Z-5.905
X320.5201 Y18.9345 Z-5.9444
X320.5018 Y18.9694 Z-5.9745
X320.4805 Y19.0099 Z-5.9935
X320.4576 Y19.0534 Z-6
X319.7057 Y20.4831
X319.6771 Y20.5236
X319.639 Y20.5554
X319.5939 Y20.5761
X319.545 Y20.5845
X319.4956 Y20.58
X319.4491 Y20.5628
X319.4353 Y20.5556
X319.3803 Y20.5294
X319.3199 Y20.5054
X319.2701 Y20.4892
X319.2151 Y20.4747
X319.16 Y20.4636
X319.105 Y20.4558
X319.0499 Y20.4513
X318.9398 Y20.45
X191.0869
X190.9768 Y20.4503
X190.9217 Y20.4532
X190.8666 Y20.4594
X190.8116 Y20.4689
X190.7565 Y20.4817
X190.6802 Y20.5054
X190.6464 Y20.5183
X190.5913 Y20.5424
X190.5363 Y20.5709
X190.5002 Y20.5921
X190.4641 Y20.6156
X190.4261 Y20.6429
X190.3785 Y20.6815
X190.3308 Y20.7257
X190.316 Y20.7407
X190.2732 Y20.7883
X190.2357 Y20.8358
X190.2059 Y20.8786
X190.1656 Y20.9459
X190.1379 Y21.001
X190.1145 Y21.056
X190.0958 Y21.1087
X190.0792 Y21.1662
X190.067 Y21.2212
X190.0581 Y21.2763
X190.0525 Y21.3313
X190.0501 Y21.3864
X190.05 Y21.4965
Y262.7683
X190.0533 Y262.8785
X190.0594 Y262.9335
X190.0689 Y262.9886
X190.0808 Y263.0399
X190.0958 Y263.0913
X190.0982 Y263.0987
X190.1183 Y263.1538
X190.1425 Y263.2088
X190.1562 Y263.2364
X190.1598 Y263.2433
X190.1625 Y263.2484
X190.1806 Y263.2981
X190.1843 Y263.3509
X190.1732 Y263.4026
X190.1484 Y263.4493
X190.1116 Y263.4873
X190.0658 Y263.5138
X188.5702 Y264.117
X188.5246 Y264.1354 Z-5.9935
X188.4821 Y264.1526 Z-5.9745
X188.4456 Y264.1673 Z-5.9443
X188.4176 Y264.1786 Z-5.905
X188.4 Y264.1857 Z-5.8592
X188.394 Y264.1881 Z-5.81
G0 Z5
X320.5461 Y18.8853
Z-6.1909
G1 Z-6.81 F3200
X320.543 Y18.891 Z-6.8592
X320.5342 Y18.9078 Z-6.905
X320.5201 Y18.9345 Z-6.9444
X320.5018 Y18.9694 Z-6.9745
X320.4805 Y19.0099 Z-6.9935
X320.4576 Y19.0534 Z-7
X319.7057 Y20.4831
X319.6771 Y20.5236
X319.639 Y20.5554
X319.5939 Y20.5761
X319.545 Y20.5845
X319.4956 Y20.58
X319.4491 Y20.5628
X319.4353 Y20.5556
X319.3803 Y20.5294
X319.3199 Y20.5054
X319.2701 Y20.4892
X319.2151 Y20.4747
X319.16 Y20.4636
X319.105 Y20.4558
X319.0499 Y20.4513
X318.9398 Y20.45
X191.0869
X190.9768 Y20.4503
X190.9217 Y20.4532
X190.8666 Y20.4594
X190.8116 Y20.4689
X190.7565 Y20.4817
X190.6802 Y20.5054
X190.6464 Y20.5183
X190.5913 Y20.5424
X190.5363 Y20.5709
X190.5002 Y20.5921
X190.4641 Y20.6156
X190.4261 Y20.6429
X190.3785 Y20.6815
X190.3308 Y20.7257
X190.316 Y20.7407
X190.2732 Y20.7883
X190.2357 Y20.8358
X190.2059 Y20.8786
X190.1656 Y20.9459
X190.1379 Y21.001
X190.1145 Y21.056
X190.0958 Y21.1087
X190.0792 Y21.1662
X190.067 Y21.2212
X190.0581 Y21.2763
X190.0525 Y21.3313
X190.0501 Y21.3864
X190.05 Y21.4965
Y262.7683
X190.0533 Y262.8785
X190.0594 Y262.9335
X190.0689 Y262.9886
X190.0808 Y263.0399
X190.0958 Y263.0913
X190.0982 Y263.0987
X190.1183 Y263.1538
X190.1425 Y263.2088
X190.1562 Y263.2364
X190.1598 Y263.2433
X190.1625 Y263.2484
X190.1806 Y263.2981
X190.1843 Y263.3509
X190.1732 Y263.4026
X190.1484 Y263.4493
X190.1116 Y263.4873
X190.0658 Y263.5138
X188.5702 Y264.117
X188.5246 Y264.1354 Z-6.9935
X188.4821 Y264.1526 Z-6.9745
X188.4456 Y264.1673 Z-6.9443
X188.4176 Y264.1786 Z-6.905
X188.4 Y264.1857 Z-6.8592
X188.394 Y264.1881 Z-6.81
G0 Z5
X320.5461 Y18.8853
Z-6.1909
G1 Z-7.81 F3200
X320.543 Y18.891 Z-7.8592
X320.5342 Y18.9078 Z-7.905
X320.5201 Y18.9345 Z-7.9444
X320.5018 Y18.9694 Z-7.9745
X320.4805 Y19.0099 Z-7.9935
X320.4576 Y19.0534 Z-8
X319.7057 Y20.4831
X319.6771 Y20.5236
X319.639 Y20.5554
X319.5939 Y20.5761
X319.545 Y20.5845
X319.4956 Y20.58
X319.4491 Y20.5628
X319.4353 Y20.5556
X319.3803 Y20.5294
X319.3199 Y20.5054
X319.2701 Y20.4892
X319.2151 Y20.4747
X319.16 Y20.4636
X319.105 Y20.4558
X319.0499 Y20.4513
X318.9398 Y20.45
X191.0869
X190.9768 Y20.4503
X190.9217 Y20.4532
X190.8666 Y20.4594
X190.8116 Y20.4689
X190.7565 Y20.4817
X190.6802 Y20.5054
X190.6464 Y20.5183
X190.5913 Y20.5424
X190.5363 Y20.5709
X190.5002 Y20.5921
X190.4641 Y20.6156
X190.4261 Y20.6429
X190.3785 Y20.6815
X190.3308 Y20.7257
X190.316 Y20.7407
X190.2732 Y20.7883
X190.2357 Y20.8358
X190.2059 Y20.8786
X190.1656 Y20.9459
X190.1379 Y21.001
X190.1145 Y21.056
X190.0958 Y21.1087
X190.0792 Y21.1662
X190.067 Y21.2212
X190.0581 Y21.2763
X190.0525 Y21.3313
X190.0501 Y21.3864
X190.05 Y21.4965
Y262.7683
X190.0533 Y262.8785
X190.0594 Y262.9335
X190.0689 Y262.9886
X190.0808 Y263.0399
X190.0958 Y263.0913
X190.0982 Y263.0987
X190.1183 Y263.1538
X190.1425 Y263.2088
X190.1562 Y263.2364
X190.1598 Y263.2433
X190.1625 Y263.2484
X190.1806 Y263.2981
X190.1843 Y263.3509
X190.1732 Y263.4026
X190.1484 Y263.4493
X190.1116 Y263.4873
X190.0658 Y263.5138
X188.5702 Y264.117
X188.5246 Y264.1354 Z-7.9935
X188.4821 Y264.1526 Z-7.9745
X188.4456 Y264.1673 Z-7.9443
X188.4176 Y264.1786 Z-7.905
X188.4 Y264.1857 Z-7.8592
X188.394 Y264.1881 Z-7.81
G0 Z5
X190.05 Y29.7929
Z2
G1 Z-7.7599 F3200
Y29.7867 Z-7.808 F1200
Y29.7685 Z-7.853
Y29.7395 Z-7.8919
Y29.7017 Z-7.9222
Y29.6574 Z-7.9419
Y29.6095 Z-7.9498
Y0.0232 Z-8.9829
X190.0506 Y-0.0318 Z-8.9849
X190.054 Y-0.0869 Z-8.9868
X190.0607 Y-0.142 Z-8.9887
X190.0707 Y-0.197 Z-8.9907
X190.0819 Y-0.2441 Z-8.9924
X190.0958 Y-0.2913 Z-8.9941
X190.101 Y-0.3071 Z-8.9947
X190.1218 Y-0.3622 Z-8.9967
X190.1466 Y-0.4173 Z-8.9988
X190.1598 Y-0.4433 Z-8.9999
X190.1601 Y-0.444
X190.1633 Y-0.4498 Z-9
X190.1598 Y-0.4433 F3200
X190.1466 Y-0.4173
X190.1218 Y-0.3622
X190.101 Y-0.3071
X190.0958 Y-0.2913
X190.0819 Y-0.2441
X190.0707 Y-0.197
X190.0607 Y-0.142
X190.054 Y-0.0869
X190.0506 Y-0.0318
X190.05 Y0.0232
Y262.7683
X190.0533 Y262.8785
X190.0594 Y262.9335
X190.0689 Y262.9886
X190.0808 Y263.0399
X190.0958 Y263.0913
X190.0982 Y263.0987
X190.1183 Y263.1538
X190.1425 Y263.2088
X190.1562 Y263.2364
X190.1598 Y263.2433
X190.1625 Y263.2484
G0 Z6

(Operation 2 of 2 : Horizontal1  2 )

G54
S30000 M3
X153.7756 Y-1.9949
Z6
Z-7.1
G1 Z-7.91 F3200
Y-1.9884 Z-7.9592
Y-1.9694 Z-8.005
Y-1.9393 Z-8.0443
Y-1.8999 Z-8.0745
Y-1.8541 Z-8.0935
Y-1.8049 Z-8.1
X153.7758 Y-1.7961
X154.1317 Y5.8993
X154.1272 Y5.9499
X154.1095 Y5.9976
X154.0798 Y6.0388
X154.0402 Y6.0707
X153.9936 Y6.0909
X153.9433 Y6.0981
X153.8929 Y6.0917
X153.846 Y6.0721
X153.8059 Y6.0408
X153.7756 Y6
G3 X154.0685 Y5.5035 I0.2929 J-0.1619
G1 X154.9202
G3 X155.4966 Y6.0799 J0.5764
G1 Y13.6102
G3 X154.9202 Y14.1866 I-0.5764
G1 X154.2523
G3 X153.9403 Y13.6837 J-0.3482
G2 X153.7756 Y6 I-7.4315 J-3.6843
X152.8062 Y5.5478 I-0.7941 J0.437
G3 X151.7866 Y5.2239 I-0.215 J-1.0899
G2 X151.3215 Y4.764 I-7.8402 J7.4648
G3 X151.4966 Y4.3189 I0.1751 J-0.1881
G1 X156.1047
G3 X156.6812 Y4.8953 J0.5764
G1 Y14.7948
G3 X156.1048 Y15.3712 I-0.5764
G1 X151.8432
G3 X151.6482 Y14.9145 J-0.27
G2 X153.5764 Y11.1173 I-5.3147 J-5.0869
X152.9963 Y6.8982 I-6.8118 J-1.2129
X152.2584 Y5.753 I-5.0023 J2.4131
X151.7866 Y5.2239 I-8.312 J6.9357
G1 X151.7574 Y5.1838
X151.7396 Y5.1376
X151.7343 Y5.0883
X151.742 Y5.0393
X151.7621 Y4.9939
X151.7932 Y4.9553
X151.8288 Y4.9214 Z-8.0935
X151.862 Y4.8898 Z-8.0745
X151.8905 Y4.8627 Z-8.0443
X151.9124 Y4.8418 Z-8.005
X151.9261 Y4.8288 Z-7.9592
X151.9308 Y4.8243 Z-7.91
G0 Z5
X63.3655 Y10.8558
Z-6.8601
G1 X63.3646 Y10.8542 Z-6.8866 F1200
X63.3618 Y10.8495 Z-6.9125
X63.3573 Y10.8416 Z-6.9374
X63.3513 Y10.8307 Z-6.9608
X63.3439 Y10.817 Z-6.9822
X63.3355 Y10.8006 Z-7.0013
X63.3264 Y10.7818 Z-7.0176
X63.3169 Y10.7609 Z-7.0309
X63.3073 Y10.7383 Z-7.0408
X63.2979 Y10.7144 Z-7.0472
X63.289 Y10.6895 Z-7.05
G3 X63.3527 Y10.8334 Z-7.2425 I0.8539 J-0.2922
X63.4404 Y10.964 Z-7.435 I0.7902 J-0.436
X63.5495 Y11.0773 Z-7.6276 I0.7025 J-0.5666
X63.6766 Y11.1701 Z-7.8201 I0.5934 J-0.68
X63.8179 Y11.2393 Z-8.0126 I0.4663 J-0.7727
X64.1429 Y9.4949 Z-8.1 I0.325 J-0.8419
G1 X133.7422 F3200
G3 Y10.1952 J0.3502
G1 X64.1095
G3 X63.7933 Y9.8832 J-0.3162
G1 X63.7922 Y9.8168
G3 X64.1084 Y9.4949 I0.3162 J-0.0057
G1 X64.1429
G2 X65.1799 Y8.8035 J-1.1235
G3 X66.217 Y8.1121 I1.037 J0.4321
G1 X135.1851
G3 X135.6715 Y8.6646 J0.4904
G2 X135.6347 Y11.0016 I10.4517 J1.3336
G1 X135.6361 Y11.012
X135.6374 Y11.0224
G3 X135.134 Y11.5779 I-0.5035 J0.0496
G1 X62.8661
G3 X62.3626 Y11.0224 J-0.5059
G2 X62.3287 Y8.6659 I-10.4246 J-1.0284
G3 X62.8157 Y8.1121 I0.487 J-0.0628
G1 X66.217
G2 X67.2188 Y7.4442 J-1.0853
G3 X68.2207 Y6.7763 I1.0019 J0.4174
G1 X136.917
G3 X137.312 Y7.3071 J0.4124
G2 X136.9967 Y11.4026 I9.2496 J2.7719
X137.0969 Y11.8939 I4.0184 J-0.5638
G3 X137.2256 Y12.3785 I-69.7723 J18.7879
X136.8125 Y12.9137 I-0.4131 J0.1082
G1 X61.1875
G3 X60.7745 Y12.3784 J-0.427
G2 X60.6885 Y7.3062 I-9.0842 J-2.3827
G3 X61.0828 Y6.7763 I0.3943 J-0.1182
G1 X68.2207
G2 X69.1755 Y6.1398 J-1.0344
G3 X70.1304 Y5.5032 I0.9549 J0.3979
G1 X138.932
G3 X139.2248 Y5.9996 J0.3345
G2 X138.5383 Y12.492 I7.3409 J4.0587
X138.7752 Y13.0987 I4.1352 J-1.2655
X139.0604 Y13.6842 I53.5206 J-25.7032
G3 X138.748 Y14.1869 I-0.3124 J0.1543
G1 X59.2516
G3 X58.9397 Y13.6841 J-0.3481
G2 X59.333 Y7.1342 I-7.5413 J-3.7396
X59.0765 Y6.5561 I-4.1019 J1.4742
X58.7747 Y6.0002 I-39.2155 J20.9292
G3 X59.0681 Y5.5032 I0.2933 J-0.162
G1 X70.1304
G2 X71.0188 Y4.9109 J-0.9624
G3 X71.9072 Y4.3187 I0.8884 J0.3702
G1 X141.5047
G3 X141.6785 Y4.7642 J0.2567
G2 X141.3518 Y14.9137 I4.8151 J5.235
G3 X141.1574 Y15.3714 I-0.1944 J0.1876
G1 X56.8429
G3 X56.6491 Y14.9141 J-0.2697
G2 X57.8818 Y6.6796 I-5.1442 J-4.9796
X57.1844 Y5.6541 I-4.4483 J2.2753
X56.3209 Y4.764 I-9.5982 J8.4466
G3 X56.4968 Y4.3187 I0.1758 J-0.188
G1 X71.9072
X71.9564 Y4.3251
X72.0022 Y4.3441
X72.0415 Y4.3743
X72.0717 Y4.4137
X72.0907 Y4.4595
X72.0972 Y4.5087
Y4.5578 Z-8.0935
Y4.6037 Z-8.0745
Y4.643 Z-8.0443
Y4.6732 Z-8.005
Y4.6922 Z-7.9592
Y4.6987 Z-7.91
G0 Z5
X31.0058 Y7.7602
Z-7.1
G1 Z-7.91 F3200
X31.0122 Y7.7603 Z-7.9592
X31.0312 Y7.7604 Z-8.005
X31.0614 Y7.7606 Z-8.0443
X31.1008 Y7.7609 Z-8.0745
X31.1466 Y7.7612 Z-8.0935
X31.1958 Y7.7616 Z-8.1
X40.5902 Y7.8273
X40.6446 Y7.8197
X40.6946 Y7.7969
X40.736 Y7.7607
G3 X40.911 Y7.6801 I0.175 J0.1496
G1 X40.9971
G3 X41.223 Y7.9546 J0.2302
G2 X41.1669 Y11.7419 I10.4348 J2.0486
G3 X40.9398 Y12.01 I-0.2271 J0.0379
G1 X40.9113
G3 X40.6811 Y11.7798 J-0.2302
G1 X40.6808 Y7.9103
G3 X40.736 Y7.7607 I0.2302
G2 X41.0036 Y7.1861 I-0.8999 J-0.7689
G3 X41.4873 Y6.7763 I0.4836 J0.0805
G1 X41.9174
G3 X42.312 Y7.302 J0.4109
G2 X41.9445 Y9.0616 I11.2011 J3.2578
X41.9151 Y10.859 I7.9431 J1.0286
X42.0397 Y11.6248 I5.9272 J-0.5716
X42.2255 Y12.378 I24.6691 J-5.6855
G3 X41.8124 Y12.9138 I-0.4131 J0.1086
G1 X40.3539
G3 X39.7774 Y12.3374 J-0.5765
G1 X39.7769 Y7.3527
G3 X40.3533 Y6.7763 I0.5764 J-0.0001
G1 X41.4873
G2 X42.442 Y6.1398 J-1.0343
G3 X43.3968 Y5.5032 I0.9548 J0.3978
G1 X43.9322
G3 X44.2249 Y5.9996 J0.3345
G2 X43.2094 Y9.2091 I7.4653 J4.1275
X43.5614 Y12.5571 I7.9318 J0.8585
X43.7899 Y13.1299 I4.7134 J-1.548
X44.0599 Y13.6843 I24.0777 J-11.3859
G3 X43.7498 Y14.1868 I-0.3101 J0.1555
G1 X39.0809
G3 X38.5045 Y13.6104 J-0.5765
G1 X38.5038 Y6.0797
G3 X39.0802 Y5.5032 I0.5764 J-0.0001
G1 X43.3968
G2 X44.2852 Y4.911 J-0.9625
G3 X45.1737 Y4.3187 I0.8884 J0.3702
G1 X46.5045
G3 X46.6776 Y4.7656 J0.257
G2 X46.3514 Y14.9137 I4.7697 J5.2326
G3 X46.1559 Y15.3714 I-0.1955 J0.1871
G1 X37.8965
G3 X37.32 Y14.795 J-0.5765
G1 X37.3191 Y4.8951
G3 X37.8955 Y4.3187 I0.5764 J-0.0001
G1 X45.1737
G2 X45.956 Y3.7971 J-0.8475
G3 X46.7382 Y3.2756 I0.7823 J0.3259
G1 X157.1595
G3 X157.7244 Y3.8405 J0.5649
G1 X157.7245 Y15.8496
G3 X157.1596 Y16.4144 I-0.5649
G1 X36.842
G3 X36.277 Y15.8495 J-0.565
G1 X36.276 Y3.8405
G3 X36.8408 Y3.2756 I0.5648 J-0.0001
G1 X46.7382
G2 X47.6571 Y2.663 J-0.9954
G3 X48.576 Y2.0505 I0.9189 J0.3829
G1 X158.3731
G3 X158.9496 Y2.6269 J0.5764
G1 Y17.0632
G3 X158.3732 Y17.6396 I-0.5764
G1 X35.6285
G3 X35.052 Y17.0632 J-0.5765
G1 X35.0507 Y2.6269
G3 X35.6271 Y2.0505 I0.5764 J-0.0001
G1 X48.576
G2 X49.6265 Y1.3501 J-1.1381
G3 X50.677 Y0.6498 I1.0505 J0.4377
G1 X159.7738
G3 X160.3503 Y1.2262 J0.5764
G1 Y18.4639
G3 X159.7739 Y19.0403 I-0.5764
G1 X34.2279
G3 X33.6514 Y18.4639 J-0.5765
G1 X33.6499 Y1.2262
G3 X34.2263 Y0.6498 I0.5764 J-0.0001
G1 X50.677
G2 X51.7343 Y-0.0551 J-1.1454
G3 X52.7915 Y-0.7599 I1.0573 J0.4405
G1 X160.9711
X161.0813 Y-0.7553
X161.1363 Y-0.7473
X161.1913 Y-0.7353
X161.2464 Y-0.7187
X161.3015 Y-0.6973
X161.3404 Y-0.679
X161.3794 Y-0.6582
X161.4116 Y-0.6386
X161.4391 Y-0.6201
X161.4666 Y-0.5996
X161.4941 Y-0.5771
X161.5255 Y-0.5481
X161.5535 Y-0.5205
X161.5781 Y-0.493
X161.6003 Y-0.4655
X161.621 Y-0.438
X161.6606 Y-0.3747
X161.6854 Y-0.3279
X161.7091 Y-0.2728
X161.728 Y-0.2178
X161.7419 Y-0.1636
X161.7519 Y-0.1077
X161.7579 Y-0.0526
X161.7599 Y0.0024
X161.76 Y20.8262
X161.7419 Y20.8066
X161.6959 Y20.7533
X161.6422 Y20.7
X161.6318 Y20.6905
X161.5767 Y20.6451
X161.5217 Y20.606
X161.4962 Y20.5899
X161.4539 Y20.5654
X161.4116 Y20.5438
X161.3565 Y20.5194
X161.3015 Y20.4991
X161.236 Y20.4798
X161.1913 Y20.4695
X161.1363 Y20.4598
X161.0813 Y20.4535
X160.9711 Y20.45
X33.0331
X32.923 Y20.4531
X32.868 Y20.4592
X32.8129 Y20.4686
X32.764 Y20.4798
X32.7028 Y20.4977
X32.6478 Y20.5177
X32.5927 Y20.5417
X32.5483 Y20.5643
X32.5038 Y20.5899
X32.4826 Y20.6033
X32.4276 Y20.6418
X32.3725 Y20.6867
X32.3578 Y20.7
X32.3066 Y20.7506
X32.2554 Y20.8101
X32.2477 Y20.8199
X32.2419 Y20.8274
X32.2401 Y0.0024
X32.2422 Y-0.0526
X32.2481 Y-0.1077
X32.2543 Y-0.1448
X32.2624 Y-0.1819
X32.272 Y-0.2178
X32.291 Y-0.2728
X32.3148 Y-0.3279
X32.3412 Y-0.3779
X32.3791 Y-0.438
X32.3999 Y-0.4655
X32.4226 Y-0.493
X32.4826 Y-0.5556
X32.5101 Y-0.5807
X32.5377 Y-0.6029
X32.5652 Y-0.6229
X32.5927 Y-0.6412
X32.6208 Y-0.6582
X32.6618 Y-0.6801
X32.7028 Y-0.6992
X32.7579 Y-0.7201
X32.8129 Y-0.7363
X32.868 Y-0.748
X32.923 Y-0.7557
X33.0331 Y-0.7599
X52.7915
X52.8407 Y-0.7534
X52.8865 Y-0.7345
X52.9259 Y-0.7043
X52.9561 Y-0.6649
X52.9751 Y-0.6191
X52.9815 Y-0.5699
Y-0.5207 Z-8.0935
Y-0.4749 Z-8.0745
Y-0.4356 Z-8.0443
Y-0.4054 Z-8.005
Y-0.3864 Z-7.9592
Y-0.3799 Z-7.91
G0 Z5
X52.8595 Y1.7958
Z-7.1
G1 Z-7.91 F3200
X52.8586 Y1.8022 Z-7.9592
X52.8559 Y1.821 Z-8.005
X52.8515 Y1.8508 Z-8.0443
X52.8459 Y1.8898 Z-8.0745
X52.8394 Y1.9351 Z-8.0935
X52.8323 Y1.9838 Z-8.1
X52.5876 Y3.6798
X52.5741 Y3.7276
X52.5488 Y3.7702
X52.5133 Y3.8049
X52.47 Y3.8291
X52.422 Y3.8414
X52.3724 Y3.8408
G2 X45.3482 Y10.1702 I-0.8786 J6.0873
X52.5094 Y16.0703 I6.1965 J-0.225
X56.4641 Y13.639 I-0.9041 J-5.9027
X57.5929 Y9.1359 I-5.1598 J-3.6864
X52.3724 Y3.8408 I-6.0991 J0.7921
X51.7168 Y4.1699 I-0.0916 J0.6349
G3 X51.1007 Y4.568 I-0.6721 J-0.3644
G2 X46.1236 Y10.1421 I0.3931 J5.3601
X52.3919 Y15.3033 I5.4211 J-0.1968
X55.844 Y13.1726 I-0.7868 J-5.1366
X56.8234 Y9.2359 I-4.5407 J-3.2199
X51.1007 Y4.568 I-5.3297 J0.6921
X49.792 Y5.713 I0.1057 J1.4412
G3 X48.927 Y7.2215 I-2.7535 J-0.5766
G2 X51.6004 Y13.7525 I2.5192 J2.7815
X54.1938 Y12.6157 I-0.1593 J-3.8902
X55.2539 Y9.9898 I-2.5598 J-2.5602
X51.1954 Y6.2586 I-3.8078 J0.069
X48.927 Y7.2215 I0.2508 J3.7443
X48.6711 Y9.2038 I1.0335 J1.1411
G3 X49.6848 Y10.9264 I-18.13 J11.8285
G1 X49.7299 Y11.0117
X49.7969 Y11.1218
X49.8787 Y11.2378
X49.964 Y11.342
X49.9888 Y11.3692
X50.0682 Y11.4521
X50.0989 Y11.482
X50.1891 Y11.5622
X50.209 Y11.5788
X50.3191 Y11.6632
X50.4292 Y11.7357
X50.5393 Y11.7982
X50.6494 Y11.8535
X50.7595 Y11.8993
X50.8696 Y11.9389
X50.9797 Y11.9718
X51.0898 Y11.9971
X51.1999 Y12.0167
X51.31 Y12.0305
X51.4201 Y12.0378
X51.5302 Y12.0392
X51.6403 Y12.0347
X51.7504 Y12.0234
X51.8863 Y12.0026
X51.9706 Y11.9838
X52.0807 Y11.9549
X52.1908 Y11.9183
X52.2604 Y11.8925
X52.3009 Y11.8749
X52.411 Y11.824
X52.4903 Y11.7824
X52.5211 Y11.765
X52.6312 Y11.6969
X52.7413 Y11.6184
X52.8097 Y11.5622
X52.8514 Y11.5269
X52.9312 Y11.4521
X53.0001 Y11.3819
X53.0352 Y11.342
X53.1257 Y11.2319
X53.2031 Y11.1218
X53.2704 Y11.0117
X53.2918 Y10.9728
X53.3286 Y10.9017
X53.379 Y10.7916
X53.4019 Y10.7353
X53.4216 Y10.6815
X53.4573 Y10.5714
X53.4862 Y10.4613
X53.5085 Y10.3512
X53.5246 Y10.2411
X53.5354 Y10.131
X53.5394 Y10.0209
X53.5374 Y9.9108
X53.5295 Y9.8007
X53.512 Y9.6659
X53.4952 Y9.5805
X53.4696 Y9.4704
X53.4359 Y9.3603
X53.4019 Y9.2657
X53.3494 Y9.1402
X53.2918 Y9.0275
X53.2299 Y8.92
X53.1566 Y8.8099
X53.0712 Y8.6998
X52.9733 Y8.5897
X52.9615 Y8.5773
X52.8514 Y8.4727
X52.7963 Y8.4258
X52.7413 Y8.3816
X52.6312 Y8.303
X52.5211 Y8.2352
X52.411 Y8.1757
X52.3556 Y8.1493
X52.3009 Y8.1252
X52.1908 Y8.0813
X52.0807 Y8.0455
X52.0594 Y8.0392
X51.9706 Y8.0162
X51.8605 Y7.9932
X51.7504 Y7.9766
X51.6403 Y7.9653
X51.5302 Y7.9608
X51.4201 Y7.9622
X51.31 Y7.9695
X51.1999 Y7.9833
X51.0898 Y8.0029
X50.9797 Y8.0285
X50.9374 Y8.0392
X50.8696 Y8.061
X50.7595 Y8.1007
X50.6448 Y8.1493
X50.5393 Y8.2011
X50.4292 Y8.2645
X50.3191 Y8.3369
X50.209 Y8.4215
X50.1419 Y8.4796
X50.0989 Y8.5189
X50.0274 Y8.5897
X49.9888 Y8.6314
X49.9291 Y8.6998
X49.8434 Y8.8099
X49.7686 Y8.9227
X49.7367 Y8.9764
X49.7061 Y9.0301
X49.6514 Y9.1402
X49.6041 Y9.2503
X49.5641 Y9.3603
X49.5483 Y9.4066
X49.531 Y9.4704
X49.5049 Y9.5805
X49.4846 Y9.6906
X49.4702 Y9.8007
X49.4626 Y9.9108
X49.4606 Y10.0209
X49.4646 Y10.131
X49.4752 Y10.2411
X49.4915 Y10.3512
X49.5139 Y10.4613
X49.5483 Y10.5908
X49.5781 Y10.6815
X49.6214 Y10.7916
X49.6584 Y10.8765
X49.6848 Y10.9264
X49.702 Y10.9729
X49.7066 Y11.0223
X49.6983 Y11.0712
X49.6776 Y11.1162
X49.6459 Y11.1544
X49.6055 Y11.1831
X49.562 Y11.206 Z-8.0935
X49.5214 Y11.2274 Z-8.0745
X49.4866 Y11.2458 Z-8.0443
X49.4599 Y11.2599 Z-8.005
X49.4432 Y11.2688 Z-7.9592
X49.4374 Y11.2718 Z-7.91
G0 Z5
X138.2486 Y9.8719
Z-7.1
G1 Z-7.91 F3200
X138.2551 Y9.8718 Z-7.9592
X138.274 Y9.8715 Z-8.005
X138.3042 Y9.8711 Z-8.0443
X138.3436 Y9.8706 Z-8.0745
X138.3894 Y9.87 Z-8.0935
X138.4386 Y9.8693 Z-8.1
X140.152 Y9.846
X140.2013 Y9.8518
X140.2474 Y9.8701
X140.2871 Y9.8998
X140.3178 Y9.9387
X140.3374 Y9.9843
X140.3446 Y10.0333
G2 X140.348 Y10.1706 I6.0308 J-0.0822
X147.2142 Y16.1123 I6.1992 J-0.2257
X146.5372 Y3.8458 I-0.6668 J-6.1151
X142.1013 Y5.6957 I0.0163 J6.2826
X140.3446 Y10.0333 I4.2742 J4.2555
X140.7656 Y10.6307 I0.6467 J-0.0088
G3 X141.2434 Y11.1836 I-0.2652 J0.7121
G2 X151.8781 Y9.9601 I5.2581 J-1.1267
X146.4291 Y4.6222 I-5.4361 J0.0991
X142.5843 Y6.313 I0.0136 J5.2477
X141.1276 Y10.2525 I4.0557 J3.7388
X141.2434 Y11.1836 I5.3739 J-0.1957
X142.5168 Y12.2767 I1.3552 J-0.2904
G3 X144.0766 Y12.8958 I-0.158 J2.6727
G2 X146.6359 Y13.7513 I2.3696 J-2.8327
X150.2399 Y9.678 I-0.1957 J-3.8041
X146.1298 Y6.2647 I-3.6923 J0.2649
X142.7579 Y10.2531 I0.4405 J3.7919
X144.0766 Y12.8958 I3.6883 J-0.1901
X146.0422 Y12.8778 I0.9723 J-1.1623
G3 X147.6191 Y11.704 I8.5956 J9.9013
G1 X147.6489 Y11.6851
X147.759 Y11.6047
X147.8691 Y11.5111
X147.9308 Y11.4521
X147.9792 Y11.4027
X148.0351 Y11.342
X148.126 Y11.2319
X148.2038 Y11.1218
X148.2384 Y11.0668
X148.2712 Y11.0117
X148.3287 Y10.9017
X148.3797 Y10.7916
X148.4216 Y10.6815
X148.4573 Y10.5714
X148.4865 Y10.4613
X148.5085 Y10.3512
X148.5246 Y10.2411
X148.5354 Y10.131
X148.5394 Y10.0209
X148.5374 Y9.9108
X148.5295 Y9.8007
X148.5154 Y9.6906
X148.4962 Y9.5805
X148.469 Y9.4704
X148.4359 Y9.3603
X148.4196 Y9.3124
X148.396 Y9.2503
X148.3488 Y9.1402
X148.3095 Y9.0587
X148.294 Y9.0301
X148.2301 Y8.92
X148.1566 Y8.8099
X148.0711 Y8.6998
X147.973 Y8.5897
X147.921 Y8.5373
X147.859 Y8.4796
X147.759 Y8.3955
X147.6489 Y8.3148
X147.5388 Y8.2453
X147.4286 Y8.1844
X147.3556 Y8.1493
X147.3186 Y8.1324
X147.2085 Y8.0878
X147.0983 Y8.051
X147.0601 Y8.0392
X146.9883 Y8.0205
X146.8781 Y7.9965
X146.7681 Y7.9788
X146.6579 Y7.9668
X146.5478 Y7.9611
X146.4377 Y7.9614
X146.3276 Y7.968
X146.2175 Y7.9808
X146.1074 Y7.9992
X145.9973 Y8.024
X145.9382 Y8.0392
X145.8872 Y8.0555
X145.7771 Y8.0935
X145.667 Y8.139
X145.5569 Y8.1918
X145.4468 Y8.2535
X145.3367 Y8.3244
X145.2739 Y8.3695
X145.2266 Y8.4067
X145.1415 Y8.4796
X145.1165 Y8.5021
X145.0272 Y8.5897
X145.0064 Y8.6119
X144.929 Y8.6998
X144.8434 Y8.8099
X144.7699 Y8.92
X144.7059 Y9.0301
X144.6761 Y9.0886
X144.6513 Y9.1402
X144.6035 Y9.2503
X144.566 Y9.3548
X144.531 Y9.4704
X144.5049 Y9.5805
X144.4846 Y9.6906
X144.4705 Y9.8007
X144.4626 Y9.9108
X144.4606 Y10.0209
X144.4646 Y10.131
X144.4755 Y10.2411
X144.4909 Y10.3512
X144.5139 Y10.4613
X144.5428 Y10.5714
X144.566 Y10.6474
X144.6208 Y10.7916
X144.6761 Y10.9111
X144.7288 Y11.0117
X144.7963 Y11.1218
X144.8743 Y11.2319
X144.9646 Y11.342
X145.0064 Y11.3873
X145.0693 Y11.4521
X145.1165 Y11.4976
X145.19 Y11.5622
X145.2266 Y11.5933
X145.3367 Y11.6756
X145.4468 Y11.7466
X145.5569 Y11.8078
X145.667 Y11.8615
X145.7412 Y11.8925
X145.7771 Y11.9063
X145.8872 Y11.9445
X145.9973 Y11.9761
X146.1175 Y12.0026
X146.2175 Y12.0192
X146.3276 Y12.032
X146.4377 Y12.0386
X146.5478 Y12.0389
X146.6579 Y12.0332
X146.7681 Y12.0212
X146.8836 Y12.0026
X146.9883 Y11.9796
X147.0983 Y11.9492
X147.2085 Y11.9119
X147.2603 Y11.8925
X147.3186 Y11.8679
X147.4286 Y11.8152
X147.4897 Y11.7824
X147.5388 Y11.7549
X147.6191 Y11.704
X147.6641 Y11.6832
X147.7129 Y11.6747
X147.7623 Y11.6791
X147.8089 Y11.6962
X147.8495 Y11.7247
X147.8813 Y11.7628
X147.9076 Y11.8043 Z-8.0935
X147.9321 Y11.843 Z-8.0745
X147.9532 Y11.8763 Z-8.0443
X147.9693 Y11.9018 Z-8.005
X147.9795 Y11.9178 Z-7.9592
X147.983 Y11.9233 Z-7.91
G0 Z5
X197.8146 Y-1.9949
Z-7.1
G1 Z-7.91 F3200
Y-1.9884 Z-7.9592
Y-1.9694 Z-8.005
Y-1.9393 Z-8.0443
Y-1.8999 Z-8.0745
Y-1.8541 Z-8.0935
Y-1.8049 Z-8.1
Y-1.8003
X197.6247 Y5.9854
X197.6302 Y6.0355
X197.6486 Y6.0824
X197.6787 Y6.1228
X197.7183 Y6.1538
X197.7647 Y6.1734
X197.8146 Y6.1801
G3 X198.1558 Y6.6831 J0.3672
G2 X198.0368 Y12.9993 I8.3288 J3.3161
G3 X197.677 Y13.51 I-0.3598 J0.1287
G1 X197.5974
G3 X197.1812 Y13.0939 J-0.4162
G1 X197.1806 Y6.5963
G3 X197.5968 Y6.1801 I0.4162
G1 X197.8146
G2 X198.3221 Y5.8417 J-0.5498
G3 X198.8297 Y5.5034 I0.5075 J0.2115
G1 X198.9317
G3 X199.2245 Y5.9998 J0.3346
G2 X198.2295 Y8.9517 I7.6182 J4.2115
X198.4022 Y12.0619 I7.7314 J1.1307
X198.6896 Y12.8896 I5.436 J-1.4236
X199.0598 Y13.6837 I16.7104 J-7.3071
G3 X198.7478 Y14.1867 I-0.312 J0.1547
G1 X197.0811
G3 X196.5046 Y13.6103 J-0.5765
G1 X196.5039 Y6.0798
G3 X197.0803 Y5.5034 I0.5764 J-0.0001
G1 X198.8297
G2 X199.7181 Y4.9111 J-0.9625
G3 X200.6065 Y4.3188 I0.8884 J0.3702
G1 X201.5023
G3 X201.6769 Y4.7654 J0.2574
G2 X201.3517 Y14.9139 I4.8322 J5.2343
G3 X201.157 Y15.3713 I-0.1947 J0.1873
G1 X195.8966
G3 X195.3201 Y14.7948 J-0.5765
G1 X195.3193 Y4.8953
G3 X195.8956 Y4.3188 I0.5764 J-0.0001
G1 X200.6065
X200.6557 Y4.3253
X200.7015 Y4.3443
X200.7408 Y4.3745
X200.771 Y4.4138
X200.79 Y4.4597
X200.7965 Y4.5088
Y4.558 Z-8.0935
Y4.6038 Z-8.0745
Y4.6432 Z-8.0443
Y4.6734 Z-8.005
Y4.6924 Z-7.9592
Y4.6988 Z-7.91
G0 Z5
X289.6344 Y8.8337
Z-6.8601
G1 X289.6353 Y8.8353 Z-6.8866 F1200
X289.6381 Y8.8401 Z-6.9125
X289.6426 Y8.8479 Z-6.9374
X289.6487 Y8.8588 Z-6.9608
X289.656 Y8.8725 Z-6.9822
X289.6644 Y8.8889 Z-7.0013
X289.6736 Y8.9077 Z-7.0176
X289.6831 Y8.9286 Z-7.0309
X289.6927 Y8.9512 Z-7.0408
X289.702 Y8.9752 Z-7.0472
X289.7109 Y9 Z-7.05
G3 X289.6472 Y8.8562 Z-7.2425 I-0.8539 J0.2922
X289.5595 Y8.7256 Z-7.435 I-0.7902 J0.436
X289.4504 Y8.6122 Z-7.6276 I-0.7025 J0.5666
X289.3234 Y8.5195 Z-7.8201 I-0.5934 J0.68
X289.1821 Y8.4503 Z-8.0126 I-0.4663 J0.7727
X288.8571 Y10.1947 Z-8.1 I-0.325 J0.8419
G1 X219.258 F3200
G3 Y9.4954 J-0.3497
G1 X288.8911
G3 X289.2072 Y9.8174 J0.3162
G1 X289.2062 Y9.8827
G3 X288.89 Y10.1947 I-0.3162 J-0.0043
G1 X288.8571
G2 X287.82 Y10.8861 J1.1235
G3 X286.783 Y11.5774 I-1.037 J-0.4321
G1 X217.8663
G3 X217.3637 Y11.0222 J-0.5051
G2 X217.3291 Y8.6652 I-10.2936 J-1.0277
G3 X217.8155 Y8.1127 I0.4864 J-0.0622
G1 X290.1848 Y8.1126
G3 X290.671 Y8.6618 J0.4899
G2 X290.6368 Y11.0221 I10.9757 J1.3393
G3 X290.1323 Y11.5774 I-0.5045 J0.0484
G1 X286.783
G2 X285.7809 Y12.2454 J1.0855
G3 X284.7789 Y12.9135 I-1.002 J-0.4175
G1 X216.1879
G3 X215.7749 Y12.3781 J-0.427
G2 X215.6885 Y7.3074 I-9.0759 J-2.3814
G3 X216.0836 Y6.7766 I0.3951 J-0.1184
G1 X291.9165
G3 X292.3117 Y7.3076 J0.4126
G2 X291.941 Y9.0625 I10.3951 J3.1123
X291.9144 Y10.856 I8.0634 J1.0167
X292.0389 Y11.6237 I5.9554 J-0.5718
X292.2249 Y12.3788 I24.1026 J-5.5371
G3 X291.8128 Y12.9135 I-0.4122 J0.1084
G1 X284.7789
G2 X283.824 Y13.5501 J1.0345
G3 X282.869 Y14.1867 I-0.9549 J-0.3979
G1 X214.2522
G3 X213.9402 Y13.6838 J-0.3483
G2 X214.3105 Y7.0773 I-7.5355 J-3.736
X214.0636 Y6.5283 I-4.0067 J1.4721
X213.7755 Y5.9999 I-45.0686 J24.2264
G3 X214.0684 Y5.5034 I0.2928 J-0.1619
G1 X293.9318
G3 X294.2244 Y6.0007 J0.3347
G2 X293.2594 Y8.7639 I7.5078 J4.1723
X293.3042 Y11.6905 I8.0586 J1.3401
X293.616 Y12.7123 I5.2096 J-1.0313
X294.0601 Y13.684 I15.5508 J-6.5189
G3 X293.7483 Y14.1867 I-0.3118 J0.1546
G1 X282.869
G2 X281.9806 Y14.779 J0.9625
G3 X281.0922 Y15.3713 I-0.8884 J-0.3702
G1 X211.843
G3 X211.6482 Y14.9142 J-0.2701
G2 X213.612 Y9.7714 I-5.0959 J-4.8922
X211.3225 Y4.7652 I-7.1747 J0.2546
G3 X211.4978 Y4.3188 I0.1753 J-0.1888
G1 X296.5038
G3 X296.6789 Y4.7638 J0.2569
G2 X294.5806 Y8.2239 I5.0593 J5.4343
X294.6691 Y12.2696 I6.7985 J1.8751
X295.3579 Y13.6883 I5.4096 J-1.7499
X296.3505 Y14.9139 I7.3167 J-4.911
G3 X296.157 Y15.3713 I-0.1935 J0.1878
G1 X281.0922
X281.043 Y15.3648
X280.9972 Y15.3458
X280.9579 Y15.3156
X280.9277 Y15.2763
X280.9087 Y15.2304
X280.9022 Y15.1813
Y15.1321 Z-8.0935
Y15.0863 Z-8.0745
Y15.0469 Z-8.0443
Y15.0167 Z-8.005
Y14.9977 Z-7.9592
Y14.9913 Z-7.91
G0 Z5
X310.7253 Y-1.9949
Z-7.1
G1 Z-7.91 F3200
Y-1.9884 Z-7.9592
Y-1.9695 Z-8.005
Y-1.9393 Z-8.0443
Y-1.8999 Z-8.0745
Y-1.8541 Z-8.0935
Y-1.8049 Z-8.1
X310.7251 Y-1.7972
X310.3702 Y6.884
X310.3748 Y6.9343
X310.3926 Y6.9816
X310.4222 Y7.0226
X310.4615 Y7.0543
X310.5078 Y7.0745
X310.5577 Y7.0818
X310.6079 Y7.0757
X310.6546 Y7.0566
X310.6947 Y7.0258
X310.7253 Y6.9856
G3 X311.0839 Y6.7769 I0.3586 J0.2036
G1 X311.6468
G3 X312.2232 Y7.3533 J0.5764
G1 Y12.3368
G3 X311.6468 Y12.9132 I-0.5764
G1 X311.1881
G3 X310.775 Y12.3778 J-0.4271
G2 X311.076 Y9.8353 I-8.9519 J-2.349
X310.6879 Y7.3046 I-9.7768 J0.2044
G3 X310.7253 Y6.9856 I0.3959 J-0.1153
G2 X311.1428 Y6.0778 I-5.0951 J-2.8931
G3 X311.9603 Y5.5033 I0.8175 J0.2944
G1 X312.9203
G3 X313.4968 Y6.0797 J0.5764
G1 Y13.6104
G3 X312.9204 Y14.1868 I-0.5764
G1 X309.2512
G3 X308.9399 Y13.6842 J-0.3477
G2 X308.7755 Y6.0001 I-7.4065 J-3.6853
G3 X309.0685 Y5.5033 I0.293 J-0.162
G1 X311.9603
G2 X312.8485 Y4.9111 J-0.9623
G3 X313.7368 Y4.319 I0.8882 J0.3701
G1 X314.1047
G3 X314.6811 Y4.8954 J0.5764
G1 Y14.7947
G3 X314.1047 Y15.3711 I-0.5764
G1 X306.844
G3 X306.6497 Y14.913 J-0.2703
G2 X306.3224 Y4.765 I-5.0845 J-4.9153
G3 X306.4958 Y4.319 I0.1734 J-0.1893
G1 X313.7368
G2 X314.6392 Y3.6868 J-0.9602
G3 X315.7243 Y3.8779 I0.5257 J0.1911
G1 X315.7244 Y15.8495
G3 X315.1595 Y16.4144 I-0.5649
G1 X194.8421
G3 X194.2771 Y15.8494 J-0.565
G1 X194.2761 Y3.8406
G3 X194.8409 Y3.2757 I0.5648 J-0.0001
G1 X315.1595
G3 X315.7243 Y3.8406 J0.5649
G1 Y3.8779
G2 X316.337 Y4.7968 I0.9955
G3 X316.9496 Y5.7158 I-0.3829 J0.9189
G1 Y17.0632
G3 X316.3732 Y17.6396 I-0.5764
G1 X193.6285
G3 X193.052 Y17.0632 J-0.5765
G1 X193.0507 Y2.6269
G3 X193.6271 Y2.0505 I0.5764 J-0.0001
G1 X316.3732
G3 X316.9496 Y2.6269 J0.5764
G1 Y5.7158
G2 X317.6499 Y6.7663 I1.1381
G3 X318.3503 Y7.8168 I-0.4377 J1.0505
G1 Y18.4639
G3 X317.7739 Y19.0403 I-0.5764
G1 X192.2279
G3 X191.6514 Y18.4639 J-0.5765
G1 X191.6499 Y1.2262
G3 X192.2263 Y0.6498 I0.5764 J-0.0001
G1 X317.7738
G3 X318.3503 Y1.2262 J0.5764
G1 Y7.8168
G2 X319.0551 Y8.8741 I1.1454
G3 X319.76 Y9.9313 I-0.4405 J1.0573
G1 Y20.8262
X319.7376 Y20.8013
X319.6935 Y20.7506
X319.6423 Y20.7
X319.6275 Y20.6867
X319.5725 Y20.6418
X319.5174 Y20.6033
X319.4962 Y20.5899
X319.4518 Y20.5643
X319.4073 Y20.5417
X319.3523 Y20.5177
X319.2972 Y20.4977
X319.2361 Y20.4798
X319.1871 Y20.4686
X319.1321 Y20.4592
X319.077 Y20.4531
X318.9669 Y20.45
X191.0289
X190.9188 Y20.4535
X190.8637 Y20.4598
X190.8087 Y20.4695
X190.764 Y20.4798
X190.6986 Y20.4991
X190.6435 Y20.5194
X190.5885 Y20.5438
X190.5461 Y20.5654
X190.5038 Y20.5899
X190.4784 Y20.606
X190.4233 Y20.6451
X190.3683 Y20.6905
X190.3578 Y20.7
X190.3041 Y20.7533
X190.2554 Y20.8101
X190.2477 Y20.8199
X190.2419 Y20.8274
X190.2401 Y0.0024
X190.2422 Y-0.0526
X190.2481 Y-0.1077
X190.2582 Y-0.1636
X190.272 Y-0.2178
X190.291 Y-0.2728
X190.3147 Y-0.3279
X190.3394 Y-0.3747
X190.3791 Y-0.438
X190.3997 Y-0.4655
X190.4219 Y-0.493
X190.4465 Y-0.5205
X190.4784 Y-0.5518
X190.5059 Y-0.5771
X190.5334 Y-0.5996
X190.5609 Y-0.6201
X190.5885 Y-0.6386
X190.6206 Y-0.6582
X190.6596 Y-0.679
X190.6986 Y-0.6973
X190.7536 Y-0.7187
X190.8087 Y-0.7353
X190.8637 Y-0.7473
X190.9188 Y-0.7553
X191.0289 Y-0.7599
X318.9669
X319.077 Y-0.7557
X319.1321 Y-0.748
X319.1871 Y-0.7363
X319.2422 Y-0.7201
X319.2972 Y-0.6992
X319.3383 Y-0.6801
X319.3793 Y-0.6582
X319.4073 Y-0.6413
X319.4348 Y-0.6229
X319.4624 Y-0.6029
X319.4899 Y-0.5807
X319.5254 Y-0.5481
X319.5775 Y-0.493
X319.6002 Y-0.4655
X319.621 Y-0.438
X319.6588 Y-0.3779
X319.6852 Y-0.3279
X319.709 Y-0.2728
X319.7281 Y-0.2178
X319.7376 Y-0.182
X319.7457 Y-0.1448
X319.752 Y-0.1077
X319.7579 Y-0.0526
X319.7599 Y0.0024
X319.76 Y9.9313
X319.7535 Y9.9805
X319.7346 Y10.0263
X319.7044 Y10.0657
X319.665 Y10.0959
X319.6192 Y10.1149
X319.57 Y10.1213
X319.5208 Z-8.0935
X319.475 Z-8.0745
X319.4357 Z-8.0443
X319.4055 Z-8.005
X319.3865 Z-7.9592
X319.38 Z-7.91
G0 Z5
X309.7504 Y10.2715
Z-7.1
G1 Z-7.91 F3200
X309.7439 Z-7.9592
X309.7249 Y10.2714 Z-8.005
X309.6947 Y10.2713 Z-8.0443
X309.6554 Y10.2711 Z-8.0745
X309.6095 Y10.2709 Z-8.0935
X309.5604 Y10.2707 Z-8.1
X307.8468 Y10.2636
X307.7978 Y10.257
X307.7521 Y10.2379
X307.7129 Y10.2077
X307.6829 Y10.1684
X307.664 Y10.1227
X307.6576 Y10.0736
Y10.0729
G2 X307.6423 Y9.6176 I-6.0392 J-0.025
X305.6294 Y5.437 I-6.2793 J0.4485
X301.2692 Y3.8502 I-4.0799 J4.4268
X295.3546 Y10.0958 I0.2888 J6.1969
X301.4608 Y16.1543 I6.1062 J-0.0479
X305.9741 Y14.2312 J-6.2578
X307.6576 Y10.0729 I-4.3557 J-4.1833
X307.2402 Y9.4695 I-0.641 J-0.0027
G3 X306.7607 Y8.9142 I0.266 J-0.7144
G2 X305.1139 Y6.0171 I-5.3983 J1.152
X301.3053 Y4.6253 I-3.5645 J3.8472
X296.1303 Y10.0777 I0.2527 J5.4219
X301.4608 Y15.3783 I5.3304 J-0.03
X305.4062 Y13.7024 J-5.4821
X306.8683 Y9.6729 I-3.7881 J-3.6545
X306.7607 Y8.9142 I-5.5058 J0.3933
X305.4945 Y7.8223 I-1.3528 J0.2887
G3 X303.948 Y7.187 I0.163 J-2.5967
G2 X301.2708 Y6.2532 I-2.5032 J2.872
X301.4724 Y13.7537 I0.1747 J3.7483
X304.149 Y12.6612 I-0.0264 J-3.8898
X305.254 Y9.9897 I-2.5178 J-2.6056
X303.948 Y7.187 I-3.8091 J0.0693
X302.0447 Y7.1667 I-0.9636 J1.1055
G3 X300.4722 Y8.2392 I-6.2996 J-7.5472
G1 X300.4698 Y8.2405
X300.3597 Y8.3092
X300.2497 Y8.3888
X300.1396 Y8.481
X300.0268 Y8.5897
X299.9762 Y8.6447
X299.9193 Y8.7116
X299.8437 Y8.8099
X299.7701 Y8.92
X299.6992 Y9.0431
X299.6514 Y9.1402
X299.6041 Y9.2503
X299.5891 Y9.2875
X299.5642 Y9.3603
X299.5312 Y9.4704
X299.5049 Y9.5805
X299.4846 Y9.6906
X299.4789 Y9.731
X299.4704 Y9.8007
X299.4626 Y9.9108
X299.4605 Y10.0209
X299.4647 Y10.131
X299.4752 Y10.2411
X299.4789 Y10.273
X299.4916 Y10.3512
X299.5134 Y10.4613
X299.543 Y10.5714
X299.5786 Y10.6815
X299.5891 Y10.7105
X299.6207 Y10.7916
X299.6714 Y10.9017
X299.6992 Y10.9557
X299.7292 Y11.0117
X299.7617 Y11.0668
X299.7966 Y11.1218
X299.8746 Y11.2319
X299.9648 Y11.342
X299.9953 Y11.3771
X300.069 Y11.4521
X300.1396 Y11.5186
X300.2497 Y11.6112
X300.3597 Y11.6907
X300.4698 Y11.7597
X300.5103 Y11.7824
X300.58 Y11.8196
X300.6901 Y11.8713
X300.7399 Y11.8925
X300.8002 Y11.915
X300.9102 Y11.952
X301.0204 Y11.9817
X301.1152 Y12.0026
X301.2406 Y12.0223
X301.3507 Y12.0339
X301.4608 Y12.039
X301.5709 Y12.0383
X301.681 Y12.0313
X301.7911 Y12.018
X301.9012 Y11.999
X302.0113 Y11.9741
X302.1214 Y11.9418
X302.2315 Y11.9029
X302.3416 Y11.8576
X302.4517 Y11.8032
X302.5618 Y11.7412
X302.6719 Y11.6696
X302.782 Y11.5862
X302.8102 Y11.5622
X302.8921 Y11.4901
X302.9312 Y11.4521
X303.0022 Y11.3787
X303.0363 Y11.342
X303.1255 Y11.2319
X303.2034 Y11.1218
X303.2707 Y11.0117
X303.3325 Y10.8941
X303.3788 Y10.7916
X303.4216 Y10.6815
X303.4426 Y10.621
X303.4571 Y10.5714
X303.486 Y10.4613
X303.5085 Y10.3512
X303.5248 Y10.2411
X303.5354 Y10.131
X303.5395 Y10.0209
X303.5375 Y9.9108
X303.5296 Y9.8007
X303.5158 Y9.6906
X303.4951 Y9.5805
X303.4688 Y9.4704
X303.4426 Y9.3805
X303.3967 Y9.2503
X303.3487 Y9.1402
X303.294 Y9.0301
X303.263 Y8.975
X303.2299 Y8.92
X303.1564 Y8.8099
X303.0711 Y8.6998
X303.0384 Y8.6605
X302.9728 Y8.5897
X302.8921 Y8.5103
X302.8581 Y8.4796
X302.782 Y8.4142
X302.6719 Y8.3304
X302.5618 Y8.2589
X302.4517 Y8.1963
X302.3416 Y8.143
X302.2315 Y8.0971
X302.1214 Y8.0582
X302.0629 Y8.0392
X302.0113 Y8.0261
X301.9012 Y8.001
X301.7911 Y7.982
X301.681 Y7.9688
X301.5709 Y7.9617
X301.4608 Y7.961
X301.3507 Y7.9661
X301.2406 Y7.9777
X301.1305 Y7.9948
X301.0204 Y8.0183
X300.9403 Y8.0392
X300.9102 Y8.0483
X300.8002 Y8.0846
X300.6901 Y8.1289
X300.6445 Y8.1493
X300.58 Y8.1801
X300.4722 Y8.2392
X300.426 Y8.2572
X300.3767 Y8.2626
X300.3276 Y8.255
X300.2822 Y8.235
X300.2436 Y8.204
X300.2142 Y8.164
X300.1906 Y8.1208 Z-8.0935
X300.1686 Y8.0807 Z-8.0745
X300.1496 Y8.0462 Z-8.0443
X300.1351 Y8.0197 Z-8.005
X300.126 Y8.0031 Z-7.9592
X300.1229 Y7.9974 Z-7.91
G0 Z5
X214.7565 Y10.0419
Z-7.1
G1 Z-7.91 F3200
X214.75 Y10.0421 Z-7.9592
X214.7311 Y10.0425 Z-8.005
X214.7009 Y10.0431 Z-8.0443
X214.6615 Y10.044 Z-8.0745
X214.6157 Y10.045 Z-8.0935
X214.5666 Y10.0461 Z-8.1
X212.8534 Y10.0833
X212.8041 Y10.0779
X212.7578 Y10.0599
X212.7178 Y10.0306
X212.6868 Y9.9919
X212.6668 Y9.9465
X212.6593 Y9.8974
G2 X212.567 Y8.9685 I-6.0405 J0.1312
X205.4452 Y3.9373 I-6.107 J1.0885
X206.7774 Y16.148 I0.9978 J6.0691
X211.2889 Y13.862 I-0.3421 J-6.27
X212.6593 Y9.8974 I-4.6701 J-3.8333
X212.2269 Y9.2965 I-0.6536 J0.0142
G3 X211.7353 Y8.743 I0.2615 J-0.7274
G2 X206.551 Y4.622 I-5.1807 J1.196
X202.7184 Y6.1976 I0.0037 J5.458
X201.1214 Y10.0212 I3.7776 J3.8232
X202.886 Y14.0082 I5.3876 J-0.0005
X207.0341 Y15.3513 I3.5602 J-3.9185
X211.8685 Y9.7581 I-0.6042 J-5.4081
X211.7353 Y8.743 I-5.3139 J0.1809
X210.4505 Y7.6733 I-1.3465 J0.3108
G3 X208.8885 Y7.0775 I0.1187 J-2.6567
G2 X206.552 Y6.2465 I-2.334 J2.862
X203.8676 Y7.3458 I0.0026 J3.8337
X202.7459 Y10.0211 I2.6286 J2.6749
X203.969 Y12.7974 I3.7633 J-0.0003
X206.8537 Y13.7369 I2.4772 J-2.7078
X210.2465 Y9.849 I-0.4239 J-3.7943
X208.8885 Y7.0775 I-3.692 J0.0906
X206.9279 Y7.1215 I-0.9545 J1.1705
G3 X205.3651 Y8.3061 I-8.1338 J-9.1078
G1 X205.3421 Y8.3208
X205.232 Y8.4026
X205.1867 Y8.4395
X205.1219 Y8.497
X205.0745 Y8.5416
X205.0118 Y8.6061
X204.929 Y8.6998
X204.8434 Y8.8099
X204.7699 Y8.92
X204.706 Y9.0301
X204.6815 Y9.0775
X204.6513 Y9.1402
X204.6035 Y9.2503
X204.5641 Y9.3603
X204.531 Y9.4704
X204.5043 Y9.5805
X204.4846 Y9.6906
X204.4705 Y9.8007
X204.4626 Y9.9108
X204.4613 Y9.9842
X204.4606 Y10.0209
X204.4646 Y10.131
X204.4755 Y10.2411
X204.4911 Y10.3512
X204.5139 Y10.4613
X204.5428 Y10.5714
X204.5714 Y10.6621
X204.62 Y10.7916
X204.6713 Y10.9017
X204.7288 Y11.0117
X204.7963 Y11.1218
X204.8742 Y11.2319
X204.9649 Y11.342
X205.0118 Y11.3929
X205.0694 Y11.4521
X205.1219 Y11.5033
X205.1888 Y11.5622
X205.232 Y11.5977
X205.3421 Y11.6791
X205.4522 Y11.7497
X205.5623 Y11.8107
X205.6724 Y11.8638
X205.7407 Y11.8925
X205.7825 Y11.9084
X205.8926 Y11.9462
X206.0027 Y11.9774
X206.1171 Y12.0026
X206.2229 Y12.0199
X206.333 Y12.0324
X206.4431 Y12.0387
X206.5532
X206.6633 Y12.0327
X206.7734 Y12.0204
X206.8835 Y12.0025
X206.9936 Y11.9783
X207.1037 Y11.9474
X207.2138 Y11.9098
X207.2597 Y11.8925
X207.3239 Y11.8655
X207.434 Y11.8126
X207.5441 Y11.7518
X207.6542 Y11.6816
X207.7643 Y11.6006
X207.8112 Y11.5622
X207.8744 Y11.5067
X207.9307 Y11.4521
X207.9845 Y11.3969
X208.0351 Y11.342
X208.1259 Y11.2319
X208.2047 Y11.1204
X208.2712 Y11.0117
X208.3287 Y10.9017
X208.3801 Y10.7916
X208.4249 Y10.6723
X208.4573 Y10.5714
X208.4862 Y10.4613
X208.5085 Y10.3512
X208.5246 Y10.2411
X208.535 Y10.1407
X208.5394 Y10.0209
X208.5374 Y9.9108
X208.5295 Y9.8007
X208.5154 Y9.6906
X208.4958 Y9.5805
X208.469 Y9.4704
X208.4359 Y9.3603
X208.4249 Y9.3282
X208.3963 Y9.2503
X208.3488 Y9.1402
X208.3148 Y9.0698
X208.294 Y9.0301
X208.2301 Y8.92
X208.1566 Y8.8099
X208.0711 Y8.6998
X207.9729 Y8.5897
X207.9237 Y8.5398
X207.8588 Y8.4796
X207.8116 Y8.4381
X207.7643 Y8.3997
X207.6542 Y8.3183
X207.5441 Y8.2484
X207.434 Y8.1871
X207.3239 Y8.1348
X207.2138 Y8.0898
X207.1037 Y8.0527
X207.0606 Y8.0392
X206.9936 Y8.0218
X206.8835 Y7.9975
X206.7734 Y7.9796
X206.6633 Y7.9673
X206.5532 Y7.9613
X206.4431
X206.333 Y7.9676
X206.2229 Y7.9801
X206.1128 Y7.9982
X206.0027 Y8.0227
X205.9389 Y8.0392
X205.8926 Y8.0538
X205.7825 Y8.0913
X205.6724 Y8.1365
X205.5623 Y8.189
X205.4522 Y8.2505
X205.3651 Y8.3061
X205.3201 Y8.3271
X205.2713 Y8.3358
X205.2219 Y8.3315
X205.1753 Y8.3146
X205.1346 Y8.2862
X205.1027 Y8.2482
X205.0762 Y8.2068 Z-8.0935
X205.0516 Y8.1681 Z-8.0745
X205.0304 Y8.135 Z-8.0443
X205.0141 Y8.1095 Z-8.005
X205.0039 Y8.0935 Z-7.9592
X205.0004 Y8.0881 Z-7.91
G0 Z5
X176.8936 Y250.2866
Z-7.7601
G1 X176.892 Y250.2875 Z-7.7866 F1200
X176.8872 Y250.2903 Z-7.8125
X176.8793 Y250.2948 Z-7.8374
X176.8685 Y250.3009 Z-7.8608
X176.8547 Y250.3082 Z-7.8822
X176.8383 Y250.3166 Z-7.9013
X176.8196 Y250.3257 Z-7.9176
X176.7987 Y250.3352 Z-7.9309
X176.776 Y250.3448 Z-7.9408
X176.7521 Y250.3542 Z-7.9472
X176.7273 Y250.3631 Z-7.95
G3 X176.8711 Y250.2994 Z-8.1425 I-0.2922 J-0.8539
X177.0017 Y250.2117 Z-8.335 I-0.436 J-0.7902
X177.1151 Y250.1026 Z-8.5276 I-0.5666 J-0.7025
X177.2078 Y249.9755 Z-8.7201 I-0.68 J-0.5934
X177.277 Y249.8343 Z-8.9126 I-0.7727 J-0.4663
X175.5326 Y249.5092 Z-9 I-0.8419 J-0.325
G1 Y13.2472 F3200
G3 X175.9573 Y12.8226 I0.4247
G1 X176.0428
G3 X176.4674 Y13.2472 J0.4247
G1 Y249.552
G3 X176.0428 Y249.9766 I-0.4247
G1 X175.9573
G3 X175.5326 Y249.552 J-0.4247
G1 Y249.5092
G2 X175.0489 Y248.7837 I-0.786
G3 X174.5652 Y248.0582 I0.3023 J-0.7255
G1 Y12.4317
G3 X175.1417 Y11.8552 I0.5764
G1 X176.8584
G3 X177.4348 Y12.4317 J0.5764
G1 Y250.3675
G3 X176.8584 Y250.9439 I-0.5765
G1 X175.1417 Y250.944
G3 X174.5652 Y250.3676 J-0.5764
G1 Y248.0582
G2 X173.8649 Y247.0077 I-1.1381
G3 X173.1646 Y245.9572 I0.4377 J-1.0505
G1 Y11.031
G3 X173.741 Y10.4545 I0.5764
G1 X178.259
G3 X178.8355 Y11.031 J0.5764
G1 Y251.7681
G3 X178.259 Y252.3445 I-0.5765
G1 X173.741 Y252.3448
G3 X173.1646 Y251.7684 J-0.5764
G1 Y245.9572
G2 X172.4642 Y244.9066 I-1.1381
G3 X171.7639 Y243.8561 I0.4377 J-1.0505
G1 Y9.6303
G3 X172.3403 Y9.0539 I0.5764
G1 X179.6597
G3 X180.2362 Y9.6303 J0.5764
G1 Y253.1687
G3 X179.6597 Y253.7452 I-0.5765
G1 X172.3403 Y253.7456
G3 X171.7639 Y253.1692 J-0.5764
G1 Y243.8561
G2 X171.0635 Y242.8056 I-1.1381
G3 X170.3632 Y241.7551 I0.4377 J-1.0505
G1 Y8.2296
G3 X170.9396 Y7.6532 I0.5764
G1 X181.0604
G3 X181.6369 Y8.2296 J0.5764
G1 Y254.5693
G3 X181.0604 Y255.1458 I-0.5765
G1 X170.9396 Y255.1463
G3 X170.3632 Y254.5699 J-0.5764
G1 Y241.7551
G2 X169.6628 Y240.7046 I-1.1381
G3 X168.9625 Y239.6541 I0.4377 J-1.0505
G1 Y6.8289
G3 X169.5389 Y6.2525 I0.5764
G1 X182.4611
G3 X183.0375 Y6.8289 J0.5764
G1 Y255.9699
G3 X182.4611 Y256.5464 I-0.5765
G1 X169.5389 Y256.5471
G3 X168.9625 Y255.9707 J-0.5764
G1 Y239.6541
G2 X168.2621 Y238.6035 I-1.1381
G3 X167.5618 Y237.553 I0.4377 J-1.0505
G1 Y5.4282
G3 X168.1382 Y4.8518 I0.5764
G1 X183.8618
G3 X184.4382 Y5.4282 J0.5764
G1 Y257.3705
G3 X183.8618 Y257.947 I-0.5765
G1 X168.1382 Y257.9478
G3 X167.5618 Y257.3715 J-0.5764
G1 Y237.553
G2 X166.8615 Y236.5025 I-1.1381
G3 X166.1611 Y235.452 I0.4377 J-1.0505
G1 Y4.0275
G3 X166.7375 Y3.4511 I0.5764
G1 X185.2625
G3 X185.8389 Y4.0275 J0.5764
G1 Y258.7711
G3 X185.2625 Y259.3476 I-0.5765
G1 X166.7375 Y259.3486
G3 X166.1611 Y258.7722 J-0.5764
G1 Y235.452
G2 X165.4608 Y234.4015 I-1.1381
G3 X164.7604 Y233.351 I0.4377 J-1.0505
G1 Y2.6268
G3 X165.3369 Y2.0504 I0.5764
G1 X186.6632
G3 X187.2396 Y2.6268 J0.5764
G1 Y260.1718
G3 X186.6632 Y260.7482 I-0.5765
G1 X165.3368 Y260.7494
G3 X164.7604 Y260.173 J-0.5764
G1 Y233.351
G2 X164.0601 Y232.3004 I-1.1381
G3 X163.3597 Y231.2499 I0.4377 J-1.0505
G1 Y1.2261
G3 X163.9362 Y0.6497 I0.5764
G1 X188.0639
G3 X188.6403 Y1.2261 J0.5764
G1 Y261.5724
G3 X188.0639 Y262.1488 I-0.5765
G1 X163.9362 Y262.1501
G3 X163.3597 Y261.5738 J-0.5764
G1 Y231.2499
G2 X162.6549 Y230.1926 I-1.1454
G3 X161.95 Y229.1354 I0.4405 J-1.0573
G1 Y0.0024
X161.9486 Y-0.0526
X161.9439 Y-0.1077
X161.936 Y-0.1627
X161.9247 Y-0.2178
X161.91 Y-0.2728
X161.8916 Y-0.3279
X161.8733 Y-0.3741
X161.852 Y-0.4203
X161.843 Y-0.438
X161.8121 Y-0.493
X161.776 Y-0.5481
X161.7419 Y-0.5934
X161.7148 Y-0.6258
X161.6851 Y-0.6582
X161.6318 Y-0.7095
X161.5865 Y-0.7474
X161.5721 Y-0.7584
X161.617 Y-0.76
X190.4259
X190.3978 Y-0.7348
X190.3683 Y-0.7095
X190.3149 Y-0.6582
X190.2853 Y-0.6258
X190.2582 Y-0.5934
X190.224 Y-0.5481
X190.188 Y-0.493
X190.157 Y-0.438
X190.1481 Y-0.4203
X190.1268 Y-0.3741
X190.1084 Y-0.3279
X190.09 Y-0.2728
X190.0753 Y-0.2178
X190.0641 Y-0.1627
X190.0561 Y-0.1077
X190.0515 Y-0.0526
X190.05 Y0.0024
Y262.7954
X190.0514 Y262.8504
X190.0559 Y262.9055
X190.0637 Y262.9605
X190.0748 Y263.0156
X190.0894 Y263.0706
X190.1076 Y263.1257
X190.1263 Y263.173
X190.1559 Y263.2357
X190.1866 Y263.2908
X190.2225 Y263.3459
X190.2582 Y263.3934
X190.2843 Y263.4247
X190.3128 Y263.456
X190.3683 Y263.5095
X190.4136 Y263.5474
X190.4279 Y263.5584
X161.5742 Y263.56
X161.6022 Y263.5348
X161.6318 Y263.5095
X161.6872 Y263.456
X161.7157 Y263.4247
X161.7419 Y263.3934
X161.7775 Y263.3459
X161.8134 Y263.2908
X161.8442 Y263.2357
X161.8737 Y263.173
X161.8925 Y263.1257
X161.9107 Y263.0706
X161.9252 Y263.0156
X161.9364 Y262.9605
X161.9441 Y262.9055
X161.9487 Y262.8504
X161.95 Y262.7954
Y229.1354
X161.9519 Y229.1084 Z-8.9981
X161.9575 Y229.0825 Z-8.9923
X161.9662 Y229.0587 Z-8.9828
X161.9771 Y229.0376 Z-8.9698
X161.9893 Y229.0196 Z-8.9536
X162.0017 Y229.0051 Z-8.9344
X162.0134 Y228.9937 Z-8.9127
X162.0233 Y228.9854 Z-8.8889
X162.031 Y228.9798 Z-8.8635
X162.0357 Y228.9765 Z-8.837
X162.0374 Y228.9755 Z-8.81
G0 Z6

G53 Z5
M5
G4 P1.0
G53 X0 Y0
M30
%
