%
(Made in : Autodesk CAM Post Processor)
(G Code optimized for OpenBuilds OX CNC 1000 x 750 with GRBL V0.9j controller)

(Program Name : 1001)
(1 Operation :)
(1 : Pocket3)
(  Tool : Flat End Mill 3 Flutes, Diam = 3.175mm, Len = 20mm)
(  Spindle : RPM = 30000, set router dial to 6)
(  Machining time : 4 min 21 sec)

G90 G94
G17
G21

(Operation 1 of 1 : Pocket3)

G53 G0 Z5
G54
S30000 M3
G4 P1.0
X337.1046 Y177.1786
Z6
Z-1.6825
G1 X337.0966 Z-1.7531 F3500
X337.0731 Z-1.8203
X337.0353 Z-1.8804
X336.985 Z-1.9307
X336.9248 Y177.1785 Z-1.9686
X336.8577 Z-1.992
X336.7871 Z-2
X333.0827 Y177.1771
X26.1235 Y177.0615
G2 X25.1177 Y177.0984 I0.0001 J13.7321
G1 X25.0745 Y177.0956
X25.0336 Y177.0813
X24.9981 Y177.0565
X24.9707 Y177.023
X24.9533 Y176.9833
X24.9473 Y176.9405
X24.9425 Y175.0576
X24.9483 Y175.0145
X24.9657 Y174.9745
X24.9933 Y174.9408
X25.029 Y174.9158
X25.0702 Y174.9015
X25.1136 Y174.899
G2 X26.1237 Y174.9386 I1.01 J-12.858
G1 X332.0938 Y174.9371
G2 X333.0874 Y174.901 I-0.0001 J-13.6839
G1 X333.1307 Y174.9038
X333.1717 Y174.9183
X333.2072 Y174.9433
X333.2346 Y174.977
X333.2519 Y175.0169
X333.2576 Y175.06
X333.2413 Y179.3588
X333.2334 Y179.4077
X333.2108 Y179.4518
X333.1756 Y179.4868
X333.1314 Y179.5092
X333.0825 Y179.5169
X26.1235 Y179.4021
G2 X25.1181 Y179.4465 I0.0001 J11.3922
G1 X25.0744 Y179.4444
X25.033 Y179.4303
X24.9969 Y179.4055
X24.969 Y179.3719
X24.9514 Y179.3318
X24.9453 Y179.2885
X24.942 Y172.7079
X24.948 Y172.6643
X24.9658 Y172.6241
X24.9939 Y172.5903
X25.0302 Y172.5655
X25.072 Y172.5516
X25.1159 Y172.5497
G2 X26.1237 Y172.5979 I1.0077 J-10.5088
G1 X332.0938 Y172.5965
G2 X333.0869 Y172.553 I-0.0001 J-11.3444
G1 X333.1307 Y172.5552
X333.1722 Y172.5693
X333.2082 Y172.5941
X333.2361 Y172.6279
X333.2537 Y172.668
X333.2596 Y172.7114
X333.2411 Y181.6983
X333.2332 Y181.7473
X333.2106 Y181.7915
X333.1755 Y181.8265
X333.1313 Y181.849
X333.0823 Y181.8568
X26.1236 Y181.7427
G2 X25.1128 Y181.7993 I0.0001 J9.0527
G1 X25.0684 Y181.798
X25.0261 Y181.7845
X24.9892 Y181.7599
X24.9606 Y181.726
X24.9425 Y181.6854
X24.9363 Y181.6415
X24.9404 Y170.3531
X24.9467 Y170.3089
X24.9651 Y170.2682
X24.994 Y170.2343
X25.0313 Y170.2097
X25.0739 Y170.1965
X25.1186 Y170.1956
G2 X26.1237 Y170.2573 I1.005 J-8.1547
G1 X332.0938 Y170.2559
G2 X333.0862 Y170.2011 I-0.0001 J-9.0054
G1 X333.1306 Y170.2024
X333.1728 Y170.216
X333.2097 Y170.2407
X333.2383 Y170.2746
X333.2563 Y170.3152
X333.2625 Y170.3591
X333.2408 Y184.0381
X333.233 Y184.0871
X333.2104 Y184.1313
X333.1753 Y184.1664
X333.1311 Y184.1889
X333.0821 Y184.1966
X26.1236 Y184.0833
G2 X25.1145 Y184.1596 J6.7138
G1 X25.0648 Y184.1632
X21.3664 Y184.1402
X21.2958 Y184.1398 Z-1.992
X21.2287 Y184.1394 Z-1.9686
X21.1685 Y184.139 Z-1.9307
X21.1182 Y184.1387 Z-1.8805
X21.0804 Y184.1385 Z-1.8203
X21.0569 Y184.1383 Z-1.7532
X21.0489 Z-1.6825
G0 Z5
X21.0961 Y167.1331
Z-1.6825
G1 X21.1039 Y167.1345 Z-1.7532 F3500
X21.1271 Y167.1385 Z-1.8203
X21.1643 Y167.145 Z-1.8805
X21.2139 Y167.1535 Z-1.9307
X21.2732 Y167.1638 Z-1.9686
X21.3393 Y167.1753 Z-1.992
X21.4089 Y167.1873 Z-2
X25.1145 Y167.8295
X25.147 Y167.835
G2 X26.1236 Y167.9167 I0.9766 J-5.7941
G1 X332.0938 Y167.9153
G2 X333.0845 Y167.8413 J-6.6675
G1 X333.1342 Y167.8378
X336.8326 Y167.8671
X336.9032 Y167.8677 Z-1.992
X336.9703 Y167.8682 Z-1.9686
X337.0305 Y167.8687 Z-1.9307
X337.0808 Y167.8691 Z-1.8805
X337.1186 Y167.8694 Z-1.8203
X337.1421 Y167.8696 Z-1.7531
X337.15 Y167.8697 Z-1.6825
G0 Z5
X337.1475 Y185.8965
Z-1.7142
G1 X337.1404 Y185.8976 Z-1.7778 F3500
X337.1195 Y185.9009 Z-1.8382
X337.0859 Y185.9062 Z-1.8924
X337.0412 Y185.9133 Z-1.9377
X336.9877 Y185.9218 Z-1.9717
X336.928 Y185.9312 Z-1.9928
X336.8652 Y185.9412 Z-2
X333.1315 Y186.5325
X333.0818 Y186.5365
X26.1236 Y186.4239
G2 X25.1137 Y186.542 J4.3767
G1 X25.0645 Y186.5497
X25.0146 Y186.5495
X21.3779 Y186.2532
X21.3074 Y186.2475 Z-1.992
X21.2406 Y186.242 Z-1.9686
X21.1806 Y186.2371 Z-1.9307
X21.1304 Y186.233 Z-1.8805
X21.0927 Y186.23 Z-1.8203
X21.0693 Y186.228 Z-1.7532
X21.0614 Y186.2274 Z-1.6825
G0 Z5
X21.0959 Y164.3889
Z-1.6825
G1 X21.1036 Y164.391 Z-1.7532 F3500
X21.1263 Y164.3969 Z-1.8203
X21.1629 Y164.4064 Z-1.8805
X21.2116 Y164.4191 Z-1.9307
X21.2698 Y164.4343 Z-1.9686
X21.3348 Y164.4512 Z-1.992
X21.4031 Y164.469 Z-2
X25.1183 Y165.4375
G2 X25.5361 Y165.527 I1.2246 J-4.698
X26.1236 Y165.5761 I0.5876 J-3.486
G1 X332.0938 Y165.5747
G2 X333.0855 Y165.4597 J-4.3322
G1 X333.1348 Y165.4521
X333.1846 Y165.4523
X336.8208 Y165.7555
X336.8912 Y165.7614 Z-1.992
X336.9581 Y165.767 Z-1.9686
X337.018 Y165.772 Z-1.9307
X337.0681 Y165.7762 Z-1.8805
X337.1058 Y165.7793 Z-1.8203
X337.1292 Y165.7813 Z-1.7532
X337.1372 Y165.7819 Z-1.6825
G0 Z5
X339.0802 Y185.8966
Z-1.7778
G1 X339.0734 Y185.9001 Z-1.8353 F3500
X339.0536 Y185.9102 Z-1.8889
X339.0222 Y185.9262 Z-1.9349
X338.9812 Y185.9471 Z-1.9702
X338.9334 Y185.9714 Z-1.9924
X338.8821 Y185.9975 Z-2
X333.2283 Y188.8784
G3 X333.0842 Y188.913 I-0.1442 J-0.2829
G1 X26.1236 Y188.9153
G2 X25.9501 Y188.9298 J1.0437
G1 X25.7575 Y188.9623
G2 X25.5638 Y189.0145 I0.1735 J1.0292
G1 X25.3711 Y189.0869
G2 X25.1843 Y189.1793 I0.3672 J0.977
G1 X25.1173 Y189.2213
G3 X24.927 Y189.2689 I-0.1685 J-0.2691
G1 X21.3858 Y189.0246
X21.3153 Y189.0197 Z-1.992
X21.2483 Y189.0151 Z-1.9686
X21.1883 Y189.011 Z-1.9307
X21.1381 Y189.0075 Z-1.8805
X21.1004 Y189.0049 Z-1.8203
X21.077 Y189.0033 Z-1.7532
X21.069 Y189.0027 Z-1.6825
G0 Z5
X21.096 Y161.0631
Z-1.7142
G1 X21.1025 Y161.0659 Z-1.7778 F3500
X21.122 Y161.0742 Z-1.8382
X21.1533 Y161.0876 Z-1.8924
X21.195 Y161.1053 Z-1.9377
X21.2448 Y161.1265 Z-1.9717
X21.3004 Y161.1501 Z-1.9928
X21.3589 Y161.175 Z-2
X25.0732 Y162.7557
X25.1173 Y162.7787
X25.1843 Y162.8207
G2 X25.3711 Y162.9131 I0.5539 J-0.8846
G1 X25.5638 Y162.9855
G2 X25.7575 Y163.0377 I0.3672 J-0.977
G1 X25.9501 Y163.0702
G2 X26.1236 Y163.0847 I0.1735 J-1.0292
G1 X332.0938 Y163.0833
G2 X332.2848 Y163.0657 J-1.0437
G1 X332.4774 Y163.0298
G2 X332.6648 Y162.9765 I-0.1909 J-1.0261
G1 X332.8453 Y162.9063
G2 X333.0141 Y162.8223 I-0.3783 J-0.9728
G1 X333.0873 Y162.7773
X333.1298 Y162.759
X333.1757 Y162.7538
X333.2213 Y162.7621
X333.2625 Y162.7831
X333.2959 Y162.8151
X333.3186 Y162.8554
X333.3288 Y162.9005
X334.397 Y177.0068
X334.3943 Y177.0501
X334.38 Y177.0911
X334.3551 Y177.1267
X334.3215 Y177.1542
X334.2816 Y177.1716
X334.2386 Y177.1775
X334.168 Z-2.008
X334.1009 Z-2.0314
X334.0407 Y177.1774 Z-2.0693
X333.9904 Z-2.1195
X333.9526 Z-2.1797
X333.9291 Z-2.2468
X333.9211 Z-2.3175
Z-3.6825
X333.9132 Z-3.7532
X333.8897 Z-3.8203
X333.8518 Z-3.8805
X333.8016 Z-3.9307
X333.7414 Y177.1773 Z-3.9686
X333.6743 Z-3.992
X333.6036 Z-4
X333.0827 Y177.1771
X26.1235 Y177.0615
G2 X25.1177 Y177.0984 I0.0001 J13.7321
G1 X25.0745 Y177.0956
X25.0336 Y177.0813
X24.9981 Y177.0565
X24.9707 Y177.023
X24.9533 Y176.9833
X24.9473 Y176.9405
X24.9425 Y175.0576
X24.9483 Y175.0145
X24.9657 Y174.9745
X24.9933 Y174.9408
X25.029 Y174.9158
X25.0702 Y174.9015
X25.1136 Y174.899
G2 X26.1237 Y174.9386 I1.01 J-12.858
G1 X332.0938 Y174.9371
G2 X333.0874 Y174.901 I-0.0001 J-13.6839
G1 X333.1307 Y174.9038
X333.1717 Y174.9183
X333.2072 Y174.9433
X333.2346 Y174.977
X333.2519 Y175.0169
X333.2576 Y175.06
X333.2413 Y179.3588
X333.2334 Y179.4077
X333.2108 Y179.4518
X333.1756 Y179.4868
X333.1314 Y179.5092
X333.0825 Y179.5169
X26.1235 Y179.4021
G2 X25.1181 Y179.4465 I0.0001 J11.3922
G1 X25.0744 Y179.4444
X25.033 Y179.4303
X24.9969 Y179.4055
X24.969 Y179.3719
X24.9514 Y179.3318
X24.9453 Y179.2885
X24.942 Y172.7079
X24.948 Y172.6643
X24.9658 Y172.6241
X24.9939 Y172.5903
X25.0302 Y172.5655
X25.072 Y172.5516
X25.1159 Y172.5497
G2 X26.1237 Y172.5979 I1.0077 J-10.5088
G1 X332.0938 Y172.5965
G2 X333.0869 Y172.553 I-0.0001 J-11.3444
G1 X333.1307 Y172.5552
X333.1722 Y172.5693
X333.2082 Y172.5941
X333.2361 Y172.6279
X333.2537 Y172.668
X333.2596 Y172.7114
X333.2411 Y181.6983
X333.2332 Y181.7473
X333.2106 Y181.7915
X333.1755 Y181.8265
X333.1313 Y181.849
X333.0823 Y181.8568
X26.1236 Y181.7427
G2 X25.1128 Y181.7993 I0.0001 J9.0527
G1 X25.0684 Y181.798
X25.0261 Y181.7845
X24.9892 Y181.7599
X24.9606 Y181.726
X24.9425 Y181.6854
X24.9363 Y181.6415
X24.9404 Y170.3531
X24.9467 Y170.3089
X24.9651 Y170.2682
X24.994 Y170.2343
X25.0313 Y170.2097
X25.0739 Y170.1965
X25.1186 Y170.1956
G2 X26.1237 Y170.2573 I1.005 J-8.1547
G1 X332.0938 Y170.2559
G2 X333.0862 Y170.2011 I-0.0001 J-9.0054
G1 X333.1306 Y170.2024
X333.1728 Y170.216
X333.2097 Y170.2407
X333.2383 Y170.2746
X333.2563 Y170.3152
X333.2625 Y170.3591
X333.2408 Y184.0381
X333.233 Y184.0871
X333.2104 Y184.1313
X333.1753 Y184.1664
X333.1311 Y184.1889
X333.0821 Y184.1966
X26.1236 Y184.0833
G2 X25.1145 Y184.1596 J6.7138
G1 X25.0648 Y184.1632
X21.3664 Y184.1402
X21.2958 Y184.1398 Z-3.992
X21.2287 Y184.1394 Z-3.9686
X21.1685 Y184.139 Z-3.9307
X21.1182 Y184.1387 Z-3.8805
X21.0804 Y184.1385 Z-3.8203
X21.0569 Y184.1383 Z-3.7532
X21.0489 Z-3.6825
G0 Z5
X21.0961 Y167.1331
Z-3.6825
G1 X21.1039 Y167.1345 Z-3.7532 F3500
X21.1271 Y167.1385 Z-3.8203
X21.1643 Y167.145 Z-3.8805
X21.2139 Y167.1535 Z-3.9307
X21.2732 Y167.1638 Z-3.9686
X21.3393 Y167.1753 Z-3.992
X21.4089 Y167.1873 Z-4
X25.1145 Y167.8295
X25.147 Y167.835
G2 X26.1236 Y167.9167 I0.9766 J-5.7941
G1 X332.0938 Y167.9153
G2 X333.0845 Y167.8413 J-6.6675
G1 X333.1342 Y167.8378
X336.8326 Y167.8671
X336.9032 Y167.8677 Z-3.992
X336.9703 Y167.8682 Z-3.9686
X337.0305 Y167.8687 Z-3.9307
X337.0808 Y167.8691 Z-3.8805
X337.1186 Y167.8694 Z-3.8203
X337.1421 Y167.8696 Z-3.7531
X337.15 Y167.8697 Z-3.6825
G0 Z5
X337.1475 Y185.8965
Z-3.7143
G1 X337.1404 Y185.8976 Z-3.7778 F3500
X337.1195 Y185.9009 Z-3.8382
X337.0859 Y185.9062 Z-3.8924
X337.0412 Y185.9133 Z-3.9377
X336.9877 Y185.9218 Z-3.9717
X336.928 Y185.9312 Z-3.9928
X336.8652 Y185.9412 Z-4
X333.1315 Y186.5325
X333.0818 Y186.5365
X26.1236 Y186.4239
G2 X25.1137 Y186.542 J4.3767
G1 X25.0645 Y186.5497
X25.0146 Y186.5495
X21.3779 Y186.2532
X21.3074 Y186.2475 Z-3.992
X21.2406 Y186.242 Z-3.9686
X21.1806 Y186.2371 Z-3.9307
X21.1304 Y186.233 Z-3.8805
X21.0927 Y186.23 Z-3.8203
X21.0693 Y186.228 Z-3.7532
X21.0614 Y186.2274 Z-3.6825
G0 Z5
X21.0959 Y164.3889
Z-3.6825
G1 X21.1036 Y164.391 Z-3.7532 F3500
X21.1263 Y164.3969 Z-3.8203
X21.1629 Y164.4064 Z-3.8805
X21.2116 Y164.4191 Z-3.9307
X21.2698 Y164.4343 Z-3.9686
X21.3348 Y164.4512 Z-3.992
X21.4031 Y164.469 Z-4
X25.1183 Y165.4375
G2 X25.5361 Y165.527 I1.2246 J-4.698
X26.1236 Y165.5761 I0.5876 J-3.486
G1 X332.0938 Y165.5747
G2 X333.0855 Y165.4597 J-4.3322
G1 X333.1348 Y165.4521
X333.1846 Y165.4523
X336.8208 Y165.7555
X336.8912 Y165.7614 Z-3.992
X336.9581 Y165.767 Z-3.9686
X337.018 Y165.772 Z-3.9307
X337.0681 Y165.7762 Z-3.8805
X337.1058 Y165.7793 Z-3.8203
X337.1292 Y165.7813 Z-3.7532
X337.1372 Y165.7819 Z-3.6825
G0 Z5
X339.0802 Y185.8966
Z-3.7778
G1 X339.0734 Y185.9001 Z-3.8353 F3500
X339.0536 Y185.9102 Z-3.8889
X339.0222 Y185.9262 Z-3.9349
X338.9812 Y185.9471 Z-3.9702
X338.9334 Y185.9714 Z-3.9924
X338.8821 Y185.9975 Z-4
X333.2283 Y188.8784
G3 X333.0842 Y188.913 I-0.1442 J-0.2829
G1 X26.1236 Y188.9153
G2 X25.9501 Y188.9298 J1.0437
G1 X25.7575 Y188.9623
G2 X25.5638 Y189.0145 I0.1735 J1.0292
G1 X25.3711 Y189.0869
G2 X25.1843 Y189.1793 I0.3672 J0.977
G1 X25.1173 Y189.2213
G3 X24.927 Y189.2689 I-0.1685 J-0.2691
G1 X21.3858 Y189.0246
X21.3153 Y189.0197 Z-3.992
X21.2483 Y189.0151 Z-3.9686
X21.1883 Y189.011 Z-3.9307
X21.1381 Y189.0075 Z-3.8805
X21.1004 Y189.0049 Z-3.8203
X21.077 Y189.0033 Z-3.7532
X21.069 Y189.0027 Z-3.6825
G0 Z5
X21.096 Y161.0631
Z-3.7143
G1 X21.1025 Y161.0659 Z-3.7778 F3500
X21.122 Y161.0742 Z-3.8382
X21.1533 Y161.0876 Z-3.8924
X21.195 Y161.1053 Z-3.9377
X21.2448 Y161.1265 Z-3.9717
X21.3004 Y161.1501 Z-3.9928
X21.3589 Y161.175 Z-4
X25.0732 Y162.7557
X25.1173 Y162.7787
X25.1843 Y162.8207
G2 X25.3711 Y162.9131 I0.5539 J-0.8846
G1 X25.5638 Y162.9855
G2 X25.7575 Y163.0377 I0.3672 J-0.977
G1 X25.9501 Y163.0702
G2 X26.1236 Y163.0847 I0.1735 J-1.0292
G1 X332.0938 Y163.0833
G2 X332.2848 Y163.0657 J-1.0437
G1 X332.4774 Y163.0298
G2 X332.6648 Y162.9765 I-0.1909 J-1.0261
G1 X332.8453 Y162.9063
G2 X333.0141 Y162.8223 I-0.3783 J-0.9728
G1 X333.0873 Y162.7773
X333.1298 Y162.759
X333.1757 Y162.7538
X333.2213 Y162.7621
X333.2625 Y162.7831
X333.2959 Y162.8151
X333.3186 Y162.8554
X333.3288 Y162.9005
X334.397 Y177.0068
X334.3943 Y177.0501
X334.38 Y177.0911
X334.3551 Y177.1267
X334.3215 Y177.1542
X334.2816 Y177.1716
X334.2386 Y177.1775
X334.168 Z-4.008
X334.1009 Z-4.0314
X334.0407 Y177.1774 Z-4.0693
X333.9904 Z-4.1195
X333.9526 Z-4.1797
X333.9291 Z-4.2468
X333.9211 Z-4.3175
Z-5.6825
X333.9132 Z-5.7532
X333.8897 Z-5.8203
X333.8518 Z-5.8805
X333.8016 Z-5.9307
X333.7414 Y177.1773 Z-5.9686
X333.6743 Z-5.992
X333.6036 Z-6
X333.0827 Y177.1771
X26.1235 Y177.0615
G2 X25.1177 Y177.0984 I0.0001 J13.7321
G1 X25.0745 Y177.0956
X25.0336 Y177.0813
X24.9981 Y177.0565
X24.9707 Y177.023
X24.9533 Y176.9833
X24.9473 Y176.9405
X24.9425 Y175.0576
X24.9483 Y175.0145
X24.9657 Y174.9745
X24.9933 Y174.9408
X25.029 Y174.9158
X25.0702 Y174.9015
X25.1136 Y174.899
G2 X26.1237 Y174.9386 I1.01 J-12.858
G1 X332.0938 Y174.9371
G2 X333.0874 Y174.901 I-0.0001 J-13.6839
G1 X333.1307 Y174.9038
X333.1717 Y174.9183
X333.2072 Y174.9433
X333.2346 Y174.977
X333.2519 Y175.0169
X333.2576 Y175.06
X333.2413 Y179.3588
X333.2334 Y179.4077
X333.2108 Y179.4518
X333.1756 Y179.4868
X333.1314 Y179.5092
X333.0825 Y179.5169
X26.1235 Y179.4021
G2 X25.1181 Y179.4465 I0.0001 J11.3922
G1 X25.0744 Y179.4444
X25.033 Y179.4303
X24.9969 Y179.4055
X24.969 Y179.3719
X24.9514 Y179.3318
X24.9453 Y179.2885
X24.942 Y172.7079
X24.948 Y172.6643
X24.9658 Y172.6241
X24.9939 Y172.5903
X25.0302 Y172.5655
X25.072 Y172.5516
X25.1159 Y172.5497
G2 X26.1237 Y172.5979 I1.0077 J-10.5088
G1 X332.0938 Y172.5965
G2 X333.0869 Y172.553 I-0.0001 J-11.3444
G1 X333.1307 Y172.5552
X333.1722 Y172.5693
X333.2082 Y172.5941
X333.2361 Y172.6279
X333.2537 Y172.668
X333.2596 Y172.7114
X333.2411 Y181.6983
X333.2332 Y181.7473
X333.2106 Y181.7915
X333.1755 Y181.8265
X333.1313 Y181.849
X333.0823 Y181.8568
X26.1236 Y181.7427
G2 X25.1128 Y181.7993 I0.0001 J9.0527
G1 X25.0684 Y181.798
X25.0261 Y181.7845
X24.9892 Y181.7599
X24.9606 Y181.726
X24.9425 Y181.6854
X24.9363 Y181.6415
X24.9404 Y170.3531
X24.9467 Y170.3089
X24.9651 Y170.2682
X24.994 Y170.2343
X25.0313 Y170.2097
X25.0739 Y170.1965
X25.1186 Y170.1956
G2 X26.1237 Y170.2573 I1.005 J-8.1547
G1 X332.0938 Y170.2559
G2 X333.0862 Y170.2011 I-0.0001 J-9.0054
G1 X333.1306 Y170.2024
X333.1728 Y170.216
X333.2097 Y170.2407
X333.2383 Y170.2746
X333.2563 Y170.3152
X333.2625 Y170.3591
X333.2408 Y184.0381
X333.233 Y184.0871
X333.2104 Y184.1313
X333.1753 Y184.1664
X333.1311 Y184.1889
X333.0821 Y184.1966
X26.1236 Y184.0833
G2 X25.1145 Y184.1596 J6.7138
G1 X25.0648 Y184.1632
X21.3664 Y184.1402
X21.2958 Y184.1398 Z-5.992
X21.2287 Y184.1394 Z-5.9686
X21.1685 Y184.139 Z-5.9307
X21.1182 Y184.1387 Z-5.8805
X21.0804 Y184.1385 Z-5.8203
X21.0569 Y184.1383 Z-5.7532
X21.0489 Z-5.6825
G0 Z5
X21.0961 Y167.1331
Z-5.6825
G1 X21.1039 Y167.1345 Z-5.7532 F3500
X21.1271 Y167.1385 Z-5.8203
X21.1643 Y167.145 Z-5.8805
X21.2139 Y167.1535 Z-5.9307
X21.2732 Y167.1638 Z-5.9686
X21.3393 Y167.1753 Z-5.992
X21.4089 Y167.1873 Z-6
X25.1145 Y167.8295
X25.147 Y167.835
G2 X26.1236 Y167.9167 I0.9766 J-5.7941
G1 X332.0938 Y167.9153
G2 X333.0845 Y167.8413 J-6.6675
G1 X333.1342 Y167.8378
X336.8326 Y167.8671
X336.9032 Y167.8677 Z-5.992
X336.9703 Y167.8682 Z-5.9686
X337.0305 Y167.8687 Z-5.9307
X337.0808 Y167.8691 Z-5.8805
X337.1186 Y167.8694 Z-5.8203
X337.1421 Y167.8696 Z-5.7531
X337.15 Y167.8697 Z-5.6825
G0 Z5
X337.1475 Y185.8965
Z-5.7143
G1 X337.1404 Y185.8976 Z-5.7778 F3500
X337.1195 Y185.9009 Z-5.8382
X337.0859 Y185.9062 Z-5.8924
X337.0412 Y185.9133 Z-5.9377
X336.9877 Y185.9218 Z-5.9717
X336.928 Y185.9312 Z-5.9928
X336.8652 Y185.9412 Z-6
X333.1315 Y186.5325
X333.0818 Y186.5365
X26.1236 Y186.4239
G2 X25.1137 Y186.542 J4.3767
G1 X25.0645 Y186.5497
X25.0146 Y186.5495
X21.3779 Y186.2532
X21.3074 Y186.2475 Z-5.992
X21.2406 Y186.242 Z-5.9686
X21.1806 Y186.2371 Z-5.9307
X21.1304 Y186.233 Z-5.8805
X21.0927 Y186.23 Z-5.8203
X21.0693 Y186.228 Z-5.7532
X21.0614 Y186.2274 Z-5.6825
G0 Z5
X21.0959 Y164.3889
Z-5.6825
G1 X21.1036 Y164.391 Z-5.7532 F3500
X21.1263 Y164.3969 Z-5.8203
X21.1629 Y164.4064 Z-5.8805
X21.2116 Y164.4191 Z-5.9307
X21.2698 Y164.4343 Z-5.9686
X21.3348 Y164.4512 Z-5.992
X21.4031 Y164.469 Z-6
X25.1183 Y165.4375
G2 X25.5361 Y165.527 I1.2246 J-4.698
X26.1236 Y165.5761 I0.5876 J-3.486
G1 X332.0938 Y165.5747
G2 X333.0855 Y165.4597 J-4.3322
G1 X333.1348 Y165.4521
X333.1846 Y165.4523
X336.8208 Y165.7555
X336.8912 Y165.7614 Z-5.992
X336.9581 Y165.767 Z-5.9686
X337.018 Y165.772 Z-5.9307
X337.0681 Y165.7762 Z-5.8805
X337.1058 Y165.7793 Z-5.8203
X337.1292 Y165.7813 Z-5.7532
X337.1372 Y165.7819 Z-5.6825
G0 Z5
X339.0802 Y185.8966
Z-5.7778
G1 X339.0734 Y185.9001 Z-5.8353 F3500
X339.0536 Y185.9102 Z-5.8889
X339.0222 Y185.9262 Z-5.9349
X338.9812 Y185.9471 Z-5.9702
X338.9334 Y185.9714 Z-5.9924
X338.8821 Y185.9975 Z-6
X333.2283 Y188.8784
G3 X333.0842 Y188.913 I-0.1442 J-0.2829
G1 X26.1236 Y188.9153
G2 X25.9501 Y188.9298 J1.0437
G1 X25.7575 Y188.9623
G2 X25.5638 Y189.0145 I0.1735 J1.0292
G1 X25.3711 Y189.0869
G2 X25.1843 Y189.1793 I0.3672 J0.977
G1 X25.1173 Y189.2213
G3 X24.927 Y189.2689 I-0.1685 J-0.2691
G1 X21.3858 Y189.0246
X21.3153 Y189.0197 Z-5.992
X21.2483 Y189.0151 Z-5.9686
X21.1883 Y189.011 Z-5.9307
X21.1381 Y189.0075 Z-5.8805
X21.1004 Y189.0049 Z-5.8203
X21.077 Y189.0033 Z-5.7532
X21.069 Y189.0027 Z-5.6825
G0 Z5
X21.096 Y161.0631
Z-5.7143
G1 X21.1025 Y161.0659 Z-5.7778 F3500
X21.122 Y161.0742 Z-5.8382
X21.1533 Y161.0876 Z-5.8924
X21.195 Y161.1053 Z-5.9377
X21.2448 Y161.1265 Z-5.9717
X21.3004 Y161.1501 Z-5.9928
X21.3589 Y161.175 Z-6
X25.0732 Y162.7557
X25.1173 Y162.7787
X25.1843 Y162.8207
G2 X25.3711 Y162.9131 I0.5539 J-0.8846
G1 X25.5638 Y162.9855
G2 X25.7575 Y163.0377 I0.3672 J-0.977
G1 X25.9501 Y163.0702
G2 X26.1236 Y163.0847 I0.1735 J-1.0292
G1 X332.0938 Y163.0833
G2 X332.2848 Y163.0657 J-1.0437
G1 X332.4774 Y163.0298
G2 X332.6648 Y162.9765 I-0.1909 J-1.0261
G1 X332.8453 Y162.9063
G2 X333.0141 Y162.8223 I-0.3783 J-0.9728
G1 X333.0873 Y162.7773
X333.1298 Y162.759
X333.1757 Y162.7538
X333.2213 Y162.7621
X333.2625 Y162.7831
X333.2959 Y162.8151
X333.3186 Y162.8554
X333.3288 Y162.9005
X334.397 Y177.0068
X334.3943 Y177.0501
X334.38 Y177.0911
X334.3551 Y177.1267
X334.3215 Y177.1542
X334.2816 Y177.1716
X334.2386 Y177.1775
X334.168 Z-6.008
X334.1009 Z-6.0314
X334.0407 Y177.1774 Z-6.0693
X333.9904 Z-6.1195
X333.9526 Z-6.1797
X333.9291 Z-6.2468
X333.9211 Z-6.3175
Z-7.6825
X333.9132 Z-7.7532
X333.8897 Z-7.8203
X333.8518 Z-7.8805
X333.8016 Z-7.9307
X333.7414 Y177.1773 Z-7.9686
X333.6743 Z-7.992
X333.6036 Z-8
X333.0827 Y177.1771
X26.1235 Y177.0615
G2 X25.1177 Y177.0984 I0.0001 J13.7321
G1 X25.0745 Y177.0956
X25.0336 Y177.0813
X24.9981 Y177.0565
X24.9707 Y177.023
X24.9533 Y176.9833
X24.9473 Y176.9405
X24.9425 Y175.0576
X24.9483 Y175.0145
X24.9657 Y174.9745
X24.9933 Y174.9408
X25.029 Y174.9158
X25.0702 Y174.9015
X25.1136 Y174.899
G2 X26.1237 Y174.9386 I1.01 J-12.858
G1 X332.0938 Y174.9371
G2 X333.0874 Y174.901 I-0.0001 J-13.6839
G1 X333.1307 Y174.9038
X333.1717 Y174.9183
X333.2072 Y174.9433
X333.2346 Y174.977
X333.2519 Y175.0169
X333.2576 Y175.06
X333.2413 Y179.3588
X333.2334 Y179.4077
X333.2108 Y179.4518
X333.1756 Y179.4868
X333.1314 Y179.5092
X333.0825 Y179.5169
X26.1235 Y179.4021
G2 X25.1181 Y179.4465 I0.0001 J11.3922
G1 X25.0744 Y179.4444
X25.033 Y179.4303
X24.9969 Y179.4055
X24.969 Y179.3719
X24.9514 Y179.3318
X24.9453 Y179.2885
X24.942 Y172.7079
X24.948 Y172.6643
X24.9658 Y172.6241
X24.9939 Y172.5903
X25.0302 Y172.5655
X25.072 Y172.5516
X25.1159 Y172.5497
G2 X26.1237 Y172.5979 I1.0077 J-10.5088
G1 X332.0938 Y172.5965
G2 X333.0869 Y172.553 I-0.0001 J-11.3444
G1 X333.1307 Y172.5552
X333.1722 Y172.5693
X333.2082 Y172.5941
X333.2361 Y172.6279
X333.2537 Y172.668
X333.2596 Y172.7114
X333.2411 Y181.6983
X333.2332 Y181.7473
X333.2106 Y181.7915
X333.1755 Y181.8265
X333.1313 Y181.849
X333.0823 Y181.8568
X26.1236 Y181.7427
G2 X25.1128 Y181.7993 I0.0001 J9.0527
G1 X25.0684 Y181.798
X25.0261 Y181.7845
X24.9892 Y181.7599
X24.9606 Y181.726
X24.9425 Y181.6854
X24.9363 Y181.6415
X24.9404 Y170.3531
X24.9467 Y170.3089
X24.9651 Y170.2682
X24.994 Y170.2343
X25.0313 Y170.2097
X25.0739 Y170.1965
X25.1186 Y170.1956
G2 X26.1237 Y170.2573 I1.005 J-8.1547
G1 X332.0938 Y170.2559
G2 X333.0862 Y170.2011 I-0.0001 J-9.0054
G1 X333.1306 Y170.2024
X333.1728 Y170.216
X333.2097 Y170.2407
X333.2383 Y170.2746
X333.2563 Y170.3152
X333.2625 Y170.3591
X333.2408 Y184.0381
X333.233 Y184.0871
X333.2104 Y184.1313
X333.1753 Y184.1664
X333.1311 Y184.1889
X333.0821 Y184.1966
X26.1236 Y184.0833
G2 X25.1145 Y184.1596 J6.7138
G1 X25.0648 Y184.1632
X21.3664 Y184.1402
X21.2958 Y184.1398 Z-7.992
X21.2287 Y184.1394 Z-7.9686
X21.1685 Y184.139 Z-7.9307
X21.1182 Y184.1387 Z-7.8805
X21.0804 Y184.1385 Z-7.8203
X21.0569 Y184.1383 Z-7.7532
X21.0489 Z-7.6825
G0 Z5
X21.0961 Y167.1331
Z-7.6825
G1 X21.1039 Y167.1345 Z-7.7532 F3500
X21.1271 Y167.1385 Z-7.8203
X21.1643 Y167.145 Z-7.8805
X21.2139 Y167.1535 Z-7.9307
X21.2732 Y167.1638 Z-7.9686
X21.3393 Y167.1753 Z-7.992
X21.4089 Y167.1873 Z-8
X25.1145 Y167.8295
X25.147 Y167.835
G2 X26.1236 Y167.9167 I0.9766 J-5.7941
G1 X332.0938 Y167.9153
G2 X333.0845 Y167.8413 J-6.6675
G1 X333.1342 Y167.8378
X336.8326 Y167.8671
X336.9032 Y167.8677 Z-7.992
X336.9703 Y167.8682 Z-7.9686
X337.0305 Y167.8687 Z-7.9307
X337.0808 Y167.8691 Z-7.8805
X337.1186 Y167.8694 Z-7.8203
X337.1421 Y167.8696 Z-7.7531
X337.15 Y167.8697 Z-7.6825
G0 Z5
X337.1475 Y185.8965
Z-7.7143
G1 X337.1404 Y185.8976 Z-7.7778 F3500
X337.1195 Y185.9009 Z-7.8382
X337.0859 Y185.9062 Z-7.8924
X337.0412 Y185.9133 Z-7.9377
X336.9877 Y185.9218 Z-7.9717
X336.928 Y185.9312 Z-7.9928
X336.8652 Y185.9412 Z-8
X333.1315 Y186.5325
X333.0818 Y186.5365
X26.1236 Y186.4239
G2 X25.1137 Y186.542 J4.3767
G1 X25.0645 Y186.5497
X25.0146 Y186.5495
X21.3779 Y186.2532
X21.3074 Y186.2475 Z-7.992
X21.2406 Y186.242 Z-7.9686
X21.1806 Y186.2371 Z-7.9307
X21.1304 Y186.233 Z-7.8805
X21.0927 Y186.23 Z-7.8203
X21.0693 Y186.228 Z-7.7532
X21.0614 Y186.2274 Z-7.6825
G0 Z5
X21.0959 Y164.3889
Z-7.6825
G1 X21.1036 Y164.391 Z-7.7532 F3500
X21.1263 Y164.3969 Z-7.8203
X21.1629 Y164.4064 Z-7.8805
X21.2116 Y164.4191 Z-7.9307
X21.2698 Y164.4343 Z-7.9686
X21.3348 Y164.4512 Z-7.992
X21.4031 Y164.469 Z-8
X25.1183 Y165.4375
G2 X25.5361 Y165.527 I1.2246 J-4.698
X26.1236 Y165.5761 I0.5876 J-3.486
G1 X332.0938 Y165.5747
G2 X333.0855 Y165.4597 J-4.3322
G1 X333.1348 Y165.4521
X333.1846 Y165.4523
X336.8208 Y165.7555
X336.8912 Y165.7614 Z-7.992
X336.9581 Y165.767 Z-7.9686
X337.018 Y165.772 Z-7.9307
X337.0681 Y165.7762 Z-7.8805
X337.1058 Y165.7793 Z-7.8203
X337.1292 Y165.7813 Z-7.7532
X337.1372 Y165.7819 Z-7.6825
G0 Z5
X339.0802 Y185.8966
Z-7.7778
G1 X339.0734 Y185.9001 Z-7.8353 F3500
X339.0536 Y185.9102 Z-7.8889
X339.0222 Y185.9262 Z-7.9349
X338.9812 Y185.9471 Z-7.9702
X338.9334 Y185.9714 Z-7.9924
X338.8821 Y185.9975 Z-8
X333.2283 Y188.8784
G3 X333.0842 Y188.913 I-0.1442 J-0.2829
G1 X26.1236 Y188.9153
G2 X25.9501 Y188.9298 J1.0437
G1 X25.7575 Y188.9623
G2 X25.5638 Y189.0145 I0.1735 J1.0292
G1 X25.3711 Y189.0869
G2 X25.1843 Y189.1793 I0.3672 J0.977
G1 X25.1173 Y189.2213
G3 X24.927 Y189.2689 I-0.1685 J-0.2691
G1 X21.3858 Y189.0246
X21.3153 Y189.0197 Z-7.992
X21.2483 Y189.0151 Z-7.9686
X21.1883 Y189.011 Z-7.9307
X21.1381 Y189.0075 Z-7.8805
X21.1004 Y189.0049 Z-7.8203
X21.077 Y189.0033 Z-7.7532
X21.069 Y189.0027 Z-7.6825
G0 Z5
X21.096 Y161.0631
Z-7.7143
G1 X21.1025 Y161.0659 Z-7.7778 F3500
X21.122 Y161.0742 Z-7.8382
X21.1533 Y161.0876 Z-7.8924
X21.195 Y161.1053 Z-7.9377
X21.2448 Y161.1265 Z-7.9717
X21.3004 Y161.1501 Z-7.9928
X21.3589 Y161.175 Z-8
X25.0732 Y162.7557
X25.1173 Y162.7787
X25.1843 Y162.8207
G2 X25.3711 Y162.9131 I0.5539 J-0.8846
G1 X25.5638 Y162.9855
G2 X25.7575 Y163.0377 I0.3672 J-0.977
G1 X25.9501 Y163.0702
G2 X26.1236 Y163.0847 I0.1735 J-1.0292
G1 X332.0938 Y163.0833
G2 X332.2848 Y163.0657 J-1.0437
G1 X332.4774 Y163.0298
G2 X332.6648 Y162.9765 I-0.1909 J-1.0261
G1 X332.8453 Y162.9063
G2 X333.0141 Y162.8223 I-0.3783 J-0.9728
G1 X333.0873 Y162.7773
G3 X333.278 Y162.7311 I0.1664 J0.2704
G1 X336.8172 Y163.0025
X336.8877 Y163.008 Z-7.992
X336.9546 Y163.0131 Z-7.9686
X337.0146 Y163.0177 Z-7.9307
X337.0647 Y163.0215 Z-7.8805
X337.1024 Y163.0244 Z-7.8203
X337.1259 Y163.0262 Z-7.7531
X337.1338 Y163.0268 Z-7.6825
G0 Z6

G53 Z5
M5
G4 P1.0
G53 X0 Y0
M30
%
