%
(Made in : Autodesk CAM Post Processor)
(G Code optimized for OpenBuilds OX CNC 1000 x 750 with GRBL V0.9j controller)

(Program Name : 1001)
(2 Operations :)
(1 : Contour2  2 )
(  Tool : Flat End Mill 2 Flutes, Diam = 1.9mm, Len = 12.7mm)
(  Spindle : RPM = 30000, set router dial to 6)
(  Machining time : 1 min 51 sec)
(2 : Horizontal1  2 )
(  Tool : Flat End Mill 2 Flutes, Diam = 1.9mm, Len = 12.7mm)
(  Spindle : RPM = 30000, set router dial to 6)
(  Machining time : 2 min 8 sec)

G90 G94
G17
G21

(Operation 1 of 2 : Contour2  2 )

G53 G0 Z5
G54
S30000 M3
G4 P1.0
X24.6452 Y163.4994
Z6
Z0.1611
G1 Z-1.81 F3200
X24.6482 Y163.4937 Z-1.8592
X24.6572 Y163.4769 Z-1.905
X24.6715 Y163.4503 Z-1.9444
X24.69 Y163.4156 Z-1.9745
X24.7117 Y163.3752 Z-1.9935
X24.7349 Y163.3319 Z-2
X25.4936 Y161.9149
X25.5225 Y161.8746
X25.5608 Y161.8432
X25.606 Y161.8227
X25.655 Y161.8147
X25.7043 Y161.8196
X25.7507 Y161.8371
X25.7524 Y161.838
X25.7591 Y161.8415
X25.786 Y161.8551
X25.841 Y161.8796
X25.8961 Y161.9001
X25.9087 Y161.9043
X25.9574 Y161.9185
X26.0062 Y161.93
X26.0612 Y161.9398
X26.1163 Y161.9463
X26.1713 Y161.9496
X26.2264 Y161.95
X331.9731
X332.0281 Y161.9496
X332.0832 Y161.9464
X332.1382 Y161.9399
X332.1932 Y161.9302
X332.2423 Y161.9186
X332.2913 Y161.9043
X332.3033 Y161.9003
X332.3584 Y161.8798
X332.4135 Y161.8553
X332.4405 Y161.8418
X332.4472 Y161.8382
X332.4489 Y161.8373
X332.4946 Y161.82
X332.5433 Y161.8149
X332.5916 Y161.8224
X332.6364 Y161.842
X332.6747 Y161.8724
X332.704 Y161.9115
X332.7223 Y161.9569
X332.7285 Y162.0054
X332.6482 Y189.8606
X332.6416 Y189.9096
X332.6226 Y189.9553
X332.5923 Y189.9946
X332.553 Y190.0247
X332.5073 Y190.0436
X332.4582 Y190.05
X26.2264
X26.1713 Y190.0504
X26.1163 Y190.0537
X26.0612 Y190.0602
X26.0062 Y190.07
X25.9574 Y190.0815
X25.9087 Y190.0958
X25.8961 Y190.0999
X25.841 Y190.1205
X25.786 Y190.145
X25.7591 Y190.1585
X25.7524 Y190.1621
X25.7507 Y190.163
X25.6993 Y190.1816
X25.6447 Y190.1848
X25.5915 Y190.1723
X25.544 Y190.1451
X25.5062 Y190.1056
X25.4813 Y190.0569
X25.4712 Y190.0031
X24.369 Y162.7594
G3 X24.3794 Y162.5815 I0.9018 J-0.0365
G1 X24.3805 Y162.575 Z-2.0001 F1200
G3 X24.3683 Y162.7318 Z-2.1926 I0.8903 J0.148
X24.3836 Y162.8884 Z-2.385 I0.9025 J-0.0089
X24.4258 Y163.0399 Z-2.5774 I0.8872 J-0.1655
X24.4937 Y163.1818 Z-2.7699 I0.845 J-0.317
X24.5852 Y163.3098 Z-2.9623 I0.7771 J-0.4589
X24.472 Y162.3028 Z-2.9999 I0.6856 J-0.5869
G1 X24.4751 Y162.2969 Z-3
X24.5223 Y162.2088 F3200
G3 X25.7507 Y161.8371 I0.8 J0.4284
G1 X25.7524 Y161.838
X25.7591 Y161.8415
X25.786 Y161.8551
X25.841 Y161.8796
X25.8961 Y161.9001
X25.9087 Y161.9043
X25.9574 Y161.9185
X26.0062 Y161.93
X26.0612 Y161.9398
X26.1163 Y161.9463
X26.1713 Y161.9496
X26.2264 Y161.95
X331.9731
X332.0281 Y161.9496
X332.0832 Y161.9464
X332.1382 Y161.9399
X332.1932 Y161.9302
X332.2423 Y161.9186
X332.2913 Y161.9043
X332.3033 Y161.9003
X332.3584 Y161.8798
X332.4135 Y161.8553
X332.4405 Y161.8418
X332.4472 Y161.8382
X332.4489 Y161.8373
X332.4946 Y161.82
X332.5433 Y161.8149
X332.5916 Y161.8224
X332.6364 Y161.842
X332.6747 Y161.8724
X332.704 Y161.9115
X332.7223 Y161.9569
X332.7285 Y162.0054
X332.6482 Y189.8606
X332.6416 Y189.9096
X332.6226 Y189.9553
X332.5923 Y189.9946
X332.553 Y190.0247
X332.5073 Y190.0436
X332.4582 Y190.05
X26.2264
X26.1713 Y190.0504
X26.1163 Y190.0537
X26.0612 Y190.0602
X26.0062 Y190.07
X25.9574 Y190.0815
X25.9087 Y190.0958
X25.8961 Y190.0999
X25.841 Y190.1205
X25.786 Y190.145
X25.7591 Y190.1585
X25.7524 Y190.1621
X25.7507 Y190.163
X25.6993 Y190.1816
X25.6447 Y190.1848
X25.5915 Y190.1723
X25.544 Y190.1451
X25.5062 Y190.1056
X25.4813 Y190.0569
X25.4712 Y190.0031
X24.369 Y162.7594
G3 X24.3794 Y162.5815 I0.9018 J-0.0365
G1 X24.3805 Y162.575 Z-3.0001 F1200
G3 X24.3683 Y162.7318 Z-3.1926 I0.8903 J0.148
X24.3836 Y162.8884 Z-3.385 I0.9025 J-0.0089
X24.4258 Y163.0399 Z-3.5774 I0.8872 J-0.1655
X24.4937 Y163.1818 Z-3.7699 I0.845 J-0.317
X24.5852 Y163.3098 Z-3.9623 I0.7771 J-0.4589
X24.472 Y162.3028 Z-3.9999 I0.6856 J-0.5869
G1 X24.4751 Y162.2969 Z-4
X24.5223 Y162.2088 F3200
G3 X25.7507 Y161.8371 I0.8 J0.4284
G1 X25.7524 Y161.838
X25.7591 Y161.8415
X25.786 Y161.8551
X25.841 Y161.8796
X25.8961 Y161.9001
X25.9087 Y161.9043
X25.9574 Y161.9185
X26.0062 Y161.93
X26.0612 Y161.9398
X26.1163 Y161.9463
X26.1713 Y161.9496
X26.2264 Y161.95
X331.9731
X332.0281 Y161.9496
X332.0832 Y161.9464
X332.1382 Y161.9399
X332.1932 Y161.9302
X332.2423 Y161.9186
X332.2913 Y161.9043
X332.3033 Y161.9003
X332.3584 Y161.8798
X332.4135 Y161.8553
X332.4405 Y161.8418
X332.4472 Y161.8382
X332.4489 Y161.8373
X332.4946 Y161.82
X332.5433 Y161.8149
X332.5916 Y161.8224
X332.6364 Y161.842
X332.6747 Y161.8724
X332.704 Y161.9115
X332.7223 Y161.9569
X332.7285 Y162.0054
X332.6482 Y189.8606
X332.6416 Y189.9096
X332.6226 Y189.9553
X332.5923 Y189.9946
X332.553 Y190.0247
X332.5073 Y190.0436
X332.4582 Y190.05
X26.2264
X26.1713 Y190.0504
X26.1163 Y190.0537
X26.0612 Y190.0602
X26.0062 Y190.07
X25.9574 Y190.0815
X25.9087 Y190.0958
X25.8961 Y190.0999
X25.841 Y190.1205
X25.786 Y190.145
X25.7591 Y190.1585
X25.7524 Y190.1621
X25.7507 Y190.163
X25.6993 Y190.1816
X25.6447 Y190.1848
X25.5915 Y190.1723
X25.544 Y190.1451
X25.5062 Y190.1056
X25.4813 Y190.0569
X25.4712 Y190.0031
X24.369 Y162.7594
G3 X24.3794 Y162.5815 I0.9018 J-0.0365
G1 X24.3805 Y162.575 Z-4.0001 F1200
G3 X24.3683 Y162.7318 Z-4.1926 I0.8903 J0.148
X24.3836 Y162.8884 Z-4.385 I0.9025 J-0.0089
X24.4258 Y163.0399 Z-4.5774 I0.8872 J-0.1655
X24.4937 Y163.1818 Z-4.7699 I0.845 J-0.317
X24.5852 Y163.3098 Z-4.9623 I0.7771 J-0.4589
X24.472 Y162.3028 Z-4.9999 I0.6856 J-0.5869
G1 X24.4751 Y162.2969 Z-5
X24.5223 Y162.2088 F3200
G3 X25.7507 Y161.8371 I0.8 J0.4284
G1 X25.7524 Y161.838
X25.7591 Y161.8415
X25.786 Y161.8551
X25.841 Y161.8796
X25.8961 Y161.9001
X25.9087 Y161.9043
X25.9574 Y161.9185
X26.0062 Y161.93
X26.0612 Y161.9398
X26.1163 Y161.9463
X26.1713 Y161.9496
X26.2264 Y161.95
X331.9731
X332.0281 Y161.9496
X332.0832 Y161.9464
X332.1382 Y161.9399
X332.1932 Y161.9302
X332.2423 Y161.9186
X332.2913 Y161.9043
X332.3033 Y161.9003
X332.3584 Y161.8798
X332.4135 Y161.8553
X332.4405 Y161.8418
X332.4472 Y161.8382
X332.4489 Y161.8373
X332.4946 Y161.82
X332.5433 Y161.8149
X332.5916 Y161.8224
X332.6364 Y161.842
X332.6747 Y161.8724
X332.704 Y161.9115
X332.7223 Y161.9569
X332.7285 Y162.0054
X332.6482 Y189.8606
X332.6416 Y189.9096
X332.6226 Y189.9553
X332.5923 Y189.9946
X332.553 Y190.0247
X332.5073 Y190.0436
X332.4582 Y190.05
X26.2264
X26.1713 Y190.0504
X26.1163 Y190.0537
X26.0612 Y190.0602
X26.0062 Y190.07
X25.9574 Y190.0815
X25.9087 Y190.0958
X25.8961 Y190.0999
X25.841 Y190.1205
X25.786 Y190.145
X25.7591 Y190.1585
X25.7524 Y190.1621
X25.7507 Y190.163
X25.6993 Y190.1816
X25.6447 Y190.1848
X25.5915 Y190.1723
X25.544 Y190.1451
X25.5062 Y190.1056
X25.4813 Y190.0569
X25.4712 Y190.0031
X24.369 Y162.7594
G3 X24.3794 Y162.5815 I0.9018 J-0.0365
G1 X24.3805 Y162.575 Z-5.0001 F1200
G3 X24.3683 Y162.7318 Z-5.1926 I0.8903 J0.148
X24.3836 Y162.8884 Z-5.385 I0.9025 J-0.0089
X24.4258 Y163.0399 Z-5.5774 I0.8872 J-0.1655
X24.4937 Y163.1818 Z-5.7699 I0.845 J-0.317
X24.5852 Y163.3098 Z-5.9623 I0.7771 J-0.4589
X24.472 Y162.3028 Z-5.9999 I0.6856 J-0.5869
G1 X24.4751 Y162.2969 Z-6
X24.5223 Y162.2088 F3200
G3 X25.7507 Y161.8371 I0.8 J0.4284
G1 X25.7524 Y161.838
X25.7591 Y161.8415
X25.786 Y161.8551
X25.841 Y161.8796
X25.8961 Y161.9001
X25.9087 Y161.9043
X25.9574 Y161.9185
X26.0062 Y161.93
X26.0612 Y161.9398
X26.1163 Y161.9463
X26.1713 Y161.9496
X26.2264 Y161.95
X331.9731
X332.0281 Y161.9496
X332.0832 Y161.9464
X332.1382 Y161.9399
X332.1932 Y161.9302
X332.2423 Y161.9186
X332.2913 Y161.9043
X332.3033 Y161.9003
X332.3584 Y161.8798
X332.4135 Y161.8553
X332.4405 Y161.8418
X332.4472 Y161.8382
X332.4489 Y161.8373
X332.4946 Y161.82
X332.5433 Y161.8149
X332.5916 Y161.8224
X332.6364 Y161.842
X332.6747 Y161.8724
X332.704 Y161.9115
X332.7223 Y161.9569
X332.7285 Y162.0054
X332.6482 Y189.8606
X332.6416 Y189.9096
X332.6226 Y189.9553
X332.5923 Y189.9946
X332.553 Y190.0247
X332.5073 Y190.0436
X332.4582 Y190.05
X26.2264
X26.1713 Y190.0504
X26.1163 Y190.0537
X26.0612 Y190.0602
X26.0062 Y190.07
X25.9574 Y190.0815
X25.9087 Y190.0958
X25.8961 Y190.0999
X25.841 Y190.1205
X25.786 Y190.145
X25.7591 Y190.1585
X25.7524 Y190.1621
X25.7507 Y190.163
X25.6993 Y190.1816
X25.6447 Y190.1848
X25.5915 Y190.1723
X25.544 Y190.1451
X25.5062 Y190.1056
X25.4813 Y190.0569
X25.4712 Y190.0031
X24.369 Y162.7594
G3 X24.3794 Y162.5815 I0.9018 J-0.0365
G1 X24.3805 Y162.575 Z-6.0001 F1200
G3 X24.3683 Y162.7318 Z-6.1926 I0.8903 J0.148
X24.3836 Y162.8884 Z-6.385 I0.9025 J-0.0089
X24.4258 Y163.0399 Z-6.5774 I0.8872 J-0.1655
X24.4937 Y163.1818 Z-6.7699 I0.845 J-0.317
X24.5852 Y163.3098 Z-6.9623 I0.7771 J-0.4589
X24.472 Y162.3028 Z-6.9999 I0.6856 J-0.5869
G1 X24.4751 Y162.2969 Z-7
X24.5223 Y162.2088 F3200
G3 X25.7507 Y161.8371 I0.8 J0.4284
G1 X25.7524 Y161.838
X25.7591 Y161.8415
X25.786 Y161.8551
X25.841 Y161.8796
X25.8961 Y161.9001
X25.9087 Y161.9043
X25.9574 Y161.9185
X26.0062 Y161.93
X26.0612 Y161.9398
X26.1163 Y161.9463
X26.1713 Y161.9496
X26.2264 Y161.95
X331.9731
X332.0281 Y161.9496
X332.0832 Y161.9464
X332.1382 Y161.9399
X332.1932 Y161.9302
X332.2423 Y161.9186
X332.2913 Y161.9043
X332.3033 Y161.9003
X332.3584 Y161.8798
X332.4135 Y161.8553
X332.4405 Y161.8418
X332.4472 Y161.8382
X332.4489 Y161.8373
X332.4946 Y161.82
X332.5433 Y161.8149
X332.5916 Y161.8224
X332.6364 Y161.842
X332.6747 Y161.8724
X332.704 Y161.9115
X332.7223 Y161.9569
X332.7285 Y162.0054
X332.6482 Y189.8606
X332.6416 Y189.9096
X332.6226 Y189.9553
X332.5923 Y189.9946
X332.553 Y190.0247
X332.5073 Y190.0436
X332.4582 Y190.05
X26.2264
X26.1713 Y190.0504
X26.1163 Y190.0537
X26.0612 Y190.0602
X26.0062 Y190.07
X25.9574 Y190.0815
X25.9087 Y190.0958
X25.8961 Y190.0999
X25.841 Y190.1205
X25.786 Y190.145
X25.7591 Y190.1585
X25.7524 Y190.1621
X25.7507 Y190.163
X25.6993 Y190.1816
X25.6447 Y190.1848
X25.5915 Y190.1723
X25.544 Y190.1451
X25.5062 Y190.1056
X25.4813 Y190.0569
X25.4712 Y190.0031
X24.369 Y162.7594
G3 X24.3794 Y162.5815 I0.9018 J-0.0365
G1 X24.3805 Y162.575 Z-7.0001 F1200
G3 X24.3683 Y162.7318 Z-7.1926 I0.8903 J0.148
X24.3836 Y162.8884 Z-7.385 I0.9025 J-0.0089
X24.4258 Y163.0399 Z-7.5774 I0.8872 J-0.1655
X24.4937 Y163.1818 Z-7.7699 I0.845 J-0.317
X24.5852 Y163.3098 Z-7.9623 I0.7771 J-0.4589
X24.472 Y162.3028 Z-7.9999 I0.6856 J-0.5869
G1 X24.4751 Y162.2969 Z-8
X24.5223 Y162.2088 F3200
G3 X25.7507 Y161.8371 I0.8 J0.4284
G1 X25.7524 Y161.838
X25.7591 Y161.8415
X25.786 Y161.8551
X25.841 Y161.8796
X25.8961 Y161.9001
X25.9087 Y161.9043
X25.9574 Y161.9185
X26.0062 Y161.93
X26.0612 Y161.9398
X26.1163 Y161.9463
X26.1713 Y161.9496
X26.2264 Y161.95
X331.9731
X332.0281 Y161.9496
X332.0832 Y161.9464
X332.1382 Y161.9399
X332.1932 Y161.9302
X332.2423 Y161.9186
X332.2913 Y161.9043
X332.3033 Y161.9003
X332.3584 Y161.8798
X332.4135 Y161.8553
X332.4405 Y161.8418
X332.4472 Y161.8382
X332.4489 Y161.8373
X332.4946 Y161.82
X332.5433 Y161.8149
X332.5916 Y161.8224
X332.6364 Y161.842
X332.6747 Y161.8724
X332.704 Y161.9115
X332.7223 Y161.9569
X332.7285 Y162.0054
X332.6482 Y189.8606
X332.6416 Y189.9096
X332.6226 Y189.9553
X332.5923 Y189.9946
X332.553 Y190.0247
X332.5073 Y190.0436
X332.4582 Y190.05
X26.2264
X26.1713 Y190.0504
X26.1163 Y190.0537
X26.0612 Y190.0602
X26.0062 Y190.07
X25.9574 Y190.0815
X25.9087 Y190.0958
X25.8961 Y190.0999
X25.841 Y190.1205
X25.786 Y190.145
X25.7591 Y190.1585
X25.7524 Y190.1621
X25.7507 Y190.163
X25.6993 Y190.1816
X25.6447 Y190.1848
X25.5915 Y190.1723
X25.544 Y190.1451
X25.5062 Y190.1056
X25.4813 Y190.0569
X25.4712 Y190.0031
X24.369 Y162.7594
G3 X24.3794 Y162.5815 I0.9018 J-0.0365
G1 X24.3805 Y162.575 Z-8.0001 F1200
G3 X24.3683 Y162.7318 Z-8.1926 I0.8903 J0.148
X24.3836 Y162.8884 Z-8.385 I0.9025 J-0.0089
X24.4258 Y163.0399 Z-8.5774 I0.8872 J-0.1655
X24.4937 Y163.1818 Z-8.7699 I0.845 J-0.317
X24.5852 Y163.3098 Z-8.9623 I0.7771 J-0.4589
X24.472 Y162.3028 Z-8.9999 I0.6856 J-0.5869
G1 X24.4751 Y162.2969 Z-9
X24.5223 Y162.2088 F3200
G3 X25.7507 Y161.8371 I0.8 J0.4284
G1 X25.7524 Y161.838
X25.7591 Y161.8415
X25.786 Y161.8551
X25.841 Y161.8796
X25.8961 Y161.9001
X25.9087 Y161.9043
X25.9574 Y161.9185
X26.0062 Y161.93
X26.0612 Y161.9398
X26.1163 Y161.9463
X26.1713 Y161.9496
X26.2264 Y161.95
X331.9731
X332.0281 Y161.9496
X332.0832 Y161.9464
X332.1382 Y161.9399
X332.1932 Y161.9302
X332.2423 Y161.9186
X332.2913 Y161.9043
X332.3033 Y161.9003
X332.3584 Y161.8798
X332.4135 Y161.8553
X332.4405 Y161.8418
X332.4472 Y161.8382
X332.4489 Y161.8373
G0 Z5
X302.1968 Y190.05
Z2
G1 Z-7.7599 F3200
X302.203 Z-7.808 F1200
X302.2212 Z-7.853
X302.2501 Z-7.8919
X302.288 Z-7.9222
X302.3323 Z-7.9419
X302.3802 Z-7.9498
X332.4515 Z-8.9999
X332.4582 Z-9
X26.2264 F3200
X26.1713 Y190.0504
X26.1163 Y190.0537
X26.0612 Y190.0602
X26.0062 Y190.07
X25.9574 Y190.0815
X25.9087 Y190.0958
X25.8961 Y190.0999
X25.841 Y190.1205
X25.786 Y190.145
X25.7591 Y190.1585
X25.7524 Y190.1621
X25.7507 Y190.163
G0 Z6

(Operation 2 of 2 : Horizontal1  2 )

G54
S30000 M3
X40.6805 Y176.7773
Z6
Z-7.7601
G1 X40.6789 Y176.7782 Z-7.7866 F1200
X40.6741 Y176.781 Z-7.8125
X40.6662 Y176.7855 Z-7.8374
X40.6554 Y176.7915 Z-7.8608
X40.6416 Y176.7989 Z-7.8822
X40.6253 Y176.8073 Z-7.9013
X40.6065 Y176.8164 Z-7.9176
X40.5856 Y176.8259 Z-7.9309
X40.5629 Y176.8355 Z-7.9408
X40.539 Y176.8449 Z-7.9472
X40.5142 Y176.8538 Z-7.95
G3 X40.658 Y176.7901 Z-8.1425 I-0.2922 J-0.8539
X40.7886 Y176.7024 Z-8.335 I-0.4361 J-0.7902
X40.902 Y176.5933 Z-8.5276 I-0.5667 J-0.7024
X40.9947 Y176.4662 Z-8.7201 I-0.68 J-0.5934
X41.0639 Y176.3249 Z-8.9126 I-0.7727 J-0.4663
X39.3194 Y176 Z-9 I-0.842 J-0.325
G1 Y175.9843 F3200
X39.3271 Y175.9362
X39.3492 Y175.8928
X39.3836 Y175.8584
X39.4269 Y175.8363
X39.475 Y175.8287
X318.558
X318.606 Y175.8356
X318.6502 Y175.8558
X318.6869 Y175.8876
X318.7132 Y175.9284
X318.7268 Y175.975
Y176.0236
X318.7132 Y176.0702
X318.6869 Y176.111
X318.6502 Y176.1428
X318.606 Y176.163
X318.558 Y176.1699
X39.475 Y176.1713
X39.4269 Y176.1637
X39.3836 Y176.1416
X39.3492 Y176.1072
X39.3271 Y176.0638
X39.3194 Y176.0157
Y176
G2 X38.9023 Y175.3323 I-0.7431
G3 X39.0795 Y174.5652 I0.1772 J-0.3631
G1 X319.5671
G3 X320.1436 Y175.1416 J0.5765
G1 X320.1437 Y176.857
G3 X319.5674 Y177.4334 I-0.5764 J0.0001
G1 X38.6325 Y177.4348
G3 X38.056 Y176.8584 J-0.5765
G1 X38.0559 Y175.1416
G3 X38.6323 Y174.5652 I0.5764
G1 X39.0795
G2 X40.13 Y173.8648 J-1.138
G3 X41.1805 Y173.1645 I1.0505 J0.4377
G1 X320.9677
G3 X321.5441 Y173.7409 J0.5765
G1 X321.5445 Y178.2577
G3 X320.9682 Y178.8341 I-0.5764
G1 X37.2318 Y178.8355
G3 X36.6554 Y178.2591 J-0.5765
G1 X36.6551 Y173.7409
G3 X37.2315 Y173.1645 I0.5764
G1 X41.1805
G2 X42.2311 Y172.4641 J-1.138
G3 X43.2816 Y171.7638 I1.0505 J0.4377
G1 X322.3682
G3 X322.9447 Y172.3402 J0.5765
G1 X322.9453 Y179.6583
G3 X322.369 Y180.2348 I-0.5764 J0.0001
G1 X35.8312 Y180.2362
G3 X35.2548 Y179.6597 J-0.5765
G1 X35.2544 Y172.3402
G3 X35.8308 Y171.7638 I0.5764
G1 X43.2816
G2 X44.3321 Y171.0635 J-1.1381
G3 X45.3826 Y170.3631 I1.0505 J0.4377
G1 X323.7688
G3 X324.3453 Y170.9396 J0.5765
G1 X324.3461 Y181.059
G3 X323.7698 Y181.6354 I-0.5764
G1 X34.4306 Y181.6369
G3 X33.8542 Y181.0604 J-0.5765
G1 X33.8536 Y170.9395
G3 X34.43 Y170.3631 I0.5764
G1 X45.3826
G2 X46.4331 Y169.6628 J-1.1381
G3 X47.4836 Y168.9624 I1.0505 J0.4377
G1 X325.1693
G3 X325.7458 Y169.5389 J0.5765
G1 X325.7469 Y182.4597
G3 X325.1706 Y183.0361 I-0.5764
G1 X33.03 Y183.0376
G3 X32.4536 Y182.4611 J-0.5765
G1 X32.4529 Y169.5389
G3 X33.0293 Y168.9624 I0.5764
G1 X47.4836
G2 X48.5341 Y168.2621 J-1.1381
G3 X49.5846 Y167.5618 I1.0505 J0.4377
G1 X326.5699
G3 X327.1464 Y168.1382 J0.5765
G1 X327.1477 Y183.8604
G3 X326.5714 Y184.4368 I-0.5764
G1 X31.6294 Y184.4382
G3 X31.053 Y183.8618 J-0.5765
G1 X31.0521 Y168.1382
G3 X31.6285 Y167.5618 I0.5764
G1 X49.5846
G2 X50.6351 Y166.8614 J-1.1381
G3 X51.6857 Y166.1611 I1.0505 J0.4377
G1 X327.9705
G3 X328.5469 Y166.7375 J0.5765
G1 X328.5486 Y185.261
G3 X327.9722 Y185.8375 I-0.5764
G1 X30.2288 Y185.8389
G3 X29.6524 Y185.2625 J-0.5765
G1 X29.6513 Y166.7375
G3 X30.2277 Y166.1611 I0.5764
G1 X51.6857
G2 X52.7362 Y165.4607 J-1.1381
G3 X53.7867 Y164.7604 I1.0505 J0.4377
G1 X329.371
G3 X329.9475 Y165.3368 J0.5765
G1 X329.9493 Y186.6617
G3 X329.373 Y187.2381 I-0.5764 J0.0001
G1 X28.8282 Y187.2396
G3 X28.2518 Y186.6632 J-0.5765
G1 X28.2506 Y165.3368
G3 X28.827 Y164.7604 I0.5764
G1 X53.7867
G2 X54.8372 Y164.0601 J-1.1381
G3 X55.8877 Y163.3597 I1.0505 J0.4377
G1 X330.7716
G3 X331.3481 Y163.9362 J0.5765
G1 X331.3502 Y188.0624
G3 X330.7738 Y188.6388 I-0.5764
G1 X27.4276 Y188.6403
G3 X26.8512 Y188.0639 J-0.5765
G1 X26.8498 Y163.9361
G3 X27.4262 Y163.3597 I0.5764
G1 X55.8877
G2 X56.945 Y162.6549 J-1.1454
G3 X58.0023 Y161.95 I1.0573 J0.4405
G1 X331.9868
X332.0418 Y161.9491
X332.0969 Y161.9451
X332.1519 Y161.9378
X332.207 Y161.9272
X332.2621 Y161.9132
X332.3171 Y161.8955
X332.3687 Y161.8755
X332.4272 Y161.8485
X332.4823 Y161.8185
X332.5374 Y161.7835
X332.5935 Y161.7419
X332.6475 Y161.6952
X332.6799 Y161.6635
X332.7095 Y161.6318
X332.7576 Y161.5733
X332.76 Y190.0485
X26.2092 Y190.05
X26.1542 Y190.0511
X26.0991 Y190.0554
X26.0441 Y190.0629
X25.989 Y190.0737
X25.9339 Y190.088
X25.8789 Y190.1059
X25.8293 Y190.1253
X25.7688 Y190.1535
X25.7137 Y190.1839
X25.6587 Y190.2193
X25.6066 Y190.2582
X25.5486 Y190.3085
X25.5182 Y190.3384
X25.4905 Y190.3683
X25.4526 Y190.4136
X25.4416 Y190.4279
X25.44 Y161.5742
X25.4652 Y161.6022
X25.4905 Y161.6318
X25.5182 Y161.6616
X25.5486 Y161.6915
X25.6066 Y161.7419
X25.6587 Y161.7807
X25.7137 Y161.8161
X25.7797 Y161.852
X25.8293 Y161.8747
X25.8789 Y161.8941
X25.9339 Y161.912
X25.989 Y161.9263
X26.0441 Y161.9371
X26.0991 Y161.9446
X26.1542 Y161.9489
X26.2092 Y161.95
X58.0023
X58.0292 Y161.9519 Z-8.9981
X58.0551 Y161.9575 Z-8.9923
X58.0789 Y161.9662 Z-8.9828
X58.1 Y161.9771 Z-8.9698
X58.118 Y161.9893 Z-8.9536
X58.1326 Y162.0017 Z-8.9344
X58.1439 Y162.0134 Z-8.9127
X58.1522 Y162.0233 Z-8.8889
X58.1578 Y162.031 Z-8.8635
X58.1611 Y162.0357 Z-8.837
X58.1621 Y162.0374 Z-8.81
G0 Z6

G53 Z5
M5
G4 P1.0
G53 X0 Y0
M30
%
