%
(Made in : Autodesk CAM Post Processor)
(G Code optimized for OpenBuilds OX CNC 1000 x 750 with GRBL V0.9j controller)

(Program Name : 1001)
(1 Operation :)
(1 : Pocket1)
(  Tool : Flat End Mill 3 Flutes, Diam = 3.175mm, Len = 20mm)
(  Spindle : RPM = 30000, set router dial to 6)
(  Machining time : 25 min 6 sec)

G90 G94
G17
G21

(Operation 1 of 1 : Pocket1)

G53 G0 Z5
G54
S30000 M3
G4 P1.0
X169.7947 Y42.5036
Z6
Z3
G1 Z2.4173 F1200
X169.7816 Y42.4966 Z2.3213
X169.7439 Y42.4755 Z2.2343
X169.6862 Y42.4404 Z2.1644
X169.6156 Y42.3924 Z2.1182
X169.5401 Y42.3341 Z2.1
G3 X169.7568 Y42.4829 Z1.7783 I0.9589 J-1.164
X169.996 Y42.5918 Z1.4566 I0.7422 J-1.3128
X170.2505 Y42.6576 Z1.1349 I0.503 J-1.4218
X170.5126 Y42.6781 Z0.8132 I0.2484 J-1.4875
X170.7743 Y42.6528 Z0.4914 I-0.0136 J-1.5081
X171.0276 Y42.5825 Z0.1697 I-0.2753 J-1.4828
X171.2648 Y42.4692 Z-0.152 I-0.5286 J-1.4124
X171.4788 Y42.3165 Z-0.4737 I-0.7658 J-1.2992
X171.663 Y42.129 Z-0.7954 I-0.9798 J-1.1465
X171.8118 Y41.9123 Z-1.1171 I-1.164 J-0.9589
X171.9208 Y41.673 Z-1.4388 I-1.3128 J-0.7422
X171.9865 Y41.4185 Z-1.7605 I-1.4218 J-0.503
X170.499 Y39.6619 Z-2 I-1.4875 J-0.2484
G1 X170.5442 F3500
G3 X171.2538 Y40.3716 J0.7096
G1 Y43.383
G3 X169.7443 Y43.3831 I-0.7547
G1 X169.7442 Y40.3716
G3 X170.4538 Y39.6619 I0.7096
G1 X170.499
G2 X171.4445 Y38.8268 J-0.9528
G3 X172.6784 Y38.5643 I0.6624 J0.0824
X172.8169 Y39.062 I-0.8247 J0.4977
G1 Y44.8536
G3 X171.8537 Y45.8169 I-0.9632
G1 X169.1445
G3 X168.1812 Y44.8536 J-0.9633
G1 X168.181 Y39.062
G3 X169.1441 Y38.0988 I0.9632
G1 X171.8537
G3 X172.6784 Y38.5643 J0.9632
G2 X174.1124 Y39.8186 I2.6808 J-1.618
G3 X175.1576 Y41.4116 I-0.6914 J1.593
G1 X175.1575 Y47.1943
G3 X174.1943 Y48.1575 I-0.9632
G1 X166.804
G3 X165.8407 Y47.1942 J-0.9633
G1 X165.8402 Y36.7214
G3 X166.8034 Y35.7582 I0.9632
G1 X174.1943
G3 X175.1576 Y36.7214 J0.9632
G1 Y41.4116
G2 X176.3279 Y43.1671 I1.9018
G3 X177.4982 Y44.9225 I-0.7314 J1.7555
G1 Y49.5349
G3 X176.5349 Y50.4981 I-0.9632
G1 X164.4635
G3 X163.5002 Y49.5349 J-0.9633
G1 X163.4995 Y34.3808
G3 X164.4627 Y33.4175 I0.9632
G1 X176.535
G3 X177.4982 Y34.3808 J0.9632
G1 Y44.9225
G2 X178.6685 Y46.678 I1.9018
G3 X179.8388 Y48.4335 I-0.7314 J1.7555
G1 Y51.8755
G3 X178.8756 Y52.8388 I-0.9632
G1 X162.123
G3 X161.1597 Y51.8755 J-0.9633
G1 X161.1587 Y32.0401
G3 X162.1219 Y31.0769 I0.9632
G1 X178.8756
G3 X179.8388 Y32.0401 J0.9632
G1 Y48.4335
G2 X181.0091 Y50.189 I1.9018
G3 X182.1794 Y51.9444 I-0.7314 J1.7555
G1 Y54.2161
G3 X181.2162 Y55.1794 I-0.9632
G1 X159.7824
G3 X158.8192 Y54.2161 J-0.9633
G1 X158.818 Y29.6995
G3 X159.7812 Y28.7363 I0.9632
G1 X181.2162
G3 X182.1795 Y29.6995 J0.9632
G1 X182.1794 Y51.9444
G2 X183.3497 Y53.6999 I1.9018
G3 X184.5201 Y55.4554 I-0.7314 J1.7555
G1 Y56.5568
G3 X183.5568 Y57.52 I-0.9632
G1 X157.4419
G3 X156.4786 Y56.5568 J-0.9633
G1 X156.4772 Y27.3589
G3 X157.4404 Y26.3956 I0.9632
G1 X183.5569
G3 X184.5201 Y27.3589 J0.9632
G1 Y55.4554
G2 X185.7132 Y57.1857 I1.8512
G3 X186.8557 Y58.9498 I-0.6319 J1.6613
X185.8941 Y59.8573 I-0.9616 J-0.0557
G1 X155.1047
G3 X154.1414 Y58.8941 J-0.9633
G1 X154.1751 Y26.1227
G2 X154.1511 Y25.5597 I-6.6451 J0.0003
G3 X154.1146 Y24.9973 I14.0464 J-1.1952
X155.0123 Y24.0583 I0.8977 J-0.0403
G1 X185.9899
G3 X186.8857 Y24.9976 J0.8967
G2 X186.6704 Y41.9457 I243.6209 J11.5689
G3 X186.8574 Y58.8941 I-768.2205 J16.9475
G1 X186.8557 Y58.9498
G2 X187.6737 Y60.4751 I1.6528 J0.0957
G3 X187.2216 Y62.1458 I-0.4521 J0.7742
G1 X152.8164
G3 X151.8531 Y61.1825 J-0.9633
G1 X151.959 Y26.1228
G2 X151.84 Y24.3983 I-12.5615 J0.0006
X151.5911 Y22.6878 I-127.3167 J17.6517
G3 X152.3798 Y21.7699 I0.7887 J-0.1202
G1 X188.6175
G3 X189.4064 Y22.6861 J0.7978
G2 X189.156 Y24.4302 I135.5764 J20.3561
X189.0361 Y26.1881 I12.8289 J1.7579
G1 X189.1458 Y61.1825
G3 X188.1826 Y62.1458 I-0.9632
G1 X187.2216
G2 X185.5515 Y63.2592 J1.8092
G3 X183.8815 Y64.3725 I-1.6701 J-0.6959
G1 X150.5897
G3 X149.6264 Y63.4093 J-0.9633
G1 X149.7604 Y26.1229
G2 X149.4949 Y23.2462 I-15.722 J0.0007
X148.8439 Y20.4316 I-32.8774 J6.1206
G3 X149.5196 Y19.5431 I0.6756 J-0.1873
G1 X191.4792
G3 X192.1562 Y20.4319 J0.7022
G2 X191.6089 Y22.5975 I50.4207 J13.8944
X191.2829 Y24.8073 I13.6629 J3.1441
G1 X191.3726 Y63.4093
G3 X190.4093 Y64.3725 I-0.9632
G1 X183.8815
G2 X182.2708 Y65.4463 J1.7449
G3 X180.6602 Y66.5201 I-1.6107 J-0.6711
G1 X148.4423
G3 X147.479 Y65.5568 J-0.9633
G1 X147.6129 Y26.123
G2 X147.1109 Y22.0897 I-16.4596 J0.0008
X145.7823 Y18.2486 I-23.1052 J5.841
G3 X146.3366 Y17.3956 I0.5542 J-0.2464
G1 X194.6635
G3 X195.2182 Y18.2487 J0.6069
G2 X194.0271 Y21.5207 I23.2143 J10.3031
X193.4257 Y24.9505 I15.6791 J4.5171
G1 X193.5201 Y65.5568
G3 X192.5569 Y66.5201 I-0.9632
G1 X180.6602
G2 X179.1237 Y67.5443 J1.6644
G3 X177.5873 Y68.5686 I-1.5364 J-0.6402
G1 X146.3938
G3 X145.4306 Y67.6054 J-0.9633
G1 X145.5643 Y26.1231
G2 X144.6723 Y20.881 I-15.8533 J0.0007
X142.2424 Y16.1512 I-18.304 J6.4143
G3 X142.6604 Y15.347 I0.418 J-0.2934
G1 X198.3409
G3 X198.7572 Y16.1505 J0.5095
G2 X196.4972 Y20.3921 I15.7058 J11.0909
X195.4697 Y25.087 I15.1486 J5.7753
G1 X195.5686 Y67.6054
G3 X194.6054 Y68.5686 I-0.9632
G1 X177.5873
G2 X176.1532 Y69.5247 J1.5537
G3 X174.7189 Y70.4809 I-1.4342 J-0.5976
G1 X144.4817
G3 X143.5184 Y69.5176 J-0.9633
G1 X143.6521 Y26.1232
G2 X142.0783 Y19.4807 I-14.8081 J0.0007
X137.7957 Y14.1648 I-14.4344 J7.2456
G3 X138.0539 Y13.4348 I0.2581 J-0.3194
G1 X202.9413
G3 X203.2039 Y14.1672 J0.4133
G2 X199.1487 Y19.0884 I10.5572 J12.831
X197.3777 Y25.2144 I13.1595 J7.1232
G1 X197.4809 Y69.5176
G3 X196.5177 Y70.4809 I-0.9632
G1 X174.7189
G2 X173.4337 Y71.3377 J1.3923
G3 X172.1485 Y72.1945 I-1.2852 J-0.5355
G1 X142.7681
G3 X141.8048 Y71.2313 J-0.9633
G1 X141.9384 Y26.1233
G2 X138.3981 Y16.9253 I-13.7203 J0.0006
X129.6621 Y12.3626 I-10.5281 J9.5131
G1 X12.0103 Y12.3985
G3 X11.7196 Y12.1078 J-0.2907
G1 Y12.0117
G3 X12.0103 Y11.7211 I0.2907
G1 X273.9913
G3 X274.282 Y12.0118 J0.2907
G1 Y12.1081
G3 X273.9913 Y12.3988 I-0.2906
G1 X212.906 Y12.2631
G2 X204.1423 Y15.4379 J13.6831
X199.3409 Y23.4273 I9.0915 J10.9012
X199.0589 Y26.1881 I12.9798 J2.7205
G1 X199.1946 Y71.2313
G3 X198.2313 Y72.1945 I-0.9632
G1 X172.1485
G2 X170.393 Y73.3648 J1.9017
G3 X168.6376 Y74.5351 I-1.7554 J-0.7314
G1 X140.4276
G3 X139.4643 Y73.5719 J-0.9633
G1 X139.5978 Y26.1234
G2 X136.6417 Y18.4724 I-11.3806 J0.0005
X129.3665 Y14.6845 I-8.7718 J7.967
G1 X10.3419 Y14.7391
G3 X9.3788 Y13.7759 J-0.9631
G1 X9.3792 Y10.3438
G3 X10.3426 Y9.3805 I0.9634 J0.0001
G1 X275.6593
G3 X276.6226 Y10.3438 J0.9632
G1 Y13.7761
G3 X275.6593 Y14.7394 I-0.9632
G1 X212.906 Y14.6037
G2 X205.6178 Y17.2548 J11.3435
X201.6317 Y23.9074 I7.6171 J9.0846
X201.3995 Y26.1881 I10.6896 J2.2405
G1 X201.5351 Y73.5719
G3 X200.5719 Y74.5351 I-0.9632
G1 X168.6376
G2 X166.8822 Y75.7054 J1.9017
G3 X165.1267 Y76.8757 I-1.7554 J-0.7314
G1 X138.0872
G3 X137.1239 Y75.9124 J-0.9633
G1 X137.2573 Y26.1235
G2 X134.8853 Y20.0194 I-9.0414 J0.0004
X129.0709 Y17.0063 I-7.0155 J6.4214
G1 X8.0011 Y17.0797
G3 X7.038 Y16.1165 J-0.9631
G1 X7.0389 Y8.0032
G3 X8.0023 Y7.04 I0.9634 J0.0001
G1 X277.9999
G3 X278.9631 Y8.0032 J0.9632
G1 X278.9632 Y16.1167
G3 X277.9999 Y17.08 I-0.9632
G1 X212.906 Y16.9442
G2 X207.0934 Y19.0717 J9.0045
X203.9225 Y24.3876 I6.1432 J7.2681
X203.74 Y26.1881 I8.3997 J1.7605
G1 X203.8757 Y75.9124
G3 X202.9125 Y76.8757 I-0.9632
G1 X165.1267
G2 X163.3713 Y78.046 J1.9017
G3 X161.6159 Y79.2163 I-1.7554 J-0.7314
G1 X135.7467
G3 X134.7834 Y78.253 J-0.9633
G1 X134.9167 Y26.1236
G2 X133.1289 Y21.5665 I-6.703 J0.0003
X128.7753 Y19.3281 I-5.2594 J4.8767
G1 X5.6602 Y19.4204
G3 X4.6971 Y18.4572 J-0.9631
G1 X4.6986 Y5.6627
G3 X5.662 Y4.6994 I0.9634 J0.0001
G1 X280.3404
G3 X281.3037 Y5.6626 J0.9632
G1 Y18.4573
G3 X280.3405 Y19.4205 I-0.9632
G1 X212.906 Y19.2848
G2 X208.5689 Y20.8886 J6.6664
X206.2133 Y24.8677 I4.6704 J5.4518
X206.1128 Y25.5245 I5.9328 J1.2435
X206.0806 Y26.1881 I6.8247 J0.6637
G1 X206.2163 Y78.253
G3 X205.253 Y79.2163 I-0.9632
G1 X161.6159
G2 X159.8605 Y80.3865 J1.9017
G3 X158.105 Y81.5568 I-1.7554 J-0.7314
G1 X133.4063
G3 X132.4429 Y80.5936 J-0.9633
G1 X132.5761 Y26.1237
G2 X131.3725 Y23.1135 I-4.3666 J0.0002
X128.4797 Y21.65 I-3.5037 J3.3347
G1 X3.3193 Y21.761
G3 X2.3563 Y20.7978 J-0.9631
G1 X2.3583 Y3.3221
G3 X3.3217 Y2.3588 I0.9634 J0.0001
G1 X282.681
G3 X283.6443 Y3.3221 J0.9632
G1 Y20.7979
G3 X282.6811 Y21.7611 I-0.9632
G1 X212.906 Y21.6254
G2 X210.0445 Y22.7054 J4.3309
X208.504 Y25.3478 I3.2008 J3.6361
X208.4409 Y25.7658 I3.6537 J0.7658
X208.4212 Y26.1881 I4.5131 J0.4223
G1 X208.5569 Y80.5936
G3 X207.5936 Y81.5568 I-0.9632
G1 X158.105
G2 X156.3383 Y82.7347 J1.914
G3 X154.5715 Y83.9125 I-1.7667 J-0.7361
G1 X130.0874
X130.0847 Y26.1239
G2 X130.0703 Y25.9507 I-1.0437
G1 X130.0378 Y25.758
G2 X129.9857 Y25.5643 I-1.0293 J0.1732
G1 X129.9133 Y25.3716
G2 X129.8234 Y25.1888 I-0.9771 J0.3669
G1 X129.7172 Y25.0173
G2 X129.5968 Y24.8591 I-0.8872 J0.5498
G1 X129.464 Y24.7151
G2 X129.3264 Y24.5905 I-0.7669 J0.708
G1 X129.1864 Y24.4847
G2 X129.0512 Y24.398 I-0.6293 J0.8327
G1 X128.9228 Y24.329
G2 X128.7594 Y24.2584 I-0.4941 J0.9194
G1 X128.5599 Y24.1918
G2 X128.3611 Y24.1464 I-0.3307 J0.99
G1 X128.165 Y24.1214
G2 X128.0332 Y24.1131 I-0.1318 J1.0354
G1 X0.0002 Y24.1168
X0.0031 Y0.0091
X0.004 Y0.004
X285.9914 Y0.0032
X285.9999 Y0.0405
X286 Y24.1168
X212.906
G2 X212.7307 Y24.1316 J1.0437
G1 X212.5691 Y24.1591
G2 X212.4069 Y24.2004 I0.1753 J1.0289
G1 X212.2452 Y24.2556
G2 X212.0722 Y24.333 I0.3375 J0.9877
G1 X211.8905 Y24.4349
G2 X211.7339 Y24.5425 I0.5106 J0.9103
G1 X211.6018 Y24.6523
G2 X211.4718 Y24.7813 I0.6672 J0.8027
G1 X211.3463 Y24.9298
G2 X211.2477 Y25.0678 I0.7972 J0.6737
G1 X211.1735 Y25.1919
G2 X211.1001 Y25.3401 I0.8958 J0.5357
G1 X211.0311 Y25.5128
G2 X210.9786 Y25.6862 I0.9691 J0.3876
G1 X210.9425 Y25.8589
G2 X210.9226 Y26.0035 I1.0215 J0.2141
G1 X210.9149 Y26.1186
X210.9126 Y26.1881
X210.9125 Y83.9125
X154.5715
X154.5227 Y83.9087 Z-1.9922
X154.475 Y83.8974 Z-1.9845
X154.4339 Y83.8811 Z-1.9619
X154.3955 Y83.8592 Z-1.9394
X154.3418 Y83.8141 Z-1.8691
X154.3131 Y83.7794 Z-1.7806
X154.3044 Y83.7665 Z-1.6825
G0 Z5
X169.7947 Y42.5036
Z0.4173
G1 X169.7816 Y42.4966 Z0.3213 F1200
X169.7439 Y42.4755 Z0.2343
X169.6862 Y42.4404 Z0.1644
X169.6156 Y42.3924 Z0.1182
X169.5401 Y42.3341 Z0.1
G3 X169.7568 Y42.4829 Z-0.2217 I0.9589 J-1.164
X169.996 Y42.5918 Z-0.5434 I0.7422 J-1.3128
X170.2505 Y42.6576 Z-0.8651 I0.503 J-1.4218
X170.5126 Y42.6781 Z-1.1868 I0.2484 J-1.4875
X170.7743 Y42.6528 Z-1.5086 I-0.0136 J-1.5081
X171.0276 Y42.5825 Z-1.8303 I-0.2753 J-1.4828
X171.2648 Y42.4692 Z-2.152 I-0.5286 J-1.4124
X171.4788 Y42.3165 Z-2.4737 I-0.7658 J-1.2992
X171.663 Y42.129 Z-2.7954 I-0.9798 J-1.1465
X171.8118 Y41.9123 Z-3.1171 I-1.164 J-0.9589
X171.9208 Y41.673 Z-3.4388 I-1.3128 J-0.7422
X171.9865 Y41.4185 Z-3.7605 I-1.4218 J-0.503
X170.499 Y39.6619 Z-4 I-1.4875 J-0.2484
G1 X170.5442 F3500
G3 X171.2538 Y40.3716 J0.7096
G1 Y43.383
G3 X169.7443 Y43.3831 I-0.7547
G1 X169.7442 Y40.3716
G3 X170.4538 Y39.6619 I0.7096
G1 X170.499
G2 X171.4445 Y38.8268 J-0.9528
G3 X172.6784 Y38.5643 I0.6624 J0.0824
X172.8169 Y39.062 I-0.8247 J0.4977
G1 Y44.8536
G3 X171.8537 Y45.8169 I-0.9632
G1 X169.1445
G3 X168.1812 Y44.8536 J-0.9633
G1 X168.181 Y39.062
G3 X169.1441 Y38.0988 I0.9632
G1 X171.8537
G3 X172.6784 Y38.5643 J0.9632
G2 X174.1124 Y39.8186 I2.6808 J-1.618
G3 X175.1576 Y41.4116 I-0.6914 J1.593
G1 X175.1575 Y47.1943
G3 X174.1943 Y48.1575 I-0.9632
G1 X166.804
G3 X165.8407 Y47.1942 J-0.9633
G1 X165.8402 Y36.7214
G3 X166.8034 Y35.7582 I0.9632
G1 X174.1943
G3 X175.1576 Y36.7214 J0.9632
G1 Y41.4116
G2 X176.3279 Y43.1671 I1.9018
G3 X177.4982 Y44.9225 I-0.7314 J1.7555
G1 Y49.5349
G3 X176.5349 Y50.4981 I-0.9632
G1 X164.4635
G3 X163.5002 Y49.5349 J-0.9633
G1 X163.4995 Y34.3808
G3 X164.4627 Y33.4175 I0.9632
G1 X176.535
G3 X177.4982 Y34.3808 J0.9632
G1 Y44.9225
G2 X178.6685 Y46.678 I1.9018
G3 X179.8388 Y48.4335 I-0.7314 J1.7555
G1 Y51.8755
G3 X178.8756 Y52.8388 I-0.9632
G1 X162.123
G3 X161.1597 Y51.8755 J-0.9633
G1 X161.1587 Y32.0401
G3 X162.1219 Y31.0769 I0.9632
G1 X178.8756
G3 X179.8388 Y32.0401 J0.9632
G1 Y48.4335
G2 X181.0091 Y50.189 I1.9018
G3 X182.1794 Y51.9444 I-0.7314 J1.7555
G1 Y54.2161
G3 X181.2162 Y55.1794 I-0.9632
G1 X159.7824
G3 X158.8192 Y54.2161 J-0.9633
G1 X158.818 Y29.6995
G3 X159.7812 Y28.7363 I0.9632
G1 X181.2162
G3 X182.1795 Y29.6995 J0.9632
G1 X182.1794 Y51.9444
G2 X183.3497 Y53.6999 I1.9018
G3 X184.5201 Y55.4554 I-0.7314 J1.7555
G1 Y56.5568
G3 X183.5568 Y57.52 I-0.9632
G1 X157.4419
G3 X156.4786 Y56.5568 J-0.9633
G1 X156.4772 Y27.3589
G3 X157.4404 Y26.3956 I0.9632
G1 X183.5569
G3 X184.5201 Y27.3589 J0.9632
G1 Y55.4554
G2 X185.7132 Y57.1857 I1.8512
G3 X186.8557 Y58.9498 I-0.6319 J1.6613
X185.8941 Y59.8573 I-0.9616 J-0.0557
G1 X155.1047
G3 X154.1414 Y58.8941 J-0.9633
G1 X154.1751 Y26.1227
G2 X154.1511 Y25.5597 I-6.6451 J0.0003
G3 X154.1146 Y24.9973 I14.0464 J-1.1952
X155.0123 Y24.0583 I0.8977 J-0.0403
G1 X185.9899
G3 X186.8857 Y24.9976 J0.8967
G2 X186.6704 Y41.9457 I243.6209 J11.5689
G3 X186.8574 Y58.8941 I-768.2205 J16.9475
G1 X186.8557 Y58.9498
G2 X187.6737 Y60.4751 I1.6528 J0.0957
G3 X187.2216 Y62.1458 I-0.4521 J0.7742
G1 X152.8164
G3 X151.8531 Y61.1825 J-0.9633
G1 X151.959 Y26.1228
G2 X151.84 Y24.3983 I-12.5615 J0.0006
X151.5911 Y22.6878 I-127.3167 J17.6517
G3 X152.3798 Y21.7699 I0.7887 J-0.1202
G1 X188.6175
G3 X189.4064 Y22.6861 J0.7978
G2 X189.156 Y24.4302 I135.5764 J20.3561
X189.0361 Y26.1881 I12.8289 J1.7579
G1 X189.1458 Y61.1825
G3 X188.1826 Y62.1458 I-0.9632
G1 X187.2216
G2 X185.5515 Y63.2592 J1.8092
G3 X183.8815 Y64.3725 I-1.6701 J-0.6959
G1 X150.5897
G3 X149.6264 Y63.4093 J-0.9633
G1 X149.7604 Y26.1229
G2 X149.4949 Y23.2462 I-15.722 J0.0007
X148.8439 Y20.4316 I-32.8774 J6.1206
G3 X149.5196 Y19.5431 I0.6756 J-0.1873
G1 X191.4792
G3 X192.1562 Y20.4319 J0.7022
G2 X191.6089 Y22.5975 I50.4207 J13.8944
X191.2829 Y24.8073 I13.6629 J3.1441
G1 X191.3726 Y63.4093
G3 X190.4093 Y64.3725 I-0.9632
G1 X183.8815
G2 X182.2708 Y65.4463 J1.7449
G3 X180.6602 Y66.5201 I-1.6107 J-0.6711
G1 X148.4423
G3 X147.479 Y65.5568 J-0.9633
G1 X147.6129 Y26.123
G2 X147.1109 Y22.0897 I-16.4596 J0.0008
X145.7823 Y18.2486 I-23.1052 J5.841
G3 X146.3366 Y17.3956 I0.5542 J-0.2464
G1 X194.6635
G3 X195.2182 Y18.2487 J0.6069
G2 X194.0271 Y21.5207 I23.2143 J10.3031
X193.4257 Y24.9505 I15.6791 J4.5171
G1 X193.5201 Y65.5568
G3 X192.5569 Y66.5201 I-0.9632
G1 X180.6602
G2 X179.1237 Y67.5443 J1.6644
G3 X177.5873 Y68.5686 I-1.5364 J-0.6402
G1 X146.3938
G3 X145.4306 Y67.6054 J-0.9633
G1 X145.5643 Y26.1231
G2 X144.6723 Y20.881 I-15.8533 J0.0007
X142.2424 Y16.1512 I-18.304 J6.4143
G3 X142.6604 Y15.347 I0.418 J-0.2934
G1 X198.3409
G3 X198.7572 Y16.1505 J0.5095
G2 X196.4972 Y20.3921 I15.7058 J11.0909
X195.4697 Y25.087 I15.1486 J5.7753
G1 X195.5686 Y67.6054
G3 X194.6054 Y68.5686 I-0.9632
G1 X177.5873
G2 X176.1532 Y69.5247 J1.5537
G3 X174.7189 Y70.4809 I-1.4342 J-0.5976
G1 X144.4817
G3 X143.5184 Y69.5176 J-0.9633
G1 X143.6521 Y26.1232
G2 X142.0783 Y19.4807 I-14.8081 J0.0007
X137.7957 Y14.1648 I-14.4344 J7.2456
G3 X138.0539 Y13.4348 I0.2581 J-0.3194
G1 X202.9413
G3 X203.2039 Y14.1672 J0.4133
G2 X199.1487 Y19.0884 I10.5572 J12.831
X197.3777 Y25.2144 I13.1595 J7.1232
G1 X197.4809 Y69.5176
G3 X196.5177 Y70.4809 I-0.9632
G1 X174.7189
G2 X173.4337 Y71.3377 J1.3923
G3 X172.1485 Y72.1945 I-1.2852 J-0.5355
G1 X142.7681
G3 X141.8048 Y71.2313 J-0.9633
G1 X141.9384 Y26.1233
G2 X138.3981 Y16.9253 I-13.7203 J0.0006
X129.6621 Y12.3626 I-10.5281 J9.5131
G1 X12.0103 Y12.3985
G3 X11.7196 Y12.1078 J-0.2907
G1 Y12.0117
G3 X12.0103 Y11.7211 I0.2907
G1 X273.9913
G3 X274.282 Y12.0118 J0.2907
G1 Y12.1081
G3 X273.9913 Y12.3988 I-0.2906
G1 X212.906 Y12.2631
G2 X204.1423 Y15.4379 J13.6831
X199.3409 Y23.4273 I9.0915 J10.9012
X199.0589 Y26.1881 I12.9798 J2.7205
G1 X199.1946 Y71.2313
G3 X198.2313 Y72.1945 I-0.9632
G1 X172.1485
G2 X170.393 Y73.3648 J1.9017
G3 X168.6376 Y74.5351 I-1.7554 J-0.7314
G1 X140.4276
G3 X139.4643 Y73.5719 J-0.9633
G1 X139.5978 Y26.1234
G2 X136.6417 Y18.4724 I-11.3806 J0.0005
X129.3665 Y14.6845 I-8.7718 J7.967
G1 X10.3419 Y14.7391
G3 X9.3788 Y13.7759 J-0.9631
G1 X9.3792 Y10.3438
G3 X10.3426 Y9.3805 I0.9634 J0.0001
G1 X275.6593
G3 X276.6226 Y10.3438 J0.9632
G1 Y13.7761
G3 X275.6593 Y14.7394 I-0.9632
G1 X212.906 Y14.6037
G2 X205.6178 Y17.2548 J11.3435
X201.6317 Y23.9074 I7.6171 J9.0846
X201.3995 Y26.1881 I10.6896 J2.2405
G1 X201.5351 Y73.5719
G3 X200.5719 Y74.5351 I-0.9632
G1 X168.6376
G2 X166.8822 Y75.7054 J1.9017
G3 X165.1267 Y76.8757 I-1.7554 J-0.7314
G1 X138.0872
G3 X137.1239 Y75.9124 J-0.9633
G1 X137.2573 Y26.1235
G2 X134.8853 Y20.0194 I-9.0414 J0.0004
X129.0709 Y17.0063 I-7.0155 J6.4214
G1 X8.0011 Y17.0797
G3 X7.038 Y16.1165 J-0.9631
G1 X7.0389 Y8.0032
G3 X8.0023 Y7.04 I0.9634 J0.0001
G1 X277.9999
G3 X278.9631 Y8.0032 J0.9632
G1 X278.9632 Y16.1167
G3 X277.9999 Y17.08 I-0.9632
G1 X212.906 Y16.9442
G2 X207.0934 Y19.0717 J9.0045
X203.9225 Y24.3876 I6.1432 J7.2681
X203.74 Y26.1881 I8.3997 J1.7605
G1 X203.8757 Y75.9124
G3 X202.9125 Y76.8757 I-0.9632
G1 X165.1267
G2 X163.3713 Y78.046 J1.9017
G3 X161.6159 Y79.2163 I-1.7554 J-0.7314
G1 X135.7467
G3 X134.7834 Y78.253 J-0.9633
G1 X134.9167 Y26.1236
G2 X133.1289 Y21.5665 I-6.703 J0.0003
X128.7753 Y19.3281 I-5.2594 J4.8767
G1 X5.6602 Y19.4204
G3 X4.6971 Y18.4572 J-0.9631
G1 X4.6986 Y5.6627
G3 X5.662 Y4.6994 I0.9634 J0.0001
G1 X280.3404
G3 X281.3037 Y5.6626 J0.9632
G1 Y18.4573
G3 X280.3405 Y19.4205 I-0.9632
G1 X212.906 Y19.2848
G2 X208.5689 Y20.8886 J6.6664
X206.2133 Y24.8677 I4.6704 J5.4518
X206.1128 Y25.5245 I5.9328 J1.2435
X206.0806 Y26.1881 I6.8247 J0.6637
G1 X206.2163 Y78.253
G3 X205.253 Y79.2163 I-0.9632
G1 X161.6159
G2 X159.8605 Y80.3865 J1.9017
G3 X158.105 Y81.5568 I-1.7554 J-0.7314
G1 X133.4063
G3 X132.4429 Y80.5936 J-0.9633
G1 X132.5761 Y26.1237
G2 X131.3725 Y23.1135 I-4.3666 J0.0002
X128.4797 Y21.65 I-3.5037 J3.3347
G1 X3.3193 Y21.761
G3 X2.3563 Y20.7978 J-0.9631
G1 X2.3583 Y3.3221
G3 X3.3217 Y2.3588 I0.9634 J0.0001
G1 X282.681
G3 X283.6443 Y3.3221 J0.9632
G1 Y20.7979
G3 X282.6811 Y21.7611 I-0.9632
G1 X212.906 Y21.6254
G2 X210.0445 Y22.7054 J4.3309
X208.504 Y25.3478 I3.2008 J3.6361
X208.4409 Y25.7658 I3.6537 J0.7658
X208.4212 Y26.1881 I4.5131 J0.4223
G1 X208.5569 Y80.5936
G3 X207.5936 Y81.5568 I-0.9632
G1 X158.105
G2 X156.3383 Y82.7347 J1.914
G3 X154.5715 Y83.9125 I-1.7667 J-0.7361
G1 X130.0874
X130.0847 Y26.1239
G2 X130.0703 Y25.9507 I-1.0437
G1 X130.0378 Y25.758
G2 X129.9857 Y25.5643 I-1.0293 J0.1732
G1 X129.9133 Y25.3716
G2 X129.8234 Y25.1888 I-0.9771 J0.3669
G1 X129.7172 Y25.0173
G2 X129.5968 Y24.8591 I-0.8872 J0.5498
G1 X129.464 Y24.7151
G2 X129.3264 Y24.5905 I-0.7669 J0.708
G1 X129.1864 Y24.4847
G2 X129.0512 Y24.398 I-0.6293 J0.8327
G1 X128.9228 Y24.329
G2 X128.7594 Y24.2584 I-0.4941 J0.9194
G1 X128.5599 Y24.1918
G2 X128.3611 Y24.1464 I-0.3307 J0.99
G1 X128.165 Y24.1214
G2 X128.0332 Y24.1131 I-0.1318 J1.0354
G1 X0.0002 Y24.1168
X0.0031 Y0.0091
X0.004 Y0.004
X285.9914 Y0.0032
X285.9999 Y0.0405
X286 Y24.1168
X212.906
G2 X212.7307 Y24.1316 J1.0437
G1 X212.5691 Y24.1591
G2 X212.4069 Y24.2004 I0.1753 J1.0289
G1 X212.2452 Y24.2556
G2 X212.0722 Y24.333 I0.3375 J0.9877
G1 X211.8905 Y24.4349
G2 X211.7339 Y24.5425 I0.5106 J0.9103
G1 X211.6018 Y24.6523
G2 X211.4718 Y24.7813 I0.6672 J0.8027
G1 X211.3463 Y24.9298
G2 X211.2477 Y25.0678 I0.7972 J0.6737
G1 X211.1735 Y25.1919
G2 X211.1001 Y25.3401 I0.8958 J0.5357
G1 X211.0311 Y25.5128
G2 X210.9786 Y25.6862 I0.9691 J0.3876
G1 X210.9425 Y25.8589
G2 X210.9226 Y26.0035 I1.0215 J0.2141
G1 X210.9149 Y26.1186
X210.9126 Y26.1881
X210.9125 Y83.9125
X154.5715
X154.5227 Y83.9087 Z-3.9922
X154.475 Y83.8974 Z-3.9845
X154.4339 Y83.8811 Z-3.9619
X154.3955 Y83.8592 Z-3.9394
X154.3418 Y83.8141 Z-3.8691
X154.3131 Y83.7794 Z-3.7806
X154.3044 Y83.7665 Z-3.6825
G0 Z5
X169.7947 Y42.5036
Z3
G1 Z-1.5827 F1200
X169.7816 Y42.4966 Z-1.6787
X169.7439 Y42.4755 Z-1.7657
X169.6862 Y42.4404 Z-1.8356
X169.6156 Y42.3924 Z-1.8818
X169.5401 Y42.3341 Z-1.9
G3 X169.7568 Y42.4829 Z-2.2217 I0.9589 J-1.164
X169.996 Y42.5918 Z-2.5434 I0.7422 J-1.3128
X170.2505 Y42.6576 Z-2.8651 I0.503 J-1.4218
X170.5126 Y42.6781 Z-3.1868 I0.2484 J-1.4875
X170.7743 Y42.6528 Z-3.5086 I-0.0136 J-1.5081
X171.0276 Y42.5825 Z-3.8303 I-0.2753 J-1.4828
X171.2648 Y42.4692 Z-4.152 I-0.5286 J-1.4124
X171.4788 Y42.3165 Z-4.4737 I-0.7658 J-1.2992
X171.663 Y42.129 Z-4.7954 I-0.9798 J-1.1465
X171.8118 Y41.9123 Z-5.1171 I-1.164 J-0.9589
X171.9208 Y41.673 Z-5.4388 I-1.3128 J-0.7422
X171.9865 Y41.4185 Z-5.7605 I-1.4218 J-0.503
X170.499 Y39.6619 Z-6 I-1.4875 J-0.2484
G1 X170.5442 F3500
G3 X171.2538 Y40.3716 J0.7096
G1 Y43.383
G3 X169.7443 Y43.3831 I-0.7547
G1 X169.7442 Y40.3716
G3 X170.4538 Y39.6619 I0.7096
G1 X170.499
G2 X171.4445 Y38.8268 J-0.9528
G3 X172.6784 Y38.5643 I0.6624 J0.0824
X172.8169 Y39.062 I-0.8247 J0.4977
G1 Y44.8536
G3 X171.8537 Y45.8169 I-0.9632
G1 X169.1445
G3 X168.1812 Y44.8536 J-0.9633
G1 X168.181 Y39.062
G3 X169.1441 Y38.0988 I0.9632
G1 X171.8537
G3 X172.6784 Y38.5643 J0.9632
G2 X174.1124 Y39.8186 I2.6808 J-1.618
G3 X175.1576 Y41.4116 I-0.6914 J1.593
G1 X175.1575 Y47.1943
G3 X174.1943 Y48.1575 I-0.9632
G1 X166.804
G3 X165.8407 Y47.1942 J-0.9633
G1 X165.8402 Y36.7214
G3 X166.8034 Y35.7582 I0.9632
G1 X174.1943
G3 X175.1576 Y36.7214 J0.9632
G1 Y41.4116
G2 X176.3279 Y43.1671 I1.9018
G3 X177.4982 Y44.9225 I-0.7314 J1.7555
G1 Y49.5349
G3 X176.5349 Y50.4981 I-0.9632
G1 X164.4635
G3 X163.5002 Y49.5349 J-0.9633
G1 X163.4995 Y34.3808
G3 X164.4627 Y33.4175 I0.9632
G1 X176.535
G3 X177.4982 Y34.3808 J0.9632
G1 Y44.9225
G2 X178.6685 Y46.678 I1.9018
G3 X179.8388 Y48.4335 I-0.7314 J1.7555
G1 Y51.8755
G3 X178.8756 Y52.8388 I-0.9632
G1 X162.123
G3 X161.1597 Y51.8755 J-0.9633
G1 X161.1587 Y32.0401
G3 X162.1219 Y31.0769 I0.9632
G1 X178.8756
G3 X179.8388 Y32.0401 J0.9632
G1 Y48.4335
G2 X181.0091 Y50.189 I1.9018
G3 X182.1794 Y51.9444 I-0.7314 J1.7555
G1 Y54.2161
G3 X181.2162 Y55.1794 I-0.9632
G1 X159.7824
G3 X158.8192 Y54.2161 J-0.9633
G1 X158.818 Y29.6995
G3 X159.7812 Y28.7363 I0.9632
G1 X181.2162
G3 X182.1795 Y29.6995 J0.9632
G1 X182.1794 Y51.9444
G2 X183.3497 Y53.6999 I1.9018
G3 X184.5201 Y55.4554 I-0.7314 J1.7555
G1 Y56.5568
G3 X183.5568 Y57.52 I-0.9632
G1 X157.4419
G3 X156.4786 Y56.5568 J-0.9633
G1 X156.4772 Y27.3589
G3 X157.4404 Y26.3956 I0.9632
G1 X183.5569
G3 X184.5201 Y27.3589 J0.9632
G1 Y55.4554
G2 X185.7132 Y57.1857 I1.8512
G3 X186.8557 Y58.9498 I-0.6319 J1.6613
X185.8941 Y59.8573 I-0.9616 J-0.0557
G1 X155.1047
G3 X154.1414 Y58.8941 J-0.9633
G1 X154.1751 Y26.1227
G2 X154.1511 Y25.5597 I-6.6451 J0.0003
G3 X154.1146 Y24.9973 I14.0464 J-1.1952
X155.0123 Y24.0583 I0.8977 J-0.0403
G1 X185.9899
G3 X186.8857 Y24.9976 J0.8967
G2 X186.6704 Y41.9457 I243.6209 J11.5689
G3 X186.8574 Y58.8941 I-768.2205 J16.9475
G1 X186.8557 Y58.9498
G2 X187.6737 Y60.4751 I1.6528 J0.0957
G3 X187.2216 Y62.1458 I-0.4521 J0.7742
G1 X152.8164
G3 X151.8531 Y61.1825 J-0.9633
G1 X151.959 Y26.1228
G2 X151.84 Y24.3983 I-12.5615 J0.0006
X151.5911 Y22.6878 I-127.3167 J17.6517
G3 X152.3798 Y21.7699 I0.7887 J-0.1202
G1 X188.6175
G3 X189.4064 Y22.6861 J0.7978
G2 X189.156 Y24.4302 I135.5764 J20.3561
X189.0361 Y26.1881 I12.8289 J1.7579
G1 X189.1458 Y61.1825
G3 X188.1826 Y62.1458 I-0.9632
G1 X187.2216
G2 X185.5515 Y63.2592 J1.8092
G3 X183.8815 Y64.3725 I-1.6701 J-0.6959
G1 X150.5897
G3 X149.6264 Y63.4093 J-0.9633
G1 X149.7604 Y26.1229
G2 X149.4949 Y23.2462 I-15.722 J0.0007
X148.8439 Y20.4316 I-32.8774 J6.1206
G3 X149.5196 Y19.5431 I0.6756 J-0.1873
G1 X191.4792
G3 X192.1562 Y20.4319 J0.7022
G2 X191.6089 Y22.5975 I50.4207 J13.8944
X191.2829 Y24.8073 I13.6629 J3.1441
G1 X191.3726 Y63.4093
G3 X190.4093 Y64.3725 I-0.9632
G1 X183.8815
G2 X182.2708 Y65.4463 J1.7449
G3 X180.6602 Y66.5201 I-1.6107 J-0.6711
G1 X148.4423
G3 X147.479 Y65.5568 J-0.9633
G1 X147.6129 Y26.123
G2 X147.1109 Y22.0897 I-16.4596 J0.0008
X145.7823 Y18.2486 I-23.1052 J5.841
G3 X146.3366 Y17.3956 I0.5542 J-0.2464
G1 X194.6635
G3 X195.2182 Y18.2487 J0.6069
G2 X194.0271 Y21.5207 I23.2143 J10.3031
X193.4257 Y24.9505 I15.6791 J4.5171
G1 X193.5201 Y65.5568
G3 X192.5569 Y66.5201 I-0.9632
G1 X180.6602
G2 X179.1237 Y67.5443 J1.6644
G3 X177.5873 Y68.5686 I-1.5364 J-0.6402
G1 X146.3938
G3 X145.4306 Y67.6054 J-0.9633
G1 X145.5643 Y26.1231
G2 X144.6723 Y20.881 I-15.8533 J0.0007
X142.2424 Y16.1512 I-18.304 J6.4143
G3 X142.6604 Y15.347 I0.418 J-0.2934
G1 X198.3409
G3 X198.7572 Y16.1505 J0.5095
G2 X196.4972 Y20.3921 I15.7058 J11.0909
X195.4697 Y25.087 I15.1486 J5.7753
G1 X195.5686 Y67.6054
G3 X194.6054 Y68.5686 I-0.9632
G1 X177.5873
G2 X176.1532 Y69.5247 J1.5537
G3 X174.7189 Y70.4809 I-1.4342 J-0.5976
G1 X144.4817
G3 X143.5184 Y69.5176 J-0.9633
G1 X143.6521 Y26.1232
G2 X142.0783 Y19.4807 I-14.8081 J0.0007
X137.7957 Y14.1648 I-14.4344 J7.2456
G3 X138.0539 Y13.4348 I0.2581 J-0.3194
G1 X202.9413
G3 X203.2039 Y14.1672 J0.4133
G2 X199.1487 Y19.0884 I10.5572 J12.831
X197.3777 Y25.2144 I13.1595 J7.1232
G1 X197.4809 Y69.5176
G3 X196.5177 Y70.4809 I-0.9632
G1 X174.7189
G2 X173.4337 Y71.3377 J1.3923
G3 X172.1485 Y72.1945 I-1.2852 J-0.5355
G1 X142.7681
G3 X141.8048 Y71.2313 J-0.9633
G1 X141.9384 Y26.1233
G2 X138.3981 Y16.9253 I-13.7203 J0.0006
X129.6621 Y12.3626 I-10.5281 J9.5131
G1 X12.0103 Y12.3985
G3 X11.7196 Y12.1078 J-0.2907
G1 Y12.0117
G3 X12.0103 Y11.7211 I0.2907
G1 X273.9913
G3 X274.282 Y12.0118 J0.2907
G1 Y12.1081
G3 X273.9913 Y12.3988 I-0.2906
G1 X212.906 Y12.2631
G2 X204.1423 Y15.4379 J13.6831
X199.3409 Y23.4273 I9.0915 J10.9012
X199.0589 Y26.1881 I12.9798 J2.7205
G1 X199.1946 Y71.2313
G3 X198.2313 Y72.1945 I-0.9632
G1 X172.1485
G2 X170.393 Y73.3648 J1.9017
G3 X168.6376 Y74.5351 I-1.7554 J-0.7314
G1 X140.4276
G3 X139.4643 Y73.5719 J-0.9633
G1 X139.5978 Y26.1234
G2 X136.6417 Y18.4724 I-11.3806 J0.0005
X129.3665 Y14.6845 I-8.7718 J7.967
G1 X10.3419 Y14.7391
G3 X9.3788 Y13.7759 J-0.9631
G1 X9.3792 Y10.3438
G3 X10.3426 Y9.3805 I0.9634 J0.0001
G1 X275.6593
G3 X276.6226 Y10.3438 J0.9632
G1 Y13.7761
G3 X275.6593 Y14.7394 I-0.9632
G1 X212.906 Y14.6037
G2 X205.6178 Y17.2548 J11.3435
X201.6317 Y23.9074 I7.6171 J9.0846
X201.3995 Y26.1881 I10.6896 J2.2405
G1 X201.5351 Y73.5719
G3 X200.5719 Y74.5351 I-0.9632
G1 X168.6376
G2 X166.8822 Y75.7054 J1.9017
G3 X165.1267 Y76.8757 I-1.7554 J-0.7314
G1 X138.0872
G3 X137.1239 Y75.9124 J-0.9633
G1 X137.2573 Y26.1235
G2 X134.8853 Y20.0194 I-9.0414 J0.0004
X129.0709 Y17.0063 I-7.0155 J6.4214
G1 X8.0011 Y17.0797
G3 X7.038 Y16.1165 J-0.9631
G1 X7.0389 Y8.0032
G3 X8.0023 Y7.04 I0.9634 J0.0001
G1 X277.9999
G3 X278.9631 Y8.0032 J0.9632
G1 X278.9632 Y16.1167
G3 X277.9999 Y17.08 I-0.9632
G1 X212.906 Y16.9442
G2 X207.0934 Y19.0717 J9.0045
X203.9225 Y24.3876 I6.1432 J7.2681
X203.74 Y26.1881 I8.3997 J1.7605
G1 X203.8757 Y75.9124
G3 X202.9125 Y76.8757 I-0.9632
G1 X165.1267
G2 X163.3713 Y78.046 J1.9017
G3 X161.6159 Y79.2163 I-1.7554 J-0.7314
G1 X135.7467
G3 X134.7834 Y78.253 J-0.9633
G1 X134.9167 Y26.1236
G2 X133.1289 Y21.5665 I-6.703 J0.0003
X128.7753 Y19.3281 I-5.2594 J4.8767
G1 X5.6602 Y19.4204
G3 X4.6971 Y18.4572 J-0.9631
G1 X4.6986 Y5.6627
G3 X5.662 Y4.6994 I0.9634 J0.0001
G1 X280.3404
G3 X281.3037 Y5.6626 J0.9632
G1 Y18.4573
G3 X280.3405 Y19.4205 I-0.9632
G1 X212.906 Y19.2848
G2 X208.5689 Y20.8886 J6.6664
X206.2133 Y24.8677 I4.6704 J5.4518
X206.1128 Y25.5245 I5.9328 J1.2435
X206.0806 Y26.1881 I6.8247 J0.6637
G1 X206.2163 Y78.253
G3 X205.253 Y79.2163 I-0.9632
G1 X161.6159
G2 X159.8605 Y80.3865 J1.9017
G3 X158.105 Y81.5568 I-1.7554 J-0.7314
G1 X133.4063
G3 X132.4429 Y80.5936 J-0.9633
G1 X132.5761 Y26.1237
G2 X131.3725 Y23.1135 I-4.3666 J0.0002
X128.4797 Y21.65 I-3.5037 J3.3347
G1 X3.3193 Y21.761
G3 X2.3563 Y20.7978 J-0.9631
G1 X2.3583 Y3.3221
G3 X3.3217 Y2.3588 I0.9634 J0.0001
G1 X282.681
G3 X283.6443 Y3.3221 J0.9632
G1 Y20.7979
G3 X282.6811 Y21.7611 I-0.9632
G1 X212.906 Y21.6254
G2 X210.0445 Y22.7054 J4.3309
X208.504 Y25.3478 I3.2008 J3.6361
X208.4409 Y25.7658 I3.6537 J0.7658
X208.4212 Y26.1881 I4.5131 J0.4223
G1 X208.5569 Y80.5936
G3 X207.5936 Y81.5568 I-0.9632
G1 X158.105
G2 X156.3383 Y82.7347 J1.914
G3 X154.5715 Y83.9125 I-1.7667 J-0.7361
G1 X130.0874
X130.0847 Y26.1239
G2 X130.0703 Y25.9507 I-1.0437
G1 X130.0378 Y25.758
G2 X129.9857 Y25.5643 I-1.0293 J0.1732
G1 X129.9133 Y25.3716
G2 X129.8234 Y25.1888 I-0.9771 J0.3669
G1 X129.7172 Y25.0173
G2 X129.5968 Y24.8591 I-0.8872 J0.5498
G1 X129.464 Y24.7151
G2 X129.3264 Y24.5905 I-0.7669 J0.708
G1 X129.1864 Y24.4847
G2 X129.0512 Y24.398 I-0.6293 J0.8327
G1 X128.9228 Y24.329
G2 X128.7594 Y24.2584 I-0.4941 J0.9194
G1 X128.5599 Y24.1918
G2 X128.3611 Y24.1464 I-0.3307 J0.99
G1 X128.165 Y24.1214
G2 X128.0332 Y24.1131 I-0.1318 J1.0354
G1 X0.0002 Y24.1168
X0.0031 Y0.0091
X0.004 Y0.004
X285.9914 Y0.0032
X285.9999 Y0.0405
X286 Y24.1168
X212.906
G2 X212.7307 Y24.1316 J1.0437
G1 X212.5691 Y24.1591
G2 X212.4069 Y24.2004 I0.1753 J1.0289
G1 X212.2452 Y24.2556
G2 X212.0722 Y24.333 I0.3375 J0.9877
G1 X211.8905 Y24.4349
G2 X211.7339 Y24.5425 I0.5106 J0.9103
G1 X211.6018 Y24.6523
G2 X211.4718 Y24.7813 I0.6672 J0.8027
G1 X211.3463 Y24.9298
G2 X211.2477 Y25.0678 I0.7972 J0.6737
G1 X211.1735 Y25.1919
G2 X211.1001 Y25.3401 I0.8958 J0.5357
G1 X211.0311 Y25.5128
G2 X210.9786 Y25.6862 I0.9691 J0.3876
G1 X210.9425 Y25.8589
G2 X210.9226 Y26.0035 I1.0215 J0.2141
G1 X210.9149 Y26.1186
X210.9126 Y26.1881
X210.9125 Y83.9125
X154.5715
X154.5227 Y83.9087 Z-5.9922
X154.475 Y83.8974 Z-5.9845
X154.4339 Y83.8811 Z-5.9619
X154.3955 Y83.8592 Z-5.9394
X154.3418 Y83.8141 Z-5.8691
X154.3131 Y83.7794 Z-5.7806
X154.3044 Y83.7665 Z-5.6825
G0 Z5
X169.7947 Y42.5036
Z-3.5827
G1 X169.7816 Y42.4966 Z-3.6787 F1200
X169.7439 Y42.4755 Z-3.7657
X169.6862 Y42.4404 Z-3.8356
X169.6156 Y42.3924 Z-3.8818
X169.5401 Y42.3341 Z-3.9
G3 X169.7568 Y42.4829 Z-4.2217 I0.9589 J-1.164
X169.996 Y42.5918 Z-4.5434 I0.7422 J-1.3128
X170.2505 Y42.6576 Z-4.8651 I0.503 J-1.4218
X170.5126 Y42.6781 Z-5.1868 I0.2484 J-1.4875
X170.7743 Y42.6528 Z-5.5086 I-0.0136 J-1.5081
X171.0276 Y42.5825 Z-5.8303 I-0.2753 J-1.4828
X171.2648 Y42.4692 Z-6.152 I-0.5286 J-1.4124
X171.4788 Y42.3165 Z-6.4737 I-0.7658 J-1.2992
X171.663 Y42.129 Z-6.7954 I-0.9798 J-1.1465
X171.8118 Y41.9123 Z-7.1171 I-1.164 J-0.9589
X171.9208 Y41.673 Z-7.4388 I-1.3128 J-0.7422
X171.9865 Y41.4185 Z-7.7605 I-1.4218 J-0.503
X170.499 Y39.6619 Z-8 I-1.4875 J-0.2484
G1 X170.5442 F3500
G3 X171.2538 Y40.3716 J0.7096
G1 Y43.383
G3 X169.7443 Y43.3831 I-0.7547
G1 X169.7442 Y40.3716
G3 X170.4538 Y39.6619 I0.7096
G1 X170.499
G2 X171.4445 Y38.8268 J-0.9528
G3 X172.6784 Y38.5643 I0.6624 J0.0824
X172.8169 Y39.062 I-0.8247 J0.4977
G1 Y44.8536
G3 X171.8537 Y45.8169 I-0.9632
G1 X169.1445
G3 X168.1812 Y44.8536 J-0.9633
G1 X168.181 Y39.062
G3 X169.1441 Y38.0988 I0.9632
G1 X171.8537
G3 X172.6784 Y38.5643 J0.9632
G2 X174.1124 Y39.8186 I2.6808 J-1.618
G3 X175.1576 Y41.4116 I-0.6914 J1.593
G1 X175.1575 Y47.1943
G3 X174.1943 Y48.1575 I-0.9632
G1 X166.804
G3 X165.8407 Y47.1942 J-0.9633
G1 X165.8402 Y36.7214
G3 X166.8034 Y35.7582 I0.9632
G1 X174.1943
G3 X175.1576 Y36.7214 J0.9632
G1 Y41.4116
G2 X176.3279 Y43.1671 I1.9018
G3 X177.4982 Y44.9225 I-0.7314 J1.7555
G1 Y49.5349
G3 X176.5349 Y50.4981 I-0.9632
G1 X164.4635
G3 X163.5002 Y49.5349 J-0.9633
G1 X163.4995 Y34.3808
G3 X164.4627 Y33.4175 I0.9632
G1 X176.535
G3 X177.4982 Y34.3808 J0.9632
G1 Y44.9225
G2 X178.6685 Y46.678 I1.9018
G3 X179.8388 Y48.4335 I-0.7314 J1.7555
G1 Y51.8755
G3 X178.8756 Y52.8388 I-0.9632
G1 X162.123
G3 X161.1597 Y51.8755 J-0.9633
G1 X161.1587 Y32.0401
G3 X162.1219 Y31.0769 I0.9632
G1 X178.8756
G3 X179.8388 Y32.0401 J0.9632
G1 Y48.4335
G2 X181.0091 Y50.189 I1.9018
G3 X182.1794 Y51.9444 I-0.7314 J1.7555
G1 Y54.2161
G3 X181.2162 Y55.1794 I-0.9632
G1 X159.7824
G3 X158.8192 Y54.2161 J-0.9633
G1 X158.818 Y29.6995
G3 X159.7812 Y28.7363 I0.9632
G1 X181.2162
G3 X182.1795 Y29.6995 J0.9632
G1 X182.1794 Y51.9444
G2 X183.3497 Y53.6999 I1.9018
G3 X184.5201 Y55.4554 I-0.7314 J1.7555
G1 Y56.5568
G3 X183.5568 Y57.52 I-0.9632
G1 X157.4419
G3 X156.4786 Y56.5568 J-0.9633
G1 X156.4772 Y27.3589
G3 X157.4404 Y26.3956 I0.9632
G1 X183.5569
G3 X184.5201 Y27.3589 J0.9632
G1 Y55.4554
G2 X185.7132 Y57.1857 I1.8512
G3 X186.8557 Y58.9498 I-0.6319 J1.6613
X185.8941 Y59.8573 I-0.9616 J-0.0557
G1 X155.1047
G3 X154.1414 Y58.8941 J-0.9633
G1 X154.1751 Y26.1227
G2 X154.1511 Y25.5597 I-6.6451 J0.0003
G3 X154.1146 Y24.9973 I14.0464 J-1.1952
X155.0123 Y24.0583 I0.8977 J-0.0403
G1 X185.9899
G3 X186.8857 Y24.9976 J0.8967
G2 X186.6704 Y41.9457 I243.6209 J11.5689
G3 X186.8574 Y58.8941 I-768.2205 J16.9475
G1 X186.8557 Y58.9498
G2 X187.6737 Y60.4751 I1.6528 J0.0957
G3 X187.2216 Y62.1458 I-0.4521 J0.7742
G1 X152.8164
G3 X151.8531 Y61.1825 J-0.9633
G1 X151.959 Y26.1228
G2 X151.84 Y24.3983 I-12.5615 J0.0006
X151.5911 Y22.6878 I-127.3167 J17.6517
G3 X152.3798 Y21.7699 I0.7887 J-0.1202
G1 X188.6175
G3 X189.4064 Y22.6861 J0.7978
G2 X189.156 Y24.4302 I135.5764 J20.3561
X189.0361 Y26.1881 I12.8289 J1.7579
G1 X189.1458 Y61.1825
G3 X188.1826 Y62.1458 I-0.9632
G1 X187.2216
G2 X185.5515 Y63.2592 J1.8092
G3 X183.8815 Y64.3725 I-1.6701 J-0.6959
G1 X150.5897
G3 X149.6264 Y63.4093 J-0.9633
G1 X149.7604 Y26.1229
G2 X149.4949 Y23.2462 I-15.722 J0.0007
X148.8439 Y20.4316 I-32.8774 J6.1206
G3 X149.5196 Y19.5431 I0.6756 J-0.1873
G1 X191.4792
G3 X192.1562 Y20.4319 J0.7022
G2 X191.6089 Y22.5975 I50.4207 J13.8944
X191.2829 Y24.8073 I13.6629 J3.1441
G1 X191.3726 Y63.4093
G3 X190.4093 Y64.3725 I-0.9632
G1 X183.8815
G2 X182.2708 Y65.4463 J1.7449
G3 X180.6602 Y66.5201 I-1.6107 J-0.6711
G1 X148.4423
G3 X147.479 Y65.5568 J-0.9633
G1 X147.6129 Y26.123
G2 X147.1109 Y22.0897 I-16.4596 J0.0008
X145.7823 Y18.2486 I-23.1052 J5.841
G3 X146.3366 Y17.3956 I0.5542 J-0.2464
G1 X194.6635
G3 X195.2182 Y18.2487 J0.6069
G2 X194.0271 Y21.5207 I23.2143 J10.3031
X193.4257 Y24.9505 I15.6791 J4.5171
G1 X193.5201 Y65.5568
G3 X192.5569 Y66.5201 I-0.9632
G1 X180.6602
G2 X179.1237 Y67.5443 J1.6644
G3 X177.5873 Y68.5686 I-1.5364 J-0.6402
G1 X146.3938
G3 X145.4306 Y67.6054 J-0.9633
G1 X145.5643 Y26.1231
G2 X144.6723 Y20.881 I-15.8533 J0.0007
X142.2424 Y16.1512 I-18.304 J6.4143
G3 X142.6604 Y15.347 I0.418 J-0.2934
G1 X198.3409
G3 X198.7572 Y16.1505 J0.5095
G2 X196.4972 Y20.3921 I15.7058 J11.0909
X195.4697 Y25.087 I15.1486 J5.7753
G1 X195.5686 Y67.6054
G3 X194.6054 Y68.5686 I-0.9632
G1 X177.5873
G2 X176.1532 Y69.5247 J1.5537
G3 X174.7189 Y70.4809 I-1.4342 J-0.5976
G1 X144.4817
G3 X143.5184 Y69.5176 J-0.9633
G1 X143.6521 Y26.1232
G2 X142.0783 Y19.4807 I-14.8081 J0.0007
X137.7957 Y14.1648 I-14.4344 J7.2456
G3 X138.0539 Y13.4348 I0.2581 J-0.3194
G1 X202.9413
G3 X203.2039 Y14.1672 J0.4133
G2 X199.1487 Y19.0884 I10.5572 J12.831
X197.3777 Y25.2144 I13.1595 J7.1232
G1 X197.4809 Y69.5176
G3 X196.5177 Y70.4809 I-0.9632
G1 X174.7189
G2 X173.4337 Y71.3377 J1.3923
G3 X172.1485 Y72.1945 I-1.2852 J-0.5355
G1 X142.7681
G3 X141.8048 Y71.2313 J-0.9633
G1 X141.9384 Y26.1233
G2 X138.3981 Y16.9253 I-13.7203 J0.0006
X129.6621 Y12.3626 I-10.5281 J9.5131
G1 X12.0103 Y12.3985
G3 X11.7196 Y12.1078 J-0.2907
G1 Y12.0117
G3 X12.0103 Y11.7211 I0.2907
G1 X273.9913
G3 X274.282 Y12.0118 J0.2907
G1 Y12.1081
G3 X273.9913 Y12.3988 I-0.2906
G1 X212.906 Y12.2631
G2 X204.1423 Y15.4379 J13.6831
X199.3409 Y23.4273 I9.0915 J10.9012
X199.0589 Y26.1881 I12.9798 J2.7205
G1 X199.1946 Y71.2313
G3 X198.2313 Y72.1945 I-0.9632
G1 X172.1485
G2 X170.393 Y73.3648 J1.9017
G3 X168.6376 Y74.5351 I-1.7554 J-0.7314
G1 X140.4276
G3 X139.4643 Y73.5719 J-0.9633
G1 X139.5978 Y26.1234
G2 X136.6417 Y18.4724 I-11.3806 J0.0005
X129.3665 Y14.6845 I-8.7718 J7.967
G1 X10.3419 Y14.7391
G3 X9.3788 Y13.7759 J-0.9631
G1 X9.3792 Y10.3438
G3 X10.3426 Y9.3805 I0.9634 J0.0001
G1 X275.6593
G3 X276.6226 Y10.3438 J0.9632
G1 Y13.7761
G3 X275.6593 Y14.7394 I-0.9632
G1 X212.906 Y14.6037
G2 X205.6178 Y17.2548 J11.3435
X201.6317 Y23.9074 I7.6171 J9.0846
X201.3995 Y26.1881 I10.6896 J2.2405
G1 X201.5351 Y73.5719
G3 X200.5719 Y74.5351 I-0.9632
G1 X168.6376
G2 X166.8822 Y75.7054 J1.9017
G3 X165.1267 Y76.8757 I-1.7554 J-0.7314
G1 X138.0872
G3 X137.1239 Y75.9124 J-0.9633
G1 X137.2573 Y26.1235
G2 X134.8853 Y20.0194 I-9.0414 J0.0004
X129.0709 Y17.0063 I-7.0155 J6.4214
G1 X8.0011 Y17.0797
G3 X7.038 Y16.1165 J-0.9631
G1 X7.0389 Y8.0032
G3 X8.0023 Y7.04 I0.9634 J0.0001
G1 X277.9999
G3 X278.9631 Y8.0032 J0.9632
G1 X278.9632 Y16.1167
G3 X277.9999 Y17.08 I-0.9632
G1 X212.906 Y16.9442
G2 X207.0934 Y19.0717 J9.0045
X203.9225 Y24.3876 I6.1432 J7.2681
X203.74 Y26.1881 I8.3997 J1.7605
G1 X203.8757 Y75.9124
G3 X202.9125 Y76.8757 I-0.9632
G1 X165.1267
G2 X163.3713 Y78.046 J1.9017
G3 X161.6159 Y79.2163 I-1.7554 J-0.7314
G1 X135.7467
G3 X134.7834 Y78.253 J-0.9633
G1 X134.9167 Y26.1236
G2 X133.1289 Y21.5665 I-6.703 J0.0003
X128.7753 Y19.3281 I-5.2594 J4.8767
G1 X5.6602 Y19.4204
G3 X4.6971 Y18.4572 J-0.9631
G1 X4.6986 Y5.6627
G3 X5.662 Y4.6994 I0.9634 J0.0001
G1 X280.3404
G3 X281.3037 Y5.6626 J0.9632
G1 Y18.4573
G3 X280.3405 Y19.4205 I-0.9632
G1 X212.906 Y19.2848
G2 X208.5689 Y20.8886 J6.6664
X206.2133 Y24.8677 I4.6704 J5.4518
X206.1128 Y25.5245 I5.9328 J1.2435
X206.0806 Y26.1881 I6.8247 J0.6637
G1 X206.2163 Y78.253
G3 X205.253 Y79.2163 I-0.9632
G1 X161.6159
G2 X159.8605 Y80.3865 J1.9017
G3 X158.105 Y81.5568 I-1.7554 J-0.7314
G1 X133.4063
G3 X132.4429 Y80.5936 J-0.9633
G1 X132.5761 Y26.1237
G2 X131.3725 Y23.1135 I-4.3666 J0.0002
X128.4797 Y21.65 I-3.5037 J3.3347
G1 X3.3193 Y21.761
G3 X2.3563 Y20.7978 J-0.9631
G1 X2.3583 Y3.3221
G3 X3.3217 Y2.3588 I0.9634 J0.0001
G1 X282.681
G3 X283.6443 Y3.3221 J0.9632
G1 Y20.7979
G3 X282.6811 Y21.7611 I-0.9632
G1 X212.906 Y21.6254
G2 X210.0445 Y22.7054 J4.3309
X208.504 Y25.3478 I3.2008 J3.6361
X208.4409 Y25.7658 I3.6537 J0.7658
X208.4212 Y26.1881 I4.5131 J0.4223
G1 X208.5569 Y80.5936
G3 X207.5936 Y81.5568 I-0.9632
G1 X158.105
G2 X156.3383 Y82.7347 J1.914
G3 X154.5715 Y83.9125 I-1.7667 J-0.7361
G1 X130.0874
X130.0847 Y26.1239
G2 X130.0703 Y25.9507 I-1.0437
G1 X130.0378 Y25.758
G2 X129.9857 Y25.5643 I-1.0293 J0.1732
G1 X129.9133 Y25.3716
G2 X129.8234 Y25.1888 I-0.9771 J0.3669
G1 X129.7172 Y25.0173
G2 X129.5968 Y24.8591 I-0.8872 J0.5498
G1 X129.464 Y24.7151
G2 X129.3264 Y24.5905 I-0.7669 J0.708
G1 X129.1864 Y24.4847
G2 X129.0512 Y24.398 I-0.6293 J0.8327
G1 X128.9228 Y24.329
G2 X128.7594 Y24.2584 I-0.4941 J0.9194
G1 X128.5599 Y24.1918
G2 X128.3611 Y24.1464 I-0.3307 J0.99
G1 X128.165 Y24.1214
G2 X128.0332 Y24.1131 I-0.1318 J1.0354
G1 X0.0002 Y24.1168
X0.0031 Y0.0091
X0.004 Y0.004
X285.9914 Y0.0032
X285.9999 Y0.0405
X286 Y24.1168
X212.906
G2 X212.7307 Y24.1316 J1.0437
G1 X212.5691 Y24.1591
G2 X212.4069 Y24.2004 I0.1753 J1.0289
G1 X212.2452 Y24.2556
G2 X212.0722 Y24.333 I0.3375 J0.9877
G1 X211.8905 Y24.4349
G2 X211.7339 Y24.5425 I0.5106 J0.9103
G1 X211.6018 Y24.6523
G2 X211.4718 Y24.7813 I0.6672 J0.8027
G1 X211.3463 Y24.9298
G2 X211.2477 Y25.0678 I0.7972 J0.6737
G1 X211.1735 Y25.1919
G2 X211.1001 Y25.3401 I0.8958 J0.5357
G1 X211.0311 Y25.5128
G2 X210.9786 Y25.6862 I0.9691 J0.3876
G1 X210.9425 Y25.8589
G2 X210.9226 Y26.0035 I1.0215 J0.2141
G1 X210.9149 Y26.1186
X210.9126 Y26.1881
X210.9125 Y83.9125
X154.5715
X154.5227 Y83.9087 Z-7.9922
X154.475 Y83.8974 Z-7.9845
X154.4339 Y83.8811 Z-7.9619
X154.3955 Y83.8592 Z-7.9394
X154.3418 Y83.8141 Z-7.8691
X154.3131 Y83.7794 Z-7.7806
X154.3044 Y83.7665 Z-7.6825
G0 Z5
X169.7947 Y42.5036
Z-5.5827
G1 X169.7816 Y42.4966 Z-5.6787 F1200
X169.7439 Y42.4755 Z-5.7657
X169.6862 Y42.4404 Z-5.8356
X169.6156 Y42.3924 Z-5.8818
X169.5401 Y42.3341 Z-5.9
G3 X169.7568 Y42.4829 Z-6.2217 I0.9589 J-1.164
X169.996 Y42.5918 Z-6.5434 I0.7422 J-1.3128
X170.2505 Y42.6576 Z-6.8651 I0.503 J-1.4218
X170.5126 Y42.6781 Z-7.1868 I0.2484 J-1.4875
X170.7743 Y42.6528 Z-7.5086 I-0.0136 J-1.5081
X171.0276 Y42.5825 Z-7.8303 I-0.2753 J-1.4828
X171.2648 Y42.4692 Z-8.152 I-0.5286 J-1.4124
X171.4788 Y42.3165 Z-8.4737 I-0.7658 J-1.2992
X171.663 Y42.129 Z-8.7954 I-0.9798 J-1.1465
X171.8118 Y41.9123 Z-9.1171 I-1.164 J-0.9589
X171.9208 Y41.673 Z-9.4388 I-1.3128 J-0.7422
X171.9865 Y41.4185 Z-9.7605 I-1.4218 J-0.503
X170.499 Y39.6619 Z-10 I-1.4875 J-0.2484
G1 X170.5442 F3500
G3 X171.2538 Y40.3716 J0.7096
G1 Y43.383
G3 X169.7443 Y43.3831 I-0.7547
G1 X169.7442 Y40.3716
G3 X170.4538 Y39.6619 I0.7096
G1 X170.499
G2 X171.4445 Y38.8268 J-0.9528
G3 X172.6784 Y38.5643 I0.6624 J0.0824
X172.8169 Y39.062 I-0.8247 J0.4977
G1 Y44.8536
G3 X171.8537 Y45.8169 I-0.9632
G1 X169.1445
G3 X168.1812 Y44.8536 J-0.9633
G1 X168.181 Y39.062
G3 X169.1441 Y38.0988 I0.9632
G1 X171.8537
G3 X172.6784 Y38.5643 J0.9632
G2 X174.1124 Y39.8186 I2.6808 J-1.618
G3 X175.1576 Y41.4116 I-0.6914 J1.593
G1 X175.1575 Y47.1943
G3 X174.1943 Y48.1575 I-0.9632
G1 X166.804
G3 X165.8407 Y47.1942 J-0.9633
G1 X165.8402 Y36.7214
G3 X166.8034 Y35.7582 I0.9632
G1 X174.1943
G3 X175.1576 Y36.7214 J0.9632
G1 Y41.4116
G2 X176.3279 Y43.1671 I1.9018
G3 X177.4982 Y44.9225 I-0.7314 J1.7555
G1 Y49.5349
G3 X176.5349 Y50.4981 I-0.9632
G1 X164.4635
G3 X163.5002 Y49.5349 J-0.9633
G1 X163.4995 Y34.3808
G3 X164.4627 Y33.4175 I0.9632
G1 X176.535
G3 X177.4982 Y34.3808 J0.9632
G1 Y44.9225
G2 X178.6685 Y46.678 I1.9018
G3 X179.8388 Y48.4335 I-0.7314 J1.7555
G1 Y51.8755
G3 X178.8756 Y52.8388 I-0.9632
G1 X162.123
G3 X161.1597 Y51.8755 J-0.9633
G1 X161.1587 Y32.0401
G3 X162.1219 Y31.0769 I0.9632
G1 X178.8756
G3 X179.8388 Y32.0401 J0.9632
G1 Y48.4335
G2 X181.0091 Y50.189 I1.9018
G3 X182.1794 Y51.9444 I-0.7314 J1.7555
G1 Y54.2161
G3 X181.2162 Y55.1794 I-0.9632
G1 X159.7824
G3 X158.8192 Y54.2161 J-0.9633
G1 X158.818 Y29.6995
G3 X159.7812 Y28.7363 I0.9632
G1 X181.2162
G3 X182.1795 Y29.6995 J0.9632
G1 X182.1794 Y51.9444
G2 X183.3497 Y53.6999 I1.9018
G3 X184.5201 Y55.4554 I-0.7314 J1.7555
G1 Y56.5568
G3 X183.5568 Y57.52 I-0.9632
G1 X157.4419
G3 X156.4786 Y56.5568 J-0.9633
G1 X156.4772 Y27.3589
G3 X157.4404 Y26.3956 I0.9632
G1 X183.5569
G3 X184.5201 Y27.3589 J0.9632
G1 Y55.4554
G2 X185.7132 Y57.1857 I1.8512
G3 X186.8557 Y58.9498 I-0.6319 J1.6613
X185.8941 Y59.8573 I-0.9616 J-0.0557
G1 X155.1047
G3 X154.1414 Y58.8941 J-0.9633
G1 X154.1751 Y26.1227
G2 X154.1511 Y25.5597 I-6.6451 J0.0003
G3 X154.1146 Y24.9973 I14.0464 J-1.1952
X155.0123 Y24.0583 I0.8977 J-0.0403
G1 X185.9899
G3 X186.8857 Y24.9976 J0.8967
G2 X186.6704 Y41.9457 I243.6209 J11.5689
G3 X186.8574 Y58.8941 I-768.2205 J16.9475
G1 X186.8557 Y58.9498
G2 X187.6737 Y60.4751 I1.6528 J0.0957
G3 X187.2216 Y62.1458 I-0.4521 J0.7742
G1 X152.8164
G3 X151.8531 Y61.1825 J-0.9633
G1 X151.959 Y26.1228
G2 X151.84 Y24.3983 I-12.5615 J0.0006
X151.5911 Y22.6878 I-127.3167 J17.6517
G3 X152.3798 Y21.7699 I0.7887 J-0.1202
G1 X188.6175
G3 X189.4064 Y22.6861 J0.7978
G2 X189.156 Y24.4302 I135.5764 J20.3561
X189.0361 Y26.1881 I12.8289 J1.7579
G1 X189.1458 Y61.1825
G3 X188.1826 Y62.1458 I-0.9632
G1 X187.2216
G2 X185.5515 Y63.2592 J1.8092
G3 X183.8815 Y64.3725 I-1.6701 J-0.6959
G1 X150.5897
G3 X149.6264 Y63.4093 J-0.9633
G1 X149.7604 Y26.1229
G2 X149.4949 Y23.2462 I-15.722 J0.0007
X148.8439 Y20.4316 I-32.8774 J6.1206
G3 X149.5196 Y19.5431 I0.6756 J-0.1873
G1 X191.4792
G3 X192.1562 Y20.4319 J0.7022
G2 X191.6089 Y22.5975 I50.4207 J13.8944
X191.2829 Y24.8073 I13.6629 J3.1441
G1 X191.3726 Y63.4093
G3 X190.4093 Y64.3725 I-0.9632
G1 X183.8815
G2 X182.2708 Y65.4463 J1.7449
G3 X180.6602 Y66.5201 I-1.6107 J-0.6711
G1 X148.4423
G3 X147.479 Y65.5568 J-0.9633
G1 X147.6129 Y26.123
G2 X147.1109 Y22.0897 I-16.4596 J0.0008
X145.7823 Y18.2486 I-23.1052 J5.841
G3 X146.3366 Y17.3956 I0.5542 J-0.2464
G1 X194.6635
G3 X195.2182 Y18.2487 J0.6069
G2 X194.0271 Y21.5207 I23.2143 J10.3031
X193.4257 Y24.9505 I15.6791 J4.5171
G1 X193.5201 Y65.5568
G3 X192.5569 Y66.5201 I-0.9632
G1 X180.6602
G2 X179.1237 Y67.5443 J1.6644
G3 X177.5873 Y68.5686 I-1.5364 J-0.6402
G1 X146.3938
G3 X145.4306 Y67.6054 J-0.9633
G1 X145.5643 Y26.1231
G2 X144.6723 Y20.881 I-15.8533 J0.0007
X142.2424 Y16.1512 I-18.304 J6.4143
G3 X142.6604 Y15.347 I0.418 J-0.2934
G1 X198.3409
G3 X198.7572 Y16.1505 J0.5095
G2 X196.4972 Y20.3921 I15.7058 J11.0909
X195.4697 Y25.087 I15.1486 J5.7753
G1 X195.5686 Y67.6054
G3 X194.6054 Y68.5686 I-0.9632
G1 X177.5873
G2 X176.1532 Y69.5247 J1.5537
G3 X174.7189 Y70.4809 I-1.4342 J-0.5976
G1 X144.4817
G3 X143.5184 Y69.5176 J-0.9633
G1 X143.6521 Y26.1232
G2 X142.0783 Y19.4807 I-14.8081 J0.0007
X137.7957 Y14.1648 I-14.4344 J7.2456
G3 X138.0539 Y13.4348 I0.2581 J-0.3194
G1 X202.9413
G3 X203.2039 Y14.1672 J0.4133
G2 X199.1487 Y19.0884 I10.5572 J12.831
X197.3777 Y25.2144 I13.1595 J7.1232
G1 X197.4809 Y69.5176
G3 X196.5177 Y70.4809 I-0.9632
G1 X174.7189
G2 X173.4337 Y71.3377 J1.3923
G3 X172.1485 Y72.1945 I-1.2852 J-0.5355
G1 X142.7681
G3 X141.8048 Y71.2313 J-0.9633
G1 X141.9384 Y26.1233
G2 X138.3981 Y16.9253 I-13.7203 J0.0006
X129.6621 Y12.3626 I-10.5281 J9.5131
G1 X12.0103 Y12.3985
G3 X11.7196 Y12.1078 J-0.2907
G1 Y12.0117
G3 X12.0103 Y11.7211 I0.2907
G1 X273.9913
G3 X274.282 Y12.0118 J0.2907
G1 Y12.1081
G3 X273.9913 Y12.3988 I-0.2906
G1 X212.906 Y12.2631
G2 X204.1423 Y15.4379 J13.6831
X199.3409 Y23.4273 I9.0915 J10.9012
X199.0589 Y26.1881 I12.9798 J2.7205
G1 X199.1946 Y71.2313
G3 X198.2313 Y72.1945 I-0.9632
G1 X172.1485
G2 X170.393 Y73.3648 J1.9017
G3 X168.6376 Y74.5351 I-1.7554 J-0.7314
G1 X140.4276
G3 X139.4643 Y73.5719 J-0.9633
G1 X139.5978 Y26.1234
G2 X136.6417 Y18.4724 I-11.3806 J0.0005
X129.3665 Y14.6845 I-8.7718 J7.967
G1 X10.3419 Y14.7391
G3 X9.3788 Y13.7759 J-0.9631
G1 X9.3792 Y10.3438
G3 X10.3426 Y9.3805 I0.9634 J0.0001
G1 X275.6593
G3 X276.6226 Y10.3438 J0.9632
G1 Y13.7761
G3 X275.6593 Y14.7394 I-0.9632
G1 X212.906 Y14.6037
G2 X205.6178 Y17.2548 J11.3435
X201.6317 Y23.9074 I7.6171 J9.0846
X201.3995 Y26.1881 I10.6896 J2.2405
G1 X201.5351 Y73.5719
G3 X200.5719 Y74.5351 I-0.9632
G1 X168.6376
G2 X166.8822 Y75.7054 J1.9017
G3 X165.1267 Y76.8757 I-1.7554 J-0.7314
G1 X138.0872
G3 X137.1239 Y75.9124 J-0.9633
G1 X137.2573 Y26.1235
G2 X134.8853 Y20.0194 I-9.0414 J0.0004
X129.0709 Y17.0063 I-7.0155 J6.4214
G1 X8.0011 Y17.0797
G3 X7.038 Y16.1165 J-0.9631
G1 X7.0389 Y8.0032
G3 X8.0023 Y7.04 I0.9634 J0.0001
G1 X277.9999
G3 X278.9631 Y8.0032 J0.9632
G1 X278.9632 Y16.1167
G3 X277.9999 Y17.08 I-0.9632
G1 X212.906 Y16.9442
G2 X207.0934 Y19.0717 J9.0045
X203.9225 Y24.3876 I6.1432 J7.2681
X203.74 Y26.1881 I8.3997 J1.7605
G1 X203.8757 Y75.9124
G3 X202.9125 Y76.8757 I-0.9632
G1 X165.1267
G2 X163.3713 Y78.046 J1.9017
G3 X161.6159 Y79.2163 I-1.7554 J-0.7314
G1 X135.7467
G3 X134.7834 Y78.253 J-0.9633
G1 X134.9167 Y26.1236
G2 X133.1289 Y21.5665 I-6.703 J0.0003
X128.7753 Y19.3281 I-5.2594 J4.8767
G1 X5.6602 Y19.4204
G3 X4.6971 Y18.4572 J-0.9631
G1 X4.6986 Y5.6627
G3 X5.662 Y4.6994 I0.9634 J0.0001
G1 X280.3404
G3 X281.3037 Y5.6626 J0.9632
G1 Y18.4573
G3 X280.3405 Y19.4205 I-0.9632
G1 X212.906 Y19.2848
G2 X208.5689 Y20.8886 J6.6664
X206.2133 Y24.8677 I4.6704 J5.4518
X206.1128 Y25.5245 I5.9328 J1.2435
X206.0806 Y26.1881 I6.8247 J0.6637
G1 X206.2163 Y78.253
G3 X205.253 Y79.2163 I-0.9632
G1 X161.6159
G2 X159.8605 Y80.3865 J1.9017
G3 X158.105 Y81.5568 I-1.7554 J-0.7314
G1 X133.4063
G3 X132.4429 Y80.5936 J-0.9633
G1 X132.5761 Y26.1237
G2 X131.3725 Y23.1135 I-4.3666 J0.0002
X128.4797 Y21.65 I-3.5037 J3.3347
G1 X3.3193 Y21.761
G3 X2.3563 Y20.7978 J-0.9631
G1 X2.3583 Y3.3221
G3 X3.3217 Y2.3588 I0.9634 J0.0001
G1 X282.681
G3 X283.6443 Y3.3221 J0.9632
G1 Y20.7979
G3 X282.6811 Y21.7611 I-0.9632
G1 X212.906 Y21.6254
G2 X210.0445 Y22.7054 J4.3309
X208.504 Y25.3478 I3.2008 J3.6361
X208.4409 Y25.7658 I3.6537 J0.7658
X208.4212 Y26.1881 I4.5131 J0.4223
G1 X208.5569 Y80.5936
G3 X207.5936 Y81.5568 I-0.9632
G1 X158.105
G2 X156.3383 Y82.7347 J1.914
G3 X154.5715 Y83.9125 I-1.7667 J-0.7361
G1 X130.0874
X130.0847 Y26.1239
G2 X130.0703 Y25.9507 I-1.0437
G1 X130.0378 Y25.758
G2 X129.9857 Y25.5643 I-1.0293 J0.1732
G1 X129.9133 Y25.3716
G2 X129.8234 Y25.1888 I-0.9771 J0.3669
G1 X129.7172 Y25.0173
G2 X129.5968 Y24.8591 I-0.8872 J0.5498
G1 X129.464 Y24.7151
G2 X129.3264 Y24.5905 I-0.7669 J0.708
G1 X129.1864 Y24.4847
G2 X129.0512 Y24.398 I-0.6293 J0.8327
G1 X128.9228 Y24.329
G2 X128.7594 Y24.2584 I-0.4941 J0.9194
G1 X128.5599 Y24.1918
G2 X128.3611 Y24.1464 I-0.3307 J0.99
G1 X128.165 Y24.1214
G2 X128.0332 Y24.1131 I-0.1318 J1.0354
G1 X0.0002 Y24.1168
X0.0031 Y0.0091
X0.004 Y0.004
X285.9914 Y0.0032
X285.9999 Y0.0405
X286 Y24.1168
X212.906
G2 X212.7307 Y24.1316 J1.0437
G1 X212.5691 Y24.1591
G2 X212.4069 Y24.2004 I0.1753 J1.0289
G1 X212.2452 Y24.2556
G2 X212.0722 Y24.333 I0.3375 J0.9877
G1 X211.8905 Y24.4349
G2 X211.7339 Y24.5425 I0.5106 J0.9103
G1 X211.6018 Y24.6523
G2 X211.4718 Y24.7813 I0.6672 J0.8027
G1 X211.3463 Y24.9298
G2 X211.2477 Y25.0678 I0.7972 J0.6737
G1 X211.1735 Y25.1919
G2 X211.1001 Y25.3401 I0.8958 J0.5357
G1 X211.0311 Y25.5128
G2 X210.9786 Y25.6862 I0.9691 J0.3876
G1 X210.9425 Y25.8589
G2 X210.9226 Y26.0035 I1.0215 J0.2141
G1 X210.9149 Y26.1186
X210.9126 Y26.1881
X210.9125 Y83.9125
X154.5715
X154.5227 Y83.9087 Z-9.9922
X154.475 Y83.8974 Z-9.9845
X154.4339 Y83.8811 Z-9.9619
X154.3955 Y83.8592 Z-9.9394
X154.3418 Y83.8141 Z-9.8691
X154.3131 Y83.7794 Z-9.7806
X154.3044 Y83.7665 Z-9.6825
G0 Z5
X169.7947 Y42.5036
Z-7.5827
G1 X169.7816 Y42.4966 Z-7.6787 F1200
X169.7439 Y42.4755 Z-7.7657
X169.6862 Y42.4404 Z-7.8356
X169.6156 Y42.3924 Z-7.8818
X169.5401 Y42.3341 Z-7.9
G3 X169.7568 Y42.4829 Z-8.2217 I0.9589 J-1.164
X169.996 Y42.5918 Z-8.5434 I0.7422 J-1.3128
X170.2505 Y42.6576 Z-8.8651 I0.503 J-1.4218
X170.5126 Y42.6781 Z-9.1868 I0.2484 J-1.4875
X170.7743 Y42.6528 Z-9.5086 I-0.0136 J-1.5081
X171.0276 Y42.5825 Z-9.8303 I-0.2753 J-1.4828
X171.2648 Y42.4692 Z-10.152 I-0.5286 J-1.4124
X171.4788 Y42.3165 Z-10.4737 I-0.7658 J-1.2992
X171.663 Y42.129 Z-10.7954 I-0.9798 J-1.1465
X171.8118 Y41.9123 Z-11.1171 I-1.164 J-0.9589
X171.9208 Y41.673 Z-11.4388 I-1.3128 J-0.7422
X171.9865 Y41.4185 Z-11.7605 I-1.4218 J-0.503
X170.499 Y39.6619 Z-12 I-1.4875 J-0.2484
G1 X170.5442 F3500
G3 X171.2538 Y40.3716 J0.7096
G1 Y43.383
G3 X169.7443 Y43.3831 I-0.7547
G1 X169.7442 Y40.3716
G3 X170.4538 Y39.6619 I0.7096
G1 X170.499
G2 X171.4445 Y38.8268 J-0.9528
G3 X172.6784 Y38.5643 I0.6624 J0.0824
X172.8169 Y39.062 I-0.8247 J0.4977
G1 Y44.8536
G3 X171.8537 Y45.8169 I-0.9632
G1 X169.1445
G3 X168.1812 Y44.8536 J-0.9633
G1 X168.181 Y39.062
G3 X169.1441 Y38.0988 I0.9632
G1 X171.8537
G3 X172.6784 Y38.5643 J0.9632
G2 X174.1124 Y39.8186 I2.6808 J-1.618
G3 X175.1576 Y41.4116 I-0.6914 J1.593
G1 X175.1575 Y47.1943
G3 X174.1943 Y48.1575 I-0.9632
G1 X166.804
G3 X165.8407 Y47.1942 J-0.9633
G1 X165.8402 Y36.7214
G3 X166.8034 Y35.7582 I0.9632
G1 X174.1943
G3 X175.1576 Y36.7214 J0.9632
G1 Y41.4116
G2 X176.3279 Y43.1671 I1.9018
G3 X177.4982 Y44.9225 I-0.7314 J1.7555
G1 Y49.5349
G3 X176.5349 Y50.4981 I-0.9632
G1 X164.4635
G3 X163.5002 Y49.5349 J-0.9633
G1 X163.4995 Y34.3808
G3 X164.4627 Y33.4175 I0.9632
G1 X176.535
G3 X177.4982 Y34.3808 J0.9632
G1 Y44.9225
G2 X178.6685 Y46.678 I1.9018
G3 X179.8388 Y48.4335 I-0.7314 J1.7555
G1 Y51.8755
G3 X178.8756 Y52.8388 I-0.9632
G1 X162.123
G3 X161.1597 Y51.8755 J-0.9633
G1 X161.1587 Y32.0401
G3 X162.1219 Y31.0769 I0.9632
G1 X178.8756
G3 X179.8388 Y32.0401 J0.9632
G1 Y48.4335
G2 X181.0091 Y50.189 I1.9018
G3 X182.1794 Y51.9444 I-0.7314 J1.7555
G1 Y54.2161
G3 X181.2162 Y55.1794 I-0.9632
G1 X159.7824
G3 X158.8192 Y54.2161 J-0.9633
G1 X158.818 Y29.6995
G3 X159.7812 Y28.7363 I0.9632
G1 X181.2162
G3 X182.1795 Y29.6995 J0.9632
G1 X182.1794 Y51.9444
G2 X183.3497 Y53.6999 I1.9018
G3 X184.5201 Y55.4554 I-0.7314 J1.7555
G1 Y56.5568
G3 X183.5568 Y57.52 I-0.9632
G1 X157.4419
G3 X156.4786 Y56.5568 J-0.9633
G1 X156.4772 Y27.3589
G3 X157.4404 Y26.3956 I0.9632
G1 X183.5569
G3 X184.5201 Y27.3589 J0.9632
G1 Y55.4554
G2 X185.7132 Y57.1857 I1.8512
G3 X186.8557 Y58.9498 I-0.6319 J1.6613
X185.8941 Y59.8573 I-0.9616 J-0.0557
G1 X155.1047
G3 X154.1414 Y58.8941 J-0.9633
G1 X154.1751 Y26.1227
G2 X154.1511 Y25.5597 I-6.6451 J0.0003
G3 X154.1146 Y24.9973 I14.0464 J-1.1952
X155.0123 Y24.0583 I0.8977 J-0.0403
G1 X185.9899
G3 X186.8857 Y24.9976 J0.8967
G2 X186.6704 Y41.9457 I243.6209 J11.5689
G3 X186.8574 Y58.8941 I-768.2205 J16.9475
G1 X186.8557 Y58.9498
G2 X187.6737 Y60.4751 I1.6528 J0.0957
G3 X187.2216 Y62.1458 I-0.4521 J0.7742
G1 X152.8164
G3 X151.8531 Y61.1825 J-0.9633
G1 X151.959 Y26.1228
G2 X151.84 Y24.3983 I-12.5615 J0.0006
X151.5911 Y22.6878 I-127.3167 J17.6517
G3 X152.3798 Y21.7699 I0.7887 J-0.1202
G1 X188.6175
G3 X189.4064 Y22.6861 J0.7978
G2 X189.156 Y24.4302 I135.5764 J20.3561
X189.0361 Y26.1881 I12.8289 J1.7579
G1 X189.1458 Y61.1825
G3 X188.1826 Y62.1458 I-0.9632
G1 X187.2216
G2 X185.5515 Y63.2592 J1.8092
G3 X183.8815 Y64.3725 I-1.6701 J-0.6959
G1 X150.5897
G3 X149.6264 Y63.4093 J-0.9633
G1 X149.7604 Y26.1229
G2 X149.4949 Y23.2462 I-15.722 J0.0007
X148.8439 Y20.4316 I-32.8774 J6.1206
G3 X149.5196 Y19.5431 I0.6756 J-0.1873
G1 X191.4792
G3 X192.1562 Y20.4319 J0.7022
G2 X191.6089 Y22.5975 I50.4207 J13.8944
X191.2829 Y24.8073 I13.6629 J3.1441
G1 X191.3726 Y63.4093
G3 X190.4093 Y64.3725 I-0.9632
G1 X183.8815
G2 X182.2708 Y65.4463 J1.7449
G3 X180.6602 Y66.5201 I-1.6107 J-0.6711
G1 X148.4423
G3 X147.479 Y65.5568 J-0.9633
G1 X147.6129 Y26.123
G2 X147.1109 Y22.0897 I-16.4596 J0.0008
X145.7823 Y18.2486 I-23.1052 J5.841
G3 X146.3366 Y17.3956 I0.5542 J-0.2464
G1 X194.6635
G3 X195.2182 Y18.2487 J0.6069
G2 X194.0271 Y21.5207 I23.2143 J10.3031
X193.4257 Y24.9505 I15.6791 J4.5171
G1 X193.5201 Y65.5568
G3 X192.5569 Y66.5201 I-0.9632
G1 X180.6602
G2 X179.1237 Y67.5443 J1.6644
G3 X177.5873 Y68.5686 I-1.5364 J-0.6402
G1 X146.3938
G3 X145.4306 Y67.6054 J-0.9633
G1 X145.5643 Y26.1231
G2 X144.6723 Y20.881 I-15.8533 J0.0007
X142.2424 Y16.1512 I-18.304 J6.4143
G3 X142.6604 Y15.347 I0.418 J-0.2934
G1 X198.3409
G3 X198.7572 Y16.1505 J0.5095
G2 X196.4972 Y20.3921 I15.7058 J11.0909
X195.4697 Y25.087 I15.1486 J5.7753
G1 X195.5686 Y67.6054
G3 X194.6054 Y68.5686 I-0.9632
G1 X177.5873
G2 X176.1532 Y69.5247 J1.5537
G3 X174.7189 Y70.4809 I-1.4342 J-0.5976
G1 X144.4817
G3 X143.5184 Y69.5176 J-0.9633
G1 X143.6521 Y26.1232
G2 X142.0783 Y19.4807 I-14.8081 J0.0007
X137.7957 Y14.1648 I-14.4344 J7.2456
G3 X138.0539 Y13.4348 I0.2581 J-0.3194
G1 X202.9413
G3 X203.2039 Y14.1672 J0.4133
G2 X199.1487 Y19.0884 I10.5572 J12.831
X197.3777 Y25.2144 I13.1595 J7.1232
G1 X197.4809 Y69.5176
G3 X196.5177 Y70.4809 I-0.9632
G1 X174.7189
G2 X173.4337 Y71.3377 J1.3923
G3 X172.1485 Y72.1945 I-1.2852 J-0.5355
G1 X142.7681
G3 X141.8048 Y71.2313 J-0.9633
G1 X141.9384 Y26.1233
G2 X138.3981 Y16.9253 I-13.7203 J0.0006
X129.6621 Y12.3626 I-10.5281 J9.5131
G1 X12.0103 Y12.3985
G3 X11.7196 Y12.1078 J-0.2907
G1 Y12.0117
G3 X12.0103 Y11.7211 I0.2907
G1 X273.9913
G3 X274.282 Y12.0118 J0.2907
G1 Y12.1081
G3 X273.9913 Y12.3988 I-0.2906
G1 X212.906 Y12.2631
G2 X204.1423 Y15.4379 J13.6831
X199.3409 Y23.4273 I9.0915 J10.9012
X199.0589 Y26.1881 I12.9798 J2.7205
G1 X199.1946 Y71.2313
G3 X198.2313 Y72.1945 I-0.9632
G1 X172.1485
G2 X170.393 Y73.3648 J1.9017
G3 X168.6376 Y74.5351 I-1.7554 J-0.7314
G1 X140.4276
G3 X139.4643 Y73.5719 J-0.9633
G1 X139.5978 Y26.1234
G2 X136.6417 Y18.4724 I-11.3806 J0.0005
X129.3665 Y14.6845 I-8.7718 J7.967
G1 X10.3419 Y14.7391
G3 X9.3788 Y13.7759 J-0.9631
G1 X9.3792 Y10.3438
G3 X10.3426 Y9.3805 I0.9634 J0.0001
G1 X275.6593
G3 X276.6226 Y10.3438 J0.9632
G1 Y13.7761
G3 X275.6593 Y14.7394 I-0.9632
G1 X212.906 Y14.6037
G2 X205.6178 Y17.2548 J11.3435
X201.6317 Y23.9074 I7.6171 J9.0846
X201.3995 Y26.1881 I10.6896 J2.2405
G1 X201.5351 Y73.5719
G3 X200.5719 Y74.5351 I-0.9632
G1 X168.6376
G2 X166.8822 Y75.7054 J1.9017
G3 X165.1267 Y76.8757 I-1.7554 J-0.7314
G1 X138.0872
G3 X137.1239 Y75.9124 J-0.9633
G1 X137.2573 Y26.1235
G2 X134.8853 Y20.0194 I-9.0414 J0.0004
X129.0709 Y17.0063 I-7.0155 J6.4214
G1 X8.0011 Y17.0797
G3 X7.038 Y16.1165 J-0.9631
G1 X7.0389 Y8.0032
G3 X8.0023 Y7.04 I0.9634 J0.0001
G1 X277.9999
G3 X278.9631 Y8.0032 J0.9632
G1 X278.9632 Y16.1167
G3 X277.9999 Y17.08 I-0.9632
G1 X212.906 Y16.9442
G2 X207.0934 Y19.0717 J9.0045
X203.9225 Y24.3876 I6.1432 J7.2681
X203.74 Y26.1881 I8.3997 J1.7605
G1 X203.8757 Y75.9124
G3 X202.9125 Y76.8757 I-0.9632
G1 X165.1267
G2 X163.3713 Y78.046 J1.9017
G3 X161.6159 Y79.2163 I-1.7554 J-0.7314
G1 X135.7467
G3 X134.7834 Y78.253 J-0.9633
G1 X134.9167 Y26.1236
G2 X133.1289 Y21.5665 I-6.703 J0.0003
X128.7753 Y19.3281 I-5.2594 J4.8767
G1 X5.6602 Y19.4204
G3 X4.6971 Y18.4572 J-0.9631
G1 X4.6986 Y5.6627
G3 X5.662 Y4.6994 I0.9634 J0.0001
G1 X280.3404
G3 X281.3037 Y5.6626 J0.9632
G1 Y18.4573
G3 X280.3405 Y19.4205 I-0.9632
G1 X212.906 Y19.2848
G2 X208.5689 Y20.8886 J6.6664
X206.2133 Y24.8677 I4.6704 J5.4518
X206.1128 Y25.5245 I5.9328 J1.2435
X206.0806 Y26.1881 I6.8247 J0.6637
G1 X206.2163 Y78.253
G3 X205.253 Y79.2163 I-0.9632
G1 X161.6159
G2 X159.8605 Y80.3865 J1.9017
G3 X158.105 Y81.5568 I-1.7554 J-0.7314
G1 X133.4063
G3 X132.4429 Y80.5936 J-0.9633
G1 X132.5761 Y26.1237
G2 X131.3725 Y23.1135 I-4.3666 J0.0002
X128.4797 Y21.65 I-3.5037 J3.3347
G1 X3.3193 Y21.761
G3 X2.3563 Y20.7978 J-0.9631
G1 X2.3583 Y3.3221
G3 X3.3217 Y2.3588 I0.9634 J0.0001
G1 X282.681
G3 X283.6443 Y3.3221 J0.9632
G1 Y20.7979
G3 X282.6811 Y21.7611 I-0.9632
G1 X212.906 Y21.6254
G2 X210.0445 Y22.7054 J4.3309
X208.504 Y25.3478 I3.2008 J3.6361
X208.4409 Y25.7658 I3.6537 J0.7658
X208.4212 Y26.1881 I4.5131 J0.4223
G1 X208.5569 Y80.5936
G3 X207.5936 Y81.5568 I-0.9632
G1 X158.105
G2 X156.3383 Y82.7347 J1.914
G3 X154.5715 Y83.9125 I-1.7667 J-0.7361
G1 X130.0874
X130.0847 Y26.1239
G2 X130.0703 Y25.9507 I-1.0437
G1 X130.0378 Y25.758
G2 X129.9857 Y25.5643 I-1.0293 J0.1732
G1 X129.9133 Y25.3716
G2 X129.8234 Y25.1888 I-0.9771 J0.3669
G1 X129.7172 Y25.0173
G2 X129.5968 Y24.8591 I-0.8872 J0.5498
G1 X129.464 Y24.7151
G2 X129.3264 Y24.5905 I-0.7669 J0.708
G1 X129.1864 Y24.4847
G2 X129.0512 Y24.398 I-0.6293 J0.8327
G1 X128.9228 Y24.329
G2 X128.7594 Y24.2584 I-0.4941 J0.9194
G1 X128.5599 Y24.1918
G2 X128.3611 Y24.1464 I-0.3307 J0.99
G1 X128.165 Y24.1214
G2 X128.0332 Y24.1131 I-0.1318 J1.0354
G1 X0.0002 Y24.1168
X0.0031 Y0.0091
X0.004 Y0.004
X285.9914 Y0.0032
X285.9999 Y0.0405
X286 Y24.1168
X212.906
G2 X212.7307 Y24.1316 J1.0437
G1 X212.5691 Y24.1591
G2 X212.4069 Y24.2004 I0.1753 J1.0289
G1 X212.2452 Y24.2556
G2 X212.0722 Y24.333 I0.3375 J0.9877
G1 X211.8905 Y24.4349
G2 X211.7339 Y24.5425 I0.5106 J0.9103
G1 X211.6018 Y24.6523
G2 X211.4718 Y24.7813 I0.6672 J0.8027
G1 X211.3463 Y24.9298
G2 X211.2477 Y25.0678 I0.7972 J0.6737
G1 X211.1735 Y25.1919
G2 X211.1001 Y25.3401 I0.8958 J0.5357
G1 X211.0311 Y25.5128
G2 X210.9786 Y25.6862 I0.9691 J0.3876
G1 X210.9425 Y25.8589
G2 X210.9226 Y26.0035 I1.0215 J0.2141
G1 X210.9149 Y26.1186
X210.9126 Y26.1881
X210.9125 Y83.9125
X154.5715
X154.5227 Y83.9087 Z-11.9922
X154.475 Y83.8974 Z-11.9845
X154.4339 Y83.8811 Z-11.9619
X154.3955 Y83.8592 Z-11.9394
X154.3418 Y83.8141 Z-11.8691
X154.3131 Y83.7794 Z-11.7806
X154.3044 Y83.7665 Z-11.6825
G0 Z5
X169.7947 Y42.5036
Z-9.5827
G1 X169.7816 Y42.4966 Z-9.6787 F1200
X169.7439 Y42.4755 Z-9.7657
X169.6862 Y42.4404 Z-9.8356
X169.6156 Y42.3924 Z-9.8818
X169.5401 Y42.3341 Z-9.9
G3 X169.7568 Y42.4829 Z-10.2217 I0.9589 J-1.164
X169.996 Y42.5918 Z-10.5434 I0.7422 J-1.3128
X170.2505 Y42.6576 Z-10.8651 I0.503 J-1.4218
X170.5126 Y42.6781 Z-11.1868 I0.2484 J-1.4875
X170.7743 Y42.6528 Z-11.5086 I-0.0136 J-1.5081
X171.0276 Y42.5825 Z-11.8303 I-0.2753 J-1.4828
X171.2648 Y42.4692 Z-12.152 I-0.5286 J-1.4124
X171.4788 Y42.3165 Z-12.4737 I-0.7658 J-1.2992
X171.663 Y42.129 Z-12.7954 I-0.9798 J-1.1465
X171.8118 Y41.9123 Z-13.1171 I-1.164 J-0.9589
X171.9208 Y41.673 Z-13.4388 I-1.3128 J-0.7422
X171.9865 Y41.4185 Z-13.7605 I-1.4218 J-0.503
X170.499 Y39.6619 Z-14 I-1.4875 J-0.2484
G1 X170.5442 F3500
G3 X171.2538 Y40.3716 J0.7096
G1 Y43.383
G3 X169.7443 Y43.3831 I-0.7547
G1 X169.7442 Y40.3716
G3 X170.4538 Y39.6619 I0.7096
G1 X170.499
G2 X171.4445 Y38.8268 J-0.9528
G3 X172.6784 Y38.5643 I0.6624 J0.0824
X172.8169 Y39.062 I-0.8247 J0.4977
G1 Y44.8536
G3 X171.8537 Y45.8169 I-0.9632
G1 X169.1445
G3 X168.1812 Y44.8536 J-0.9633
G1 X168.181 Y39.062
G3 X169.1441 Y38.0988 I0.9632
G1 X171.8537
G3 X172.6784 Y38.5643 J0.9632
G2 X174.1124 Y39.8186 I2.6808 J-1.618
G3 X175.1576 Y41.4116 I-0.6914 J1.593
G1 X175.1575 Y47.1943
G3 X174.1943 Y48.1575 I-0.9632
G1 X166.804
G3 X165.8407 Y47.1942 J-0.9633
G1 X165.8402 Y36.7214
G3 X166.8034 Y35.7582 I0.9632
G1 X174.1943
G3 X175.1576 Y36.7214 J0.9632
G1 Y41.4116
G2 X176.3279 Y43.1671 I1.9018
G3 X177.4982 Y44.9225 I-0.7314 J1.7555
G1 Y49.5349
G3 X176.5349 Y50.4981 I-0.9632
G1 X164.4635
G3 X163.5002 Y49.5349 J-0.9633
G1 X163.4995 Y34.3808
G3 X164.4627 Y33.4175 I0.9632
G1 X176.535
G3 X177.4982 Y34.3808 J0.9632
G1 Y44.9225
G2 X178.6685 Y46.678 I1.9018
G3 X179.8388 Y48.4335 I-0.7314 J1.7555
G1 Y51.8755
G3 X178.8756 Y52.8388 I-0.9632
G1 X162.123
G3 X161.1597 Y51.8755 J-0.9633
G1 X161.1587 Y32.0401
G3 X162.1219 Y31.0769 I0.9632
G1 X178.8756
G3 X179.8388 Y32.0401 J0.9632
G1 Y48.4335
G2 X181.0091 Y50.189 I1.9018
G3 X182.1794 Y51.9444 I-0.7314 J1.7555
G1 Y54.2161
G3 X181.2162 Y55.1794 I-0.9632
G1 X159.7824
G3 X158.8192 Y54.2161 J-0.9633
G1 X158.818 Y29.6995
G3 X159.7812 Y28.7363 I0.9632
G1 X181.2162
G3 X182.1795 Y29.6995 J0.9632
G1 X182.1794 Y51.9444
G2 X183.3497 Y53.6999 I1.9018
G3 X184.5201 Y55.4554 I-0.7314 J1.7555
G1 Y56.5568
G3 X183.5568 Y57.52 I-0.9632
G1 X157.4419
G3 X156.4786 Y56.5568 J-0.9633
G1 X156.4772 Y27.3589
G3 X157.4404 Y26.3956 I0.9632
G1 X183.5569
G3 X184.5201 Y27.3589 J0.9632
G1 Y55.4554
G2 X185.7132 Y57.1857 I1.8512
G3 X186.8557 Y58.9498 I-0.6319 J1.6613
X185.8941 Y59.8573 I-0.9616 J-0.0557
G1 X155.1047
G3 X154.1414 Y58.8941 J-0.9633
G1 X154.1751 Y26.1227
G2 X154.1511 Y25.5597 I-6.6451 J0.0003
G3 X154.1146 Y24.9973 I14.0464 J-1.1952
X155.0123 Y24.0583 I0.8977 J-0.0403
G1 X185.9899
G3 X186.8857 Y24.9976 J0.8967
G2 X186.6704 Y41.9457 I243.6209 J11.5689
G3 X186.8574 Y58.8941 I-768.2205 J16.9475
G1 X186.8557 Y58.9498
G2 X187.6737 Y60.4751 I1.6528 J0.0957
G3 X187.2216 Y62.1458 I-0.4521 J0.7742
G1 X152.8164
G3 X151.8531 Y61.1825 J-0.9633
G1 X151.959 Y26.1228
G2 X151.84 Y24.3983 I-12.5615 J0.0006
X151.5911 Y22.6878 I-127.3167 J17.6517
G3 X152.3798 Y21.7699 I0.7887 J-0.1202
G1 X188.6175
G3 X189.4064 Y22.6861 J0.7978
G2 X189.156 Y24.4302 I135.5764 J20.3561
X189.0361 Y26.1881 I12.8289 J1.7579
G1 X189.1458 Y61.1825
G3 X188.1826 Y62.1458 I-0.9632
G1 X187.2216
G2 X185.5515 Y63.2592 J1.8092
G3 X183.8815 Y64.3725 I-1.6701 J-0.6959
G1 X150.5897
G3 X149.6264 Y63.4093 J-0.9633
G1 X149.7604 Y26.1229
G2 X149.4949 Y23.2462 I-15.722 J0.0007
X148.8439 Y20.4316 I-32.8774 J6.1206
G3 X149.5196 Y19.5431 I0.6756 J-0.1873
G1 X191.4792
G3 X192.1562 Y20.4319 J0.7022
G2 X191.6089 Y22.5975 I50.4207 J13.8944
X191.2829 Y24.8073 I13.6629 J3.1441
G1 X191.3726 Y63.4093
G3 X190.4093 Y64.3725 I-0.9632
G1 X183.8815
G2 X182.2708 Y65.4463 J1.7449
G3 X180.6602 Y66.5201 I-1.6107 J-0.6711
G1 X148.4423
G3 X147.479 Y65.5568 J-0.9633
G1 X147.6129 Y26.123
G2 X147.1109 Y22.0897 I-16.4596 J0.0008
X145.7823 Y18.2486 I-23.1052 J5.841
G3 X146.3366 Y17.3956 I0.5542 J-0.2464
G1 X194.6635
G3 X195.2182 Y18.2487 J0.6069
G2 X194.0271 Y21.5207 I23.2143 J10.3031
X193.4257 Y24.9505 I15.6791 J4.5171
G1 X193.5201 Y65.5568
G3 X192.5569 Y66.5201 I-0.9632
G1 X180.6602
G2 X179.1237 Y67.5443 J1.6644
G3 X177.5873 Y68.5686 I-1.5364 J-0.6402
G1 X146.3938
G3 X145.4306 Y67.6054 J-0.9633
G1 X145.5643 Y26.1231
G2 X144.6723 Y20.881 I-15.8533 J0.0007
X142.2424 Y16.1512 I-18.304 J6.4143
G3 X142.6604 Y15.347 I0.418 J-0.2934
G1 X198.3409
G3 X198.7572 Y16.1505 J0.5095
G2 X196.4972 Y20.3921 I15.7058 J11.0909
X195.4697 Y25.087 I15.1486 J5.7753
G1 X195.5686 Y67.6054
G3 X194.6054 Y68.5686 I-0.9632
G1 X177.5873
G2 X176.1532 Y69.5247 J1.5537
G3 X174.7189 Y70.4809 I-1.4342 J-0.5976
G1 X144.4817
G3 X143.5184 Y69.5176 J-0.9633
G1 X143.6521 Y26.1232
G2 X142.0783 Y19.4807 I-14.8081 J0.0007
X137.7957 Y14.1648 I-14.4344 J7.2456
G3 X138.0539 Y13.4348 I0.2581 J-0.3194
G1 X202.9413
G3 X203.2039 Y14.1672 J0.4133
G2 X199.1487 Y19.0884 I10.5572 J12.831
X197.3777 Y25.2144 I13.1595 J7.1232
G1 X197.4809 Y69.5176
G3 X196.5177 Y70.4809 I-0.9632
G1 X174.7189
G2 X173.4337 Y71.3377 J1.3923
G3 X172.1485 Y72.1945 I-1.2852 J-0.5355
G1 X142.7681
G3 X141.8048 Y71.2313 J-0.9633
G1 X141.9384 Y26.1233
G2 X138.3981 Y16.9253 I-13.7203 J0.0006
X129.6621 Y12.3626 I-10.5281 J9.5131
G1 X12.0103 Y12.3985
G3 X11.7196 Y12.1078 J-0.2907
G1 Y12.0117
G3 X12.0103 Y11.7211 I0.2907
G1 X273.9913
G3 X274.282 Y12.0118 J0.2907
G1 Y12.1081
G3 X273.9913 Y12.3988 I-0.2906
G1 X212.906 Y12.2631
G2 X204.1423 Y15.4379 J13.6831
X199.3409 Y23.4273 I9.0915 J10.9012
X199.0589 Y26.1881 I12.9798 J2.7205
G1 X199.1946 Y71.2313
G3 X198.2313 Y72.1945 I-0.9632
G1 X172.1485
G2 X170.393 Y73.3648 J1.9017
G3 X168.6376 Y74.5351 I-1.7554 J-0.7314
G1 X140.4276
G3 X139.4643 Y73.5719 J-0.9633
G1 X139.5978 Y26.1234
G2 X136.6417 Y18.4724 I-11.3806 J0.0005
X129.3665 Y14.6845 I-8.7718 J7.967
G1 X10.3419 Y14.7391
G3 X9.3788 Y13.7759 J-0.9631
G1 X9.3792 Y10.3438
G3 X10.3426 Y9.3805 I0.9634 J0.0001
G1 X275.6593
G3 X276.6226 Y10.3438 J0.9632
G1 Y13.7761
G3 X275.6593 Y14.7394 I-0.9632
G1 X212.906 Y14.6037
G2 X205.6178 Y17.2548 J11.3435
X201.6317 Y23.9074 I7.6171 J9.0846
X201.3995 Y26.1881 I10.6896 J2.2405
G1 X201.5351 Y73.5719
G3 X200.5719 Y74.5351 I-0.9632
G1 X168.6376
G2 X166.8822 Y75.7054 J1.9017
G3 X165.1267 Y76.8757 I-1.7554 J-0.7314
G1 X138.0872
G3 X137.1239 Y75.9124 J-0.9633
G1 X137.2573 Y26.1235
G2 X134.8853 Y20.0194 I-9.0414 J0.0004
X129.0709 Y17.0063 I-7.0155 J6.4214
G1 X8.0011 Y17.0797
G3 X7.038 Y16.1165 J-0.9631
G1 X7.0389 Y8.0032
G3 X8.0023 Y7.04 I0.9634 J0.0001
G1 X277.9999
G3 X278.9631 Y8.0032 J0.9632
G1 X278.9632 Y16.1167
G3 X277.9999 Y17.08 I-0.9632
G1 X212.906 Y16.9442
G2 X207.0934 Y19.0717 J9.0045
X203.9225 Y24.3876 I6.1432 J7.2681
X203.74 Y26.1881 I8.3997 J1.7605
G1 X203.8757 Y75.9124
G3 X202.9125 Y76.8757 I-0.9632
G1 X165.1267
G2 X163.3713 Y78.046 J1.9017
G3 X161.6159 Y79.2163 I-1.7554 J-0.7314
G1 X135.7467
G3 X134.7834 Y78.253 J-0.9633
G1 X134.9167 Y26.1236
G2 X133.1289 Y21.5665 I-6.703 J0.0003
X128.7753 Y19.3281 I-5.2594 J4.8767
G1 X5.6602 Y19.4204
G3 X4.6971 Y18.4572 J-0.9631
G1 X4.6986 Y5.6627
G3 X5.662 Y4.6994 I0.9634 J0.0001
G1 X280.3404
G3 X281.3037 Y5.6626 J0.9632
G1 Y18.4573
G3 X280.3405 Y19.4205 I-0.9632
G1 X212.906 Y19.2848
G2 X208.5689 Y20.8886 J6.6664
X206.2133 Y24.8677 I4.6704 J5.4518
X206.1128 Y25.5245 I5.9328 J1.2435
X206.0806 Y26.1881 I6.8247 J0.6637
G1 X206.2163 Y78.253
G3 X205.253 Y79.2163 I-0.9632
G1 X161.6159
G2 X159.8605 Y80.3865 J1.9017
G3 X158.105 Y81.5568 I-1.7554 J-0.7314
G1 X133.4063
G3 X132.4429 Y80.5936 J-0.9633
G1 X132.5761 Y26.1237
G2 X131.3725 Y23.1135 I-4.3666 J0.0002
X128.4797 Y21.65 I-3.5037 J3.3347
G1 X3.3193 Y21.761
G3 X2.3563 Y20.7978 J-0.9631
G1 X2.3583 Y3.3221
G3 X3.3217 Y2.3588 I0.9634 J0.0001
G1 X282.681
G3 X283.6443 Y3.3221 J0.9632
G1 Y20.7979
G3 X282.6811 Y21.7611 I-0.9632
G1 X212.906 Y21.6254
G2 X210.0445 Y22.7054 J4.3309
X208.504 Y25.3478 I3.2008 J3.6361
X208.4409 Y25.7658 I3.6537 J0.7658
X208.4212 Y26.1881 I4.5131 J0.4223
G1 X208.5569 Y80.5936
G3 X207.5936 Y81.5568 I-0.9632
G1 X158.105
G2 X156.3383 Y82.7347 J1.914
G3 X154.5715 Y83.9125 I-1.7667 J-0.7361
G1 X130.0874
X130.0847 Y26.1239
G2 X130.0703 Y25.9507 I-1.0437
G1 X130.0378 Y25.758
G2 X129.9857 Y25.5643 I-1.0293 J0.1732
G1 X129.9133 Y25.3716
G2 X129.8234 Y25.1888 I-0.9771 J0.3669
G1 X129.7172 Y25.0173
G2 X129.5968 Y24.8591 I-0.8872 J0.5498
G1 X129.464 Y24.7151
G2 X129.3264 Y24.5905 I-0.7669 J0.708
G1 X129.1864 Y24.4847
G2 X129.0512 Y24.398 I-0.6293 J0.8327
G1 X128.9228 Y24.329
G2 X128.7594 Y24.2584 I-0.4941 J0.9194
G1 X128.5599 Y24.1918
G2 X128.3611 Y24.1464 I-0.3307 J0.99
G1 X128.165 Y24.1214
G2 X128.0332 Y24.1131 I-0.1318 J1.0354
G1 X0.0002 Y24.1168
X0.0031 Y0.0091
X0.004 Y0.004
X285.9914 Y0.0032
X285.9999 Y0.0405
X286 Y24.1168
X212.906
G2 X212.7307 Y24.1316 J1.0437
G1 X212.5691 Y24.1591
G2 X212.4069 Y24.2004 I0.1753 J1.0289
G1 X212.2452 Y24.2556
G2 X212.0722 Y24.333 I0.3375 J0.9877
G1 X211.8905 Y24.4349
G2 X211.7339 Y24.5425 I0.5106 J0.9103
G1 X211.6018 Y24.6523
G2 X211.4718 Y24.7813 I0.6672 J0.8027
G1 X211.3463 Y24.9298
G2 X211.2477 Y25.0678 I0.7972 J0.6737
G1 X211.1735 Y25.1919
G2 X211.1001 Y25.3401 I0.8958 J0.5357
G1 X211.0311 Y25.5128
G2 X210.9786 Y25.6862 I0.9691 J0.3876
G1 X210.9425 Y25.8589
G2 X210.9226 Y26.0035 I1.0215 J0.2141
G1 X210.9149 Y26.1186
X210.9126 Y26.1881
X210.9125 Y83.9125
X154.5715
X154.5227 Y83.9087 Z-13.9922
X154.475 Y83.8974 Z-13.9845
X154.4339 Y83.8811 Z-13.9619
X154.3955 Y83.8592 Z-13.9394
X154.3418 Y83.8141 Z-13.8691
X154.3131 Y83.7794 Z-13.7806
X154.3044 Y83.7665 Z-13.6825
G0 Z5
X168.4122 Y39.7118
Z-11.5827
G1 X168.4192 Y39.6986 Z-11.6787 F1200
X168.4402 Y39.6609 Z-11.7657
X168.4753 Y39.6033 Z-11.8356
X168.5234 Y39.5327 Z-11.8818
X168.5817 Y39.4571 Z-11.9
G3 X168.4329 Y39.6738 Z-12.2217 I1.164 J0.9589
X168.3239 Y39.9131 Z-12.5434 I1.3128 J0.7422
X168.2582 Y40.1676 Z-12.8651 I1.4218 J0.503
X168.2376 Y40.4297 Z-13.1868 I1.4875 J0.2484
X168.2629 Y40.6914 Z-13.5086 I1.5081 J-0.0136
X168.3333 Y40.9447 Z-13.8303 I1.4828 J-0.2753
X168.4465 Y41.1819 Z-14.152 I1.4125 J-0.5286
X168.5992 Y41.3959 Z-14.4737 I1.2992 J-0.7659
X168.7868 Y41.5801 Z-14.7954 I1.1465 J-0.9798
X169.0035 Y41.7289 Z-15.1171 I0.9589 J-1.164
X169.2427 Y41.8378 Z-15.4388 I0.7422 J-1.3129
X169.4973 Y41.9036 Z-15.7605 I0.503 J-1.4218
X171.2538 Y40.4161 Z-16 I0.2484 J-1.4875
G1 Y43.3831 F3500
G3 X169.7442 I-0.7548
G1 X169.7441 Y40.3709
G3 X170.4538 Y39.6612 I0.7096
G1 X170.5442
G3 X171.2538 Y40.3708 J0.7096
G1 Y40.4161
G2 X172.0355 Y41.5885 I1.2701
G3 X172.8171 Y42.7609 I-0.4885 J1.1724
G1 Y44.8538
G3 X171.8538 Y45.817 I-0.9632
G1 X169.1444
G3 X168.1811 Y44.8538 J-0.9633
G1 X168.1808 Y39.0611
G3 X169.144 Y38.0979 I0.9632
G1 X171.8538 Y38.098
G3 X172.8171 Y39.0612 J0.9633
G1 Y42.7609
G2 X173.9874 Y44.5164 I1.9017
G3 X175.1577 Y46.2718 I-0.7314 J1.7555
G1 Y47.1944
G3 X174.1944 Y48.1576 I-0.9632
G1 X166.8039
G3 X165.8406 Y47.1944 J-0.9633
G1 X165.8401 Y36.7205
G3 X166.8033 Y35.7573 I0.9632
G1 X174.1945 Y35.7574
G3 X175.1577 Y36.7207 J0.9633
G1 Y46.2718
G2 X176.4766 Y48.2013 I2.0708
G3 X176.0449 Y50.4982 I-0.4317 J1.1079
G1 X164.4634
G3 X163.5001 Y49.535 J-0.9633
G1 X163.4993 Y34.3798
G3 X164.4625 Y33.4166 I0.9632
G1 X176.5351 Y33.4168
G3 X177.4983 Y34.3801 J0.9633
G1 Y49.535
G3 X176.5351 Y50.4982 I-0.9632
G1 X176.0449
G2 X174.2894 Y51.6686 J1.9018
G3 X172.534 Y52.8389 I-1.7555 J-0.7314
G1 X162.1228
G3 X161.1595 Y51.8756 J-0.9633
G1 X161.1586 Y32.0392
G3 X162.1218 Y31.076 I0.9632
G1 X178.8757 Y31.0762
G3 X179.8389 Y32.0395 J0.9633
G1 Y51.8756
G3 X178.8757 Y52.8389 I-0.9632
G1 X172.534
G2 X170.7785 Y54.0092 J1.9018
G3 X169.023 Y55.1795 I-1.7555 J-0.7314
G1 X159.7823
G3 X158.819 Y54.2162 J-0.9633
G1 X158.8179 Y29.6985
G3 X159.7811 Y28.7353 I0.9632
G1 X181.2163 Y28.7357
G3 X182.1796 Y29.6989 J0.9633
G1 X182.1795 Y54.2163
G3 X181.2163 Y55.1795 I-0.9632
G1 X169.023
G2 X167.2676 Y56.3498 J1.9018
G3 X165.5121 Y57.5201 I-1.7555 J-0.7314
G1 X157.4418
G3 X156.4785 Y56.5569 J-0.9633
G1 X156.4772 Y27.3578
G3 X157.4403 Y26.3946 I0.9632
G1 X183.5569 Y26.3951
G3 X184.5202 Y27.3583 J0.9633
G1 Y56.5569
G3 X183.5569 Y57.5201 I-0.9632
G1 X165.5121
G2 X163.7591 Y58.6888 J1.8991
G3 X162.0061 Y59.8574 I-1.753 J-0.7304
G1 X155.1046
G3 X154.1413 Y58.8942 J-0.9633
G1 X154.175 Y26.1227
G2 X154.151 Y25.5591 I-6.6497 J0.0003
G3 X154.1144 Y24.9962 I14.0673 J-1.1972
X155.0121 Y24.0573 I0.8977 J-0.0404
G1 X185.9901 Y24.0578
G3 X186.8858 Y24.9971 J0.8967
G2 X186.6705 Y41.9455 I243.5234 J11.5692
G3 X186.8575 Y58.8942 I-767.9297 J16.9478
X185.8942 Y59.8574 I-0.9632
G1 X162.0061
G2 X160.2898 Y61.0016 J1.8594
G3 X158.5735 Y62.1458 I-1.7163 J-0.7151
G1 X152.8163
G3 X151.853 Y61.1826 J-0.9633
G1 X151.959 Y26.1228
G2 X151.8399 Y24.3978 I-12.5633 J0.0006
X151.5909 Y22.6867 I-127.1295 J17.6288
G3 X152.3795 Y21.7688 I0.7886 J-0.1202
G1 X188.6176 Y21.7694
G3 X189.4065 Y22.6857 J0.7978
G2 X189.1561 Y24.43 I135.4835 J20.3449
X189.0361 Y26.1881 I12.8297 J1.7581
G1 X189.1459 Y61.1826
G3 X188.1826 Y62.1458 I-0.9632
G1 X158.5735
G2 X156.9034 Y63.2592 J1.8092
G3 X155.2334 Y64.3726 I-1.6701 J-0.6959
G1 X150.5897
G3 X149.6264 Y63.4093 J-0.9633
G1 X149.7603 Y26.1229
G2 X149.4947 Y23.2456 I-15.7238 J0.0007
X148.8436 Y20.4305 I-32.8684 J6.1195
G3 X149.5191 Y19.542 I0.6756 J-0.1874
G1 X191.4793 Y19.5427
G3 X192.1563 Y20.4315 J0.7022
G2 X191.609 Y22.5974 I50.4052 J13.8912
X191.283 Y24.8073 I13.6638 J3.1444
G1 X191.3726 Y63.4094
G3 X190.4094 Y64.3726 I-0.9632
G1 X155.2334
G2 X153.6228 Y65.4463 J1.7448
G3 X152.0121 Y66.5201 I-1.6106 J-0.6711
G1 X148.4423
G3 X147.479 Y65.5568 J-0.9633
G1 X147.6129 Y26.123
G2 X147.1107 Y22.0891 I-16.4605 J0.0008
X145.7818 Y18.2474 I-23.1027 J5.8409
G3 X146.336 Y17.3945 I0.5542 J-0.2464
G1 X194.6636 Y17.3953
G3 X195.2184 Y18.2484 J0.6069
G2 X194.0272 Y21.5206 I23.2132 J10.3031
X193.4257 Y24.9505 I15.6794 J4.5173
G1 X193.5201 Y65.5568
G3 X192.5569 Y66.5201 I-0.9632
G1 X152.0121
G2 X150.4758 Y67.5443 J1.6644
G3 X148.9394 Y68.5686 I-1.5364 J-0.6402
G1 X146.3939
G3 X145.4306 Y67.6053 J-0.9633
G1 X145.5644 Y26.1231
G2 X144.6721 Y20.8803 I-15.8538 J0.0007
X142.2417 Y16.15 I-18.3028 J6.4145
G3 X142.6596 Y15.3459 I0.4179 J-0.2935
G1 X198.341 Y15.3469
G3 X198.7572 Y16.1503 J0.5095
G2 X196.4972 Y20.392 I15.7056 J11.0911
X195.4697 Y25.087 I15.1487 J5.7754
G1 X195.5686 Y67.6053
G3 X194.6054 Y68.5686 I-0.9632
G1 X148.9394
G2 X147.5052 Y69.5247 J1.5537
G3 X146.071 Y70.4808 I-1.4342 J-0.5976
G1 X144.4817
G3 X143.5184 Y69.5176 J-0.9633
G1 X143.6521 Y26.1232
G2 X142.0779 Y19.4798 I-14.8085 J0.0007
X137.7943 Y14.1636 I-14.4334 J7.2461
G3 X138.0523 Y13.4336 I0.2581 J-0.3194
G1 X202.9414 Y13.4347
G3 X203.204 Y14.1671 J0.4133
G2 X200.421 Y17.0202 I11.6009 J14.0996
X198.4337 Y20.475 I11.1252 J8.6986
X197.7194 Y22.8032 I13.6765 J5.4693
X197.3777 Y25.2144 I16.0681 J3.5072
G1 X197.4809 Y69.5176
G3 X196.5176 Y70.4808 I-0.9632
G1 X146.071
G2 X144.7858 Y71.3377 J1.3923
G3 X143.5005 Y72.1945 I-1.2852 J-0.5355
G1 X142.7681
G3 X141.8048 Y71.2313 J-0.9633
G1 X141.9384 Y26.1233
G2 X138.3981 Y16.9253 I-13.7204 J0.0006
X129.6621 Y12.3626 I-10.5281 J9.5131
G1 X37.0945 Y12.3946
G3 X36.8039 Y12.104 J-0.2907
G1 Y12.0089
G3 X37.0945 Y11.7182 I0.2907
G1 X248.5788 Y11.7218
G3 Y12.3957 J0.337
G1 X212.9049 Y12.2631
G2 X204.1418 Y15.4383 I0.0012 J13.6833
X199.3408 Y23.4273 I9.0919 J10.9009
X199.0589 Y26.1881 I12.9798 J2.7205
G1 X199.1945 Y71.2313
G3 X198.2313 Y72.1945 I-0.9632
G1 X143.5005
G2 X141.628 Y73.3802 J2.0714
G3 X139.4663 Y72.8915 I-1.0264 J-0.4855
G1 X139.5979 Y26.1234
G2 X136.6417 Y18.4724 I-11.3807 J0.0005
X129.3665 Y14.6845 I-8.7718 J7.967
G1 X35.4269 Y14.7352
G3 X34.4635 Y13.7719 J-0.9634
G1 X34.4631 Y10.3408
G3 X35.4262 Y9.3776 I0.9631 J-0.0001
G1 X250.5738 Y9.3812
G3 X251.5369 Y10.3445 J0.9631
G1 X251.5365 Y13.7727
G3 X250.5731 Y14.7361 I-0.9635 J-0.0001
G1 X212.9051 Y14.6036
G2 X205.6175 Y17.2551 I0.001 J11.3437
X201.6316 Y23.9074 I7.6174 J9.0843
X201.3994 Y26.1881 I10.6896 J2.2405
G1 X201.5351 Y73.5718
G3 X200.5719 Y74.5351 I-0.9632
G1 X140.4277
G3 X139.4644 Y73.5718 J-0.9633
G1 X139.4663 Y72.8915
G2 X138.3038 Y71.1375 I-1.8965 J-0.0053
G3 X137.1414 Y69.3835 I0.7344 J-1.7489
G1 X137.2573 Y26.1235
G2 X134.8853 Y20.0194 I-9.0414 J0.0004
X129.0709 Y17.0063 I-7.0156 J6.4214
G1 X33.0866 Y17.0758
G3 X32.1232 Y16.1125 J-0.9634
G1 X32.1222 Y8.0002
G3 X33.0853 Y7.037 I0.9631 J-0.0001
G1 X252.9147 Y7.0407
G3 X253.8778 Y8.0039 J0.9631
G1 X253.8768 Y16.1131
G3 X252.9134 Y17.0765 I-0.9635 J-0.0001
G1 X212.9053 Y16.9442
G2 X207.0931 Y19.0719 I0.0008 J9.0047
X203.9224 Y24.3875 I6.1434 J7.2678
X203.74 Y26.1881 I8.3997 J1.7605
G1 X203.8757 Y75.9124
G3 X202.9124 Y76.8757 I-0.9632
G1 X138.0872
G3 X137.1239 Y75.9124 J-0.9633
G1 X137.1414 Y69.3835
G2 X135.9782 Y67.6289 I-1.8973 J-0.0051
G3 X134.8151 Y65.8743 I0.7345 J-1.7497
G1 X134.9167 Y26.1236
G2 X133.1289 Y21.5664 I-6.703 J0.0003
X128.7753 Y19.3281 I-5.2595 J4.8767
G1 X30.7463 Y19.4163
G3 X29.7829 Y18.453 J-0.9634
G1 X29.7813 Y5.6596
G3 X30.7444 Y4.6964 I0.9631 J-0.0001
G1 X255.2556 Y4.7001
G3 X256.2187 Y5.6634 J0.9631
G1 X256.2171 Y18.4535
G3 X255.2537 Y19.4169 I-0.9635 J-0.0001
G1 X212.9055 Y19.2848
G2 X208.5687 Y20.8887 I0.0006 J6.6666
X206.2132 Y24.8677 I4.6706 J5.4516
X206.1128 Y25.5245 I5.9328 J1.2435
X206.0806 Y26.1881 I6.8247 J0.6637
G1 X206.2163 Y78.253
G3 X205.253 Y79.2162 I-0.9632
G1 X135.7467
G3 X134.7834 Y78.253 J-0.9633
G1 X134.8151 Y65.8743
G2 X133.6513 Y64.1193 I-1.898 J-0.0049
G3 X132.4875 Y62.3642 I0.7345 J-1.7504
G1 X132.5761 Y26.1237
G2 X131.3725 Y23.1135 I-4.3666 J0.0002
X128.4797 Y21.65 I-3.5037 J3.3347
G1 X28.406 Y21.7569
G3 X27.4426 Y20.7936 J-0.9634
G1 X27.4405 Y3.3189
G3 X28.4036 Y2.3558 I0.9631 J-0.0001
G1 X257.5964 Y2.3596
G3 X258.5595 Y3.3228 J0.9631
G1 X258.5574 Y20.7939
G3 X257.594 Y21.7572 I-0.9635 J-0.0001
G1 X212.9057 Y21.6254
G2 X210.0444 Y22.7055 I0.0004 J4.331
X208.504 Y25.3478 I3.2008 J3.636
X208.4409 Y25.7658 I3.6537 J0.7658
X208.4212 Y26.1881 I4.5131 J0.4223
G1 X208.5568 Y80.5936
G3 X207.5936 Y81.5568 I-0.9632
G1 X133.4063
G3 X132.443 Y80.5936 J-0.9633
G1 X132.4875 Y62.3642
G2 X131.2869 Y60.5604 I-1.9481 J-0.0048
G3 X130.0863 Y58.7567 I0.7547 J-1.8038
G1 X130.0847 Y26.1239
G2 X130.0703 Y25.9507 I-1.0437
G1 X130.0378 Y25.758
G2 X129.9857 Y25.5643 I-1.0293 J0.1732
G1 X129.9133 Y25.3716
G2 X129.8234 Y25.1888 I-0.9771 J0.3669
G1 X129.7172 Y25.0173
G2 X129.5968 Y24.8591 I-0.8872 J0.5498
G1 X129.464 Y24.7151
G2 X129.3264 Y24.5905 I-0.7669 J0.708
G1 X129.1864 Y24.4847
G2 X129.0512 Y24.398 I-0.6293 J0.8327
G1 X128.9228 Y24.329
G2 X128.7594 Y24.2584 I-0.4941 J0.9194
G1 X128.5599 Y24.1918
G2 X128.3611 Y24.1464 I-0.3307 J0.99
G1 X128.165 Y24.1214
G2 X128.0332 Y24.1131 I-0.1318 J1.0354
G1 X25.0874 Y24.1125
X25.0844 Y0
X260.9156 Y0.004
X260.9126 Y24.1126
X212.9059 Y24.1168
G2 X212.7307 Y24.1316 I0.0001 J1.0437
G1 X212.5691 Y24.1591
G2 X212.4069 Y24.2004 I0.1753 J1.0289
G1 X212.2452 Y24.2556
G2 X212.0722 Y24.333 I0.3375 J0.9877
G1 X211.8905 Y24.4349
G2 X211.7339 Y24.5425 I0.5106 J0.9103
G1 X211.6018 Y24.6523
G2 X211.4718 Y24.7813 I0.6672 J0.8027
G1 X211.3463 Y24.9298
G2 X211.2477 Y25.0678 I0.7972 J0.6737
G1 X211.1735 Y25.1919
G2 X211.1001 Y25.3401 I0.8958 J0.5357
G1 X211.0311 Y25.5128
G2 X210.9786 Y25.6862 I0.9691 J0.3876
G1 X210.9425 Y25.8589
G2 X210.9226 Y26.0035 I1.0215 J0.2141
G1 X210.9149 Y26.1186
X210.9126 Y26.1881
X210.9125 Y83.9125
X130.0874
X130.0863 Y58.7567
X130.09 Y58.7078 Z-15.9922
X130.1013 Y58.6601 Z-15.9845
X130.1176 Y58.619 Z-15.9619
X130.1395 Y58.5806 Z-15.9394
X130.1846 Y58.5269 Z-15.8691
X130.2193 Y58.4982 Z-15.7806
X130.2322 Y58.4895 Z-15.6825
G0 Z5
X168.4122 Y39.7118
Z-13.5827
G1 X168.4192 Y39.6986 Z-13.6787 F1200
X168.4402 Y39.6609 Z-13.7657
X168.4753 Y39.6033 Z-13.8356
X168.5234 Y39.5327 Z-13.8818
X168.5817 Y39.4571 Z-13.9
G3 X168.4329 Y39.6738 Z-14.2217 I1.164 J0.9589
X168.3239 Y39.9131 Z-14.5434 I1.3128 J0.7422
X168.2582 Y40.1676 Z-14.8651 I1.4218 J0.503
X168.2376 Y40.4297 Z-15.1868 I1.4875 J0.2484
X168.2629 Y40.6914 Z-15.5086 I1.5081 J-0.0136
X168.3333 Y40.9447 Z-15.8303 I1.4828 J-0.2753
X168.4465 Y41.1819 Z-16.152 I1.4125 J-0.5286
X168.5992 Y41.3959 Z-16.4737 I1.2992 J-0.7659
X168.7868 Y41.5801 Z-16.7954 I1.1465 J-0.9798
X169.0035 Y41.7289 Z-17.1171 I0.9589 J-1.164
X169.2427 Y41.8378 Z-17.4388 I0.7422 J-1.3129
X169.4973 Y41.9036 Z-17.7605 I0.503 J-1.4218
X171.2538 Y40.4161 Z-18 I0.2484 J-1.4875
G1 Y43.3831 F3500
G3 X169.7442 I-0.7548
G1 X169.7441 Y40.3709
G3 X170.4538 Y39.6612 I0.7096
G1 X170.5442
G3 X171.2538 Y40.3708 J0.7096
G1 Y40.4161
G2 X172.0355 Y41.5885 I1.2701
G3 X172.8171 Y42.7609 I-0.4885 J1.1724
G1 Y44.8538
G3 X171.8538 Y45.817 I-0.9632
G1 X169.1444
G3 X168.1811 Y44.8538 J-0.9633
G1 X168.1808 Y39.0611
G3 X169.144 Y38.0979 I0.9632
G1 X171.8538 Y38.098
G3 X172.8171 Y39.0612 J0.9633
G1 Y42.7609
G2 X173.9874 Y44.5164 I1.9017
G3 X175.1577 Y46.2718 I-0.7314 J1.7555
G1 Y47.1944
G3 X174.1944 Y48.1576 I-0.9632
G1 X166.8039
G3 X165.8406 Y47.1944 J-0.9633
G1 X165.8401 Y36.7205
G3 X166.8033 Y35.7573 I0.9632
G1 X174.1945 Y35.7574
G3 X175.1577 Y36.7207 J0.9633
G1 Y46.2718
G2 X176.4766 Y48.2013 I2.0708
G3 X176.0449 Y50.4982 I-0.4317 J1.1079
G1 X164.4634
G3 X163.5001 Y49.535 J-0.9633
G1 X163.4993 Y34.3798
G3 X164.4625 Y33.4166 I0.9632
G1 X176.5351 Y33.4168
G3 X177.4983 Y34.3801 J0.9633
G1 Y49.535
G3 X176.5351 Y50.4982 I-0.9632
G1 X176.0449
G2 X174.2894 Y51.6686 J1.9018
G3 X172.534 Y52.8389 I-1.7555 J-0.7314
G1 X162.1228
G3 X161.1595 Y51.8756 J-0.9633
G1 X161.1586 Y32.0392
G3 X162.1218 Y31.076 I0.9632
G1 X178.8757 Y31.0762
G3 X179.8389 Y32.0395 J0.9633
G1 Y51.8756
G3 X178.8757 Y52.8389 I-0.9632
G1 X172.534
G2 X170.7785 Y54.0092 J1.9018
G3 X169.023 Y55.1795 I-1.7555 J-0.7314
G1 X159.7823
G3 X158.819 Y54.2162 J-0.9633
G1 X158.8179 Y29.6985
G3 X159.7811 Y28.7353 I0.9632
G1 X181.2163 Y28.7357
G3 X182.1796 Y29.6989 J0.9633
G1 X182.1795 Y54.2163
G3 X181.2163 Y55.1795 I-0.9632
G1 X169.023
G2 X167.2676 Y56.3498 J1.9018
G3 X165.5121 Y57.5201 I-1.7555 J-0.7314
G1 X157.4418
G3 X156.4785 Y56.5569 J-0.9633
G1 X156.4772 Y27.3578
G3 X157.4403 Y26.3946 I0.9632
G1 X183.5569 Y26.3951
G3 X184.5202 Y27.3583 J0.9633
G1 Y56.5569
G3 X183.5569 Y57.5201 I-0.9632
G1 X165.5121
G2 X163.7591 Y58.6888 J1.8991
G3 X162.0061 Y59.8574 I-1.753 J-0.7304
G1 X155.1046
G3 X154.1413 Y58.8942 J-0.9633
G1 X154.175 Y26.1227
G2 X154.151 Y25.5591 I-6.6497 J0.0003
G3 X154.1144 Y24.9962 I14.0673 J-1.1972
X155.0121 Y24.0573 I0.8977 J-0.0404
G1 X185.9901 Y24.0578
G3 X186.8858 Y24.9971 J0.8967
G2 X186.6705 Y41.9455 I243.5234 J11.5692
G3 X186.8575 Y58.8942 I-767.9297 J16.9478
X185.8942 Y59.8574 I-0.9632
G1 X162.0061
G2 X160.2898 Y61.0016 J1.8594
G3 X158.5735 Y62.1458 I-1.7163 J-0.7151
G1 X152.8163
G3 X151.853 Y61.1826 J-0.9633
G1 X151.959 Y26.1228
G2 X151.8399 Y24.3978 I-12.5633 J0.0006
X151.5909 Y22.6867 I-127.1295 J17.6288
G3 X152.3795 Y21.7688 I0.7886 J-0.1202
G1 X188.6176 Y21.7694
G3 X189.4065 Y22.6857 J0.7978
G2 X189.1561 Y24.43 I135.4835 J20.3449
X189.0361 Y26.1881 I12.8297 J1.7581
G1 X189.1459 Y61.1826
G3 X188.1826 Y62.1458 I-0.9632
G1 X158.5735
G2 X156.9034 Y63.2592 J1.8092
G3 X155.2334 Y64.3726 I-1.6701 J-0.6959
G1 X150.5897
G3 X149.6264 Y63.4093 J-0.9633
G1 X149.7603 Y26.1229
G2 X149.4947 Y23.2456 I-15.7238 J0.0007
X148.8436 Y20.4305 I-32.8684 J6.1195
G3 X149.5191 Y19.542 I0.6756 J-0.1874
G1 X191.4793 Y19.5427
G3 X192.1563 Y20.4315 J0.7022
G2 X191.609 Y22.5974 I50.4052 J13.8912
X191.283 Y24.8073 I13.6638 J3.1444
G1 X191.3726 Y63.4094
G3 X190.4094 Y64.3726 I-0.9632
G1 X155.2334
G2 X153.6228 Y65.4463 J1.7448
G3 X152.0121 Y66.5201 I-1.6106 J-0.6711
G1 X148.4423
G3 X147.479 Y65.5568 J-0.9633
G1 X147.6129 Y26.123
G2 X147.1107 Y22.0891 I-16.4605 J0.0008
X145.7818 Y18.2474 I-23.1027 J5.8409
G3 X146.336 Y17.3945 I0.5542 J-0.2464
G1 X194.6636 Y17.3953
G3 X195.2184 Y18.2484 J0.6069
G2 X194.0272 Y21.5206 I23.2132 J10.3031
X193.4257 Y24.9505 I15.6794 J4.5173
G1 X193.5201 Y65.5568
G3 X192.5569 Y66.5201 I-0.9632
G1 X152.0121
G2 X150.4758 Y67.5443 J1.6644
G3 X148.9394 Y68.5686 I-1.5364 J-0.6402
G1 X146.3939
G3 X145.4306 Y67.6053 J-0.9633
G1 X145.5644 Y26.1231
G2 X144.6721 Y20.8803 I-15.8538 J0.0007
X142.2417 Y16.15 I-18.3028 J6.4145
G3 X142.6596 Y15.3459 I0.4179 J-0.2935
G1 X198.341 Y15.3469
G3 X198.7572 Y16.1503 J0.5095
G2 X196.4972 Y20.392 I15.7056 J11.0911
X195.4697 Y25.087 I15.1487 J5.7754
G1 X195.5686 Y67.6053
G3 X194.6054 Y68.5686 I-0.9632
G1 X148.9394
G2 X147.5052 Y69.5247 J1.5537
G3 X146.071 Y70.4808 I-1.4342 J-0.5976
G1 X144.4817
G3 X143.5184 Y69.5176 J-0.9633
G1 X143.6521 Y26.1232
G2 X142.0779 Y19.4798 I-14.8085 J0.0007
X137.7943 Y14.1636 I-14.4334 J7.2461
G3 X138.0523 Y13.4336 I0.2581 J-0.3194
G1 X202.9414 Y13.4347
G3 X203.204 Y14.1671 J0.4133
G2 X200.421 Y17.0202 I11.6009 J14.0996
X198.4337 Y20.475 I11.1252 J8.6986
X197.7194 Y22.8032 I13.6765 J5.4693
X197.3777 Y25.2144 I16.0681 J3.5072
G1 X197.4809 Y69.5176
G3 X196.5176 Y70.4808 I-0.9632
G1 X146.071
G2 X144.7858 Y71.3377 J1.3923
G3 X143.5005 Y72.1945 I-1.2852 J-0.5355
G1 X142.7681
G3 X141.8048 Y71.2313 J-0.9633
G1 X141.9384 Y26.1233
G2 X138.3981 Y16.9253 I-13.7204 J0.0006
X129.6621 Y12.3626 I-10.5281 J9.5131
G1 X37.0945 Y12.3946
G3 X36.8039 Y12.104 J-0.2907
G1 Y12.0089
G3 X37.0945 Y11.7182 I0.2907
G1 X248.5788 Y11.7218
G3 Y12.3957 J0.337
G1 X212.9049 Y12.2631
G2 X204.1418 Y15.4383 I0.0012 J13.6833
X199.3408 Y23.4273 I9.0919 J10.9009
X199.0589 Y26.1881 I12.9798 J2.7205
G1 X199.1945 Y71.2313
G3 X198.2313 Y72.1945 I-0.9632
G1 X143.5005
G2 X141.628 Y73.3802 J2.0714
G3 X139.4663 Y72.8915 I-1.0264 J-0.4855
G1 X139.5979 Y26.1234
G2 X136.6417 Y18.4724 I-11.3807 J0.0005
X129.3665 Y14.6845 I-8.7718 J7.967
G1 X35.4269 Y14.7352
G3 X34.4635 Y13.7719 J-0.9634
G1 X34.4631 Y10.3408
G3 X35.4262 Y9.3776 I0.9631 J-0.0001
G1 X250.5738 Y9.3812
G3 X251.5369 Y10.3445 J0.9631
G1 X251.5365 Y13.7727
G3 X250.5731 Y14.7361 I-0.9635 J-0.0001
G1 X212.9051 Y14.6036
G2 X205.6175 Y17.2551 I0.001 J11.3437
X201.6316 Y23.9074 I7.6174 J9.0843
X201.3994 Y26.1881 I10.6896 J2.2405
G1 X201.5351 Y73.5718
G3 X200.5719 Y74.5351 I-0.9632
G1 X140.4277
G3 X139.4644 Y73.5718 J-0.9633
G1 X139.4663 Y72.8915
G2 X138.3038 Y71.1375 I-1.8965 J-0.0053
G3 X137.1414 Y69.3835 I0.7344 J-1.7489
G1 X137.2573 Y26.1235
G2 X134.8853 Y20.0194 I-9.0414 J0.0004
X129.0709 Y17.0063 I-7.0156 J6.4214
G1 X33.0866 Y17.0758
G3 X32.1232 Y16.1125 J-0.9634
G1 X32.1222 Y8.0002
G3 X33.0853 Y7.037 I0.9631 J-0.0001
G1 X252.9147 Y7.0407
G3 X253.8778 Y8.0039 J0.9631
G1 X253.8768 Y16.1131
G3 X252.9134 Y17.0765 I-0.9635 J-0.0001
G1 X212.9053 Y16.9442
G2 X207.0931 Y19.0719 I0.0008 J9.0047
X203.9224 Y24.3875 I6.1434 J7.2678
X203.74 Y26.1881 I8.3997 J1.7605
G1 X203.8757 Y75.9124
G3 X202.9124 Y76.8757 I-0.9632
G1 X138.0872
G3 X137.1239 Y75.9124 J-0.9633
G1 X137.1414 Y69.3835
G2 X135.9782 Y67.6289 I-1.8973 J-0.0051
G3 X134.8151 Y65.8743 I0.7345 J-1.7497
G1 X134.9167 Y26.1236
G2 X133.1289 Y21.5664 I-6.703 J0.0003
X128.7753 Y19.3281 I-5.2595 J4.8767
G1 X30.7463 Y19.4163
G3 X29.7829 Y18.453 J-0.9634
G1 X29.7813 Y5.6596
G3 X30.7444 Y4.6964 I0.9631 J-0.0001
G1 X255.2556 Y4.7001
G3 X256.2187 Y5.6634 J0.9631
G1 X256.2171 Y18.4535
G3 X255.2537 Y19.4169 I-0.9635 J-0.0001
G1 X212.9055 Y19.2848
G2 X208.5687 Y20.8887 I0.0006 J6.6666
X206.2132 Y24.8677 I4.6706 J5.4516
X206.1128 Y25.5245 I5.9328 J1.2435
X206.0806 Y26.1881 I6.8247 J0.6637
G1 X206.2163 Y78.253
G3 X205.253 Y79.2162 I-0.9632
G1 X135.7467
G3 X134.7834 Y78.253 J-0.9633
G1 X134.8151 Y65.8743
G2 X133.6513 Y64.1193 I-1.898 J-0.0049
G3 X132.4875 Y62.3642 I0.7345 J-1.7504
G1 X132.5761 Y26.1237
G2 X131.3725 Y23.1135 I-4.3666 J0.0002
X128.4797 Y21.65 I-3.5037 J3.3347
G1 X28.406 Y21.7569
G3 X27.4426 Y20.7936 J-0.9634
G1 X27.4405 Y3.3189
G3 X28.4036 Y2.3558 I0.9631 J-0.0001
G1 X257.5964 Y2.3596
G3 X258.5595 Y3.3228 J0.9631
G1 X258.5574 Y20.7939
G3 X257.594 Y21.7572 I-0.9635 J-0.0001
G1 X212.9057 Y21.6254
G2 X210.0444 Y22.7055 I0.0004 J4.331
X208.504 Y25.3478 I3.2008 J3.636
X208.4409 Y25.7658 I3.6537 J0.7658
X208.4212 Y26.1881 I4.5131 J0.4223
G1 X208.5568 Y80.5936
G3 X207.5936 Y81.5568 I-0.9632
G1 X133.4063
G3 X132.443 Y80.5936 J-0.9633
G1 X132.4875 Y62.3642
G2 X131.2869 Y60.5604 I-1.9481 J-0.0048
G3 X130.0863 Y58.7567 I0.7547 J-1.8038
G1 X130.0847 Y26.1239
G2 X130.0703 Y25.9507 I-1.0437
G1 X130.0378 Y25.758
G2 X129.9857 Y25.5643 I-1.0293 J0.1732
G1 X129.9133 Y25.3716
G2 X129.8234 Y25.1888 I-0.9771 J0.3669
G1 X129.7172 Y25.0173
G2 X129.5968 Y24.8591 I-0.8872 J0.5498
G1 X129.464 Y24.7151
G2 X129.3264 Y24.5905 I-0.7669 J0.708
G1 X129.1864 Y24.4847
G2 X129.0512 Y24.398 I-0.6293 J0.8327
G1 X128.9228 Y24.329
G2 X128.7594 Y24.2584 I-0.4941 J0.9194
G1 X128.5599 Y24.1918
G2 X128.3611 Y24.1464 I-0.3307 J0.99
G1 X128.165 Y24.1214
G2 X128.0332 Y24.1131 I-0.1318 J1.0354
G1 X25.0874 Y24.1125
X25.0844 Y0
X260.9156 Y0.004
X260.9126 Y24.1126
X212.9059 Y24.1168
G2 X212.7307 Y24.1316 I0.0001 J1.0437
G1 X212.5691 Y24.1591
G2 X212.4069 Y24.2004 I0.1753 J1.0289
G1 X212.2452 Y24.2556
G2 X212.0722 Y24.333 I0.3375 J0.9877
G1 X211.8905 Y24.4349
G2 X211.7339 Y24.5425 I0.5106 J0.9103
G1 X211.6018 Y24.6523
G2 X211.4718 Y24.7813 I0.6672 J0.8027
G1 X211.3463 Y24.9298
G2 X211.2477 Y25.0678 I0.7972 J0.6737
G1 X211.1735 Y25.1919
G2 X211.1001 Y25.3401 I0.8958 J0.5357
G1 X211.0311 Y25.5128
G2 X210.9786 Y25.6862 I0.9691 J0.3876
G1 X210.9425 Y25.8589
G2 X210.9226 Y26.0035 I1.0215 J0.2141
G1 X210.9149 Y26.1186
X210.9126 Y26.1881
X210.9125 Y83.9125
X130.0874
X130.0863 Y58.7567
X130.09 Y58.7078 Z-17.9922
X130.1013 Y58.6601 Z-17.9845
X130.1176 Y58.619 Z-17.9619
X130.1395 Y58.5806 Z-17.9394
X130.1846 Y58.5269 Z-17.8691
X130.2193 Y58.4982 Z-17.7806
X130.2322 Y58.4895 Z-17.6825
G0 Z5
X168.2453 Y40.5679
Z-15.5827
G1 X168.2438 Y40.5532 Z-15.6787 F1200
X168.2405 Y40.5101 Z-15.7657
X168.2378 Y40.4427 Z-15.8356
X168.2387 Y40.3572 Z-15.8818
X168.2455 Y40.2621 Z-15.9
G3 X168.2415 Y40.5249 Z-16.2217 I1.5002 J0.154
X168.2833 Y40.7845 Z-16.5434 I1.5042 J-0.1088
X168.3695 Y41.0328 Z-16.8651 I1.4624 J-0.3684
X168.4975 Y41.2624 Z-17.1868 I1.3762 J-0.6167
X168.6634 Y41.4663 Z-17.5086 I1.2482 J-0.8464
X168.8622 Y41.6383 Z-17.8303 I1.0823 J-1.0503
X169.0879 Y41.7732 Z-18.152 I0.8835 J-1.2222
X169.3335 Y41.8668 Z-18.4737 I0.6578 J-1.3571
X169.5917 Y41.9163 Z-18.7954 I0.4122 J-1.4507
X169.8546 Y41.9203 Z-19.1171 I0.154 J-1.5002
X170.1141 Y41.8785 Z-19.4388 I-0.1088 J-1.5042
X171.2538 Y40.4161 Z-19.7 I-0.3684 J-1.4624
G1 Y43.3831 F3500
G3 X169.7442 I-0.7548
G1 X169.7441 Y40.3709
G3 X170.4538 Y39.6612 I0.7096
G1 X170.5442
G3 X171.2538 Y40.3708 J0.7096
G1 Y40.4161
G2 X172.0355 Y41.5885 I1.2701
G3 X172.8171 Y42.7609 I-0.4885 J1.1724
G1 Y44.8538
G3 X171.8538 Y45.817 I-0.9632
G1 X169.1444
G3 X168.1811 Y44.8538 J-0.9633
G1 X168.1808 Y39.0611
G3 X169.144 Y38.0979 I0.9632
G1 X171.8538 Y38.098
G3 X172.8171 Y39.0612 J0.9633
G1 Y42.7609
G2 X173.9874 Y44.5164 I1.9017
G3 X175.1577 Y46.2718 I-0.7314 J1.7555
G1 Y47.1944
G3 X174.1944 Y48.1576 I-0.9632
G1 X166.8039
G3 X165.8406 Y47.1944 J-0.9633
G1 X165.8401 Y36.7205
G3 X166.8033 Y35.7573 I0.9632
G1 X174.1945 Y35.7574
G3 X175.1577 Y36.7207 J0.9633
G1 Y46.2718
G2 X176.4766 Y48.2013 I2.0708
G3 X176.0449 Y50.4982 I-0.4317 J1.1079
G1 X164.4634
G3 X163.5001 Y49.535 J-0.9633
G1 X163.4993 Y34.3798
G3 X164.4625 Y33.4166 I0.9632
G1 X176.5351 Y33.4168
G3 X177.4983 Y34.3801 J0.9633
G1 Y49.535
G3 X176.5351 Y50.4982 I-0.9632
G1 X176.0449
G2 X174.2894 Y51.6686 J1.9018
G3 X172.534 Y52.8389 I-1.7555 J-0.7314
G1 X162.1228
G3 X161.1595 Y51.8756 J-0.9633
G1 X161.1586 Y32.0392
G3 X162.1218 Y31.076 I0.9632
G1 X178.8757 Y31.0762
G3 X179.8389 Y32.0395 J0.9633
G1 Y51.8756
G3 X178.8757 Y52.8389 I-0.9632
G1 X172.534
G2 X170.7785 Y54.0092 J1.9018
G3 X169.023 Y55.1795 I-1.7555 J-0.7314
G1 X159.7823
G3 X158.819 Y54.2162 J-0.9633
G1 X158.8179 Y29.6985
G3 X159.7811 Y28.7353 I0.9632
G1 X181.2163 Y28.7357
G3 X182.1796 Y29.6989 J0.9633
G1 X182.1795 Y54.2163
G3 X181.2163 Y55.1795 I-0.9632
G1 X169.023
G2 X167.2676 Y56.3498 J1.9018
G3 X165.5121 Y57.5201 I-1.7555 J-0.7314
G1 X157.4418
G3 X156.4785 Y56.5569 J-0.9633
G1 X156.4772 Y27.3578
G3 X157.4403 Y26.3946 I0.9632
G1 X183.5569 Y26.3951
G3 X184.5202 Y27.3583 J0.9633
G1 Y56.5569
G3 X183.5569 Y57.5201 I-0.9632
G1 X165.5121
G2 X163.7591 Y58.6888 J1.8991
G3 X162.0061 Y59.8574 I-1.753 J-0.7304
G1 X155.1046
G3 X154.1413 Y58.8942 J-0.9633
G1 X154.175 Y26.1227
G2 X154.151 Y25.5591 I-6.6497 J0.0003
G3 X154.1144 Y24.9962 I14.0673 J-1.1972
X155.0121 Y24.0573 I0.8977 J-0.0404
G1 X185.9901 Y24.0578
G3 X186.8858 Y24.9971 J0.8967
G2 X186.6705 Y41.9455 I243.5234 J11.5692
G3 X186.8575 Y58.8942 I-767.9297 J16.9478
X185.8942 Y59.8574 I-0.9632
G1 X162.0061
G2 X160.2898 Y61.0016 J1.8594
G3 X158.5735 Y62.1458 I-1.7163 J-0.7151
G1 X152.8163
G3 X151.853 Y61.1826 J-0.9633
G1 X151.959 Y26.1228
G2 X151.8399 Y24.3978 I-12.5633 J0.0006
X151.5909 Y22.6867 I-127.1295 J17.6288
G3 X152.3795 Y21.7688 I0.7886 J-0.1202
G1 X188.6176 Y21.7694
G3 X189.4065 Y22.6857 J0.7978
G2 X189.1561 Y24.43 I135.4835 J20.3449
X189.0361 Y26.1881 I12.8297 J1.7581
G1 X189.1459 Y61.1826
G3 X188.1826 Y62.1458 I-0.9632
G1 X158.5735
G2 X156.9034 Y63.2592 J1.8092
G3 X155.2334 Y64.3726 I-1.6701 J-0.6959
G1 X150.5897
G3 X149.6264 Y63.4093 J-0.9633
G1 X149.7603 Y26.1229
G2 X149.4947 Y23.2456 I-15.7238 J0.0007
X148.8436 Y20.4305 I-32.8684 J6.1195
G3 X149.5191 Y19.542 I0.6756 J-0.1874
G1 X191.4793 Y19.5427
G3 X192.1563 Y20.4315 J0.7022
G2 X191.609 Y22.5974 I50.4052 J13.8912
X191.283 Y24.8073 I13.6638 J3.1444
G1 X191.3726 Y63.4094
G3 X190.4094 Y64.3726 I-0.9632
G1 X155.2334
G2 X153.6228 Y65.4463 J1.7448
G3 X152.0121 Y66.5201 I-1.6106 J-0.6711
G1 X148.4423
G3 X147.479 Y65.5568 J-0.9633
G1 X147.6129 Y26.123
G2 X147.1107 Y22.0891 I-16.4605 J0.0008
X145.7818 Y18.2474 I-23.1027 J5.8409
G3 X146.336 Y17.3945 I0.5542 J-0.2464
G1 X194.6636 Y17.3953
G3 X195.2184 Y18.2484 J0.6069
G2 X194.0272 Y21.5206 I23.2132 J10.3031
X193.4257 Y24.9505 I15.6794 J4.5173
G1 X193.5201 Y65.5568
G3 X192.5569 Y66.5201 I-0.9632
G1 X152.0121
G2 X150.4758 Y67.5443 J1.6644
G3 X148.9394 Y68.5686 I-1.5364 J-0.6402
G1 X146.3939
G3 X145.4306 Y67.6053 J-0.9633
G1 X145.5644 Y26.1231
G2 X144.6721 Y20.8803 I-15.8538 J0.0007
X142.2417 Y16.15 I-18.3028 J6.4145
G3 X142.6596 Y15.3459 I0.4179 J-0.2935
G1 X198.341 Y15.3469
G3 X198.7572 Y16.1503 J0.5095
G2 X196.4972 Y20.392 I15.7056 J11.0911
X195.4697 Y25.087 I15.1487 J5.7754
G1 X195.5686 Y67.6053
G3 X194.6054 Y68.5686 I-0.9632
G1 X148.9394
G2 X147.5052 Y69.5247 J1.5537
G3 X146.071 Y70.4808 I-1.4342 J-0.5976
G1 X144.4817
G3 X143.5184 Y69.5176 J-0.9633
G1 X143.6521 Y26.1232
G2 X142.0779 Y19.4798 I-14.8085 J0.0007
X137.7943 Y14.1636 I-14.4334 J7.2461
G3 X138.0523 Y13.4336 I0.2581 J-0.3194
G1 X202.9414 Y13.4347
G3 X203.204 Y14.1671 J0.4133
G2 X200.421 Y17.0202 I11.6009 J14.0996
X198.4337 Y20.475 I11.1252 J8.6986
X197.7194 Y22.8032 I13.6765 J5.4693
X197.3777 Y25.2144 I16.0681 J3.5072
G1 X197.4809 Y69.5176
G3 X196.5176 Y70.4808 I-0.9632
G1 X146.071
G2 X144.7858 Y71.3377 J1.3923
G3 X143.5005 Y72.1945 I-1.2852 J-0.5355
G1 X142.7681
G3 X141.8048 Y71.2313 J-0.9633
G1 X141.9384 Y26.1233
G2 X138.3981 Y16.9253 I-13.7204 J0.0006
X129.6621 Y12.3626 I-10.5281 J9.5131
G1 X37.0945 Y12.3946
G3 X36.8039 Y12.104 J-0.2907
G1 Y12.0089
G3 X37.0945 Y11.7182 I0.2907
G1 X248.5788 Y11.7218
G3 Y12.3957 J0.337
G1 X212.9049 Y12.2631
G2 X204.1418 Y15.4383 I0.0012 J13.6833
X199.3408 Y23.4273 I9.0919 J10.9009
X199.0589 Y26.1881 I12.9798 J2.7205
G1 X199.1945 Y71.2313
G3 X198.2313 Y72.1945 I-0.9632
G1 X143.5005
G2 X141.628 Y73.3802 J2.0714
G3 X139.4663 Y72.8915 I-1.0264 J-0.4855
G1 X139.5979 Y26.1234
G2 X136.6417 Y18.4724 I-11.3807 J0.0005
X129.3665 Y14.6845 I-8.7718 J7.967
G1 X35.4269 Y14.7352
G3 X34.4635 Y13.7719 J-0.9634
G1 X34.4631 Y10.3408
G3 X35.4262 Y9.3776 I0.9631 J-0.0001
G1 X250.5738 Y9.3812
G3 X251.5369 Y10.3445 J0.9631
G1 X251.5365 Y13.7727
G3 X250.5731 Y14.7361 I-0.9635 J-0.0001
G1 X212.9051 Y14.6036
G2 X205.6175 Y17.2551 I0.001 J11.3437
X201.6316 Y23.9074 I7.6174 J9.0843
X201.3994 Y26.1881 I10.6896 J2.2405
G1 X201.5351 Y73.5718
G3 X200.5719 Y74.5351 I-0.9632
G1 X140.4277
G3 X139.4644 Y73.5718 J-0.9633
G1 X139.4663 Y72.8915
G2 X138.3038 Y71.1375 I-1.8965 J-0.0053
G3 X137.1414 Y69.3835 I0.7344 J-1.7489
G1 X137.2573 Y26.1235
G2 X134.8853 Y20.0194 I-9.0414 J0.0004
X129.0709 Y17.0063 I-7.0156 J6.4214
G1 X33.0866 Y17.0758
G3 X32.1232 Y16.1125 J-0.9634
G1 X32.1222 Y8.0002
G3 X33.0853 Y7.037 I0.9631 J-0.0001
G1 X252.9147 Y7.0407
G3 X253.8778 Y8.0039 J0.9631
G1 X253.8768 Y16.1131
G3 X252.9134 Y17.0765 I-0.9635 J-0.0001
G1 X212.9053 Y16.9442
G2 X207.0931 Y19.0719 I0.0008 J9.0047
X203.9224 Y24.3875 I6.1434 J7.2678
X203.74 Y26.1881 I8.3997 J1.7605
G1 X203.8757 Y75.9124
G3 X202.9124 Y76.8757 I-0.9632
G1 X138.0872
G3 X137.1239 Y75.9124 J-0.9633
G1 X137.1414 Y69.3835
G2 X135.9782 Y67.6289 I-1.8973 J-0.0051
G3 X134.8151 Y65.8743 I0.7345 J-1.7497
G1 X134.9167 Y26.1236
G2 X133.1289 Y21.5664 I-6.703 J0.0003
X128.7753 Y19.3281 I-5.2595 J4.8767
G1 X30.7463 Y19.4163
G3 X29.7829 Y18.453 J-0.9634
G1 X29.7813 Y5.6596
G3 X30.7444 Y4.6964 I0.9631 J-0.0001
G1 X255.2556 Y4.7001
G3 X256.2187 Y5.6634 J0.9631
G1 X256.2171 Y18.4535
G3 X255.2537 Y19.4169 I-0.9635 J-0.0001
G1 X212.9055 Y19.2848
G2 X208.5687 Y20.8887 I0.0006 J6.6666
X206.2132 Y24.8677 I4.6706 J5.4516
X206.1128 Y25.5245 I5.9328 J1.2435
X206.0806 Y26.1881 I6.8247 J0.6637
G1 X206.2163 Y78.253
G3 X205.253 Y79.2162 I-0.9632
G1 X135.7467
G3 X134.7834 Y78.253 J-0.9633
G1 X134.8151 Y65.8743
G2 X133.6513 Y64.1193 I-1.898 J-0.0049
G3 X132.4875 Y62.3642 I0.7345 J-1.7504
G1 X132.5761 Y26.1237
G2 X131.3725 Y23.1135 I-4.3666 J0.0002
X128.4797 Y21.65 I-3.5037 J3.3347
G1 X28.406 Y21.7569
G3 X27.4426 Y20.7936 J-0.9634
G1 X27.4405 Y3.3189
G3 X28.4036 Y2.3558 I0.9631 J-0.0001
G1 X257.5964 Y2.3596
G3 X258.5595 Y3.3228 J0.9631
G1 X258.5574 Y20.7939
G3 X257.594 Y21.7572 I-0.9635 J-0.0001
G1 X212.9057 Y21.6254
G2 X210.0444 Y22.7055 I0.0004 J4.331
X208.504 Y25.3478 I3.2008 J3.636
X208.4409 Y25.7658 I3.6537 J0.7658
X208.4212 Y26.1881 I4.5131 J0.4223
G1 X208.5568 Y80.5936
G3 X207.5936 Y81.5568 I-0.9632
G1 X133.4063
G3 X132.443 Y80.5936 J-0.9633
G1 X132.4875 Y62.3642
G2 X131.2869 Y60.5604 I-1.9481 J-0.0048
G3 X130.0863 Y58.7567 I0.7547 J-1.8038
G1 X130.0847 Y26.1239
G2 X130.0703 Y25.9507 I-1.0437
G1 X130.0378 Y25.758
G2 X129.9857 Y25.5643 I-1.0293 J0.1732
G1 X129.9133 Y25.3716
G2 X129.8234 Y25.1888 I-0.9771 J0.3669
G1 X129.7172 Y25.0173
G2 X129.5968 Y24.8591 I-0.8872 J0.5498
G1 X129.464 Y24.7151
