%
(Made in : Autodesk CAM Post Processor)
(G Code optimized for OpenBuilds OX CNC 1000 x 750 with GRBL V0.9j controller)

(Program Name : 1001)
(1 Operation :)
(1 : Pocket1)
(  Tool : Flat End Mill 3 Flutes, Diam = 3.175mm, Len = 20mm)
(  Spindle : RPM = 30000, set router dial to 6)
(  Machining time : 43 min 13 sec)

G90 G94
G17
G21

(Operation 1 of 1 : Pocket1)

G53 G0 Z5
G54
S30000 M3
G4 P1.0
X202.7957 Y42.5774
Z6
Z3
G1 Z2.4173 F1200
X202.7826 Y42.5704 Z2.3213
X202.7449 Y42.5493 Z2.2343
X202.6873 Y42.5142 Z2.1644
X202.6166 Y42.4661 Z2.1182
X202.5411 Y42.4078 Z2.1
G3 X202.7578 Y42.5566 Z1.7783 I0.9589 J-1.164
X202.997 Y42.6656 Z1.4566 I0.7422 J-1.3128
X203.2516 Y42.7313 Z1.1349 I0.503 J-1.4218
X203.5136 Y42.7519 Z0.8132 I0.2484 J-1.4875
X203.7753 Y42.7266 Z0.4914 I-0.0136 J-1.5081
X204.0286 Y42.6562 Z0.1697 I-0.2753 J-1.4828
X204.2659 Y42.543 Z-0.152 I-0.5286 J-1.4124
X204.4798 Y42.3903 Z-0.4737 I-0.7659 J-1.2992
X204.664 Y42.2027 Z-0.7954 I-0.9798 J-1.1465
X204.8128 Y41.986 Z-1.1171 I-1.164 J-0.9589
X204.9218 Y41.7468 Z-1.4388 I-1.3128 J-0.7422
X204.9875 Y41.4922 Z-1.7605 I-1.4218 J-0.503
X203.5 Y39.7357 Z-2 I-1.4875 J-0.2484
G1 X203.6543 F3500
G3 X204.1828 Y40.2642 J0.5285
G1 X204.1826 Y43.3449
G3 X202.8174 I-0.6826
G1 X202.8172 Y40.2642
G3 X203.3457 Y39.7357 I0.5285
G1 X203.5
G2 X204.9559 Y38.9747 J-1.7732
G3 X206.5235 Y39.4661 I0.7068 J0.4914
G1 X206.5231 Y45.5574
G3 X205.5598 Y46.5207 I-0.9633 J-0.0001
G1 X201.4402
G3 X200.4769 Y45.5574 J-0.9633
G1 X200.4765 Y38.3583
G3 X201.4396 Y37.395 I0.9632 J-0.0001
G1 X205.5604
G3 X206.5235 Y38.3583 J0.9632
G1 Y39.4661
G2 X207.6937 Y41.2217 I1.9018 J0.0001
G3 X208.8639 Y42.9772 I-0.7316 J1.7554
G1 X208.8636 Y47.898
G3 X207.9003 Y48.8613 I-0.9633 J-0.0001
G1 X199.0997
G3 X198.1364 Y47.898 J-0.9633
G1 X198.1357 Y36.0177
G3 X199.0989 Y35.0544 I0.9632 J-0.0001
G1 X207.9011
G3 X208.8643 Y36.0177 J0.9632
G1 X208.8639 Y42.9772
G2 X210.0341 Y44.7328 I1.9018 J0.0001
G3 X211.2043 Y46.4883 I-0.7316 J1.7554
G1 X211.2041 Y50.2387
G3 X210.2408 Y51.2019 I-0.9633 J-0.0001
G1 X196.7592
G3 X195.7959 Y50.2387 J-0.9633
G1 X195.7949 Y33.677
G3 X196.7581 Y32.7138 I0.9632 J-0.0001
G1 X210.2419
G3 X211.2051 Y33.677 J0.9632
G1 X211.2043 Y46.4883
G2 X212.3745 Y48.2438 I1.9018 J0.0001
G3 X213.5447 Y49.9994 I-0.7316 J1.7554
G1 X213.5445 Y52.5793
G3 X212.5812 Y53.5425 I-0.9633 J-0.0001
G1 X194.4188
G3 X193.4555 Y52.5793 J-0.9633
G1 X193.4542 Y31.3364
G3 X194.4173 Y30.3732 I0.9632 J-0.0001
G1 X212.5827
G3 X213.5458 Y31.3364 J0.9632
G1 X213.5447 Y49.9994
G2 X214.7149 Y51.7549 I1.9018 J0.0001
G3 X215.8851 Y53.5105 I-0.7316 J1.7554
G1 X215.885 Y54.9199
G3 X214.9217 Y55.8832 I-0.9633 J-0.0001
G1 X192.0783
G3 X191.115 Y54.9199 J-0.9633
G1 X191.1134 Y28.9958
G3 X192.0766 Y28.0326 I0.9632 J-0.0001
G1 X214.9234
G3 X215.8866 Y28.9958 J0.9632
G1 X215.8851 Y53.5105
G2 X217.0518 Y55.2522 I1.8833 J0.0001
G3 X218.2186 Y56.994 I-0.7178 J1.7425
G1 Y57.2536
G3 X217.2553 Y58.2169 I-0.9633 J-0.0001
G1 X189.7447
G3 X188.7814 Y57.2536 J-0.9633
G1 X188.8258 Y28.1133
G2 X188.7924 Y27.3743 I-8.2205 J0.0005
G3 X188.7387 Y26.6365 I21.1958 J-1.9144
X189.6259 Y25.6988 I0.8872 J-0.0491
G1 X217.3741
G3 X218.2613 Y26.6365 J0.8886
G2 X218.0285 Y41.9448 I190.6149 J10.555
G3 X218.2186 Y56.994 I-613.1579 J15.2713
G2 X219.3597 Y58.5758 I1.6676 J-0.0006
G3 X219.0478 Y60.5011 I-0.3119 J0.9374
G1 X187.4607
G3 X186.4973 Y59.5378 J-0.9633
G1 X186.614 Y28.1134
G2 X186.4809 Y26.2141 I-13.6331 J0.0008
X186.2009 Y24.3308 I-121.4252 J17.0908
G3 X186.9847 Y23.4146 I0.7839 J-0.1228
G1 X220.0153
G3 X220.7991 Y24.3308 J0.7934
G2 X220.5191 Y26.2141 I121.1452 J18.9741
X220.386 Y28.1134 I13.5 J1.9002
G1 X220.5027 Y59.5378
G3 X219.5393 Y60.5011 I-0.9633 J-0.0001
G1 X219.0478
G2 X217.3766 Y61.6152 J1.8105
G3 X215.7054 Y62.7294 I-1.6712 J-0.6963
G1 X185.2325
G3 X184.2692 Y61.7661 J-0.9633
G1 X184.4029 Y28.1136
G2 X184.1278 Y25.0634 I-17.0583 J0.001
X183.4505 Y22.0767 I-34.9301 J6.3503
G3 X184.1306 Y21.1863 I0.6801 J-0.1854
G1 X222.8694
G3 X223.5495 Y22.0767 J0.7049
G2 X222.8722 Y25.0634 I34.2529 J9.3371
X222.5971 Y28.1136 I16.7832 J3.0512
G1 X222.7308 Y61.7661
G3 X221.7675 Y62.7294 I-0.9633 J-0.0001
G1 X215.7054
G2 X214.0905 Y63.8059 J1.7494
G3 X212.4757 Y64.8825 I-1.6148 J-0.6728
G1 X183.0795
G3 X182.1162 Y63.9192 J-0.9633
G1 X182.2498 Y28.1137
G2 X181.7445 Y23.91 I-17.7468 J0.0011
X180.4119 Y19.8912 I-25.428 J6.2013
G3 X180.9799 Y19.0333 I0.568 J-0.2409
G1 X226.0201
G3 X226.5881 Y19.8912 J0.617
G2 X225.6918 Y22.1958 I37.6796 J15.9817
X225.0606 Y24.5867 I14.1204 J5.0064
X224.7502 Y28.1137 I19.8991 J3.5282
G1 X224.8838 Y63.9192
G3 X223.9205 Y64.8825 I-0.9633 J-0.0001
G1 X212.4757
G2 X210.9282 Y65.9141 J1.6764
G3 X209.3808 Y66.9458 I-1.5475 J-0.6448
G1 X181.0164
G3 X180.0531 Y65.9825 J-0.9633
G1 X180.1865 Y28.1138
G2 X179.3192 Y22.7146 I-17.2468 J0.0011
X176.9542 Y17.7841 I-20.2206 J6.6666
G3 X177.3962 Y16.97 I0.442 J-0.2871
G1 X229.6039
G3 X230.0462 Y17.7842 J0.5272
G2 X228.2098 Y21.2173 I19.3708 J12.5694
X227.0922 Y24.9469 I15.494 J6.6749
X226.8135 Y28.1138 I17.8675 J3.168
G1 X226.9469 Y65.9825
G3 X225.9836 Y66.9458 I-0.9633 J-0.0001
G1 X209.3808
G2 X207.9246 Y67.9166 J1.5776
G3 X206.4684 Y68.8874 I-1.4562 J-0.6068
G1 X179.0749
G3 X178.1116 Y67.9241 J-0.9633
G1 X178.2449 Y28.1139
G2 X176.7789 Y21.3834 I-16.1879 J0.001
X172.7723 Y15.7802 I-16.4241 J7.5098
G3 X173.0718 Y15.0283 I0.2995 J-0.3163
G1 X233.928
G3 X234.2276 Y15.7802 J0.4356
G2 X230.8525 Y20.1136 I12.5765 J13.2765
X229.004 Y25.2859 I14.3477 J8.044
X228.7551 Y28.1139 I15.9557 J2.829
G1 X228.8884 Y67.9241
G3 X227.9251 Y68.8874 I-0.9633 J-0.0001
G1 X206.4684
G2 X205.139 Y69.7736 J1.4401
G3 X203.8097 Y70.6598 I-1.3293 J-0.5539
G1 X177.2833
G3 X176.3392 Y69.7158 J-0.944
G1 X176.4697 Y28.114
G2 X173.6961 Y19.4612 I-14.8868 J0.0009
X166.5196 Y13.8877 I-12.9218 J9.2315
G3 X166.6379 Y13.2559 I0.1183 J-0.3048
G1 X240.3723
G3 X240.488 Y13.8871 J0.3262
G2 X236.0885 Y16.4091 I5.7193 J15.0757
X232.7456 Y20.2222 I9.2646 J11.4941
X231.4984 Y22.8161 I12.4372 J7.5771
X230.7519 Y25.5958 I15.5851 J5.6754
X230.5303 Y28.114 I14.2078 J2.5191
G1 X230.6608 Y69.7158
G3 X229.7167 Y70.6598 I-0.944 J-0.0001
G1 X203.8097
X203.7608 Y70.656 Z-1.9922
X203.7131 Y70.6448 Z-1.9845
X203.672 Y70.6284 Z-1.9619
X203.6336 Y70.6065 Z-1.9394
X203.5799 Y70.5615 Z-1.8691
X203.5512 Y70.5267 Z-1.7806
X203.5425 Y70.5139 Z-1.6825
G0 Z5
X335.2407 Y61.8455
Z2.4173
G1 X335.2469 Y61.859 Z2.3213 F1200
X335.2644 Y61.8985 Z2.2343
X335.2895 Y61.9611 Z2.1644
X335.3172 Y62.042 Z2.1182
X335.3426 Y62.1339 Z2.1
G3 X335.2586 Y61.8848 Z1.7783 I-1.4655 J0.3559
X335.1325 Y61.6541 Z1.4566 I-1.3815 J0.6049
X334.9683 Y61.4488 Z1.1349 I-1.2554 J0.8356
X334.771 Y61.2751 Z0.8132 I-1.0913 J1.041
X334.5465 Y61.1384 Z0.4914 I-0.8939 J1.2146
X334.3017 Y61.0427 Z0.1697 I-0.6694 J1.3514
X334.0439 Y60.9909 Z-0.152 I-0.4246 J1.4471
X333.7811 Y60.9847 Z-0.4737 I-0.1668 J1.4989
X333.5212 Y61.0243 Z-0.7954 I0.096 J1.5051
X333.2721 Y61.1083 Z-1.1171 I0.3559 J1.4655
X333.0414 Y61.2343 Z-1.4388 I0.6049 J1.3815
X332.8361 Y61.3985 Z-1.7605 I0.8356 J1.2554
X332.9722 Y63.6963 Z-2 I1.041 J1.0913
X333.2658 Y63.3049 I0.1468 J-0.1957 F3500
X332.9722 Y63.6963 I-0.1468 J0.1957
G2 X331.7654 Y63.3266 I-1.1159 J1.4879
G3 X331.2967 Y62.1546 I-0.0326 J-0.6666
G2 X334.4202 Y58.6802 I-12.0865 J-14.0073
X334.5271 Y58.5147 I-2.195 J-1.5336
G3 X334.632 Y58.348 I3.2982 J1.9602
X335.3382 Y58.5616 I0.3208 J0.2136
G1 X335.338 Y68.4397
G3 X334.6329 Y68.6515 I-0.3843
G2 X330.3073 Y64.0468 I-15.5233 J10.2487
G3 X330.3108 Y62.9482 I0.4165 J-0.548
G2 X331.2967 Y62.1546 I-11.1006 J-14.8008
G1 X331.3361 Y62.1254 Z-1.9922
X331.3795 Y62.1027 Z-1.9845
X331.4212 Y62.0881 Z-1.9619
X331.4646 Y62.0794 Z-1.9394
X331.5347 Y62.0782 Z-1.8691
X331.5791 Y62.0857 Z-1.7806
X331.5941 Y62.0897 Z-1.6825
G0 Z5
X334.6607 Y14.3917
Z2.4173
G1 X334.6677 Y14.3786 Z2.3213 F1200
X334.6888 Y14.3409 Z2.2343
X334.7238 Y14.2833 Z2.1644
X334.7719 Y14.2126 Z2.1182
X334.8302 Y14.1371 Z2.1
G3 X334.6814 Y14.3538 Z1.7783 I1.164 J0.9589
X334.5725 Y14.5931 Z1.4566 I1.3128 J0.7422
X334.5067 Y14.8476 Z1.1349 I1.4218 J0.503
X334.4862 Y15.1097 Z0.8132 I1.4875 J0.2485
X334.5114 Y15.3713 Z0.4914 I1.5081 J-0.0136
X334.5818 Y15.6246 Z0.1697 I1.4828 J-0.2753
X334.695 Y15.8619 Z-0.152 I1.4125 J-0.5286
X334.8477 Y16.0759 Z-0.4737 I1.2992 J-0.7658
X335.0353 Y16.26 Z-0.7954 I1.1465 J-0.9798
X335.252 Y16.4089 Z-1.1171 I0.9589 J-1.164
X335.4912 Y16.5178 Z-1.4388 I0.7422 J-1.3128
X335.7458 Y16.5836 Z-1.7605 I0.503 J-1.4218
X337.5023 Y15.0961 Z-2 I0.2485 J-1.4875
G1 Y15.3709 F3500
G3 X336.7249 Y15.7257 I-0.4697
G2 X336.4322 Y15.4749 I-20.2646 J23.3601
X336.1345 Y15.2299 I-9.3184 J11.0164
G3 X336.3906 Y14.5005 I0.2561 J-0.3197
G1 X336.9739
G3 X337.5023 Y15.029 J0.5285
G1 Y15.0961
G2 X338.1224 Y16.0262 I1.0076
G3 X338.7424 Y16.9563 I-0.3875 J0.9301
G1 Y18.7018
G3 X338.0352 Y18.9395 I-0.3936
G2 X335.0404 Y15.9447 I-12.3567 J9.3618
X331.3356 Y13.8925 I-9.0026 J11.8823
G3 X331.4518 Y13.2604 I0.1161 J-0.3054
G1 X337.7985
G3 X338.7425 Y14.2043 J0.944
G1 X338.7424 Y16.9563
X338.7386 Y17.0052 Z-1.9922
X338.7274 Y17.0528 Z-1.9845
X338.711 Y17.0939 Z-1.9619
X338.6891 Y17.1323 Z-1.9394
X338.6441 Y17.186 Z-1.8691
X338.6093 Y17.2147 Z-1.7806
X338.5965 Y17.2235 Z-1.6825
G0 Z5
X334.2609 Y131.3784
Z2.4173
G1 X334.2527 Y131.3908 Z2.3213 F1200
X334.228 Y131.4263 Z2.2343
X334.1875 Y131.4802 Z2.1644
X334.1328 Y131.5459 Z2.1182
X334.0674 Y131.6153 Z2.1
G3 X334.2366 Y131.4141 Z1.7783 I-1.0653 J-1.0675
X334.3683 Y131.1866 Z1.4566 I-1.2345 J-0.8663
X334.4585 Y130.9397 Z1.1349 I-1.3661 J-0.6388
X334.5044 Y130.6808 Z0.8132 I-1.4563 J-0.3919
X334.5047 Y130.418 Z0.4914 I-1.5022 J-0.133
X334.4593 Y130.159 Z0.1697 I-1.5025 J0.1299
X334.3696 Y129.9119 Z-0.152 I-1.4571 J0.3888
X334.2384 Y129.6841 Z-0.4737 I-1.3675 J0.6359
X334.0697 Y129.4825 Z-0.7954 I-1.2363 J0.8637
X333.8685 Y129.3134 Z-1.1171 I-1.0675 J1.0653
X333.6409 Y129.1817 Z-1.4388 I-0.8663 J1.2345
X333.394 Y129.0915 Z-1.7605 I-0.6388 J1.3662
X331.5012 Y130.4012 Z-2 I-0.3919 J1.4563
G2 X331.6604 Y125.6644 I-37.0111 J-3.6152 F3500
G3 X331.5866 Y120.7516 I162.0404 J-4.8898
X331.9377 Y120.0137 I0.9512 J0.0001
G2 X332.2474 Y119.7606 I-48.825 J-60.0498
X332.5531 Y119.5027 I-9.8083 J-11.9367
X332.6367 Y119.4251 I-1.0919 J-1.2608
G3 X332.7199 Y119.347 I1.4171 J1.4264
X333.4962 Y119.6962 I0.3096 J0.3492
G1 X333.496 Y130.5351
G3 X332.5327 Y131.4983 I-0.9633
G1 X332.3178
G3 X331.4838 Y130.5745 J-0.8384
G2 X331.5012 Y130.4012 I-36.9938 J-3.7885
X330.7115 Y128.932 I-1.4907 J-0.1456
G3 X329.8545 Y127.501 I0.7542 J-1.4239
G2 X329.8416 Y126.5939 I-24.4091 J-0.1072
G3 X329.7458 Y120.7271 I178.166 J-5.8415
X330.7602 Y118.5986 I2.7411 J0.0004
G2 X332.2408 Y117.3049 I-16.8956 J-20.8301
X333.5835 Y115.8685 I-10.4833 J-11.1452
X334.1276 Y115.1227 I-6.2455 J-5.1274
G3 X334.6321 Y114.3496 I75.8375 J48.9407
X335.3371 Y114.5612 I0.3207 J0.2116
G1 X335.3367 Y132.3759
G3 X334.3734 Y133.3391 I-0.9633
G1 X330.0574
G3 X329.3276 Y132.4389 J-0.746
G2 X329.8545 Y127.501 I-23.8822 J-5.0452
X329.0216 Y126.2832 I-1.2985 J-0.0057
G3 X328.1696 Y125.0787 I0.4767 J-1.2408
X328.0976 Y119.7846 I192.6253 J-5.2667
X329.1064 Y117.7934 I2.4703 J0.0004
G2 X334.3146 Y111.7622 I-10.5456 J-14.371
X336.235 Y104.0284 I-14.6055 J-7.732
G1 X336.2321 Y78.916
G2 X333.7283 Y70.1894 I-16.4657 J0.0018
X327.1254 Y63.9586 I-15.2198 J9.5148
G3 X327.1295 Y63.0413 I0.2504 J-0.4575
G2 X333.3806 Y57.3738 I-8.2151 J-15.3421
X336.1755 Y49.4124 I-14.0737 J-9.4121
X336.2079 Y46.1261 I-21.5836 J-1.8562
G3 X336.0995 Y42.8414 I49.6353 J-3.2839
X336.2533 Y42.5298 I0.3926
G1 X336.3531 Y42.4526
G3 X336.9869 Y42.7624 I0.2412 J0.3097
G1 X336.9851 Y134.0243
G3 X336.0218 Y134.9875 I-0.9632
G1 X327.7663
G3 X327.149 Y134.1154 J-0.6546
G2 X328.2313 Y126.9902 I-18.1836 J-6.4069
G3 X328.1696 Y125.0787 I192.5635 J-7.1783
G2 X327.1983 Y123.6978 I-1.5267 J0.0417
G3 X326.2366 Y122.3102 I0.5498 J-1.4081
X326.2118 Y118.6345 I266.5304 J-3.6379
X327.2178 Y116.8016 I2.1732 J0.0003
G2 X332.4209 Y111.3293 I-8.4052 J-13.2013
X334.349 Y104.0286 I-12.8512 J-7.299
G1 X334.3462 Y78.9162
G2 X330.7191 Y69.0887 I-15.1315 J0.0017
X321.6303 Y63.8801 I-11.8287 J10.1063
X317.2111 Y63.6373 I-3.1982 J17.876
G3 X312.7878 Y63.7861 I-4.4215 J-65.61
X312.7877 Y63.2132 J-0.2865
G1 X319.6125 Y63.2126
G2 X326.1262 Y61.5924 I-0.0012 J-13.9084
X331.7611 Y56.5248 I-7.319 J-13.805
X334.2855 Y49.3792 I-12.511 J-8.4387
G1 X334.2135 Y42.8398
G3 X335.1052 Y41.0335 I2.2754
G2 X338.158 Y37.8702 I-8.9756 J-11.7168
G3 X338.8729 Y38.0986 I0.321 J0.2284
G1 X338.871 Y135.9103
G3 X337.9077 Y136.8735 I-0.9633
G1 X324.6824 Y136.8734
G3 X324.2061 Y136.0475 J-0.5503
G2 X326.3571 Y127.4732 I-13.8998 J-8.044
G3 X326.2366 Y122.3102 I266.4099 J-8.8009
G1 X326.2404 Y122.2614 Z-1.9922
X326.2517 Y122.2137 Z-1.9845
X326.268 Y122.1726 Z-1.9619
X326.2899 Y122.1342 Z-1.9394
X326.335 Y122.0805 Z-1.8691
X326.3698 Y122.0518 Z-1.7806
X326.3826 Y122.0431 Z-1.6825
G0 Z5
X20.207 Y128.4525
Z2.4173
G1 X20.2202 Y128.4595 Z2.3213 F1200
X20.2578 Y128.4805 Z2.2343
X20.3155 Y128.5156 Z2.1644
X20.3861 Y128.5637 Z2.1182
X20.4616 Y128.622 Z2.1
G3 X20.245 Y128.4732 Z1.7783 I-0.9589 J1.164
X20.0057 Y128.3642 Z1.4566 I-0.7422 J1.3128
X19.7512 Y128.2985 Z1.1349 I-0.503 J1.4218
X19.4891 Y128.2779 Z0.8132 I-0.2484 J1.4875
X19.2274 Y128.3032 Z0.4914 I0.0136 J1.5081
X18.9741 Y128.3736 Z0.1697 I0.2753 J1.4828
X18.7369 Y128.4868 Z-0.152 I0.5286 J1.4125
X18.5229 Y128.6395 Z-0.4737 I0.7658 J1.2992
X18.3387 Y128.8271 Z-0.7954 I0.9798 J1.1465
X18.1899 Y129.0438 Z-1.1171 I1.164 J0.9589
X18.081 Y129.283 Z-1.4388 I1.3128 J0.7422
X18.0152 Y129.5376 Z-1.7605 I1.4218 J0.503
X19.5027 Y131.2941 Z-2 I1.4875 J0.2484
G1 X19.4129 F3500
G3 X18.7033 Y130.5845 J-0.7096
G1 X18.7035 Y120.1538
G3 X19.4876 Y119.7949 I0.4742
G2 X19.9495 Y120.1816 I12.9049 J-14.9462
G3 X20.2119 Y120.7325 I-0.4472 J0.551
X20.1402 Y125.625 I-165.2365 J0.0235
G2 X20.3078 Y130.5151 I38.4001 J1.132
G3 X19.6015 Y131.2941 I-0.7062 J0.0694
G1 X19.5027
G2 X18.4091 Y132.3188 J1.0959
G3 X16.9363 Y132.5956 I-0.7719 J-0.0503
X16.8459 Y132.1882 I0.8729 J-0.4073
G1 X16.8463 Y115.1862
G3 X17.5607 Y114.9583 I0.3936
G2 X21.2155 Y118.8165 I15.4506 J-10.9759
G3 X22.0693 Y120.5928 I-1.4216 J1.7766
X21.9727 Y126.4298 I-174.9332 J0.0249
G2 X22.4448 Y132.2484 I25.6045 J0.8512
G3 X21.7027 Y133.1515 I-0.742 J0.1467
G1 X17.8091
G3 X16.9363 Y132.5956 J-0.9632
G1 X16.9401 Y132.5467 Z-1.9922
X16.9513 Y132.499 Z-1.9845
X16.9677 Y132.4579 Z-1.9619
X16.9896 Y132.4195 Z-1.9394
X17.0346 Y132.3658 Z-1.8691
X17.0694 Y132.3371 Z-1.7806
X17.0822 Y132.3284 Z-1.6825
G0 Z5
X19.3401 Y63.1576
Z2.4173
G1 X19.3331 Y63.1707 Z2.3213 F1200
X19.312 Y63.2084 Z2.2343
X19.277 Y63.2661 Z2.1644
X19.2289 Y63.3367 Z2.1182
X19.1706 Y63.4122 Z2.1
G3 X19.3194 Y63.1955 Z1.7783 I-1.164 J-0.9589
X19.4284 Y62.9563 Z1.4566 I-1.3128 J-0.7422
X19.4941 Y62.7017 Z1.1349 I-1.4218 J-0.503
X19.5147 Y62.4397 Z0.8132 I-1.4875 J-0.2485
X19.4894 Y62.178 Z0.4914 I-1.5081 J0.0136
X19.419 Y61.9247 Z0.1697 I-1.4828 J0.2753
X19.3058 Y61.6875 Z-0.152 I-1.4125 J0.5286
X19.1531 Y61.4735 Z-0.4737 I-1.2992 J0.7658
X18.9655 Y61.2893 Z-0.7954 I-1.1465 J0.9798
X18.7488 Y61.1405 Z-1.1171 I-0.9589 J1.164
X18.5096 Y61.0315 Z-1.4388 I-0.7422 J1.3128
X18.2551 Y60.9658 Z-1.7605 I-0.503 J1.4218
X16.4985 Y62.4533 Z-2 I-0.2485 J1.4875
G1 Y61.5696 F3500
G3 X17.1949 Y61.3729 I0.376
G2 X17.7032 Y62.1536 I14.9475 J-9.178
G3 X17.7018 Y62.7557 I-0.435 J0.3
G2 X17.1959 Y63.5239 I14.3911 J10.028
G3 X16.4984 Y63.3248 I-0.3203 J-0.1991
G1 X16.4985 Y62.4533
G2 X15.836 Y61.4595 I-1.0766
G3 X15.1735 Y60.4657 I0.4141 J-0.9937
G1 X15.1738 Y43.1314
G3 X15.743 I0.2846
G1 X15.7445 Y51.8554
G2 X18.084 Y60.3734 I16.6861 J-0.0027
X18.5104 Y61.0177 I6.8398 J-4.0623
G3 X18.9641 Y61.6432 I-56.1694 J41.2218
X18.9691 Y63.2564 I-1.13 J0.8101
G2 X16.6841 Y67.5243 I15.9453 J11.2827
X15.6435 Y72.2522 I15.0501 J5.7912
G1 X15.6122 Y104.0967
G2 X17.5424 Y111.8413 I16.5112 J-0.0023
X22.7526 Y117.8875 I15.9427 J-8.4703
G3 X23.743 Y119.851 I-1.4519 J1.9638
X23.6115 Y126.9466 I-190.0973 J0.027
G2 X24.6321 Y133.9696 I19.6452 J0.731
G3 X24.0179 Y134.8254 I-0.6142 J0.2075
G1 X16.116 Y134.8253
G3 X15.172 Y133.8813 J-0.944
G1 X15.1735 Y60.4657
G2 X14.3342 Y59.2067 I-1.3639
G3 X13.4949 Y57.9477 I0.5246 J-1.259
G1 X13.4953 Y39.2353
G3 X14.2312 Y38.9709 I0.4155
G2 X16.7524 Y41.3892 I11.5934 J-9.5636
G3 X17.4216 Y42.7421 I-1.0336 J1.3532
X17.3268 Y51.2784 I-378.6299 J0.0622
G2 X19.4949 Y59.5354 I15.4868 J0.3467
X20.284 Y60.6684 I8.2019 J-4.8713
X21.1654 Y61.7311 I46.1635 J-37.3918
G3 X21.1626 Y63.1695 I-0.845 J0.7176
G2 X18.495 Y67.4547 I12.7319 J10.8985
X17.3158 Y72.3627 I13.7211 J5.8926
G1 X17.2881 Y104.0965
G2 X19.2225 Y111.4506 I14.9542 J-0.0021
X24.4183 Y117.003 I14.0449 J-7.9354
G3 X25.4215 Y118.8608 I-1.2191 J1.8581
G1 X25.2872 Y128.5855
G2 X25.7999 Y132.2405 I13.2965 J-0.0019
X27.1673 Y135.6686 I17.6103 J-5.0376
G3 X26.6607 Y136.5041 I-0.5067 J0.2641
G1 X14.4566 Y136.504
G3 X13.4933 Y135.5407 J-0.9632
G1 X13.4949 Y57.9477
X13.4987 Y57.8988 Z-1.9922
X13.5099 Y57.8511 Z-1.9845
X13.5263 Y57.8101 Z-1.9619
X13.5482 Y57.7716 Z-1.9394
X13.5932 Y57.7179 Z-1.8691
X13.628 Y57.6892 Z-1.7806
X13.6408 Y57.6805 Z-1.6825
G0 Z5
X14.1801 Y12.9259
Z2.4173
G1 X14.1947 Y12.9228 Z2.3213 F1200
X14.2371 Y12.9145 Z2.2343
X14.3037 Y12.904 Z2.1644
X14.3887 Y12.8951 Z2.1182
X14.484 Y12.8907 Z2.1
G3 X14.2225 Y12.9172 Z1.7783 I0.0207 J1.508
X13.9695 Y12.9887 Z1.4566 I0.2822 J1.4815
X13.7328 Y13.1031 Z1.1349 I0.5352 J1.41
X13.5195 Y13.2568 Z0.8132 I0.7719 J1.2956
X13.3362 Y13.4452 Z0.4914 I0.9851 J1.1419
X13.1884 Y13.6626 Z0.1697 I1.1685 J0.9535
X13.0806 Y13.9024 Z-0.152 I1.3163 J0.7361
X13.016 Y14.1572 Z-0.4737 I1.4241 J0.4963
X12.9967 Y14.4194 Z-0.7954 I1.4887 J0.2415
X13.0232 Y14.6809 Z-1.1171 I1.508 J-0.0207
X13.0947 Y14.9339 Z-1.4388 I1.4815 J-0.2822
X13.209 Y15.1706 Z-1.7605 I1.41 J-0.5352
X15.4794 Y15.5495 Z-2 I1.2956 J-0.7719
G2 X15.2733 Y15.7272 I10.0431 J11.8565 F3500
G3 X14.4974 Y15.3758 I-0.3084 J-0.3514
G1 Y15.0263
G3 X15.0259 Y14.4979 I0.5285
G1 X15.6213
G3 X15.8746 Y15.2257 J0.408
G2 X15.4794 Y15.5495 I9.648 J12.1802
X15.1748 Y16.6562 I0.6575 J0.7763
G3 X14.9388 Y17.7795 I-1.0595 J0.3639
G2 X13.9611 Y18.9548 I11.0011 J10.1455
G3 X13.2554 Y18.7199 I-0.3137 J-0.2349
G1 X13.2555 Y14.1999
G3 X14.1995 Y13.2559 I0.944
G1 X20.5621
G3 X20.6804 Y13.8877 J0.327
G2 X16.9651 Y15.9497 I5.6494 J14.5576
X14.9388 Y17.7795 I8.9748 J11.9754
X14.7625 Y18.9772 I0.7894 J0.728
G3 X14.6669 Y20.184 I-1.0734 J0.5221
G2 X13.418 Y22.3595 I11.4577 J8.0237
X14.1048 Y36.0288 I13.422 J6.1775
X15.9074 Y38.3734 I10.3306 J-6.0772
X18.161 Y40.2885 I12.0667 J-11.9164
G3 X19.1433 Y42.1894 I-1.3489 J1.9013
G1 X19.0119 Y51.688
G2 X20.2639 Y57.2656 I13.0588 J-0.0021
X23.6775 Y61.8507 I13.1049 J-6.1931
G3 X23.6814 Y63.0422 I-0.5373 J0.5975
G2 X20.259 Y67.6939 I9.9059 J10.873
X19.0083 Y73.3319 I12.0747 J5.6361
G1 X19.0126 Y104.0962
G2 X20.9777 Y111.0335 I13.2342 J-0.0018
X26.1599 Y116.0468 I12.4065 J-7.6395
G3 X27.1431 Y117.7402 I-0.967 J1.6937
G1 X27.0117 Y128.5852
G2 X27.9283 Y133.3304 I12.7502 J-0.0018
X30.4329 Y137.4637 I13.796 J-5.5342
G3 X30.0821 Y138.2259 I-0.3508 J0.3003
G1 X12.7155 Y138.2257
G3 X11.7715 Y137.2817 J-0.944
G1 X11.774 Y12.7184
G3 X12.718 Y11.7744 I0.944
G1 X339.2845
G3 X340.2285 Y12.7184 J0.944
G1 X340.226 Y137.2846
G3 X339.282 Y138.2286 I-0.944
G1 X321.9156 Y138.2284
G3 X321.5649 Y137.4663 J-0.4617
G2 X324.9756 Y127.8978 I-10.7801 J-9.2347
G3 X324.8569 Y117.7402 I429.1371 J-10.0966
X325.8401 Y116.0468 I1.9503 J0.0003
G2 X331.0333 Y111.0013 I-7.1944 J-12.6002
X332.9912 Y104.0305 I-11.4306 J-6.9711
G1 X332.9884 Y78.9164
G2 X329.6779 Y69.9603 I-13.774 J0.0015
X321.3912 Y65.2166 I-10.7876 J9.2352
X316.5992 Y64.9666 I-3.3914 J18.9562
G3 X311.8038 Y65.1412 I-4.7935 J-65.7339
X310.86 Y64.1972 J-0.9439
G1 X310.8601 Y62.8023
G3 X311.8043 Y61.8582 I0.9442 J0.0001
X318.7369 Y61.9635 I0.0194 J227.0363
G2 X325.4902 Y60.3928 I0.4122 J-13.5311
X330.6287 Y55.7756 I-6.6832 J-12.6058
X332.9327 Y49.2629 I-11.3791 J-7.6894
G1 X332.8585 Y42.1928
G3 X333.8346 Y40.29 I2.3427
G2 X339.4878 Y24.8747 I-8.5249 J-11.8705
X326.9633 Y14.2574 I-13.6571 J3.4145
G1 X245.9194 Y14.2114
G2 X236.9478 Y17.54 I0.0004 J13.7559
X232.2106 Y25.8544 I9.2947 J10.8023
X232.0118 Y28.1141 I12.7491 J2.2605
G1 X232.1422 Y71.1973
G3 X231.1981 Y72.1413 I-0.944 J-0.0001
G1 X175.8019
G3 X174.8578 Y71.1973 J-0.944
G1 X174.9882 Y28.1141
G2 X172.0105 Y19.573 I-13.7405 J0.0008
X164.4295 Y14.6388 I-11.1626 J8.8592
X162.7233 Y14.3142 I-3.3067 J12.7347
X160.9897 Y14.2083 I-1.7336 J14.1452
G1 X24.4913 Y14.3156
G2 X14.6669 Y20.184 I1.6333 J13.8922
X14.6635 Y21.8432 I1.1881 J0.832
G3 X14.8367 Y23.4933 I-1.4156 J0.9827
G2 X15.6186 Y35.1383 I12.0051 J5.0427
X17.5161 Y37.5103 I9.1861 J-5.4039
X19.9322 Y39.3513 I10.2066 J-10.889
G3 X20.8994 Y41.0767 I-1.0561 J1.7257
G1 X20.7681 Y51.6877
G2 X22.4259 Y57.6251 I11.4679 J-0.0019
X26.7855 Y61.9833 I11.0398 J-6.6837
G3 X26.7837 Y62.9161 I-0.2818 J0.4659
G2 X22.5966 Y67.017 I6.4822 J10.8064
X20.7889 Y72.5922 I10.1255 J6.3637
G1 X20.7688 Y104.096
G2 X22.76 Y110.5914 I11.5951 J-0.0016
X27.9361 Y114.9919 I10.4941 J-7.0992
G3 X28.8992 Y116.4982 I-0.6967 J1.5066
X28.8336 Y122.5416 I-274.6029 J0.039
G2 X28.7679 Y128.585 I274.5373 J6.0043
X30.6643 Y134.9185 I11.5301 J-0.0016
X35.5933 Y139.3245 I10.757 J-7.0738
G3 X35.436 Y139.9821 I-0.1574 J0.31
G1 X10.9592 Y139.9819
G3 X10.0153 Y139.038 J-0.944
G1 X10.0178 Y10.9621
G3 X10.9618 Y10.0182 I0.944
G1 X341.0408
G3 X341.9848 Y10.9621 J0.944
G1 X341.9822 Y139.0409
G3 X341.0382 Y139.9848 I-0.944
G1 X316.5587 Y139.9846
G3 X316.4015 Y139.3271 J-0.3475
G2 X320.7666 Y135.7176 I-5.8241 J-11.4873
X323.06 Y130.5385 I-9.3769 J-7.2496
X323.2321 Y128.5849 I-11.0196 J-1.9551
G1 X323.1008 Y116.4982
G3 X324.0639 Y114.9919 I1.6599 J0.0002
G2 X328.8532 Y111.1121 I-5.2758 J-11.4085
X331.1517 Y105.3931 I-9.5969 J-7.1784
G1 X331.2322 Y78.9165
G2 X328.3312 Y71.0875 I-12.0183 J0.0013
X321.0819 Y66.9454 I-9.441 J8.1084
X319.6195 Y66.7901 I-1.8203 J10.1741
X318.149 Y66.7646 I-1.4717 J42.4841
G1 X310.0474 Y66.8974
G3 X309.1035 Y65.9534 J-0.9439
G1 X309.1041 Y61.0462
G3 X310.0482 Y60.1021 I0.9442 J0.0001
G1 X320.7685 Y60.1028
G2 X327.9287 Y56.3695 I-1.6404 J-11.879
X331.194 Y48.984 I-9.1311 J-8.4516
G1 X331.1022 Y41.0735
G3 X332.0762 Y39.3476 I2.0163
G2 X337.0131 Y33.6513 I-6.3195 J-10.4645
X337.8601 Y26.161 I-12.215 J-5.1742
X334.0725 Y19.2022 I-12.2902 J2.1791
X326.8221 Y16.008 I-8.2215 J8.836
G1 X245.9194 Y15.9677
G2 X238.076 Y18.8859 I0.0003 J12.0003
X233.9399 Y26.161 I8.1672 J9.4566
X233.768 Y28.1142 I11.0198 J1.9539
G1 X233.8983 Y72.9536
G3 X232.9543 Y73.8976 I-0.944 J-0.0001
G1 X174.0457
G3 X173.1017 Y72.9536 J-0.944
G1 X173.232 Y28.1142
G2 X170.6213 Y20.6476 I-11.985 J0.0007
X163.9881 Y16.3386 I-9.7736 J7.7854
X162.5008 Y16.0563 I-2.8661 J11.0377
X160.9897 Y15.9646 I-1.5111 J12.4066
G1 X24.6964 Y16.0598
G2 X14.9909 Y23.1408 I1.4284 J12.1497
X14.8367 Y23.4933 I11.8509 J5.3952
X15.1377 Y24.9087 I1.1691 J0.4911
G3 X15.579 Y26.2869 I-1.0204 J1.0865
G2 X16.943 Y34.3592 I11.2648 J2.2479
X18.9052 Y36.7271 I8.3083 J-4.8876
X21.4597 Y38.4391 I7.9171 J-9.0515
G3 X22.4386 Y40.0202 I-0.7878 J1.5813
X22.3717 Y45.8538 I-250.7616 J0.0412
G2 X22.3048 Y51.6875 I250.6947 J5.7925
X24.7819 Y58.4415 I10.4507 J-0.0017
X30.9754 Y62.1013 I8.3672 J-7.0892
X32.408 Y62.2718 I1.7651 J-8.7282
X33.8505 Y62.2988 I1.4458 J-38.7017
G1 X42.7623 Y62.1638
G3 Y62.7367 J0.2864
G1 X31.5112 Y62.7089
G2 X25.1316 Y66.0584 I1.3664 J10.3525
X22.3222 Y72.6935 I8.1393 J7.3586
G1 X22.3055 Y104.0958
G2 X24.3064 Y110.1615 I10.1992 J-0.0014
X29.4518 Y113.9459 I8.6995 J-6.4381
G3 X30.4384 Y115.3333 I-0.4824 J1.3876
G1 X30.3046 Y128.5848
G2 X32.9472 Y135.5395 I10.4767 J-0.0015
X39.4863 Y139.0882 I8.1687 J-7.2534
X40.9265 Y139.1962 I1.4403 J-9.547
G1 X311.0734
G2 X317.9333 Y136.6376 J-10.4753
X321.547 Y130.27 I-7.1764 J-8.2819
X321.6954 Y128.5847 I-9.5066 J-1.6867
G1 X321.5616 Y115.3333
G3 X322.5482 Y113.9459 I1.4691 J0.0002
G2 X329.6265 Y105.206 I-3.5019 J-10.0723
G1 X329.6955 Y78.9167
G2 X327.1529 Y72.0739 I-10.4822 J0.0012
X320.8113 Y68.4581 I-8.2628 J7.1227
X319.4836 Y68.3207 I-1.5908 J8.8918
X318.149 Y68.3013 I-1.336 J45.8383
G1 X308.5271 Y68.4367
G3 X307.564 Y67.4735 J-0.9631
G1 X307.5649 Y59.5262
G3 X308.5283 Y58.5629 I0.9635 J0.0001
G1 X320.5583 Y58.5806
G2 X326.8146 Y55.3112 I-1.4302 J-10.3574
X329.663 Y48.8523 I-8.0176 J-7.3933
G1 X329.5629 Y40.0268
G3 X330.5371 Y38.4403 I1.779
G2 X333.9504 Y21.2729 I-5.0333 J-9.9237
X330.3098 Y18.5032 I-8.344 J7.1901
X325.8463 Y17.5023 I-4.4636 J9.4519
G1 X245.9195 Y17.5043
G2 X239.0632 Y20.0635 I0.0003 J10.4644
X235.453 Y26.4293 I7.1808 J8.2791
X235.3047 Y28.1143 I9.5067 J1.6856
G1 X235.4376 Y74.4737
G3 X234.4743 Y75.437 I-0.9633 J-0.0001
G1 X172.5257
G3 X171.5624 Y74.4737 J-0.9633
G1 X171.6953 Y28.1143
G2 X169.4059 Y21.5878 I-10.4491 J0.0006
X163.6019 Y17.826 I-8.5584 J6.8461
X162.3062 Y17.5805 I-2.4807 J9.5536
X160.9897 Y17.5012 I-1.3164 J10.8864
G1 X24.8758 Y17.586
G2 X16.3672 Y23.8244 I1.2492 J10.6256
X15.579 Y26.2869 I10.4767 J4.7105
X16.1227 Y27.5323 I1.1655 J0.2326
G3 X16.7967 Y28.7123 I-0.7399 J1.2051
G2 X18.183 Y33.6298 I10.0497 J-0.1789
X20.226 Y35.9646 I7.1881 J-4.2286
X22.9164 Y37.5097 I6.6909 J-8.5354
G3 X23.877 Y38.9242 I-0.5614 J1.4147
G1 X23.7433 Y51.6873
G2 X25.8953 Y57.5306 I9.0131 J-0.0015
X31.2605 Y60.6913 I7.254 J-6.1794
X32.5513 Y60.8404 I1.5251 J-7.5414
X33.8506 Y60.8602 I1.303 J-42.7798
G1 X43.8099 Y60.7253
G3 X44.7733 Y61.6887 I-0.0001 J0.9635
G1 X44.7735 Y63.2117
G3 X43.8103 Y64.1751 I-0.9633 J0.0001
G1 X31.6994 Y64.135
G2 X26.1815 Y67.0419 I1.1783 J8.9274
X23.7577 Y72.7884 I7.0906 J6.3752
G1 X23.7441 Y104.0956
G2 X25.8039 Y109.7426 I8.774 J-0.0012
X30.9275 Y112.886 I7.2868 J-6.1299
G3 X31.8768 Y114.0821 I-0.279 J1.1962
G1 X31.7431 Y128.5845
G2 X34.0376 Y134.6012 I9.0389 J-0.0013
X39.7009 Y137.6657 I7.0785 J-6.3159
X40.9265 Y137.7576 I1.2257 J-8.1245
G1 X311.0734
G2 X317.0092 Y135.5351 J-9.0376
X320.1305 Y130.0187 I-6.2533 J-7.1796
X320.2569 Y128.5845 I-8.0901 J-1.4354
G1 X320.1232 Y114.0821
G3 X321.0725 Y112.886 I1.2284 J0.0002
G2 X326.2099 Y109.7104 I-2.1518 J-9.2245
X328.2598 Y104.0293 I-6.8448 J-5.6801
G1 X328.257 Y78.9169
G2 X326.0497 Y72.9973 I-9.0443 J0.001
X320.5579 Y69.8741 I-7.1598 J6.2001
X319.3564 Y69.7536 I-1.3809 J7.7183
X318.1489 Y69.7398 I-1.209 J52.8385
X312.6187 Y69.8075 I-0.0065 J225.363
G3 X307.0883 Y69.8752 I-5.5238 J-225.2952
X306.1252 Y68.912 J-0.9631
G1 X306.1265 Y58.0878
G3 X307.0899 Y57.1244 I0.9635 J0.0001
G1 X320.3615 Y57.1556
G2 X325.7715 Y54.3204 I-1.2336 J-8.9332
X328.2297 Y48.729 I-6.9754 J-6.4027
G1 X328.1243 Y38.92
G3 X329.1008 Y37.5046 I1.5141
G2 X333.4118 Y34.175 I-3.331 J-8.7687
X335.0601 Y28.9832 I-7.2476 J-5.1584
X333.993 Y24.0742 I-12.0341 J0.0452
X330.6555 Y20.3195 I-7.6876 J3.4728
X328.3448 Y19.3024 I-5.1327 J8.528
X325.8463 Y18.9408 I-2.4985 J8.4507
G1 X245.9195 Y18.9429
G2 X239.9874 Y21.1659 I0.0002 J9.0268
X236.8695 Y26.6805 I6.2576 J7.1769
X236.7433 Y28.1144 I8.0903 J1.4345
G1 X236.8761 Y75.9123
G3 X235.9128 Y76.8755 I-0.9633 J-0.0001
G1 X171.0872
G3 X170.1239 Y75.9123 J-0.9633
G1 X170.2567 Y28.1144
G2 X168.268 Y22.468 I-9.0116 J0.0006
X163.2404 Y19.2184 I-7.4208 J5.967
X162.1239 Y19.0075 I-2.1202 J8.1653
X160.9897 Y18.9398 I-1.1342 J9.4647
G1 X25.0438 Y19.0147
G2 X17.6556 Y24.4643 I1.0816 J9.1994
X16.7967 Y28.7123 I9.1908 J4.069
X18.1989 Y30.5609 I1.9659 J-0.035
G3 X19.982 Y32.0455 I-0.847 J2.8305
G2 X20.2004 Y32.443 I6.8707 J-3.5159
X22.3724 Y34.6661 I5.5887 J-3.2877
X25.2952 Y35.7228 I3.9639 J-6.3932
G3 X26.2172 Y36.7824 I-0.1481 J1.0598
G1 X26.0839 Y51.6869
G2 X27.7069 Y56.0484 I6.6751 J-0.0011
X31.7244 Y58.3971 I5.443 J-4.7002
X32.7846 Y58.5114 I1.1486 J-5.6799
X33.8508 Y58.5196 I1.0723 J-70.2033
G1 X46.1503 Y58.3849
G3 X47.1137 Y59.3483 I-0.0001 J0.9635
G1 X47.1143 Y65.552
G3 X46.1512 Y66.5154 I-0.9633 J0.0001
G1 X32.0057 Y66.4555
G2 X27.8897 Y68.6421 I0.8724 J6.6096
X26.0932 Y72.9427 I5.3856 J4.7752
G1 X26.0847 Y104.0953
G2 X27.8762 Y108.5681 I6.4815 J-0.0009
X32.1657 Y110.7627 I5.2859 J-5.0422
X32.7093 Y110.7914 I0.4418 J-3.2086
G3 X33.2536 Y110.7829 I0.5417 J17.221
X34.2171 Y111.7463 I-0.0001 J0.9636
G1 X34.0837 Y128.5842
G2 X35.8117 Y133.0744 I6.7003 J-0.001
X40.0501 Y135.3513 I5.3047 J-4.7914
X40.9266 Y135.417 I0.8765 J-5.8101
G1 X311.0734
G2 X315.5056 Y133.7413 J-6.6993
X317.8259 Y129.6098 I-4.7522 J-5.3862
X317.9163 Y128.5842 I-5.7855 J-1.0265
G1 X317.7829 Y111.7463
G3 X318.7464 Y110.7829 I0.9636 J0.0001
G2 X321.2348 Y110.4611 I-0.0015 J-9.7947
X323.4541 Y109.2905 I-1.4089 J-5.3602
X325.0574 Y107.3373 I-4.8955 J-5.6529
X325.8518 Y104.9384 I-5.5895 J-3.1821
G1 X325.9164 Y78.9171
G2 X324.2549 Y74.4996 I-6.7055 J0.0007
X320.1457 Y72.1782 I-5.3654 J4.6997
X319.1495 Y72.0851 I-1.0518 J5.8786
X318.1489 Y72.0804 I-1.0037 J108.0269
X311.4482 Y72.1481 I-0.0096 J330.8304
G3 X304.7475 Y72.2158 I-6.6911 J-330.7627
X303.7844 Y71.2525 J-0.9631
G1 X303.7861 Y55.7474
G3 X304.7495 Y54.784 I0.9635 J0.0001
G1 X320.0414 Y54.8369
G2 X324.0745 Y52.7085 I-0.9137 J-6.6165
X325.8977 Y48.5285 I-5.2806 J-4.7909
G1 X325.7838 Y36.791
G3 X326.7196 Y35.7167 I1.0846
G2 X331.9093 Y31.9932 I-0.9397 J-6.7882
X332.2132 Y25.6132 I-7.0678 J-3.5339
X329.701 Y22.4605 I-6.2749 J2.4227
X325.8461 Y21.2814 I-3.8547 J5.7118
G1 X245.9196 Y21.2835
G2 X241.4911 Y22.9597 I0.0002 J6.6886
X239.1741 Y27.0891 I4.7566 J5.3836
X239.0839 Y28.1146 I5.7856 J1.0258
G1 X239.2165 Y78.2529
G3 X238.2532 Y79.2161 I-0.9633 J-0.0001
G1 X168.7468
G3 X167.7835 Y78.2529 J-0.9633
G1 X167.9161 Y28.1146
G2 X166.4166 Y23.9001 I-6.6735 J0.0004
X162.6521 Y21.4838 I-5.5702 J4.5376
X161.8274 Y21.3293 I-1.5345 J5.9098
X160.9897 Y21.2804 I-0.8377 J7.1567
G1 X25.3171 Y21.3393
G2 X19.7518 Y25.5055 I0.809 J6.8808
X19.982 Y32.0455 I7.1009 J3.0241
X22.1937 Y33.0941 I1.7882 J-0.9151
G3 X24.637 Y33.2407 I0.9591 J4.4475
G2 X26.0841 Y33.4846 I1.4542 J-4.214
X26.8389 Y33.4622 I0.0194 J-12.0874
G3 X27.5937 Y33.4398 I0.7354 J12.065
X28.5575 Y34.405 I-0.0015 J0.9653
X28.491 Y43.0457 I-550.1087 J0.0903
G2 X28.4246 Y51.6865 I550.0422 J8.5504
X29.5184 Y54.5663 I4.3395 J-0.0007
X32.1884 Y56.1029 I3.6327 J-3.224
X33.0178 Y56.1824 I0.7957 J-3.9348
G3 X33.851 Y56.179 I0.8248 J98.2606
G1 X48.4907 Y56.0445
G3 X49.454 Y57.0079 I-0.0001 J0.9635
G1 X49.4552 Y67.8923
G3 X48.492 Y68.8557 I-0.9633 J0.0001
G1 X32.312 Y68.776
G2 X29.5978 Y70.2423 I0.5668 J4.2944
X28.4287 Y73.097 I3.6838 J3.1754
G1 X28.4253 Y104.0949
G2 X29.6244 Y107.0596 I4.2658 J-0.0006
X32.4763 Y108.5065 I3.5197 J-3.4034
X34.0362 Y108.5278 I0.8661 J-6.2903
G3 X35.5939 Y108.4426 I1.5555 J14.1517
X36.5574 Y109.4061 I-0.0001 J0.9636
G1 X36.4244 Y128.5839
G2 X37.5859 Y131.5477 I4.3636 J-0.0006
X40.3993 Y133.0368 I3.5313 J-3.2691
X40.9266 Y133.0764 I0.5274 J-3.4957
G1 X311.0734
G2 X314.002 Y131.9474 J-4.3631
X315.5213 Y129.2009 I-3.2539 J-3.5934
X315.5757 Y128.5839 I-3.4809 J-0.6176
G1 X315.4427 Y109.4061
G3 X316.4061 Y108.4426 I0.9636 J0.0001
X319.247 Y108.4791 I0.0164 J109.1825
G2 X321.9218 Y107.5211 I0.1017 J-3.9292
X322.9917 Y106.2366 I-3.3798 J-3.9027
X323.5286 Y104.6534 I-3.541 J-2.0835
G1 X323.5757 Y78.9174
G2 X322.4601 Y76.002 I-4.3684 J0.0005
X319.7335 Y74.4822 I-3.5713 J3.2014
X318.9425 Y74.4165 I-0.743 J4.1529
G3 X318.1488 Y74.421 I-0.7917 J-69.5736
G1 X302.4066 Y74.5563
G3 X301.4435 Y73.5931 J-0.9631
G1 X301.4458 Y53.407
G3 X302.4092 Y52.4436 I0.9635 J0.0001
G1 X319.7212 Y52.5183
G2 X322.3774 Y51.0965 I-0.594 J-4.3018
X323.5657 Y48.3279 I-3.5881 J-3.1794
G1 X323.4432 Y34.406
G3 X324.4065 Y33.4425 I0.9635
X326.1788 Y33.4575 I0.0183 J102.6559
G2 X327.9006 Y33.0373 I0.0597 J-3.4934
X330.4465 Y29.413 I-2.3604 J-4.3645
X329.2193 Y25.1573 I-5.2473 J-0.7916
X328.0284 Y24.2026 I-3.1644 J2.7268
X326.5901 Y23.6919 I-2.3982 J4.4737
X325.8463 Y23.622 I-0.7324 J3.8031
G1 X245.9196 Y23.6241
G2 X242.9948 Y24.7534 I0.0001 J4.3526
X241.4788 Y27.4977 I3.2584 J3.5909
X241.4245 Y28.1147 I3.4809 J0.6172
G1 X241.557 Y80.5935
G3 X240.5937 Y81.5567 I-0.9633 J-0.0001
G1 X166.4063
G3 X165.443 Y80.5935 J-0.9633
G1 X165.5755 Y28.1147
G2 X164.5653 Y25.3322 I-4.3378 J0.0003
X162.0639 Y23.7493 I-3.7203 J3.1112
X161.5309 Y23.651 I-0.9514 J3.664
X160.9897 Y23.621 I-0.5411 J4.866
G1 X25.5904 Y23.6639
G2 X21.8481 Y26.5467 I0.537 J4.5676
X22.2178 Y31.2562 I5.0174 J1.9753
X23.8553 Y32.8833 I3.9166 J-2.304
X24.637 Y33.2407 I2.2359 J-3.8566
X26.9426 Y32.3472 I0.6246 J-1.8099
G3 X29.0697 Y31.0864 I2.1233 J1.1574
G1 X29.7443 Y31.0875
X30.9127
X30.916 Y51.6861
G2 X30.9322 Y51.869 I1.0438 J-0.0002
G1 X30.9665 Y52.0617
G2 X31.0202 Y52.2539 I1.0276 J-0.1831
G1 X31.0933 Y52.4437
G2 X31.1698 Y52.6014 I0.9739 J-0.3753
G1 X31.245 Y52.7279
G2 X31.334 Y52.8551 I0.8974 J-0.533
G1 X31.4373 Y52.9817
G2 X31.5578 Y53.1064 I0.8084 J-0.6602
G1 X31.6958 Y53.2273
G2 X31.829 Y53.3265 I0.6879 J-0.785
G1 X31.9551 Y53.4056
G2 X32.1122 Y53.4865 I0.5547 J-0.8842
G1 X32.3013 Y53.5644
G2 X32.492 Y53.6224 I0.3976 J-0.9651
G1 X32.6822 Y53.6609
G2 X32.8827 Y53.6816 I0.2069 J-1.023
G1 X33.8449 Y53.6875
X33.8512
X51.11 Y53.689
X51.2305 Y53.7031
X51.3386 Y53.7321
X51.4357 Y53.7743
X51.5059 Y53.8171
X51.5648 Y53.8626
X51.6161 Y53.9125
X51.6993 Y54.0179
X51.7173 Y54.0473
X51.7591 Y54.1347
X51.7839 Y54.2082
X51.8055 Y54.3121
X51.8095 Y54.3525
X51.8112 Y70.5151
X51.8032 Y70.606
X51.7951 Y70.6502
X51.7709 Y70.734
X51.7401 Y70.8073
X51.6834 Y70.9043
X51.632 Y70.97
X51.5539 Y71.046
X51.482 Y71.0992
X51.4263 Y71.1314
X51.3432 Y71.1667
X51.2305 Y71.1969
X51.1099 Y71.2111
X32.9531 Y71.2135
G2 X32.8167 Y71.2225 I0.0001 J1.0438
G1 X32.638 Y71.2461
G2 X32.4727 Y71.2817 I0.1366 J1.0348
G1 X32.3216 Y71.3274
G2 X32.1698 Y71.3865 I0.3019 J0.9992
G1 X32.0186 Y71.4594
G2 X31.8616 Y71.553 I0.4536 J0.94
G1 X31.7011 Y71.6688
G2 X31.5687 Y71.7823 I0.6107 J0.8464
G1 X31.4628 Y71.8897
G2 X31.3515 Y72.0231 I0.7431 J0.7329
G1 X31.2385 Y72.1842
G2 X31.1452 Y72.3464 I0.8544 J0.5995
G1 X31.0708 Y72.5074
G2 X31.0077 Y72.6847 I0.9477 J0.4373
G1 X30.9581 Y72.8774
G2 X30.9275 Y73.0686 I1.0108 J0.2601
G1 X30.9148 Y73.2613
X30.9125 Y73.3303
X30.9168 Y104.0946
G2 X30.9345 Y104.2861 I1.0437 J-0.0001
G1 X30.9705 Y104.4787
G2 X31.0253 Y104.6693 I1.026 J-0.1916
G1 X31.0987 Y104.8559
G2 X31.1751 Y105.0109 I0.9713 J-0.3822
G1 X31.2498 Y105.1354
G2 X31.3379 Y105.2604 I0.8949 J-0.5372
G1 X31.4401 Y105.3848
G2 X31.5635 Y105.5115 I0.8067 J-0.6623
G1 X31.7092 Y105.6378
G2 X31.875 Y105.7551 I0.6833 J-0.789
G1 X32.0603 Y105.861
G2 X32.2469 Y105.9445 I0.5175 J-0.9064
G1 X32.4323 Y106.0064
G2 X32.6208 Y106.0505 I0.3309 J-0.9899
G1 X32.8109 Y106.0767
G2 X32.9531 Y106.0865 I0.1424 J-1.034
G1 X38.9126 Y106.0873
X38.9158 Y128.5835
G2 X38.9319 Y128.7658 I1.0438 J-0.0002
G1 X38.9667 Y128.9621
G2 X39.017 Y129.1459 I1.0277 J-0.1824
G1 X39.0808 Y129.3162
G2 X39.1665 Y129.4923 I0.9774 J-0.3662
G1 X39.2755 Y129.6716
G2 X39.3942 Y129.8305 I0.8918 J-0.5424
G1 X39.5195 Y129.9687
G2 X39.6592 Y130.0971 I0.7731 J-0.7012
G1 X39.8125 Y130.2141
G2 X39.9669 Y130.3119 I0.6334 J-0.8296
G1 X40.1203 Y130.3911
G2 X40.2793 Y130.4573 I0.479 J-0.9273
G1 X40.443 Y130.51
G2 X40.6073 Y130.5486 I0.32 J-0.9935
G1 X40.7709 Y130.5732
G2 X40.9266 Y130.5849 I0.1557 J-1.0321
G1 X311.0734
G2 X311.2291 Y130.5732 J-1.0437
G1 X311.3928 Y130.5485
G2 X311.557 Y130.51 I-0.1557 J-1.0321
G1 X311.7207 Y130.4573
G2 X311.8798 Y130.3911 I-0.32 J-0.9935
G1 X312.0331 Y130.3119
G2 X312.1875 Y130.2141 I-0.479 J-0.9273
G1 X312.3408 Y130.0971
G2 X312.4805 Y129.9687 I-0.6334 J-0.8296
G1 X312.6059 Y129.8305
G2 X312.7245 Y129.6716 I-0.7731 J-0.7012
G1 X312.8336 Y129.4923
G2 X312.9192 Y129.3161 I-0.8918 J-0.5424
G1 X312.983 Y129.1458
G2 X313.0333 Y128.962 I-0.9774 J-0.3662
G1 X313.0681 Y128.7657
G2 X313.0842 Y128.5835 I-1.0277 J-0.1823
G1 X313.0874 Y106.0873
X319.0469 Y106.0865
G2 X319.1891 Y106.0767 I-0.0002 J-1.0438
G1 X319.3792 Y106.0505
G2 X319.5678 Y106.0064 I-0.1424 J-1.034
G1 X319.7531 Y105.9445
G2 X319.9397 Y105.861 I-0.3309 J-0.9899
G1 X320.125 Y105.7551
G2 X320.2908 Y105.6377 I-0.5175 J-0.9064
G1 X320.4366 Y105.5115
G2 X320.56 Y105.3848 I-0.6833 J-0.789
G1 X320.6621 Y105.2604
G2 X320.7675 Y105.1056 I-0.8067 J-0.6623
G1 X320.8713 Y104.919
G2 X320.9531 Y104.7302 I-0.9121 J-0.5075
G1 X321.0136 Y104.5415
G2 X321.0557 Y104.35 I-0.9939 J-0.3186
G1 X321.0793 Y104.1573
G2 X321.0871 Y104.0301 I-1.036 J-0.1271
G1 X321.0843 Y78.9177
G2 X321.0688 Y78.7384 I-1.0437 J0.0001
G1 X321.0351 Y78.5458
G2 X320.985 Y78.3607 I-1.0282 J0.1793
G1 X320.9193 Y78.1846
G2 X320.8439 Y78.0248 I-0.9781 J0.3644
G1 X320.7608 Y77.8818
G2 X320.6587 Y77.7361 I-0.9026 J0.5242
G1 X320.5364 Y77.59
G2 X320.4032 Y77.4573 I-0.8004 J0.6699
G1 X320.2605 Y77.3386
G2 X320.1009 Y77.2293 I-0.6672 J0.8026
G1 X319.9251 Y77.1314
G2 X319.7552 Y77.0558 I-0.5077 J0.912
G1 X319.5936 Y77.0005
G2 X319.4397 Y76.9607 I-0.3377 J0.9876
G1 X319.2947 Y76.9347
G2 X319.1173 Y76.9184 I-0.1838 J1.0274
G1 X318.1551 Y76.9125
X318.1487
X300.9878 Y76.912
X300.8068 Y76.9015
X300.642 Y76.8774
X300.4763 Y76.8376
X300.3093 Y76.7815
X300.1322 Y76.7031
X300.0595 Y76.6643
X299.9337 Y76.5862
X299.8075 Y76.494
X299.7195 Y76.4195
X299.6356 Y76.3383
X299.4771 Y76.1541
X299.3687 Y75.9956
X299.2782 Y75.8297
X299.2097 Y75.6681
X299.1455 Y75.4617
X299.1183 Y75.3355
X299.0959 Y75.1655
X299.0876 Y74.9769
X299.0902 Y51.923
X299.1038 Y51.7643
X299.1509 Y51.5174
X299.1872 Y51.393
X299.2365 Y51.2623
X299.3181 Y51.0927
X299.427 Y50.9137
X299.4742 Y50.848
X299.5817 Y50.7188
X299.7104 Y50.5891
X299.8037 Y50.5095
X299.9786 Y50.3852
X300.1407 Y50.2935
X300.3407 Y50.2066
X300.5764 Y50.1359
X300.6298 Y50.1244
X300.8068 Y50.0985
X300.9878 Y50.088
X319.0468 Y50.0864
G2 X319.1895 Y50.0766 I-0.0001 J-1.0438
G1 X319.3804 Y50.0503
G2 X319.5705 Y50.0056 I-0.1428 J-1.0339
G1 X319.7581 Y49.9424
G2 X319.9142 Y49.8754 I-0.3329 J-0.9892
G1 X320.0392 Y49.809
G2 X320.1717 Y49.7255 I-0.4889 J-0.9222
G1 X320.3096 Y49.6233
G2 X320.4396 Y49.5091 I-0.6214 J-0.8386
G1 X320.5608 Y49.3834
G2 X320.665 Y49.2568 I-0.7514 J-0.7244
G1 X320.7528 Y49.1311
G2 X320.8431 Y48.9746 I-0.8556 J-0.5978
G1 X320.9311 Y48.786
G2 X320.9985 Y48.595 I-0.9459 J-0.4413
G1 X321.0457 Y48.4037
G2 X321.0723 Y48.2429 I-1.0133 J-0.2503
G1 X321.0834 Y48.1145
X321.0872 Y48.025
X321.0875 Y31.0873
X325.8465 Y31.0865
G2 X325.9894 Y31.0766 I-0.0002 J-1.0438
G1 X326.1819 Y31.05
G2 X326.3753 Y31.0041 I-0.1431 J-1.0339
G1 X326.5677 Y30.9385
G2 X326.7277 Y30.8686 I-0.3365 J-0.988
G1 X326.856 Y30.7992
G2 X326.9851 Y30.7166 I-0.4965 J-0.9181
G1 X327.1138 Y30.6202
G2 X327.2407 Y30.508 I-0.6257 J-0.8354
G1 X327.3642 Y30.3795
G2 X327.47 Y30.2501 I-0.7526 J-0.7232
G1 X327.5588 Y30.1217
G2 X327.6497 Y29.9617 I-0.8584 J-0.5938
G1 X327.7378 Y29.769
G2 X327.8043 Y29.5752 I-0.9493 J-0.4338
G1 X327.8498 Y29.3825
G2 X327.8748 Y29.221 I-1.0158 J-0.2399
G1 X327.8845 Y29.0925
X327.8874 Y29.0102
X327.884 Y28.111
G2 X327.868 Y27.9327 I-1.0437 J0.0039
G1 X327.8338 Y27.74
G2 X327.7798 Y27.5463 I-1.0277 J0.1822
G1 X327.7054 Y27.3536
G2 X327.6191 Y27.18 I-0.9737 J0.3759
G1 X327.5237 Y27.026
G2 X327.427 Y26.8942 I-0.8874 J0.5495
G1 X327.3318 Y26.7837
G2 X327.223 Y26.6749 I-0.7907 J0.6813
G1 X327.1003 Y26.569
G2 X326.9567 Y26.4649 I-0.6819 J0.7902
G1 X326.7917 Y26.3656
G2 X326.6178 Y26.2818 I-0.5382 J0.8943
G1 X326.4364 Y26.2142
G2 X326.2695 Y26.1674 I-0.3643 J0.9781
G1 X326.1189 Y26.1384
G2 X326.0056 Y26.123 I-0.1974 J1.0249
G1 X325.9303 Y26.1169
X325.8463 Y26.1135
X245.9197 Y26.1156
G2 X245.7398 Y26.1312 J1.0437
G1 X245.5421 Y26.1658
G2 X245.3613 Y26.2145 I0.18 J1.0281
G1 X245.1983 Y26.2745
G2 X245.0463 Y26.3448 I0.3607 J0.9794
G1 X244.9059 Y26.424
G2 X244.7646 Y26.5197 I0.5127 J0.9092
G1 X244.6243 Y26.6326
G2 X244.4915 Y26.7601 I0.654 J0.8135
G1 X244.3679 Y26.9019
G2 X244.2633 Y27.0447 I0.7867 J0.6859
G1 X244.1769 Y27.1865
G2 X244.0946 Y27.3536 I0.8914 J0.543
G1 X244.0202 Y27.5463
G2 X243.9662 Y27.74 I0.9737 J0.3759
G1 X243.932 Y27.9327
G2 X243.916 Y28.1149 I1.0277 J0.1822
G1 X243.9126 Y83.9125
X163.0874
X163.084 Y28.1149
G2 X163.068 Y27.9327 I-1.0437 J0.0001
G1 X163.0338 Y27.74
G2 X162.9798 Y27.5463 I-1.0277 J0.1822
G1 X162.9054 Y27.3536
G2 X162.8251 Y27.1899 I-0.9737 J0.3759
G1 X162.7434 Y27.0546
G2 X162.6402 Y26.9123 I-0.8934 J0.5396
G1 X162.5138 Y26.7658
G2 X162.4021 Y26.6547 I-0.7902 J0.6819
G1 X162.3097 Y26.5756
G2 X162.1933 Y26.4892 I-0.6785 J0.7931
G1 X162.0514 Y26.3986
G2 X161.9088 Y26.3223 I-0.5621 J0.8795
G1 X161.7669 Y26.26
G2 X161.6097 Y26.2055 I-0.4195 J0.9557
G1 X161.4377 Y26.1608
G2 X161.2585 Y26.1307 I-0.2623 J1.0102
G1 X161.0729 Y26.1158
X160.9897 Y26.1125
X26.1537 Y26.1135
G2 X26.0319 Y26.1207 J1.0437
G1 X25.8813 Y26.1384
G2 X25.7303 Y26.1675 I0.1219 J1.0366
G1 X25.5798 Y26.2083
G2 X25.4242 Y26.264 I0.2729 J1.0075
G1 X25.2652 Y26.3356
G2 X25.0987 Y26.4297 I0.4284 J0.9518
G1 X24.9277 Y26.5483
G2 X24.7838 Y26.6687 I0.5949 J0.8576
G1 X24.6658 Y26.7869
G2 X24.5514 Y26.923 I0.7388 J0.7373
G1 X24.4429 Y27.077
G2 X24.3467 Y27.2444 I0.8532 J0.6012
G1 X24.2646 Y27.4242
G2 X24.1997 Y27.6113 I0.9493 J0.4338
G1 X24.1528 Y27.8039
G2 X24.1249 Y27.9926 I1.0142 J0.2468
G1 X24.1141 Y28.1853
X24.1125 Y28.247
X24.1155 Y29.082
G2 X24.1303 Y29.2537 I1.0437 J-0.0037
G1 X24.1631 Y29.4464
G2 X24.2157 Y29.6401 I1.0289 J-0.1754
G1 X24.2886 Y29.8328
G2 X24.3653 Y29.9929 I0.9763 J-0.3691
G1 X24.4408 Y30.1213
G2 X24.5306 Y30.2505 I0.8996 J-0.5292
G1 X24.635 Y30.379
G2 X24.753 Y30.502 I0.8099 J-0.6584
G1 X24.8843 Y30.6183
G2 X25.0152 Y30.717 I0.6919 J-0.7815
G1 X25.1437 Y30.7989
G2 X25.3036 Y30.8824 I0.561 J-0.8801
G1 X25.4961 Y30.9625
G2 X25.6896 Y31.0218 I0.4011 J-0.9636
G1 X25.882 Y31.0608
G2 X26.0879 Y31.0817 I0.2076 J-1.0229
G1 X29.0697 Y31.0864
X29.1186 Y31.0903 Z-1.9922
X29.1663 Y31.1016 Z-1.9845
X29.2073 Y31.118 Z-1.9619
X29.2457 Y31.14 Z-1.9394
X29.2993 Y31.1852 Z-1.8691
X29.328 Y31.2199 Z-1.7806
X29.3367 Y31.2328 Z-1.6825
G0 Z5
X12.8787 Y31.55
Z3
G1 Z-1.6825 F3500
G18 G3 X12.5612 Z-2 I-0.3175
G1 X9.6976 Y31.5499
G17 G3 X9.3801 Y31.2324 J-0.3175
G1 X9.3806 Y10.3441
G3 X10.3438 Y9.3809 I0.9633
G1 X341.6588
G3 X342.622 Y10.3441 J0.9632
G1 X342.6195 Y139.6589
G3 X341.6562 Y140.6221 I-0.9633
G1 X10.3412 Y140.6192
G3 X9.378 Y139.6559 J-0.9632
G1 X9.3801 Y31.2324
G2 X8.2099 Y29.4769 I-1.9018
G3 X7.0396 Y27.7214 I0.7315 J-1.7555
G1 X7.04 Y8.0035
G3 X8.0032 Y7.0403 I0.9633
G1 X343.9995
G3 X344.9627 Y8.0035 J0.9632
G1 X344.9601 Y141.9995
G3 X343.9968 Y142.9628 I-0.9632
G1 X8.0005 Y142.9598
G3 X7.0373 Y141.9966 J-0.9632
G1 X7.0396 Y27.7214
G2 X5.8693 Y25.9659 I-1.9018
G3 X4.699 Y24.2104 I0.7315 J-1.7555
G1 X4.6994 Y5.6629
G3 X5.6626 Y4.6996 I0.9633
G1 X346.3402
G3 X347.3034 Y5.6628 J0.9632
G1 X347.3007 Y144.3402
G3 X346.3374 Y145.3034 I-0.9633
G1 X5.6598 Y145.3004
G3 X4.6966 Y144.3372 J-0.9632
G1 X4.699 Y24.2104
G2 X3.5287 Y22.4549 I-1.9018
G3 X2.3584 Y20.6994 I0.7315 J-1.7555
G1 X2.3588 Y3.3222
G3 X3.322 Y2.359 I0.9633
G1 X348.6809
G3 X349.6441 Y3.3222 J0.9632
G1 X349.6413 Y146.6808
G3 X348.678 Y147.6441 I-0.9633
G1 X3.3191 Y147.6411
G3 X2.3559 Y146.6778 J-0.9632
G1 X2.3584 Y20.6994
G2 X1.1806 Y18.9326 I-1.914
G3 X0.0028 Y17.1657 I0.7362 J-1.7668
G1 X0.0031 Y0.009
X0.004 Y0.004
X351.9919 Y0.0032
X351.9999 Y0.0405
X351.9969 Y149.991
X351.9961 Y149.9959
X351.9605 Y149.9998
X0.0081 Y149.9968
X0.0001 Y149.9595
X0.0028 Y17.1657
X0.0065 Y17.1169 Z-1.9922
X0.0178 Y17.0692 Z-1.9845
X0.0341 Y17.0281 Z-1.9619
X0.056 Y16.9897 Z-1.9394
X0.1011 Y16.936 Z-1.8691
X0.1358 Y16.9073 Z-1.7806
X0.1487 Y16.8986 Z-1.6825
G0 Z5
X14.1801 Y12.9259
Z0.4173
G1 X14.1947 Y12.9228 Z0.3213 F1200
X14.2371 Y12.9145 Z0.2343
X14.3037 Y12.904 Z0.1644
X14.3887 Y12.8951 Z0.1182
X14.484 Y12.8907 Z0.1
G3 X14.2225 Y12.9172 Z-0.2217 I0.0207 J1.508
X13.9695 Y12.9887 Z-0.5434 I0.2822 J1.4815
X13.7328 Y13.1031 Z-0.8651 I0.5352 J1.41
X13.5195 Y13.2568 Z-1.1868 I0.7719 J1.2956
X13.3362 Y13.4452 Z-1.5086 I0.9851 J1.1419
X13.1884 Y13.6626 Z-1.8303 I1.1685 J0.9535
X13.0806 Y13.9024 Z-2.152 I1.3163 J0.7361
X13.016 Y14.1572 Z-2.4737 I1.4241 J0.4963
X12.9967 Y14.4194 Z-2.7954 I1.4887 J0.2415
X13.0232 Y14.6809 Z-3.1171 I1.508 J-0.0207
X13.0947 Y14.9339 Z-3.4388 I1.4815 J-0.2822
X13.209 Y15.1706 Z-3.7605 I1.41 J-0.5352
X15.4794 Y15.5495 Z-4 I1.2956 J-0.7719
G2 X15.2733 Y15.7272 I10.0431 J11.8565 F3500
G3 X14.4974 Y15.3758 I-0.3084 J-0.3514
G1 Y15.0263
G3 X15.0259 Y14.4979 I0.5285
G1 X15.6213
G3 X15.8746 Y15.2257 J0.408
G2 X15.4794 Y15.5495 I9.648 J12.1802
X15.1748 Y16.6562 I0.6575 J0.7763
G3 X14.9388 Y17.7795 I-1.0595 J0.3639
G2 X13.9611 Y18.9548 I11.0011 J10.1455
G3 X13.2554 Y18.7199 I-0.3137 J-0.2349
G1 X13.2555 Y14.1999
G3 X14.1995 Y13.2559 I0.944
G1 X20.5621
G3 X20.6804 Y13.8877 J0.327
G2 X16.9651 Y15.9497 I5.6494 J14.5576
X14.9388 Y17.7795 I8.9748 J11.9754
G1 X14.9027 Y17.8127 Z-3.9922
X14.862 Y17.8399 Z-3.9845
X14.822 Y17.8589 Z-3.9619
X14.7798 Y17.8721 Z-3.9394
X14.7102 Y17.8806 Z-3.8691
X14.6653 Y17.878 Z-3.7806
X14.6499 Y17.8756 Z-3.6825
G0 Z5
X19.3401 Y63.1576
Z0.4173
G1 X19.3331 Y63.1707 Z0.3213 F1200
X19.312 Y63.2084 Z0.2343
X19.277 Y63.2661 Z0.1644
X19.2289 Y63.3367 Z0.1182
X19.1706 Y63.4122 Z0.1
G3 X19.3194 Y63.1955 Z-0.2217 I-1.164 J-0.9589
X19.4284 Y62.9563 Z-0.5434 I-1.3128 J-0.7422
X19.4941 Y62.7017 Z-0.8651 I-1.4218 J-0.503
X19.5147 Y62.4397 Z-1.1868 I-1.4875 J-0.2485
X19.4894 Y62.178 Z-1.5086 I-1.5081 J0.0136
X19.419 Y61.9247 Z-1.8303 I-1.4828 J0.2753
X19.3058 Y61.6875 Z-2.152 I-1.4125 J0.5286
X19.1531 Y61.4735 Z-2.4737 I-1.2992 J0.7658
X18.9655 Y61.2893 Z-2.7954 I-1.1465 J0.9798
X18.7488 Y61.1405 Z-3.1171 I-0.9589 J1.164
X18.5096 Y61.0315 Z-3.4388 I-0.7422 J1.3128
X18.2551 Y60.9658 Z-3.7605 I-0.503 J1.4218
X16.4985 Y62.4533 Z-4 I-0.2485 J1.4875
G1 Y61.5696 F3500
G3 X17.1949 Y61.3729 I0.376
G2 X17.7032 Y62.1536 I14.9475 J-9.178
G3 X17.7018 Y62.7557 I-0.435 J0.3
G2 X17.1959 Y63.5239 I14.3911 J10.028
G3 X16.4984 Y63.3248 I-0.3203 J-0.1991
G1 X16.4985 Y62.4533
X16.5022 Y62.4044 Z-3.9922
X16.5135 Y62.3567 Z-3.9845
X16.5299 Y62.3156 Z-3.9619
X16.5518 Y62.2772 Z-3.9394
X16.5968 Y62.2235 Z-3.8691
X16.6316 Y62.1948 Z-3.7806
X16.6444 Y62.1861 Z-3.6825
G0 Z5
X20.207 Y128.4525
Z0.4173
G1 X20.2202 Y128.4595 Z0.3213 F1200
X20.2578 Y128.4805 Z0.2343
X20.3155 Y128.5156 Z0.1644
X20.3861 Y128.5637 Z0.1182
X20.4616 Y128.622 Z0.1
G3 X20.245 Y128.4732 Z-0.2217 I-0.9589 J1.164
X20.0057 Y128.3642 Z-0.5434 I-0.7422 J1.3128
X19.7512 Y128.2985 Z-0.8651 I-0.503 J1.4218
X19.4891 Y128.2779 Z-1.1868 I-0.2484 J1.4875
X19.2274 Y128.3032 Z-1.5086 I0.0136 J1.5081
X18.9741 Y128.3736 Z-1.8303 I0.2753 J1.4828
X18.7369 Y128.4868 Z-2.152 I0.5286 J1.4125
X18.5229 Y128.6395 Z-2.4737 I0.7658 J1.2992
X18.3387 Y128.8271 Z-2.7954 I0.9798 J1.1465
X18.1899 Y129.0438 Z-3.1171 I1.164 J0.9589
X18.081 Y129.283 Z-3.4388 I1.3128 J0.7422
X18.0152 Y129.5376 Z-3.7605 I1.4218 J0.503
X19.5027 Y131.2941 Z-4 I1.4875 J0.2484
G1 X19.4129 F3500
G3 X18.7033 Y130.5845 J-0.7096
G1 X18.7035 Y120.1538
G3 X19.4876 Y119.7949 I0.4742
G2 X19.9495 Y120.1816 I12.9049 J-14.9462
G3 X20.2119 Y120.7325 I-0.4472 J0.551
X20.1402 Y125.625 I-165.2365 J0.0235
G2 X20.3078 Y130.5151 I38.4001 J1.132
G3 X19.6015 Y131.2941 I-0.7062 J0.0694
G1 X19.5027
G2 X18.4091 Y132.3188 J1.0959
G3 X16.9363 Y132.5956 I-0.7719 J-0.0503
X16.8459 Y132.1882 I0.8729 J-0.4073
G1 X16.8463 Y115.1862
G3 X17.5607 Y114.9583 I0.3936
G2 X21.2155 Y118.8165 I15.4506 J-10.9759
G3 X22.0693 Y120.5928 I-1.4216 J1.7766
X21.9727 Y126.4298 I-174.9332 J0.0249
G2 X22.4448 Y132.2484 I25.6045 J0.8512
G3 X21.7027 Y133.1515 I-0.742 J0.1467
G1 X17.8091
G3 X16.9363 Y132.5956 J-0.9632
G2 X15.9393 Y131.6437 I-1.7184 J0.8019
G3 X15.1721 Y130.4986 I0.4711 J-1.1451
G1 X15.1738 Y43.1314
G3 X15.743 I0.2846
G1 X15.7445 Y51.8554
G2 X18.084 Y60.3734 I16.6861 J-0.0027
X18.5104 Y61.0177 I6.8398 J-4.0623
G3 X18.9641 Y61.6432 I-56.1694 J41.2218
X18.9691 Y63.2564 I-1.13 J0.8101
G2 X16.6841 Y67.5243 I15.9453 J11.2827
X15.6435 Y72.2522 I15.0501 J5.7912
G1 X15.6122 Y104.0967
G2 X17.5424 Y111.8413 I16.5112 J-0.0023
X22.7526 Y117.8875 I15.9427 J-8.4703
G3 X23.743 Y119.851 I-1.4519 J1.9638
X23.6115 Y126.9466 I-190.0973 J0.027
G2 X24.6321 Y133.9696 I19.6452 J0.731
G3 X24.0179 Y134.8254 I-0.6142 J0.2075
G1 X16.116 Y134.8253
G3 X15.172 Y133.8813 J-0.944
G1 X15.1721 Y130.4986
G2 X14.3328 Y129.2395 I-1.3639
G3 X13.4935 Y127.9805 I0.5246 J-1.259
G1 X13.4953 Y39.2353
G3 X14.2312 Y38.9709 I0.4155
G2 X16.7524 Y41.3892 I11.5934 J-9.5636
G3 X17.4216 Y42.7421 I-1.0336 J1.3532
X17.3268 Y51.2784 I-378.6299 J0.0622
G2 X19.4949 Y59.5354 I15.4868 J0.3467
X20.284 Y60.6684 I8.2019 J-4.8713
X21.1654 Y61.7311 I46.1635 J-37.3918
G3 X21.1626 Y63.1695 I-0.845 J0.7176
G2 X18.495 Y67.4547 I12.7319 J10.8985
X17.3158 Y72.3627 I13.7211 J5.8926
G1 X17.2881 Y104.0965
G2 X19.2225 Y111.4506 I14.9542 J-0.0021
X24.4183 Y117.003 I14.0449 J-7.9354
G3 X25.4215 Y118.8608 I-1.2191 J1.8581
G1 X25.2872 Y128.5855
G2 X25.7999 Y132.2405 I13.2965 J-0.0019
X27.1673 Y135.6686 I17.6103 J-5.0376
G3 X26.6607 Y136.5041 I-0.5067 J0.2641
G1 X14.4566 Y136.504
G3 X13.4933 Y135.5407 J-0.9632
G1 X13.4935 Y127.9805
X13.4973 Y127.9317 Z-3.9922
X13.5085 Y127.884 Z-3.9845
X13.5249 Y127.8429 Z-3.9619
X13.5468 Y127.8045 Z-3.9394
X13.5919 Y127.7508 Z-3.8691
X13.6266 Y127.7221 Z-3.7806
X13.6395 Y127.7134 Z-3.6825
G0 Z5
X202.7957 Y42.5774
Z0.4173
G1 X202.7826 Y42.5704 Z0.3213 F1200
X202.7449 Y42.5493 Z0.2343
X202.6873 Y42.5142 Z0.1644
X202.6166 Y42.4661 Z0.1182
X202.5411 Y42.4078 Z0.1
G3 X202.7578 Y42.5566 Z-0.2217 I0.9589 J-1.164
X202.997 Y42.6656 Z-0.5434 I0.7422 J-1.3128
X203.2516 Y42.7313 Z-0.8651 I0.503 J-1.4218
X203.5136 Y42.7519 Z-1.1868 I0.2484 J-1.4875
X203.7753 Y42.7266 Z-1.5086 I-0.0136 J-1.5081
X204.0286 Y42.6562 Z-1.8303 I-0.2753 J-1.4828
X204.2659 Y42.543 Z-2.152 I-0.5286 J-1.4124
X204.4798 Y42.3903 Z-2.4737 I-0.7659 J-1.2992
X204.664 Y42.2027 Z-2.7954 I-0.9798 J-1.1465
X204.8128 Y41.986 Z-3.1171 I-1.164 J-0.9589
X204.9218 Y41.7468 Z-3.4388 I-1.3128 J-0.7422
X204.9875 Y41.4922 Z-3.7605 I-1.4218 J-0.503
X203.5 Y39.7357 Z-4 I-1.4875 J-0.2484
G1 X203.6543 F3500
G3 X204.1828 Y40.2642 J0.5285
G1 X204.1826 Y43.3449
G3 X202.8174 I-0.6826
G1 X202.8172 Y40.2642
G3 X203.3457 Y39.7357 I0.5285
G1 X203.5
G2 X204.9559 Y38.9747 J-1.7732
G3 X206.5235 Y39.4661 I0.7068 J0.4914
G1 X206.5231 Y45.5574
G3 X205.5598 Y46.5207 I-0.9633 J-0.0001
G1 X201.4402
G3 X200.4769 Y45.5574 J-0.9633
G1 X200.4765 Y38.3583
G3 X201.4396 Y37.395 I0.9632 J-0.0001
G1 X205.5604
G3 X206.5235 Y38.3583 J0.9632
G1 Y39.4661
G2 X207.6937 Y41.2217 I1.9018 J0.0001
G3 X208.8639 Y42.9772 I-0.7316 J1.7554
G1 X208.8636 Y47.898
G3 X207.9003 Y48.8613 I-0.9633 J-0.0001
G1 X199.0997
G3 X198.1364 Y47.898 J-0.9633
G1 X198.1357 Y36.0177
G3 X199.0989 Y35.0544 I0.9632 J-0.0001
G1 X207.9011
G3 X208.8643 Y36.0177 J0.9632
G1 X208.8639 Y42.9772
G2 X210.0341 Y44.7328 I1.9018 J0.0001
G3 X211.2043 Y46.4883 I-0.7316 J1.7554
G1 X211.2041 Y50.2387
G3 X210.2408 Y51.2019 I-0.9633 J-0.0001
G1 X196.7592
G3 X195.7959 Y50.2387 J-0.9633
G1 X195.7949 Y33.677
G3 X196.7581 Y32.7138 I0.9632 J-0.0001
G1 X210.2419
G3 X211.2051 Y33.677 J0.9632
G1 X211.2043 Y46.4883
G2 X212.3745 Y48.2438 I1.9018 J0.0001
G3 X213.5447 Y49.9994 I-0.7316 J1.7554
G1 X213.5445 Y52.5793
G3 X212.5812 Y53.5425 I-0.9633 J-0.0001
G1 X194.4188
G3 X193.4555 Y52.5793 J-0.9633
G1 X193.4542 Y31.3364
G3 X194.4173 Y30.3732 I0.9632 J-0.0001
G1 X212.5827
G3 X213.5458 Y31.3364 J0.9632
G1 X213.5447 Y49.9994
G2 X214.7149 Y51.7549 I1.9018 J0.0001
G3 X215.8851 Y53.5105 I-0.7316 J1.7554
G1 X215.885 Y54.9199
G3 X214.9217 Y55.8832 I-0.9633 J-0.0001
G1 X192.0783
G3 X191.115 Y54.9199 J-0.9633
G1 X191.1134 Y28.9958
G3 X192.0766 Y28.0326 I0.9632 J-0.0001
G1 X214.9234
G3 X215.8866 Y28.9958 J0.9632
G1 X215.8851 Y53.5105
G2 X217.0518 Y55.2522 I1.8833 J0.0001
G3 X218.2186 Y56.994 I-0.7178 J1.7425
G1 Y57.2536
G3 X217.2553 Y58.2169 I-0.9633 J-0.0001
G1 X189.7447
G3 X188.7814 Y57.2536 J-0.9633
G1 X188.8258 Y28.1133
G2 X188.7924 Y27.3743 I-8.2205 J0.0005
G3 X188.7387 Y26.6365 I21.1958 J-1.9144
X189.6259 Y25.6988 I0.8872 J-0.0491
G1 X217.3741
G3 X218.2613 Y26.6365 J0.8886
G2 X218.0285 Y41.9448 I190.6149 J10.555
G3 X218.2186 Y56.994 I-613.1579 J15.2713
G2 X219.3597 Y58.5758 I1.6676 J-0.0006
G3 X219.0478 Y60.5011 I-0.3119 J0.9374
G1 X187.4607
G3 X186.4973 Y59.5378 J-0.9633
G1 X186.614 Y28.1134
G2 X186.4809 Y26.2141 I-13.6331 J0.0008
X186.2009 Y24.3308 I-121.4252 J17.0908
G3 X186.9847 Y23.4146 I0.7839 J-0.1228
G1 X220.0153
G3 X220.7991 Y24.3308 J0.7934
G2 X220.5191 Y26.2141 I121.1452 J18.9741
X220.386 Y28.1134 I13.5 J1.9002
G1 X220.5027 Y59.5378
G3 X219.5393 Y60.5011 I-0.9633 J-0.0001
G1 X219.0478
G2 X217.3766 Y61.6152 J1.8105
G3 X215.7054 Y62.7294 I-1.6712 J-0.6963
G1 X185.2325
G3 X184.2692 Y61.7661 J-0.9633
G1 X184.4029 Y28.1136
G2 X184.1278 Y25.0634 I-17.0583 J0.001
X183.4505 Y22.0767 I-34.9301 J6.3503
G3 X184.1306 Y21.1863 I0.6801 J-0.1854
G1 X222.8694
G3 X223.5495 Y22.0767 J0.7049
G2 X222.8722 Y25.0634 I34.2529 J9.3371
X222.5971 Y28.1136 I16.7832 J3.0512
G1 X222.7308 Y61.7661
G3 X221.7675 Y62.7294 I-0.9633 J-0.0001
G1 X215.7054
G2 X214.0905 Y63.8059 J1.7494
G3 X212.4757 Y64.8825 I-1.6148 J-0.6728
G1 X183.0795
G3 X182.1162 Y63.9192 J-0.9633
G1 X182.2498 Y28.1137
G2 X181.7445 Y23.91 I-17.7468 J0.0011
X180.4119 Y19.8912 I-25.428 J6.2013
G3 X180.9799 Y19.0333 I0.568 J-0.2409
G1 X226.0201
G3 X226.5881 Y19.8912 J0.617
G2 X225.6918 Y22.1958 I37.6796 J15.9817
X225.0606 Y24.5867 I14.1204 J5.0064
X224.7502 Y28.1137 I19.8991 J3.5282
G1 X224.8838 Y63.9192
G3 X223.9205 Y64.8825 I-0.9633 J-0.0001
G1 X212.4757
G2 X210.9282 Y65.9141 J1.6764
G3 X209.3808 Y66.9458 I-1.5475 J-0.6448
G1 X181.0164
G3 X180.0531 Y65.9825 J-0.9633
G1 X180.1865 Y28.1138
G2 X179.3192 Y22.7146 I-17.2468 J0.0011
X176.9542 Y17.7841 I-20.2206 J6.6666
G3 X177.3962 Y16.97 I0.442 J-0.2871
G1 X229.6039
G3 X230.0462 Y17.7842 J0.5272
G2 X228.2098 Y21.2173 I19.3708 J12.5694
X227.0922 Y24.9469 I15.494 J6.6749
X226.8135 Y28.1138 I17.8675 J3.168
G1 X226.9469 Y65.9825
G3 X225.9836 Y66.9458 I-0.9633 J-0.0001
G1 X209.3808
G2 X207.9246 Y67.9166 J1.5776
G3 X206.4684 Y68.8874 I-1.4562 J-0.6068
G1 X179.0749
G3 X178.1116 Y67.9241 J-0.9633
G1 X178.2449 Y28.1139
G2 X176.7789 Y21.3834 I-16.1879 J0.001
X172.7723 Y15.7802 I-16.4241 J7.5098
G3 X173.0718 Y15.0283 I0.2995 J-0.3163
G1 X233.928
G3 X234.2276 Y15.7802 J0.4356
G2 X230.8525 Y20.1136 I12.5765 J13.2765
X229.004 Y25.2859 I14.3477 J8.044
X228.7551 Y28.1139 I15.9557 J2.829
G1 X228.8884 Y67.9241
G3 X227.9251 Y68.8874 I-0.9633 J-0.0001
G1 X206.4684
G2 X205.139 Y69.7736 J1.4401
G3 X203.8097 Y70.6598 I-1.3293 J-0.5539
G1 X177.2833
G3 X176.3392 Y69.7158 J-0.944
G1 X176.4697 Y28.114
G2 X173.6961 Y19.4612 I-14.8868 J0.0009
X166.5196 Y13.8877 I-12.9218 J9.2315
G3 X166.6379 Y13.2559 I0.1183 J-0.3048
G1 X240.3723
G3 X240.488 Y13.8871 J0.3262
G2 X236.0885 Y16.4091 I5.7193 J15.0757
X232.7456 Y20.2222 I9.2646 J11.4941
X231.4984 Y22.8161 I12.4372 J7.5771
X230.7519 Y25.5958 I15.5851 J5.6754
X230.5303 Y28.114 I14.2078 J2.5191
G1 X230.6608 Y69.7158
G3 X229.7167 Y70.6598 I-0.944 J-0.0001
G1 X203.8097
X203.7608 Y70.656 Z-3.9922
X203.7131 Y70.6448 Z-3.9845
X203.672 Y70.6284 Z-3.9619
X203.6336 Y70.6065 Z-3.9394
X203.5799 Y70.5615 Z-3.8691
X203.5512 Y70.5267 Z-3.7806
X203.5425 Y70.5139 Z-3.6825
G0 Z5
X335.2407 Y61.8455
Z0.4173
G1 X335.2469 Y61.859 Z0.3213 F1200
X335.2644 Y61.8985 Z0.2343
X335.2895 Y61.9611 Z0.1644
X335.3172 Y62.042 Z0.1182
X335.3426 Y62.1339 Z0.1
G3 X335.2586 Y61.8848 Z-0.2217 I-1.4655 J0.3559
X335.1325 Y61.6541 Z-0.5434 I-1.3815 J0.6049
X334.9683 Y61.4488 Z-0.8651 I-1.2554 J0.8356
X334.771 Y61.2751 Z-1.1868 I-1.0913 J1.041
X334.5465 Y61.1384 Z-1.5086 I-0.8939 J1.2146
X334.3017 Y61.0427 Z-1.8303 I-0.6694 J1.3514
X334.0439 Y60.9909 Z-2.152 I-0.4246 J1.4471
X333.7811 Y60.9847 Z-2.4737 I-0.1668 J1.4989
X333.5212 Y61.0243 Z-2.7954 I0.096 J1.5051
X333.2721 Y61.1083 Z-3.1171 I0.3559 J1.4655
X333.0414 Y61.2343 Z-3.4388 I0.6049 J1.3815
X332.8361 Y61.3985 Z-3.7605 I0.8356 J1.2554
X332.9722 Y63.6963 Z-4 I1.041 J1.0913
X333.2658 Y63.3049 I0.1468 J-0.1957 F3500
X332.9722 Y63.6963 I-0.1468 J0.1957
G2 X331.7654 Y63.3266 I-1.1159 J1.4879
G3 X331.2967 Y62.1546 I-0.0326 J-0.6666
G2 X334.4202 Y58.6802 I-12.0865 J-14.0073
X334.5271 Y58.5147 I-2.195 J-1.5336
G3 X334.632 Y58.348 I3.2982 J1.9602
X335.3382 Y58.5616 I0.3208 J0.2136
G1 X335.338 Y68.4397
G3 X334.6329 Y68.6515 I-0.3843
G2 X330.3073 Y64.0468 I-15.5233 J10.2487
G3 X330.3108 Y62.9482 I0.4165 J-0.548
G2 X331.2967 Y62.1546 I-11.1006 J-14.8008
G1 X331.3361 Y62.1254 Z-3.9922
X331.3795 Y62.1027 Z-3.9845
X331.4212 Y62.0881 Z-3.9619
X331.4646 Y62.0794 Z-3.9394
X331.5347 Y62.0782 Z-3.8691
X331.5791 Y62.0857 Z-3.7806
X331.5941 Y62.0897 Z-3.6825
G0 Z5
X334.6607 Y14.3917
Z0.4173
G1 X334.6677 Y14.3786 Z0.3213 F1200
X334.6888 Y14.3409 Z0.2343
X334.7238 Y14.2833 Z0.1644
X334.7719 Y14.2126 Z0.1182
X334.8302 Y14.1371 Z0.1
G3 X334.6814 Y14.3538 Z-0.2217 I1.164 J0.9589
X334.5725 Y14.5931 Z-0.5434 I1.3128 J0.7422
X334.5067 Y14.8476 Z-0.8651 I1.4218 J0.503
X334.4862 Y15.1097 Z-1.1868 I1.4875 J0.2485
X334.5114 Y15.3713 Z-1.5086 I1.5081 J-0.0136
X334.5818 Y15.6246 Z-1.8303 I1.4828 J-0.2753
X334.695 Y15.8619 Z-2.152 I1.4125 J-0.5286
X334.8477 Y16.0759 Z-2.4737 I1.2992 J-0.7658
X335.0353 Y16.26 Z-2.7954 I1.1465 J-0.9798
X335.252 Y16.4089 Z-3.1171 I0.9589 J-1.164
X335.4912 Y16.5178 Z-3.4388 I0.7422 J-1.3128
X335.7458 Y16.5836 Z-3.7605 I0.503 J-1.4218
X337.5023 Y15.0961 Z-4 I0.2485 J-1.4875
G1 Y15.3709 F3500
G3 X336.7249 Y15.7257 I-0.4697
G2 X336.4322 Y15.4749 I-20.2646 J23.3601
X336.1345 Y15.2299 I-9.3184 J11.0164
G3 X336.3906 Y14.5005 I0.2561 J-0.3197
G1 X336.9739
G3 X337.5023 Y15.029 J0.5285
G1 Y15.0961
G2 X338.1224 Y16.0262 I1.0076
G3 X338.7424 Y16.9563 I-0.3875 J0.9301
G1 Y18.7018
G3 X338.0352 Y18.9395 I-0.3936
G2 X335.0404 Y15.9447 I-12.3567 J9.3618
X331.3356 Y13.8925 I-9.0026 J11.8823
G3 X331.4518 Y13.2604 I0.1161 J-0.3054
G1 X337.7985
G3 X338.7425 Y14.2043 J0.944
G1 X338.7424 Y16.9563
X338.7386 Y17.0052 Z-3.9922
X338.7274 Y17.0528 Z-3.9845
X338.711 Y17.0939 Z-3.9619
X338.6891 Y17.1323 Z-3.9394
X338.6441 Y17.186 Z-3.8691
X338.6093 Y17.2147 Z-3.7806
X338.5965 Y17.2235 Z-3.6825
G0 Z5
X334.2609 Y131.3784
Z0.4173
G1 X334.2527 Y131.3908 Z0.3213 F1200
X334.228 Y131.4263 Z0.2343
X334.1875 Y131.4802 Z0.1644
X334.1328 Y131.5459 Z0.1182
X334.0674 Y131.6153 Z0.1
G3 X334.2366 Y131.4141 Z-0.2217 I-1.0653 J-1.0675
X334.3683 Y131.1866 Z-0.5434 I-1.2345 J-0.8663
X334.4585 Y130.9397 Z-0.8651 I-1.3661 J-0.6388
X334.5044 Y130.6808 Z-1.1868 I-1.4563 J-0.3919
X334.5047 Y130.418 Z-1.5086 I-1.5022 J-0.133
X334.4593 Y130.159 Z-1.8303 I-1.5025 J0.1299
X334.3696 Y129.9119 Z-2.152 I-1.4571 J0.3888
X334.2384 Y129.6841 Z-2.4737 I-1.3675 J0.6359
X334.0697 Y129.4825 Z-2.7954 I-1.2363 J0.8637
X333.8685 Y129.3134 Z-3.1171 I-1.0675 J1.0653
X333.6409 Y129.1817 Z-3.4388 I-0.8663 J1.2345
X333.394 Y129.0915 Z-3.7605 I-0.6388 J1.3662
X331.5012 Y130.4012 Z-4 I-0.3919 J1.4563
G2 X331.6604 Y125.6644 I-37.0111 J-3.6152 F3500
G3 X331.5866 Y120.7516 I162.0404 J-4.8898
X331.9377 Y120.0137 I0.9512 J0.0001
G2 X332.2474 Y119.7606 I-48.825 J-60.0498
X332.5531 Y119.5027 I-9.8083 J-11.9367
X332.6367 Y119.4251 I-1.0919 J-1.2608
G3 X332.7199 Y119.347 I1.4171 J1.4264
X333.4962 Y119.6962 I0.3096 J0.3492
G1 X333.496 Y130.5351
G3 X332.5327 Y131.4983 I-0.9633
G1 X332.3178
G3 X331.4838 Y130.5745 J-0.8384
G2 X331.5012 Y130.4012 I-36.9938 J-3.7885
X330.7115 Y128.932 I-1.4907 J-0.1456
G3 X329.8545 Y127.501 I0.7542 J-1.4239
G2 X329.8416 Y126.5939 I-24.4091 J-0.1072
G3 X329.7458 Y120.7271 I178.166 J-5.8415
X330.7602 Y118.5986 I2.7411 J0.0004
G2 X332.2408 Y117.3049 I-16.8956 J-20.8301
X333.5835 Y115.8685 I-10.4833 J-11.1452
X334.1276 Y115.1227 I-6.2455 J-5.1274
G3 X334.6321 Y114.3496 I75.8375 J48.9407
X335.3371 Y114.5612 I0.3207 J0.2116
G1 X335.3367 Y132.3759
G3 X334.3734 Y133.3391 I-0.9633
G1 X330.0574
G3 X329.3276 Y132.4389 J-0.746
G2 X329.8545 Y127.501 I-23.8822 J-5.0452
X329.0216 Y126.2832 I-1.2985 J-0.0057
G3 X328.1696 Y125.0787 I0.4767 J-1.2408
X328.0976 Y119.7846 I192.6253 J-5.2667
X329.1064 Y117.7934 I2.4703 J0.0004
G2 X334.3146 Y111.7622 I-10.5456 J-14.371
X336.235 Y104.0284 I-14.6055 J-7.732
G1 X336.2321 Y78.916
G2 X333.7283 Y70.1894 I-16.4657 J0.0018
X327.1254 Y63.9586 I-15.2198 J9.5148
G3 X327.1295 Y63.0413 I0.2504 J-0.4575
G2 X333.3806 Y57.3738 I-8.2151 J-15.3421
X336.1755 Y49.4124 I-14.0737 J-9.4121
X336.2079 Y46.1261 I-21.5836 J-1.8562
G3 X336.0995 Y42.8414 I49.6353 J-3.2839
X336.2533 Y42.5298 I0.3926
G1 X336.3531 Y42.4526
G3 X336.9869 Y42.7624 I0.2412 J0.3097
G1 X336.9851 Y134.0243
G3 X336.0218 Y134.9875 I-0.9632
G1 X327.7663
G3 X327.149 Y134.1154 J-0.6546
G2 X328.2313 Y126.9902 I-18.1836 J-6.4069
G3 X328.1696 Y125.0787 I192.5635 J-7.1783
G2 X327.1983 Y123.6978 I-1.5267 J0.0417
G3 X326.2366 Y122.3102 I0.5498 J-1.4081
X326.2118 Y118.6345 I266.5304 J-3.6379
X327.2178 Y116.8016 I2.1732 J0.0003
G2 X332.4209 Y111.3293 I-8.4052 J-13.2013
X334.349 Y104.0286 I-12.8512 J-7.299
G1 X334.3462 Y78.9162
G2 X330.7191 Y69.0887 I-15.1315 J0.0017
X321.6303 Y63.8801 I-11.8287 J10.1063
X317.2111 Y63.6373 I-3.1982 J17.876
G3 X312.7878 Y63.7861 I-4.4215 J-65.61
X312.7877 Y63.2132 J-0.2865
G1 X319.6125 Y63.2126
G2 X326.1262 Y61.5924 I-0.0012 J-13.9084
X331.7611 Y56.5248 I-7.319 J-13.805
X334.2855 Y49.3792 I-12.511 J-8.4387
G1 X334.2135 Y42.8398
G3 X335.1052 Y41.0335 I2.2754
G2 X338.158 Y37.8702 I-8.9756 J-11.7168
G3 X338.8729 Y38.0986 I0.321 J0.2284
G1 X338.871 Y135.9103
G3 X337.9077 Y136.8735 I-0.9633
G1 X324.6824 Y136.8734
G3 X324.2061 Y136.0475 J-0.5503
G2 X326.3571 Y127.4732 I-13.8998 J-8.044
G3 X326.2366 Y122.3102 I266.4099 J-8.8009
G2 X325.5504 Y121.3025 I-1.1051 J0.0151
G3 X324.8641 Y120.2948 I0.4061 J-1.0141
X324.8569 Y117.7402 I429.2486 J-2.4937
X325.8401 Y116.0468 I1.9503 J0.0003
G2 X331.0333 Y111.0013 I-7.1944 J-12.6002
X332.9912 Y104.0305 I-11.4306 J-6.9711
G1 X332.9884 Y78.9164
G2 X329.6779 Y69.9603 I-13.774 J0.0015
X321.3912 Y65.2166 I-10.7876 J9.2352
X316.5992 Y64.9666 I-3.3914 J18.9562
G3 X311.8038 Y65.1412 I-4.7935 J-65.7339
X310.86 Y64.1972 J-0.9439
G1 X310.8601 Y62.8023
G3 X311.8043 Y61.8582 I0.9442 J0.0001
X318.7369 Y61.9635 I0.0194 J227.0363
G2 X325.4902 Y60.3928 I0.4122 J-13.5311
X330.6287 Y55.7756 I-6.6832 J-12.6058
X332.9327 Y49.2629 I-11.3791 J-7.6894
G1 X332.8585 Y42.1928
G3 X333.8346 Y40.29 I2.3427
G2 X339.4878 Y24.8747 I-8.5249 J-11.8705
X326.9633 Y14.2574 I-13.6571 J3.4145
G1 X245.9194 Y14.2114
G2 X236.9478 Y17.54 I0.0004 J13.7559
X232.2106 Y25.8544 I9.2947 J10.8023
X232.0118 Y28.1141 I12.7491 J2.2605
G1 X232.1422 Y71.1973
G3 X231.1981 Y72.1413 I-0.944 J-0.0001
G1 X175.8019
G3 X174.8578 Y71.1973 J-0.944
G1 X174.9882 Y28.1141
G2 X172.0105 Y19.573 I-13.7405 J0.0008
X164.4295 Y14.6388 I-11.1626 J8.8592
X162.7233 Y14.3142 I-3.3067 J12.7347
X160.9897 Y14.2083 I-1.7336 J14.1452
G1 X24.4913 Y14.3156
G2 X13.418 Y22.3595 I1.6333 J13.8922
X14.1048 Y36.0288 I13.422 J6.1775
X15.9074 Y38.3734 I10.3306 J-6.0772
X18.161 Y40.2885 I12.0667 J-11.9164
G3 X19.1433 Y42.1894 I-1.3489 J1.9013
G1 X19.0119 Y51.688
G2 X20.2639 Y57.2656 I13.0588 J-0.0021
X23.6775 Y61.8507 I13.1049 J-6.1931
G3 X23.6814 Y63.0422 I-0.5373 J0.5975
G2 X20.259 Y67.6939 I9.9059 J10.873
X19.0083 Y73.3319 I12.0747 J5.6361
G1 X19.0126 Y104.0962
G2 X20.9777 Y111.0335 I13.2342 J-0.0018
X26.1599 Y116.0468 I12.4065 J-7.6395
G3 X27.1431 Y117.7402 I-0.967 J1.6937
G1 X27.0117 Y128.5852
G2 X27.9283 Y133.3304 I12.7502 J-0.0018
X30.4329 Y137.4637 I13.796 J-5.5342
G3 X30.0821 Y138.2259 I-0.3508 J0.3003
G1 X12.7155 Y138.2257
G3 X11.7715 Y137.2817 J-0.944
G1 X11.774 Y12.7184
G3 X12.718 Y11.7744 I0.944
G1 X339.2845
G3 X340.2285 Y12.7184 J0.944
G1 X340.226 Y137.2846
G3 X339.282 Y138.2286 I-0.944
G1 X321.9156 Y138.2284
G3 X321.5649 Y137.4663 J-0.4617
G2 X324.9756 Y127.8978 I-10.7801 J-9.2347
G3 X324.8641 Y120.2948 I429.1371 J-10.0966
G2 X323.9891 Y119.0084 I-1.3951 J0.0081
G3 X323.1141 Y117.722 I0.5305 J-1.3017
G1 X323.1008 Y116.4982
G3 X324.0639 Y114.9919 I1.6599 J0.0002
G2 X328.8532 Y111.1121 I-5.2758 J-11.4085
X331.1517 Y105.3931 I-9.5969 J-7.1784
G1 X331.2322 Y78.9165
G2 X328.3312 Y71.0875 I-12.0183 J0.0013
X321.0819 Y66.9454 I-9.441 J8.1084
X319.6195 Y66.7901 I-1.8203 J10.1741
X318.149 Y66.7646 I-1.4717 J42.4841
G1 X310.0474 Y66.8974
G3 X309.1035 Y65.9534 J-0.9439
G1 X309.1041 Y61.0462
G3 X310.0482 Y60.1021 I0.9442 J0.0001
G1 X320.7685 Y60.1028
G2 X327.9287 Y56.3695 I-1.6404 J-11.879
X331.194 Y48.984 I-9.1311 J-8.4516
G1 X331.1022 Y41.0735
G3 X332.0762 Y39.3476 I2.0163
G2 X337.0131 Y33.6513 I-6.3195 J-10.4645
X337.8601 Y26.161 I-12.215 J-5.1742
X334.0725 Y19.2022 I-12.2902 J2.1791
X326.8221 Y16.008 I-8.2215 J8.836
G1 X245.9194 Y15.9677
G2 X238.076 Y18.8859 I0.0003 J12.0003
X233.9399 Y26.161 I8.1672 J9.4566
X233.768 Y28.1142 I11.0198 J1.9539
G1 X233.8983 Y72.9536
G3 X232.9543 Y73.8976 I-0.944 J-0.0001
G1 X174.0457
G3 X173.1017 Y72.9536 J-0.944
G1 X173.232 Y28.1142
G2 X170.6213 Y20.6476 I-11.985 J0.0007
X163.9881 Y16.3386 I-9.7736 J7.7854
X162.5008 Y16.0563 I-2.8661 J11.0377
X160.9897 Y15.9646 I-1.5111 J12.4066
G1 X24.6964 Y16.0598
G2 X14.9909 Y23.1408 I1.4284 J12.1497
X15.6186 Y35.1383 I11.8509 J5.3952
X17.5161 Y37.5103 I9.1861 J-5.4039
X19.9322 Y39.3513 I10.2066 J-10.889
G3 X20.8994 Y41.0767 I-1.0561 J1.7257
G1 X20.7681 Y51.6877
G2 X22.4259 Y57.6251 I11.4679 J-0.0019
X26.7855 Y61.9833 I11.0398 J-6.6837
G3 X26.7837 Y62.9161 I-0.2818 J0.4659
G2 X22.5966 Y67.017 I6.4822 J10.8064
X20.7889 Y72.5922 I10.1255 J6.3637
G1 X20.7688 Y104.096
G2 X22.76 Y110.5914 I11.5951 J-0.0016
X27.9361 Y114.9919 I10.4941 J-7.0992
G3 X28.8992 Y116.4982 I-0.6967 J1.5066
X28.8336 Y122.5416 I-274.6029 J0.039
G2 X28.7679 Y128.585 I274.5373 J6.0043
X30.6643 Y134.9185 I11.5301 J-0.0016
X35.5933 Y139.3245 I10.757 J-7.0738
G3 X35.436 Y139.9821 I-0.1574 J0.31
G1 X10.9592 Y139.9819
G3 X10.0153 Y139.038 J-0.944
G1 X10.0178 Y10.9621
G3 X10.9618 Y10.0182 I0.944
G1 X341.0408
G3 X341.9848 Y10.9621 J0.944
G1 X341.9822 Y139.0409
G3 X341.0382 Y139.9848 I-0.944
G1 X316.5587 Y139.9846
G3 X316.4015 Y139.3271 J-0.3475
G2 X320.7666 Y135.7176 I-5.8241 J-11.4873
X323.06 Y130.5385 I-9.3769 J-7.2496
X323.2321 Y128.5849 I-11.0196 J-1.9551
G1 X323.1141 Y117.722
G2 X322.3384 Y116.5841 I-1.2422 J0.0135
G3 X321.5627 Y115.4463 I0.4651 J-1.1504
G1 X321.5616 Y115.3333
G3 X322.5482 Y113.9459 I1.4691 J0.0002
G2 X329.6265 Y105.206 I-3.5019 J-10.0723
G1 X329.6955 Y78.9167
G2 X327.1529 Y72.0739 I-10.4822 J0.0012
X320.8113 Y68.4581 I-8.2628 J7.1227
X319.4836 Y68.3207 I-1.5908 J8.8918
X318.149 Y68.3013 I-1.336 J45.8383
G1 X308.5271 Y68.4367
G3 X307.564 Y67.4735 J-0.9631
G1 X307.5649 Y59.5262
G3 X308.5283 Y58.5629 I0.9635 J0.0001
G1 X320.5583 Y58.5806
G2 X326.8146 Y55.3112 I-1.4302 J-10.3574
X329.663 Y48.8523 I-8.0176 J-7.3933
G1 X329.5629 Y40.0268
G3 X330.5371 Y38.4403 I1.779
G2 X333.9504 Y21.2729 I-5.0333 J-9.9237
X330.3098 Y18.5032 I-8.344 J7.1901
X325.8463 Y17.5023 I-4.4636 J9.4519
G1 X245.9195 Y17.5043
G2 X239.0632 Y20.0635 I0.0003 J10.4644
X235.453 Y26.4293 I7.1808 J8.2791
X235.3047 Y28.1143 I9.5067 J1.6856
G1 X235.4376 Y74.4737
G3 X234.4743 Y75.437 I-0.9633 J-0.0001
G1 X172.5257
G3 X171.5624 Y74.4737 J-0.9633
G1 X171.6953 Y28.1143
G2 X169.4059 Y21.5878 I-10.4491 J0.0006
X163.6019 Y17.826 I-8.5584 J6.8461
X162.3062 Y17.5805 I-2.4807 J9.5536
X160.9897 Y17.5012 I-1.3164 J10.8864
G1 X24.8758 Y17.586
G2 X16.3672 Y23.8244 I1.2492 J10.6256
X16.943 Y34.3592 I10.4767 J4.7105
X18.9052 Y36.7271 I8.3083 J-4.8876
X21.4597 Y38.4391 I7.9171 J-9.0515
G3 X22.4386 Y40.0202 I-0.7878 J1.5813
X22.3717 Y45.8538 I-250.7616 J0.0412
G2 X22.3048 Y51.6875 I250.6947 J5.7925
X24.7819 Y58.4415 I10.4507 J-0.0017
X30.9754 Y62.1013 I8.3672 J-7.0892
X32.408 Y62.2718 I1.7651 J-8.7282
X33.8505 Y62.2988 I1.4458 J-38.7017
G1 X42.7623 Y62.1638
G3 Y62.7367 J0.2864
G1 X31.5112 Y62.7089
G2 X25.1316 Y66.0584 I1.3664 J10.3525
X22.3222 Y72.6935 I8.1393 J7.3586
G1 X22.3055 Y104.0958
G2 X24.3064 Y110.1615 I10.1992 J-0.0014
X29.4518 Y113.9459 I8.6995 J-6.4381
G3 X30.4384 Y115.3333 I-0.4824 J1.3876
G1 X30.3046 Y128.5848
G2 X32.9472 Y135.5395 I10.4767 J-0.0015
X39.4863 Y139.0882 I8.1687 J-7.2534
X40.9265 Y139.1962 I1.4403 J-9.547
G1 X311.0734
G2 X317.9333 Y136.6376 J-10.4753
X321.547 Y130.27 I-7.1764 J-8.2819
X321.6954 Y128.5847 I-9.5066 J-1.6867
G1 X321.5627 Y115.4463
G2 X320.7923 Y114.5035 I-0.9741 J0.0098
G3 X320.352 Y113.3683 I0.1522 J-0.712
X321.0725 Y112.886 I0.9996 J0.7139
G2 X326.2099 Y109.7104 I-2.1518 J-9.2245
X328.2598 Y104.0293 I-6.8448 J-5.6801
G1 X328.257 Y78.9169
G2 X326.0497 Y72.9973 I-9.0443 J0.001
X320.5579 Y69.8741 I-7.1598 J6.2001
X319.3564 Y69.7536 I-1.3809 J7.7183
X318.1489 Y69.7398 I-1.209 J52.8385
X312.6187 Y69.8075 I-0.0065 J225.363
G3 X307.0883 Y69.8752 I-5.5238 J-225.2952
X306.1252 Y68.912 J-0.9631
G1 X306.1265 Y58.0878
G3 X307.0899 Y57.1244 I0.9635 J0.0001
G1 X320.3615 Y57.1556
G2 X325.7715 Y54.3204 I-1.2336 J-8.9332
X328.2297 Y48.729 I-6.9754 J-6.4027
G1 X328.1243 Y38.92
G3 X329.1008 Y37.5046 I1.5141
G2 X333.4118 Y34.175 I-3.331 J-8.7687
X335.0601 Y28.9832 I-7.2476 J-5.1584
X333.993 Y24.0742 I-12.0341 J0.0452
X330.6555 Y20.3195 I-7.6876 J3.4728
X328.3448 Y19.3024 I-5.1327 J8.528
X325.8463 Y18.9408 I-2.4985 J8.4507
G1 X245.9195 Y18.9429
G2 X239.9874 Y21.1659 I0.0002 J9.0268
X236.8695 Y26.6805 I6.2576 J7.1769
X236.7433 Y28.1144 I8.0903 J1.4345
G1 X236.8761 Y75.9123
G3 X235.9128 Y76.8755 I-0.9633 J-0.0001
G1 X171.0872
G3 X170.1239 Y75.9123 J-0.9633
G1 X170.2567 Y28.1144
G2 X168.268 Y22.468 I-9.0116 J0.0006
X163.2404 Y19.2184 I-7.4208 J5.967
X162.1239 Y19.0075 I-2.1202 J8.1653
X160.9897 Y18.9398 I-1.1342 J9.4647
G1 X25.0438 Y19.0147
G2 X17.6556 Y24.4643 I1.0816 J9.1994
X18.183 Y33.6298 I9.1908 J4.069
X20.226 Y35.9646 I7.1881 J-4.2286
X22.9164 Y37.5097 I6.6909 J-8.5354
G3 X23.877 Y38.9242 I-0.5614 J1.4147
G1 X23.7433 Y51.6873
G2 X25.8953 Y57.5306 I9.0131 J-0.0015
X31.2605 Y60.6913 I7.254 J-6.1794
X32.5513 Y60.8404 I1.5251 J-7.5414
X33.8506 Y60.8602 I1.303 J-42.7798
G1 X43.8099 Y60.7253
G3 X44.7733 Y61.6887 I-0.0001 J0.9635
G1 X44.7735 Y63.2117
G3 X43.8103 Y64.1751 I-0.9633 J0.0001
G1 X31.6994 Y64.135
G2 X26.1815 Y67.0419 I1.1783 J8.9274
X23.7577 Y72.7884 I7.0906 J6.3752
G1 X23.7441 Y104.0956
G2 X25.8039 Y109.7426 I8.774 J-0.0012
X30.9275 Y112.886 I7.2868 J-6.1299
G3 X31.8768 Y114.0821 I-0.279 J1.1962
G1 X31.7431 Y128.5845
G2 X34.0376 Y134.6012 I9.0389 J-0.0013
X39.7009 Y137.6657 I7.0785 J-6.3159
X40.9265 Y137.7576 I1.2257 J-8.1245
G1 X311.0734
G2 X317.0092 Y135.5351 J-9.0376
X320.1305 Y130.0187 I-6.2533 J-7.1796
X320.2569 Y128.5845 I-8.0901 J-1.4354
G1 X320.1232 Y114.0821
G3 X320.352 Y113.3683 I1.2284 J0.0002
G2 X320.9871 Y111.6572 I-2.8375 J-2.0266
G3 X322.0534 Y110.1758 I1.7878 J0.1624
G2 X323.4541 Y109.2905 I-2.2275 J-5.0749
X325.0574 Y107.3373 I-4.8955 J-5.6529
X325.8518 Y104.9384 I-5.5895 J-3.1821
G1 X325.9164 Y78.9171
G2 X324.2549 Y74.4996 I-6.7055 J0.0007
X320.1457 Y72.1782 I-5.3654 J4.6997
X319.1495 Y72.0851 I-1.0518 J5.8786
X318.1489 Y72.0804 I-1.0037 J108.0269
X311.4482 Y72.1481 I-0.0096 J330.8304
G3 X304.7475 Y72.2158 I-6.6911 J-330.7627
X303.7844 Y71.2525 J-0.9631
G1 X303.7861 Y55.7474
G3 X304.7495 Y54.784 I0.9635 J0.0001
G1 X320.0414 Y54.8369
G2 X324.0745 Y52.7085 I-0.9137 J-6.6165
X325.8977 Y48.5285 I-5.2806 J-4.7909
G1 X325.7838 Y36.791
G3 X326.7196 Y35.7167 I1.0846
G2 X331.9093 Y31.9932 I-0.9397 J-6.7882
X332.2132 Y25.6132 I-7.0678 J-3.5339
X329.701 Y22.4605 I-6.2749 J2.4227
X325.8461 Y21.2814 I-3.8547 J5.7118
G1 X245.9196 Y21.2835
G2 X241.4911 Y22.9597 I0.0002 J6.6886
X239.1741 Y27.0891 I4.7566 J5.3836
X239.0839 Y28.1146 I5.7856 J1.0258
G1 X239.2165 Y78.2529
G3 X238.2532 Y79.2161 I-0.9633 J-0.0001
G1 X168.7468
G3 X167.7835 Y78.2529 J-0.9633
G1 X167.9161 Y28.1146
G2 X166.4166 Y23.9001 I-6.6735 J0.0004
X162.6521 Y21.4838 I-5.5702 J4.5376
X161.8274 Y21.3293 I-1.5345 J5.9098
X160.9897 Y21.2804 I-0.8377 J7.1567
G1 X25.3171 Y21.3393
G2 X19.7518 Y25.5055 I0.809 J6.8808
X20.2004 Y32.443 I7.1009 J3.0241
X22.3724 Y34.6661 I5.5887 J-3.2877
X25.2952 Y35.7228 I3.9639 J-6.3932
G3 X26.2172 Y36.7824 I-0.1481 J1.0598
G1 X26.0839 Y51.6869
G2 X27.7069 Y56.0484 I6.6751 J-0.0011
X31.7244 Y58.3971 I5.443 J-4.7002
X32.7846 Y58.5114 I1.1486 J-5.6799
X33.8508 Y58.5196 I1.0723 J-70.2033
G1 X46.1503 Y58.3849
G3 X47.1137 Y59.3483 I-0.0001 J0.9635
G1 X47.1143 Y65.552
G3 X46.1512 Y66.5154 I-0.9633 J0.0001
G1 X32.0057 Y66.4555
G2 X27.8897 Y68.6421 I0.8724 J6.6096
X26.0932 Y72.9427 I5.3856 J4.7752
G1 X26.0847 Y104.0953
G2 X27.8762 Y108.5681 I6.4815 J-0.0009
X32.1657 Y110.7627 I5.2859 J-5.0422
X32.7093 Y110.7914 I0.4418 J-3.2086
G3 X33.2536 Y110.7829 I0.5417 J17.221
X34.2171 Y111.7463 I-0.0001 J0.9636
G1 X34.0837 Y128.5842
G2 X35.8117 Y133.0744 I6.7003 J-0.001
X40.0501 Y135.3513 I5.3047 J-4.7914
X40.9266 Y135.417 I0.8765 J-5.8101
G1 X311.0734
G2 X315.5056 Y133.7413 J-6.6993
X317.8259 Y129.6098 I-4.7522 J-5.3862
X317.9163 Y128.5842 I-5.7855 J-1.0265
G1 X317.7829 Y111.7463
G3 X318.7464 Y110.7829 I0.9636 J0.0001
G2 X321.2348 Y110.4611 I-0.0015 J-9.7947
X322.0534 Y110.1758 I-1.4089 J-5.3602
X323.187 Y107.9654 I-0.7906 J-1.8013
G3 X323.337 Y105.4858 I4.5562 J-0.9686
G2 X323.5286 Y104.6534 I-3.8863 J-1.3328
G1 X323.5757 Y78.9174
G2 X322.4601 Y76.002 I-4.3684 J0.0005
X319.7335 Y74.4822 I-3.5713 J3.2014
X318.9425 Y74.4165 I-0.743 J4.1529
G3 X318.1488 Y74.421 I-0.7917 J-69.5736
G1 X302.4066 Y74.5563
G3 X301.4435 Y73.5931 J-0.9631
G1 X301.4458 Y53.407
G3 X302.4092 Y52.4436 I0.9635 J0.0001
G1 X319.7212 Y52.5183
G2 X322.3774 Y51.0965 I-0.594 J-4.3018
X323.5657 Y48.3279 I-3.5881 J-3.1794
G1 X323.4432 Y34.406
G3 X324.4065 Y33.4425 I0.9635
X326.1788 Y33.4575 I0.0183 J102.6559
G2 X327.9006 Y33.0373 I0.0597 J-3.4934
X330.4465 Y29.413 I-2.3604 J-4.3645
X329.2193 Y25.1573 I-5.2473 J-0.7916
X328.0284 Y24.2026 I-3.1644 J2.7268
X326.5901 Y23.6919 I-2.3982 J4.4737
X325.8463 Y23.622 I-0.7324 J3.8031
G1 X245.9196 Y23.6241
G2 X242.9948 Y24.7534 I0.0001 J4.3526
X241.4788 Y27.4977 I3.2584 J3.5909
X241.4245 Y28.1147 I3.4809 J0.6172
G1 X241.557 Y80.5935
G3 X240.5937 Y81.5567 I-0.9633 J-0.0001
G1 X166.4063
G3 X165.443 Y80.5935 J-0.9633
G1 X165.5755 Y28.1147
G2 X164.5653 Y25.3322 I-4.3378 J0.0003
X162.0639 Y23.7493 I-3.7203 J3.1112
X161.5309 Y23.651 I-0.9514 J3.664
X160.9897 Y23.621 I-0.5411 J4.866
G1 X25.5904 Y23.6639
G2 X21.8481 Y26.5467 I0.537 J4.5676
X22.2178 Y31.2562 I5.0174 J1.9753
X23.8553 Y32.8833 I3.9166 J-2.304
X26.0841 Y33.4846 I2.2359 J-3.8566
X26.8389 Y33.4622 I0.0194 J-12.0874
G3 X27.5937 Y33.4398 I0.7354 J12.065
X28.5575 Y34.405 I-0.0015 J0.9653
X28.491 Y43.0457 I-550.1087 J0.0903
G2 X28.4246 Y51.6865 I550.0422 J8.5504
X29.5184 Y54.5663 I4.3395 J-0.0007
X32.1884 Y56.1029 I3.6327 J-3.224
X33.0178 Y56.1824 I0.7957 J-3.9348
G3 X33.851 Y56.179 I0.8248 J98.2606
G1 X48.4907 Y56.0445
G3 X49.454 Y57.0079 I-0.0001 J0.9635
G1 X49.4552 Y67.8923
G3 X48.492 Y68.8557 I-0.9633 J0.0001
G1 X32.312 Y68.776
G2 X29.5978 Y70.2423 I0.5668 J4.2944
X28.4287 Y73.097 I3.6838 J3.1754
G1 X28.4253 Y104.0949
G2 X29.6244 Y107.0596 I4.2658 J-0.0006
X32.4763 Y108.5065 I3.5197 J-3.4034
X34.0362 Y108.5278 I0.8661 J-6.2903
G3 X35.5939 Y108.4426 I1.5555 J14.1517
X36.5574 Y109.4061 I-0.0001 J0.9636
G1 X36.4244 Y128.5839
G2 X37.5859 Y131.5477 I4.3636 J-0.0006
X40.3993 Y133.0368 I3.5313 J-3.2691
X40.9266 Y133.0764 I0.5274 J-3.4957
G1 X311.0734
G2 X314.002 Y131.9474 J-4.3631
X315.5213 Y129.2009 I-3.2539 J-3.5934
X315.5757 Y128.5839 I-3.4809 J-0.6176
G1 X315.4427 Y109.4061
G3 X316.4061 Y108.4426 I0.9636 J0.0001
X319.247 Y108.4791 I0.0164 J109.1825
G2 X321.9218 Y107.5211 I0.1017 J-3.9292
X322.9917 Y106.2366 I-3.3798 J-3.9027
X323.337 Y105.4858 I-3.541 J-2.0835
X322.4003 Y103.1177 I-1.8542 J-0.6359
G3 X321.0867 Y100.9358 I1.1558 J-2.1821
G1 X321.0843 Y78.9177
G2 X321.0688 Y78.7384 I-1.0437 J0.0001
G1 X321.0351 Y78.5458
G2 X320.985 Y78.3607 I-1.0282 J0.1793
G1 X320.9193 Y78.1846
G2 X320.8439 Y78.0248 I-0.9781 J0.3644
G1 X320.7608 Y77.8818
G2 X320.6587 Y77.7361 I-0.9026 J0.5242
G1 X320.5364 Y77.59
G2 X320.4032 Y77.4573 I-0.8004 J0.6699
G1 X320.2605 Y77.3386
G2 X320.1009 Y77.2293 I-0.6672 J0.8026
G1 X319.9251 Y77.1314
G2 X319.7552 Y77.0558 I-0.5077 J0.912
G1 X319.5936 Y77.0005
G2 X319.4397 Y76.9607 I-0.3377 J0.9876
G1 X319.2947 Y76.9347
G2 X319.1173 Y76.9184 I-0.1838 J1.0274
G1 X318.1551 Y76.9125
X318.1487
X300.9878 Y76.912
X300.8068 Y76.9015
X300.642 Y76.8774
X300.4763 Y76.8376
X300.3093 Y76.7815
X300.1322 Y76.7031
X300.0595 Y76.6643
X299.9337 Y76.5862
X299.8075 Y76.494
X299.7195 Y76.4195
X299.6356 Y76.3383
X299.4771 Y76.1541
X299.3687 Y75.9956
X299.2782 Y75.8297
X299.2097 Y75.6681
X299.1455 Y75.4617
X299.1183 Y75.3355
X299.0959 Y75.1655
X299.0876 Y74.9769
X299.0902 Y51.923
X299.1038 Y51.7643
X299.1509 Y51.5174
X299.1872 Y51.393
X299.2365 Y51.2623
X299.3181 Y51.0927
X299.427 Y50.9137
X299.4742 Y50.848
X299.5817 Y50.7188
X299.7104 Y50.5891
X299.8037 Y50.5095
X299.9786 Y50.3852
X300.1407 Y50.2935
X300.3407 Y50.2066
X300.5764 Y50.1359
X300.6298 Y50.1244
X300.8068 Y50.0985
X300.9878 Y50.088
X319.0468 Y50.0864
G2 X319.1895 Y50.0766 I-0.0001 J-1.0438
G1 X319.3804 Y50.0503
G2 X319.5705 Y50.0056 I-0.1428 J-1.0339
G1 X319.7581 Y49.9424
G2 X319.9142 Y49.8754 I-0.3329 J-0.9892
G1 X320.0392 Y49.809
G2 X320.1717 Y49.7255 I-0.4889 J-0.9222
G1 X320.3096 Y49.6233
G2 X320.4396 Y49.5091 I-0.6214 J-0.8386
G1 X320.5608 Y49.3834
G2 X320.665 Y49.2568 I-0.7514 J-0.7244
G1 X320.7528 Y49.1311
G2 X320.8431 Y48.9746 I-0.8556 J-0.5978
G1 X320.9311 Y48.786
G2 X320.9985 Y48.595 I-0.9459 J-0.4413
G1 X321.0457 Y48.4037
G2 X321.0723 Y48.2429 I-1.0133 J-0.2503
G1 X321.0834 Y48.1145
X321.0872 Y48.025
X321.0875 Y31.0873
X325.8465 Y31.0865
G2 X325.9894 Y31.0766 I-0.0002 J-1.0438
G1 X326.1819 Y31.05
G2 X326.3753 Y31.0041 I-0.1431 J-1.0339
G1 X326.5677 Y30.9385
G2 X326.7277 Y30.8686 I-0.3365 J-0.988
G1 X326.856 Y30.7992
G2 X326.9851 Y30.7166 I-0.4965 J-0.9181
G1 X327.1138 Y30.6202
G2 X327.2407 Y30.508 I-0.6257 J-0.8354
G1 X327.3642 Y30.3795
G2 X327.47 Y30.2501 I-0.7526 J-0.7232
G1 X327.5588 Y30.1217
G2 X327.6497 Y29.9617 I-0.8584 J-0.5938
G1 X327.7378 Y29.769
G2 X327.8043 Y29.5752 I-0.9493 J-0.4338
G1 X327.8498 Y29.3825
G2 X327.8748 Y29.221 I-1.0158 J-0.2399
G1 X327.8845 Y29.0925
X327.8874 Y29.0102
X327.884 Y28.111
G2 X327.868 Y27.9327 I-1.0437 J0.0039
G1 X327.8338 Y27.74
G2 X327.7798 Y27.5463 I-1.0277 J0.1822
G1 X327.7054 Y27.3536
G2 X327.6191 Y27.18 I-0.9737 J0.3759
G1 X327.5237 Y27.026
G2 X327.427 Y26.8942 I-0.8874 J0.5495
G1 X327.3318 Y26.7837
G2 X327.223 Y26.6749 I-0.7907 J0.6813
G1 X327.1003 Y26.569
G2 X326.9567 Y26.4649 I-0.6819 J0.7902
G1 X326.7917 Y26.3656
G2 X326.6178 Y26.2818 I-0.5382 J0.8943
G1 X326.4364 Y26.2142
G2 X326.2695 Y26.1674 I-0.3643 J0.9781
G1 X326.1189 Y26.1384
G2 X326.0056 Y26.123 I-0.1974 J1.0249
G1 X325.9303 Y26.1169
X325.8463 Y26.1135
X245.9197 Y26.1156
G2 X245.7398 Y26.1312 J1.0437
G1 X245.5421 Y26.1658
G2 X245.3613 Y26.2145 I0.18 J1.0281
G1 X245.1983 Y26.2745
G2 X245.0463 Y26.3448 I0.3607 J0.9794
G1 X244.9059 Y26.424
G2 X244.7646 Y26.5197 I0.5127 J0.9092
G1 X244.6243 Y26.6326
G2 X244.4915 Y26.7601 I0.654 J0.8135
G1 X244.3679 Y26.9019
G2 X244.2633 Y27.0447 I0.7867 J0.6859
G1 X244.1769 Y27.1865
G2 X244.0946 Y27.3536 I0.8914 J0.543
G1 X244.0202 Y27.5463
G2 X243.9662 Y27.74 I0.9737 J0.3759
G1 X243.932 Y27.9327
G2 X243.916 Y28.1149 I1.0277 J0.1822
G1 X243.9126 Y83.9125
X163.0874
X163.084 Y28.1149
G2 X163.068 Y27.9327 I-1.0437 J0.0001
G1 X163.0338 Y27.74
G2 X162.9798 Y27.5463 I-1.0277 J0.1822
G1 X162.9054 Y27.3536
G2 X162.8251 Y27.1899 I-0.9737 J0.3759
G1 X162.7434 Y27.0546
G2 X162.6402 Y26.9123 I-0.8934 J0.5396
G1 X162.5138 Y26.7658
G2 X162.4021 Y26.6547 I-0.7902 J0.6819
G1 X162.3097 Y26.5756
G2 X162.1933 Y26.4892 I-0.6785 J0.7931
G1 X162.0514 Y26.3986
G2 X161.9088 Y26.3223 I-0.5621 J0.8795
G1 X161.7669 Y26.26
G2 X161.6097 Y26.2055 I-0.4195 J0.9557
G1 X161.4377 Y26.1608
G2 X161.2585 Y26.1307 I-0.2623 J1.0102
G1 X161.0729 Y26.1158
X160.9897 Y26.1125
X26.1537 Y26.1135
G2 X26.0319 Y26.1207 J1.0437
G1 X25.8813 Y26.1384
G2 X25.7303 Y26.1675 I0.1219 J1.0366
G1 X25.5798 Y26.2083
G2 X25.4242 Y26.264 I0.2729 J1.0075
G1 X25.2652 Y26.3356
G2 X25.0987 Y26.4297 I0.4284 J0.9518
G1 X24.9277 Y26.5483
G2 X24.7838 Y26.6687 I0.5949 J0.8576
G1 X24.6658 Y26.7869
G2 X24.5514 Y26.923 I0.7388 J0.7373
G1 X24.4429 Y27.077
G2 X24.3467 Y27.2444 I0.8532 J0.6012
G1 X24.2646 Y27.4242
G2 X24.1997 Y27.6113 I0.9493 J0.4338
G1 X24.1528 Y27.8039
G2 X24.1249 Y27.9926 I1.0142 J0.2468
G1 X24.1141 Y28.1853
X24.1125 Y28.247
X24.1155 Y29.082
G2 X24.1303 Y29.2537 I1.0437 J-0.0037
G1 X24.1631 Y29.4464
G2 X24.2157 Y29.6401 I1.0289 J-0.1754
G1 X24.2886 Y29.8328
G2 X24.3653 Y29.9929 I0.9763 J-0.3691
G1 X24.4408 Y30.1213
G2 X24.5306 Y30.2505 I0.8996 J-0.5292
G1 X24.635 Y30.379
G2 X24.753 Y30.502 I0.8099 J-0.6584
G1 X24.8843 Y30.6183
G2 X25.0152 Y30.717 I0.6919 J-0.7815
G1 X25.1437 Y30.7989
G2 X25.3036 Y30.8824 I0.561 J-0.8801
G1 X25.4961 Y30.9625
G2 X25.6896 Y31.0218 I0.4011 J-0.9636
G1 X25.882 Y31.0608
G2 X26.0879 Y31.0817 I0.2076 J-1.0229
G1 X29.7443 Y31.0875
X30.9127
X30.916 Y51.6861
G2 X30.9322 Y51.869 I1.0438 J-0.0002
G1 X30.9665 Y52.0617
G2 X31.0202 Y52.2539 I1.0276 J-0.1831
G1 X31.0933 Y52.4437
G2 X31.1698 Y52.6014 I0.9739 J-0.3753
G1 X31.245 Y52.7279
G2 X31.334 Y52.8551 I0.8974 J-0.533
G1 X31.4373 Y52.9817
G2 X31.5578 Y53.1064 I0.8084 J-0.6602
G1 X31.6958 Y53.2273
G2 X31.829 Y53.3265 I0.6879 J-0.785
G1 X31.9551 Y53.4056
G2 X32.1122 Y53.4865 I0.5547 J-0.8842
G1 X32.3013 Y53.5644
G2 X32.492 Y53.6224 I0.3976 J-0.9651
G1 X32.6822 Y53.6609
G2 X32.8827 Y53.6816 I0.2069 J-1.023
G1 X33.8449 Y53.6875
X33.8512
X51.11 Y53.689
X51.2305 Y53.7031
X51.3386 Y53.7321
X51.4357 Y53.7743
X51.5059 Y53.8171
X51.5648 Y53.8626
X51.6161 Y53.9125
X51.6993 Y54.0179
X51.7173 Y54.0473
X51.7591 Y54.1347
X51.7839 Y54.2082
X51.8055 Y54.3121
X51.8095 Y54.3525
X51.8112 Y70.5151
X51.8032 Y70.606
X51.7951 Y70.6502
X51.7709 Y70.734
X51.7401 Y70.8073
X51.6834 Y70.9043
X51.632 Y70.97
X51.5539 Y71.046
X51.482 Y71.0992
X51.4263 Y71.1314
X51.3432 Y71.1667
X51.2305 Y71.1969
X51.1099 Y71.2111
X32.9531 Y71.2135
G2 X32.8167 Y71.2225 I0.0001 J1.0438
G1 X32.638 Y71.2461
G2 X32.4727 Y71.2817 I0.1366 J1.0348
G1 X32.3216 Y71.3274
G2 X32.1698 Y71.3865 I0.3019 J0.9992
G1 X32.0186 Y71.4594
G2 X31.8616 Y71.553 I0.4536 J0.94
G1 X31.7011 Y71.6688
G2 X31.5687 Y71.7823 I0.6107 J0.8464
G1 X31.4628 Y71.8897
G2 X31.3515 Y72.0231 I0.7431 J0.7329
G1 X31.2385 Y72.1842
G2 X31.1452 Y72.3464 I0.8544 J0.5995
G1 X31.0708 Y72.5074
G2 X31.0077 Y72.6847 I0.9477 J0.4373
G1 X30.9581 Y72.8774
G2 X30.9275 Y73.0686 I1.0108 J0.2601
G1 X30.9148 Y73.2613
X30.9125 Y73.3303
X30.9168 Y104.0946
G2 X30.9345 Y104.2861 I1.0437 J-0.0001
G1 X30.9705 Y104.4787
G2 X31.0253 Y104.6693 I1.026 J-0.1916
G1 X31.0987 Y104.8559
G2 X31.1751 Y105.0109 I0.9713 J-0.3822
G1 X31.2498 Y105.1354
G2 X31.3379 Y105.2604 I0.8949 J-0.5372
G1 X31.4401 Y105.3848
G2 X31.5635 Y105.5115 I0.8067 J-0.6623
G1 X31.7092 Y105.6378
G2 X31.875 Y105.7551 I0.6833 J-0.789
G1 X32.0603 Y105.861
G2 X32.2469 Y105.9445 I0.5175 J-0.9064
G1 X32.4323 Y106.0064
G2 X32.6208 Y106.0505 I0.3309 J-0.9899
G1 X32.8109 Y106.0767
G2 X32.9531 Y106.0865 I0.1424 J-1.034
G1 X38.9126 Y106.0873
X38.9158 Y128.5835
G2 X38.9319 Y128.7658 I1.0438 J-0.0002
G1 X38.9667 Y128.9621
G2 X39.017 Y129.1459 I1.0277 J-0.1824
G1 X39.0808 Y129.3162
G2 X39.1665 Y129.4923 I0.9774 J-0.3662
G1 X39.2755 Y129.6716
G2 X39.3942 Y129.8305 I0.8918 J-0.5424
G1 X39.5195 Y129.9687
G2 X39.6592 Y130.0971 I0.7731 J-0.7012
G1 X39.8125 Y130.2141
G2 X39.9669 Y130.3119 I0.6334 J-0.8296
G1 X40.1203 Y130.3911
G2 X40.2793 Y130.4573 I0.479 J-0.9273
G1 X40.443 Y130.51
G2 X40.6073 Y130.5486 I0.32 J-0.9935
G1 X40.7709 Y130.5732
G2 X40.9266 Y130.5849 I0.1557 J-1.0321
G1 X311.0734
G2 X311.2291 Y130.5732 J-1.0437
G1 X311.3928 Y130.5485
G2 X311.557 Y130.51 I-0.1557 J-1.0321
G1 X311.7207 Y130.4573
G2 X311.8798 Y130.3911 I-0.32 J-0.9935
G1 X312.0331 Y130.3119
G2 X312.1875 Y130.2141 I-0.479 J-0.9273
G1 X312.3408 Y130.0971
G2 X312.4805 Y129.9687 I-0.6334 J-0.8296
G1 X312.6059 Y129.8305
G2 X312.7245 Y129.6716 I-0.7731 J-0.7012
G1 X312.8336 Y129.4923
G2 X312.9192 Y129.3161 I-0.8918 J-0.5424
G1 X312.983 Y129.1458
G2 X313.0333 Y128.962 I-0.9774 J-0.3662
G1 X313.0681 Y128.7657
G2 X313.0842 Y128.5835 I-1.0277 J-0.1823
G1 X313.0874 Y106.0873
X319.0469 Y106.0865
G2 X319.1891 Y106.0767 I-0.0002 J-1.0438
G1 X319.3792 Y106.0505
G2 X319.5678 Y106.0064 I-0.1424 J-1.034
G1 X319.7531 Y105.9445
G2 X319.9397 Y105.861 I-0.3309 J-0.9899
G1 X320.125 Y105.7551
G2 X320.2908 Y105.6377 I-0.5175 J-0.9064
G1 X320.4366 Y105.5115
G2 X320.56 Y105.3848 I-0.6833 J-0.789
G1 X320.6621 Y105.2604
G2 X320.7675 Y105.1056 I-0.8067 J-0.6623
G1 X320.8713 Y104.919
G2 X320.9531 Y104.7302 I-0.9121 J-0.5075
G1 X321.0136 Y104.5415
G2 X321.0557 Y104.35 I-0.9939 J-0.3186
G1 X321.0793 Y104.1573
G2 X321.0871 Y104.0301 I-1.036 J-0.1271
G1 X321.0867 Y100.9358
X321.0905 Y100.8869 Z-3.9922
X321.1017 Y100.8392 Z-3.9845
X321.1181 Y100.7982 Z-3.9619
X321.14 Y100.7597 Z-3.9394
X321.1851 Y100.7061 Z-3.8691
X321.2198 Y100.6773 Z-3.7806
X321.2327 Y100.6686 Z-3.6825
G0 Z5
X339.1217 Y100.3515
Z1
G1 Z-3.6825 F3500
G18 G2 X339.4392 Z-4 I0.3175
G1 X342.3027
G17 G3 X342.6202 Y100.669 J0.3175
G1 Y100.6691
X342.6195 Y139.6589
G3 X341.6562 Y140.6221 I-0.9633
G1 X10.3412 Y140.6192
G3 X9.378 Y139.6559 J-0.9632
G1 X9.3806 Y10.3441
G3 X10.3438 Y9.3809 I0.9633
G1 X341.6588
G3 X342.622 Y10.3441 J0.9632
G1 X342.6202 Y100.6691
G2 X343.7905 Y102.4246 I1.9018
G3 X344.9608 Y104.1801 I-0.7315 J1.7555
G1 X344.9601 Y141.9995
G3 X343.9968 Y142.9628 I-0.9632
G1 X8.0005 Y142.9598
G3 X7.0373 Y141.9966 J-0.9632
G1 X7.04 Y8.0035
G3 X8.0032 Y7.0403 I0.9633
G1 X343.9995
G3 X344.9627 Y8.0035 J0.9632
G1 X344.9608 Y104.1801
G2 X346.1311 Y105.9356 I1.9018
G3 X347.3014 Y107.6911 I-0.7315 J1.7555
G1 X347.3007 Y144.3402
G3 X346.3374 Y145.3034 I-0.9633
G1 X5.6598 Y145.3004
G3 X4.6966 Y144.3372 J-0.9632
G1 X4.6994 Y5.6629
G3 X5.6626 Y4.6996 I0.9633
G1 X346.3402
G3 X347.3034 Y5.6628 J0.9632
G1 X347.3014 Y107.6911
G2 X348.4717 Y109.4466 I1.9018
G3 X349.642 Y111.2021 I-0.7315 J1.7555
G1 X349.6413 Y146.6808
G3 X348.678 Y147.6441 I-0.9633
G1 X3.3191 Y147.6411
G3 X2.3559 Y146.6778 J-0.9632
G1 X2.3588 Y3.3222
G3 X3.322 Y2.359 I0.9633
G1 X348.6809
G3 X349.6441 Y3.3222 J0.9632
G1 X349.642 Y111.2021
G2 X350.8198 Y112.9689 I1.914
G3 X351.9976 Y114.7357 I-0.7362 J1.7668
G1 X351.9969 Y149.991
X351.9961 Y149.9959
X351.9605 Y149.9998
X0.0081 Y149.9968
X0.0001 Y149.9595
X0.0031 Y0.009
X0.004 Y0.004
X351.9919 Y0.0032
X351.9999 Y0.0405
X351.9976 Y114.7357
X351.9938 Y114.7846 Z-3.9922
X351.9826 Y114.8323 Z-3.9845
X351.9662 Y114.8734 Z-3.9619
X351.9443 Y114.9118 Z-3.9394
X351.8993 Y114.9655 Z-3.8691
X351.8645 Y114.9942 Z-3.7806
X351.8517 Y115.0029 Z-3.6825
G0 Z5
X334.2609 Y131.3784
Z3
G1 Z-1.5827 F1200
X334.2527 Y131.3908 Z-1.6787
X334.228 Y131.4263 Z-1.7657
X334.1875 Y131.4802 Z-1.8356
X334.1328 Y131.5459 Z-1.8818
X334.0674 Y131.6153 Z-1.9
G3 X334.2366 Y131.4141 Z-2.2217 I-1.0653 J-1.0675
X334.3683 Y131.1866 Z-2.5434 I-1.2345 J-0.8663
X334.4585 Y130.9397 Z-2.8651 I-1.3661 J-0.6388
X334.5044 Y130.6808 Z-3.1868 I-1.4563 J-0.3919
X334.5047 Y130.418 Z-3.5086 I-1.5022 J-0.133
X334.4593 Y130.159 Z-3.8303 I-1.5025 J0.1299
X334.3696 Y129.9119 Z-4.152 I-1.4571 J0.3888
X334.2384 Y129.6841 Z-4.4737 I-1.3675 J0.6359
X334.0697 Y129.4825 Z-4.7954 I-1.2363 J0.8637
X333.8685 Y129.3134 Z-5.1171 I-1.0675 J1.0653
X333.6409 Y129.1817 Z-5.4388 I-0.8663 J1.2345
X333.394 Y129.0915 Z-5.7605 I-0.6388 J1.3662
X331.5012 Y130.4012 Z-6 I-0.3919 J1.4563
G2 X331.6604 Y125.6644 I-37.0111 J-3.6152 F3500
G3 X331.5866 Y120.7516 I162.0404 J-4.8898
X331.9377 Y120.0137 I0.9512 J0.0001
G2 X332.2474 Y119.7606 I-48.825 J-60.0498
X332.5531 Y119.5027 I-9.8083 J-11.9367
X332.6367 Y119.4251 I-1.0919 J-1.2608
G3 X332.7199 Y119.347 I1.4171 J1.4264
X333.4962 Y119.6962 I0.3096 J0.3492
G1 X333.496 Y130.5351
G3 X332.5327 Y131.4983 I-0.9633
G1 X332.3178
G3 X331.4838 Y130.5745 J-0.8384
G2 X331.5012 Y130.4012 I-36.9938 J-3.7885
X330.7115 Y128.932 I-1.4907 J-0.1456
G3 X329.8545 Y127.501 I0.7542 J-1.4239
G2 X329.8416 Y126.5939 I-24.4091 J-0.1072
G3 X329.7458 Y120.7271 I178.166 J-5.8415
X330.7602 Y118.5986 I2.7411 J0.0004
G2 X332.2408 Y117.3049 I-16.8956 J-20.8301
X333.5835 Y115.8685 I-10.4833 J-11.1452
X334.1276 Y115.1227 I-6.2455 J-5.1274
G3 X334.6321 Y114.3496 I75.8375 J48.9407
X335.3371 Y114.5612 I0.3207 J0.2116
G1 X335.3367 Y132.3759
G3 X334.3734 Y133.3391 I-0.9633
G1 X330.0574
G3 X329.3276 Y132.4389 J-0.746
G2 X329.8545 Y127.501 I-23.8822 J-5.0452
G1 X329.8582 Y127.4522 Z-5.9922
X329.8695 Y127.4045 Z-5.9845
X329.8859 Y127.3634 Z-5.9619
X329.9077 Y127.325 Z-5.9394
X329.9529 Y127.2713 Z-5.8691
X329.9876 Y127.2426 Z-5.7806
X330.0004 Y127.2339 Z-5.6825
G0 Z5
X335.2407 Y61.8455
Z3
G1 Z-1.5827 F1200
X335.2469 Y61.859 Z-1.6787
X335.2644 Y61.8985 Z-1.7657
X335.2895 Y61.9611 Z-1.8356
X335.3172 Y62.042 Z-1.8818
X335.3426 Y62.1339 Z-1.9
G3 X335.2586 Y61.8848 Z-2.2217 I-1.4655 J0.3559
X335.1325 Y61.6541 Z-2.5434 I-1.3815 J0.6049
X334.9683 Y61.4488 Z-2.8651 I-1.2554 J0.8356
X334.771 Y61.2751 Z-3.1868 I-1.0913 J1.041
X334.5465 Y61.1384 Z-3.5086 I-0.8939 J1.2146
X334.3017 Y61.0427 Z-3.8303 I-0.6694 J1.3514
X334.0439 Y60.9909 Z-4.152 I-0.4246 J1.4471
X333.7811 Y60.9847 Z-4.4737 I-0.1668 J1.4989
X333.5212 Y61.0243 Z-4.7954 I0.096 J1.5051
X333.2721 Y61.1083 Z-5.1171 I0.3559 J1.4655
X333.0414 Y61.2343 Z-5.4388 I0.6049 J1.3815
X332.8361 Y61.3985 Z-5.7605 I0.8356 J1.2554
X332.9722 Y63.6963 Z-6 I1.041 J1.0913
X333.2658 Y63.3049 I0.1468 J-0.1957 F3500
X332.9722 Y63.6963 I-0.1468 J0.1957
G2 X331.7654 Y63.3266 I-1.1159 J1.4879
G3 X331.2967 Y62.1546 I-0.0326 J-0.6666
G2 X334.4202 Y58.6802 I-12.0865 J-14.0073
X334.5271 Y58.5147 I-2.195 J-1.5336
G3 X334.632 Y58.348 I3.2982 J1.9602
X335.3382 Y58.5616 I0.3208 J0.2136
G1 X335.338 Y68.4397
G3 X334.6329 Y68.6515 I-0.3843
G2 X330.3073 Y64.0468 I-15.5233 J10.2487
G3 X330.3108 Y62.9482 I0.4165 J-0.548
G2 X331.2967 Y62.1546 I-11.1006 J-14.8008
X331.6847 Y60.691 I-0.8762 J-1.0155
G3 X331.9719 Y59.2044 I1.408 J-0.4991
G2 X333.3806 Y57.3738 I-13.0575 J-11.5052
X336.1755 Y49.4124 I-14.0737 J-9.4121
X336.2079 Y46.1261 I-21.5836 J-1.8562
G3 X336.0995 Y42.8414 I49.6353 J-3.2839
X336.2533 Y42.5298 I0.3926
G1 X336.3531 Y42.4526
G3 X336.9869 Y42.7624 I0.2412 J0.3097
G1 X336.9851 Y134.0243
G3 X336.0218 Y134.9875 I-0.9632
G1 X327.7663
G3 X327.149 Y134.1154 J-0.6546
G2 X328.2313 Y126.9902 I-18.1836 J-6.4069
G3 X328.0976 Y119.7846 I192.5635 J-7.1783
X329.1064 Y117.7934 I2.4703 J0.0004
G2 X334.3146 Y111.7622 I-10.5456 J-14.371
X336.235 Y104.0284 I-14.6055 J-7.732
G1 X336.2321 Y78.916
G2 X333.7283 Y70.1894 I-16.4657 J0.0018
X327.1254 Y63.9586 I-15.2198 J9.5148
G3 X327.1295 Y63.0413 I0.2504 J-0.4575
G2 X331.9719 Y59.2044 I-8.2151 J-15.3421
X332.165 Y57.5221 I-1.1121 J-0.9799
G3 X332.2031 Y55.8292 I1.5104 J-0.8129
G2 X334.2855 Y49.3792 I-12.953 J-7.743
G1 X334.2135 Y42.8398
G3 X335.1052 Y41.0335 I2.2754
G2 X338.158 Y37.8702 I-8.9756 J-11.7168
G3 X338.8729 Y38.0986 I0.321 J0.2284
G1 X338.871 Y135.9103
G3 X337.9077 Y136.8735 I-0.9633
G1 X324.6824 Y136.8734
G3 X324.2061 Y136.0475 J-0.5503
G2 X326.3571 Y127.4732 I-13.8998 J-8.044
G3 X326.2118 Y118.6345 I266.4099 J-8.8009
X327.2178 Y116.8016 I2.1732 J0.0003
G2 X332.4209 Y111.3293 I-8.4052 J-13.2013
X334.349 Y104.0286 I-12.8512 J-7.299
G1 X334.3462 Y78.9162
G2 X330.7191 Y69.0887 I-15.1315 J0.0017
X321.6303 Y63.8801 I-11.8287 J10.1063
X317.2111 Y63.6373 I-3.1982 J17.876
G3 X312.7878 Y63.7861 I-4.4215 J-65.61
X312.7877 Y63.2132 J-0.2865
G1 X319.6125 Y63.2126
G2 X326.1262 Y61.5924 I-0.0012 J-13.9084
X331.7611 Y56.5248 I-7.319 J-13.805
X332.2031 Y55.8292 I-12.511 J-8.4387
G1 X332.2313 Y55.7891 Z-5.9922
X332.2653 Y55.7538 Z-5.9845
X332.3003 Y55.7268 Z-5.9619
X332.3387 Y55.705 Z-5.9394
X332.4049 Y55.6818 Z-5.8691
X332.4494 Y55.6748 Z-5.7806
X332.4649 Y55.6738 Z-5.6825
G0 Z5
X334.6607 Y14.3917
Z3
G1 Z-1.5827 F1200
X334.6677 Y14.3786 Z-1.6787
X334.6888 Y14.3409 Z-1.7657
X334.7238 Y14.2833 Z-1.8356
X334.7719 Y14.2126 Z-1.8818
X334.8302 Y14.1371 Z-1.9
G3 X334.6814 Y14.3538 Z-2.2217 I1.164 J0.9589
X334.5725 Y14.5931 Z-2.5434 I1.3128 J0.7422
X334.5067 Y14.8476 Z-2.8651 I1.4218 J0.503
X334.4862 Y15.1097 Z-3.1868 I1.4875 J0.2485
X334.5114 Y15.3713 Z-3.5086 I1.5081 J-0.0136
X334.5818 Y15.6246 Z-3.8303 I1.4828 J-0.2753
X334.695 Y15.8619 Z-4.152 I1.4125 J-0.5286
X334.8477 Y16.0759 Z-4.4737 I1.2992 J-0.7658
X335.0353 Y16.26 Z-4.7954 I1.1465 J-0.9798
X335.252 Y16.4089 Z-5.1171 I0.9589 J-1.164
X335.4912 Y16.5178 Z-5.4388 I0.7422 J-1.3128
X335.7458 Y16.5836 Z-5.7605 I0.503 J-1.4218
X337.5023 Y15.0961 Z-6 I0.2485 J-1.4875
G1 Y15.3709 F3500
G3 X336.7249 Y15.7257 I-0.4697
G2 X336.4322 Y15.4749 I-20.2646 J23.3601
X336.1345 Y15.2299 I-9.3184 J11.0164
G3 X336.3906 Y14.5005 I0.2561 J-0.3197
G1 X336.9739
G3 X337.5023 Y15.029 J0.5285
G1 Y15.0961
G2 X338.1224 Y16.0262 I1.0076
G3 X338.7424 Y16.9563 I-0.3875 J0.9301
G1 Y18.7018
G3 X338.0352 Y18.9395 I-0.3936
G2 X335.0404 Y15.9447 I-12.3567 J9.3618
X331.3356 Y13.8925 I-9.0026 J11.8823
G3 X331.4518 Y13.2604 I0.1161 J-0.3054
G1 X337.7985
G3 X338.7425 Y14.2043 J0.944
G1 X338.7424 Y16.9563
X338.7386 Y17.0052 Z-5.9922
X338.7274 Y17.0528 Z-5.9845
X338.711 Y17.0939 Z-5.9619
X338.6891 Y17.1323 Z-5.9394
X338.6441 Y17.186 Z-5.8691
X338.6093 Y17.2147 Z-5.7806
X338.5965 Y17.2235 Z-5.6825
G0 Z5
X202.7957 Y42.5774
Z3
G1 Z-1.5827 F1200
X202.7826 Y42.5704 Z-1.6787
X202.7449 Y42.5493 Z-1.7657
X202.6873 Y42.5142 Z-1.8356
X202.6166 Y42.4661 Z-1.8818
X202.5411 Y42.4078 Z-1.9
G3 X202.7578 Y42.5566 Z-2.2217 I0.9589 J-1.164
X202.997 Y42.6656 Z-2.5434 I0.7422 J-1.3128
X203.2516 Y42.7313 Z-2.8651 I0.503 J-1.4218
X203.5136 Y42.7519 Z-3.1868 I0.2484 J-1.4875
X203.7753 Y42.7266 Z-3.5086 I-0.0136 J-1.5081
X204.0286 Y42.6562 Z-3.8303 I-0.2753 J-1.4828
X204.2659 Y42.543 Z-4.152 I-0.5286 J-1.4124
X204.4798 Y42.3903 Z-4.4737 I-0.7659 J-1.2992
X204.664 Y42.2027 Z-4.7954 I-0.9798 J-1.1465
X204.8128 Y41.986 Z-5.1171 I-1.164 J-0.9589
X204.9218 Y41.7468 Z-5.4388 I-1.3128 J-0.7422
X204.9875 Y41.4922 Z-5.7605 I-1.4218 J-0.503
X203.5 Y39.7357 Z-6 I-1.4875 J-0.2484
G1 X203.6543 F3500
G3 X204.1828 Y40.2642 J0.5285
G1 X204.1826 Y43.3449
G3 X202.8174 I-0.6826
G1 X202.8172 Y40.2642
G3 X203.3457 Y39.7357 I0.5285
G1 X203.5
G2 X204.9559 Y38.9747 J-1.7732
G3 X206.5235 Y39.4661 I0.7068 J0.4914
G1 X206.5231 Y45.5574
G3 X205.5598 Y46.5207 I-0.9633 J-0.0001
G1 X201.4402
G3 X200.4769 Y45.5574 J-0.9633
G1 X200.4765 Y38.3583
G3 X201.4396 Y37.395 I0.9632 J-0.0001
G1 X205.5604
G3 X206.5235 Y38.3583 J0.9632
G1 Y39.4661
G2 X207.6937 Y41.2217 I1.9018 J0.0001
G3 X208.8639 Y42.9772 I-0.7316 J1.7554
G1 X208.8636 Y47.898
G3 X207.9003 Y48.8613 I-0.9633 J-0.0001
G1 X199.0997
G3 X198.1364 Y47.898 J-0.9633
G1 X198.1357 Y36.0177
G3 X199.0989 Y35.0544 I0.9632 J-0.0001
G1 X207.9011
G3 X208.8643 Y36.0177 J0.9632
G1 X208.8639 Y42.9772
G2 X210.0341 Y44.7328 I1.9018 J0.0001
G3 X211.2043 Y46.4883 I-0.7316 J1.7554
G1 X211.2041 Y50.2387
G3 X210.2408 Y51.2019 I-0.9633 J-0.0001
G1 X196.7592
G3 X195.7959 Y50.2387 J-0.9633
G1 X195.7949 Y33.677
G3 X196.7581 Y32.7138 I0.9632 J-0.0001
G1 X210.2419
G3 X211.2051 Y33.677 J0.9632
G1 X211.2043 Y46.4883
G2 X212.3745 Y48.2438 I1.9018 J0.0001
G3 X213.5447 Y49.9994 I-0.7316 J1.7554
G1 X213.5445 Y52.5793
G3 X212.5812 Y53.5425 I-0.9633 J-0.0001
G1 X194.4188
G3 X193.4555 Y52.5793 J-0.9633
G1 X193.4542 Y31.3364
G3 X194.4173 Y30.3732 I0.9632 J-0.0001
G1 X212.5827
G3 X213.5458 Y31.3364 J0.9632
G1 X213.5447 Y49.9994
G2 X214.7149 Y51.7549 I1.9018 J0.0001
G3 X215.8851 Y53.5105 I-0.7316 J1.7554
G1 X215.885 Y54.9199
G3 X214.9217 Y55.8832 I-0.9633 J-0.0001
G1 X192.0783
G3 X191.115 Y54.9199 J-0.9633
G1 X191.1134 Y28.9958
G3 X192.0766 Y28.0326 I0.9632 J-0.0001
G1 X214.9234
G3 X215.8866 Y28.9958 J0.9632
G1 X215.8851 Y53.5105
G2 X217.0518 Y55.2522 I1.8833 J0.0001
G3 X218.2186 Y56.994 I-0.7178 J1.7425
G1 Y57.2536
G3 X217.2553 Y58.2169 I-0.9633 J-0.0001
G1 X189.7447
G3 X188.7814 Y57.2536 J-0.9633
G1 X188.8258 Y28.1133
G2 X188.7924 Y27.3743 I-8.2205 J0.0005
G3 X188.7387 Y26.6365 I21.1958 J-1.9144
X189.6259 Y25.6988 I0.8872 J-0.0491
G1 X217.3741
G3 X218.2613 Y26.6365 J0.8886
G2 X218.0285 Y41.9448 I190.6149 J10.555
G3 X218.2186 Y56.994 I-613.1579 J15.2713
G2 X219.3597 Y58.5758 I1.6676 J-0.0006
G3 X219.0478 Y60.5011 I-0.3119 J0.9374
G1 X187.4607
G3 X186.4973 Y59.5378 J-0.9633
G1 X186.614 Y28.1134
G2 X186.4809 Y26.2141 I-13.6331 J0.0008
X186.2009 Y24.3308 I-121.4252 J17.0908
G3 X186.9847 Y23.4146 I0.7839 J-0.1228
G1 X220.0153
G3 X220.7991 Y24.3308 J0.7934
G2 X220.5191 Y26.2141 I121.1452 J18.9741
X220.386 Y28.1134 I13.5 J1.9002
G1 X220.5027 Y59.5378
G3 X219.5393 Y60.5011 I-0.9633 J-0.0001
G1 X219.0478
G2 X217.3766 Y61.6152 J1.8105
G3 X215.7054 Y62.7294 I-1.6712 J-0.6963
G1 X185.2325
G3 X184.2692 Y61.7661 J-0.9633
G1 X184.4029 Y28.1136
G2 X184.1278 Y25.0634 I-17.0583 J0.001
X183.4505 Y22.0767 I-34.9301 J6.3503
G3 X184.1306 Y21.1863 I0.6801 J-0.1854
G1 X222.8694
G3 X223.5495 Y22.0767 J0.7049
G2 X222.8722 Y25.0634 I34.2529 J9.3371
X222.5971 Y28.1136 I16.7832 J3.0512
G1 X222.7308 Y61.7661
G3 X221.7675 Y62.7294 I-0.9633 J-0.0001
G1 X215.7054
G2 X214.0905 Y63.8059 J1.7494
G3 X212.4757 Y64.8825 I-1.6148 J-0.6728
G1 X183.0795
G3 X182.1162 Y63.9192 J-0.9633
G1 X182.2498 Y28.1137
G2 X181.7445 Y23.91 I-17.7468 J0.0011
X180.4119 Y19.8912 I-25.428 J6.2013
G3 X180.9799 Y19.0333 I0.568 J-0.2409
G1 X226.0201
G3 X226.5881 Y19.8912 J0.617
G2 X225.6918 Y22.1958 I37.6796 J15.9817
X225.0606 Y24.5867 I14.1204 J5.0064
X224.7502 Y28.1137 I19.8991 J3.5282
G1 X224.8838 Y63.9192
G3 X223.9205 Y64.8825 I-0.9633 J-0.0001
G1 X212.4757
G2 X210.9282 Y65.9141 J1.6764
