%
(Made in : Autodesk CAM Post Processor)
(G Code optimized for OpenBuilds OX CNC 1000 x 750 with GRBL V0.9j controller)

(Program Name : 1001)
(1 Operation :)
(1 : Adaptive1)
(  Tool : Flat End Mill 3 Flutes, Diam = 3.175mm, Len = 20mm)
(  Spindle : RPM = 30000, set router dial to 6)
(  Machining time : 15 min 13 sec)

G90 G94
G17
G21

(Operation 1 of 1 : Adaptive1)

G53 G0 Z5
G54
S30000 M3
G4 P1.0
X27.2641 Y-3.2472
Z6
Z5
Z-1.365
G1 Z-1.6825 F3500
X27.27 Y-3.2418 Z-1.7532
X27.2874 Y-3.226 Z-1.8203
X27.3154 Y-3.2006 Z-1.8805
X27.3526 Y-3.1668 Z-1.9307
X27.3971 Y-3.1263 Z-1.9686
X27.4468 Y-3.0812 Z-1.992
X27.4991 Y-3.0337 Z-2
G3 X28.4601 Y-1.5757 I-2.3656 J2.6049
G1 X28.4705 Y-1.5418
X28.4972 Y-1.4256
X28.5038 Y-1.3887
X28.4087 Y-1.2726
X28.2985 Y-1.1709
X28.1785 Y-1.0809
X28.0264 Y-0.9853
X27.8308 Y-0.8832
X27.576 Y-0.7753
X27.2354 Y-0.6623
X26.7557 Y-0.5449
X26.0273 Y-0.4276
X25.2919 Y-0.3673
X24.5548 Y-0.336
X23.8171 Y-0.3197
X23.0794 Y-0.3111
X22.3416 Y-0.3066
X21.6038 Y-0.3042
X19.3903 Y-0.302
X1.4983 Y-0.3016
X1.3163 Y-0.2714
X0.9779 Y-0.1246
X0.7002 Y0.1183
X0.2554 Y0.7069
X0.0005 Y1.3993
X-0.1401 Y2.1236
X-0.2159 Y2.8575
X-0.2563 Y3.5942
X-0.2778 Y4.3317
X-0.2891 Y5.0695
X-0.295 Y5.8073
X-0.2981 Y6.5451
X-0.3007 Y8.0207
X-0.3016 Y13.9232
Y22.0392
Y23.5658
X-0.3337 Y23.7832
X-0.4273 Y23.982
X-0.5743 Y24.1454
X-0.7623 Y24.2592
G3 X-1.1474 Y23.7993 I-0.1128 J-0.2968
G1 X-1.1111 Y23.7387 Z-1.992
X-1.0766 Y23.6811 Z-1.9686
X-1.0457 Y23.6295 Z-1.9307
X-1.0199 Y23.5863 Z-1.8805
X-1.0004 Y23.5539 Z-1.8203
X-0.9884 Y23.5337 Z-1.7532
X-0.9843 Y23.5269 Z-1.6825
G0 Z5
X27.8935 Y-2.3401
Z-1.365
G1 Z-1.6825 F3500
X27.899 Y-2.3344 Z-1.7532
X27.9152 Y-2.3174 Z-1.8203
X27.9413 Y-2.29 Z-1.8805
X27.9761 Y-2.2537 Z-1.9307
X28.0176 Y-2.2101 Z-1.9686
X28.064 Y-2.1616 Z-1.992
X28.1128 Y-2.1105 Z-2
G3 X28.4972 Y-1.4256 I-1.1446 J1.0929
G1 X28.586 Y-1.0392
X28.5939 Y-0.9646
X28.5443 Y-0.823
X28.4774 Y-0.6888
X28.396 Y-0.5628
X28.3037 Y-0.4445
X28.1881 Y-0.3197
X28.0422 Y-0.1856
X27.8782 Y-0.0575
X27.6618 Y0.085
X27.3936 Y0.2323
X27.0879 Y0.3696
X26.6799 Y0.5146
X26.1528 Y0.6555
X25.4271 Y0.7882
X24.6933 Y0.8651
X23.9568 Y0.9095
X23.2194 Y0.9349
X22.4817 Y0.9495
X21.744 Y0.9578
X21.0062 Y0.9624
X20.2684 Y0.9651
X18.7927 Y0.9674
X12.8902 Y0.9684
X3.2986
X2.93 Y0.984
X2.5799 Y1.1002
X2.2722 Y1.3037
X1.753 Y1.828
X1.4252 Y2.4889
X1.2291 Y3.2002
X1.1153 Y3.9292
X1.0505 Y4.6642
X1.014 Y5.4011
X0.9936 Y6.1386
X0.9823 Y6.8763
X0.976 Y7.6141
X0.9726 Y8.3519
X0.9696 Y9.8276
X0.9684 Y14.2545
Y22.3704
X0.9567 Y22.8614
X0.923 Y23.1845
X0.8766 Y23.4333
X0.8167 Y23.6542
X0.7433 Y23.8582
X0.6691 Y24.0219
X0.63 Y24.0701
X0.5765 Y24.1016
X0.5154 Y24.1125
X0.3146
X0.1469 Y24.1155
X-0.0208 Y24.1235
G3 X-0.2245 Y23.5592 I-0.004 J-0.3175
G1 X-0.1696 Y23.5148 Z-1.992
X-0.1174 Y23.4725 Z-1.9686
X-0.0706 Y23.4347 Z-1.9307
X-0.0315 Y23.403 Z-1.8805
X-0.0021 Y23.3792 Z-1.8203
X0.0161 Y23.3645 Z-1.7532
X0.0223 Y23.3595 Z-1.6825
G0 Z5
X27.9823 Y-1.9537
Z-1.365
G1 Z-1.6825 F3500
X27.9878 Y-1.9479 Z-1.7532
X28.004 Y-1.9309 Z-1.8203
X28.0301 Y-1.9036 Z-1.8805
X28.0649 Y-1.8672 Z-1.9307
X28.1064 Y-1.8237 Z-1.9686
X28.1528 Y-1.7751 Z-1.992
X28.2016 Y-1.724 Z-2
G3 X28.586 Y-1.0392 I-1.1446 J1.0929
G1 X28.6123 Y-0.8716
X28.6558 Y-0.5365
X28.6656 Y-0.4444
X28.6739 Y-0.2946
X28.6477 Y-0.1469
X28.6041 Y-0.0034
X28.5455 Y0.1346
X28.475 Y0.267
X28.3818 Y0.4113
X28.2744 Y0.5515
X28.132 Y0.7093
X27.9687 Y0.8635
X27.7618 Y1.0295
X27.5165 Y1.1958
X27.2193 Y1.3642
X26.8426 Y1.5393
X26.4003 Y1.7032
X25.8299 Y1.8637
X25.106 Y2.006
X24.3736 Y2.0957
X23.6379 Y2.1516
X22.9009 Y2.186
X22.1634 Y2.2071
X21.4257 Y2.2198
X20.6879 Y2.2274
X19.9501 Y2.232
X19.2123 Y2.2346
X17.7367 Y2.2371
X12.572 Y2.2384
X4.456
X4.0955 Y2.3168
X3.7659 Y2.4825
X3.4792 Y2.7146
X2.9942 Y3.2706
X2.6858 Y3.9409
X2.4988 Y4.6546
X2.3883 Y5.3841
X2.324 Y6.1191
X2.2871 Y6.856
X2.2659 Y7.5935
X2.2539 Y8.3312
X2.2471 Y9.069
X2.2433 Y9.8068
X2.2399 Y11.2825
X2.2385 Y14.9715
X2.2379 Y21.6119
X2.2212 Y22.3495
X2.1695 Y22.883
X2.0967 Y23.2901
X2.0259 Y23.559
X2.0055 Y23.6171
X1.8981 Y23.8176
X1.7349 Y23.9761
X1.5313 Y24.0776
X1.3065 Y24.1125
X0.5154
G3 X0.3387 Y23.5392 I0.0111 J-0.3173
G1 X0.3956 Y23.4974 Z-1.992
X0.4498 Y23.4577 Z-1.9686
X0.4983 Y23.4221 Z-1.9307
X0.5388 Y23.3924 Z-1.8805
X0.5693 Y23.37 Z-1.8203
X0.5883 Y23.3561 Z-1.7532
X0.5947 Y23.3514 Z-1.6825
G0 Z5
X28.1756 Y-1.4246
Z-1.365
G1 Z-1.6825 F3500
X28.1804 Y-1.4182 Z-1.7532
X28.1945 Y-1.3994 Z-1.8203
X28.2171 Y-1.3691 Z-1.8805
X28.2472 Y-1.3288 Z-1.9307
X28.2833 Y-1.2806 Z-1.9686
X28.3235 Y-1.2269 Z-1.992
X28.3658 Y-1.1703 Z-2
G3 X28.6656 Y-0.4444 I-1.2672 J0.9481
G1 X28.6736 Y-0.369
X28.6817 Y0.5608
X28.6754 Y0.7107
X28.6493 Y0.8584
X28.6065 Y1.0022
X28.5507 Y1.1414
X28.4758 Y1.2892
X28.3867 Y1.4346
X28.2652 Y1.6014
X28.1257 Y1.7636
X27.943 Y1.9446
X27.7358 Y2.1191
X27.4676 Y2.3104
X27.1644 Y2.4919
X26.7669 Y2.6884
X26.3183 Y2.8669
X25.7269 Y3.0487
X25.0066 Y3.2083
X24.2765 Y3.3146
X23.542 Y3.3846
X22.8056 Y3.4301
X22.0683 Y3.4594
X21.3308 Y3.478
X20.593 Y3.4897
X19.8553 Y3.4969
X19.1175 Y3.5014
X18.3797 Y3.5042
X16.904 Y3.5069
X12.4771 Y3.5083
X5.8368 Y3.5084
X5.4744 Y3.5773
X5.1371 Y3.7267
X4.8403 Y3.9458
X4.3352 Y4.4837
X4.0065 Y5.1442
X3.8032 Y5.8534
X3.6809 Y6.581
X3.6086 Y7.3153
X3.5663 Y8.0519
X3.5417 Y8.7893
X3.5275 Y9.527
X3.5193 Y10.2648
X3.5146 Y11.0026
X3.5119 Y11.7404
X3.5095 Y13.216
X3.5084 Y18.3807
X3.5082 Y20.5942
X3.5025 Y21.3319
X3.4756 Y22.0693
X3.4181 Y22.6693
X3.3524 Y23.039
X3.2785 Y23.3214
X3.2004 Y23.5447
X3.1442 Y23.6716
X3.0308 Y23.852
X2.8709 Y23.9926
X2.6775 Y24.0819
X2.4668 Y24.1125
X1.3065
G3 X1.1298 Y23.5392 I0.0111 J-0.3173
G1 X1.1868 Y23.4974 Z-1.992
X1.2409 Y23.4577 Z-1.9686
X1.2894 Y23.4221 Z-1.9307
X1.3299 Y23.3924 Z-1.8805
X1.3604 Y23.37 Z-1.8203
X1.3794 Y23.3561 Z-1.7532
X1.3858 Y23.3514 Z-1.6825
G0 Z5
X28.2899 Y-0.4625
Z-1.365
G1 Z-1.6825 F3500
X28.294 Y-0.4557 Z-1.7532
X28.3061 Y-0.4356 Z-1.8203
X28.3257 Y-0.4032 Z-1.8805
X28.3518 Y-0.3602 Z-1.9307
X28.383 Y-0.3088 Z-1.9686
X28.4177 Y-0.2513 Z-1.992
X28.4543 Y-0.1909 Z-2
G3 X28.6817 Y0.5608 I-1.3537 J0.8198
G1 X28.6875 Y1.3064
Y1.6415
X28.68 Y1.7913
X28.652 Y1.9387
X28.6087 Y2.0822
X28.5532 Y2.2216
X28.4751 Y2.3783
X28.382 Y2.5329
X28.2561 Y2.7083
X28.1067 Y2.8847
X27.9162 Y3.076
X27.6954 Y3.2647
X27.413 Y3.4693
X27.0892 Y3.6663
X26.664 Y3.8803
X26.1946 Y4.071
X25.5745 Y4.2666
X24.8554 Y4.4313
X24.1264 Y4.5456
X23.3928 Y4.624
X22.6569 Y4.677
X21.9199 Y4.7126
X21.1825 Y4.736
X20.4448 Y4.7514
X19.7071 Y4.7613
X18.9693 Y4.7677
X18.2315 Y4.7717
X16.7559 Y4.7758
X13.8046 Y4.778
X7.1643 Y4.7784
X6.801 Y4.8427
X6.4607 Y4.985
X6.1591 Y5.1975
X5.6434 Y5.7251
X5.3041 Y6.3803
X5.0922 Y7.087
X4.9637 Y7.8136
X4.887 Y8.5474
X4.8418 Y9.2838
X4.8153 Y10.0212
X4.7998 Y10.7588
X4.7908 Y11.4966
X4.7855 Y12.2344
X4.7825 Y12.9722
X4.7797 Y14.4478
X4.7784 Y18.8747
X4.7783 Y19.6125
X4.7762 Y20.3503
X4.7649 Y21.0881
X4.7327 Y21.8252
X4.6713 Y22.4536
X4.5883 Y22.9153
X4.4979 Y23.2578
X4.4117 Y23.5027
X4.3359 Y23.673
X4.2225 Y23.8528
X4.0626 Y23.993
X3.8695 Y24.082
X3.6591 Y24.1125
X2.4668
G3 X2.29 Y23.5392 I0.0111 J-0.3173
G1 X2.347 Y23.4974 Z-1.992
X2.4011 Y23.4577 Z-1.9686
X2.4496 Y23.4221 Z-1.9307
X2.4902 Y23.3924 Z-1.8805
X2.5207 Y23.37 Z-1.8203
X2.5396 Y23.3561 Z-1.7532
X2.546 Y23.3514 Z-1.6825
G0 Z5
X28.3039 Y0.615
Z-1.365
G1 Z-1.6825 F3500
X28.308 Y0.6218 Z-1.7532
X28.32 Y0.642 Z-1.8203
X28.3393 Y0.6745 Z-1.8805
X28.365 Y0.7177 Z-1.9307
X28.3958 Y0.7695 Z-1.9686
X28.4301 Y0.8272 Z-1.992
X28.4662 Y0.8879 Z-2
G3 X28.6875 Y1.6415 I-1.3603 J0.8088
G1 Y2.7388
X28.68 Y2.8887
X28.6539 Y3.0364
X28.6127 Y3.1806
X28.5586 Y3.3225
X28.4847 Y3.4776
X28.3883 Y3.644
X28.2686 Y3.817
X28.1106 Y4.0101
X27.9288 Y4.1991
X27.694 Y4.4069
X27.4246 Y4.6093
X27.078 Y4.8283
X26.6742 Y5.0403
X26.1781 Y5.2519
X25.5512 Y5.4615
X24.835 Y5.6386
X24.1081 Y5.7651
X23.3758 Y5.8547
X22.6406 Y5.9173
X21.9041 Y5.9605
X21.1668 Y5.9901
X20.4293 Y6.0101
X19.6916 Y6.0234
X18.9538 Y6.0323
X18.216 Y6.0381
X17.4782 Y6.0418
X16.0026 Y6.0458
X13.0513 Y6.048
X8.6245 Y6.0484
X8.257 Y6.0811
X7.9036 Y6.187
X7.5826 Y6.3688
X7.0229 Y6.8495
X6.6471 Y7.4844
X6.4092 Y8.1828
X6.2633 Y8.9061
X6.1754 Y9.6386
X6.1231 Y10.3746
X6.0922 Y11.1118
X6.074 Y11.8494
X6.0633 Y12.5871
X6.0571 Y13.3249
X6.0534 Y14.0627
X6.0501 Y15.5383
X6.0479 Y19.2274
X6.044 Y19.9652
X6.0314 Y20.7029
X6.0009 Y21.4401
X5.9372 Y22.1752
X5.8475 Y22.732
X5.7507 Y23.1279
X5.6515 Y23.4269
X5.5555 Y23.6537
X5.5238 Y23.7144
X5.4073 Y23.8785
X5.251 Y24.0052
X5.0663 Y24.0852
X4.867 Y24.1125
X3.6591
G3 X3.4824 Y23.5392 I0.0111 J-0.3173
G1 X3.5393 Y23.4974 Z-1.992
X3.5934 Y23.4577 Z-1.9686
X3.642 Y23.4221 Z-1.9307
X3.6825 Y23.3924 Z-1.8805
X3.713 Y23.37 Z-1.8203
X3.7319 Y23.3561 Z-1.7532
X3.7383 Y23.3514 Z-1.6825
G0 Z5
X28.3039 Y1.7124
Z-1.365
G1 Z-1.6825 F3500
X28.308 Y1.7192 Z-1.7532
X28.32 Y1.7394 Z-1.8203
X28.3393 Y1.7719 Z-1.8805
X28.365 Y1.8151 Z-1.9307
X28.3958 Y1.8669 Z-1.9686
X28.4301 Y1.9246 Z-1.992
X28.4662 Y1.9853 Z-2
G3 X28.6875 Y2.7388 I-1.3603 J0.8088
G1 Y3.8195
X28.6799 Y3.9711
X28.6604 Y4.1199
X28.6255 Y4.2657
X28.5771 Y4.4088
X28.5126 Y4.5587
X28.4216 Y4.7308
X28.3139 Y4.8998
X28.1661 Y5.0953
X27.9988 Y5.2831
X27.7726 Y5.4993
X27.5231 Y5.702
X27.1823 Y5.9362
X26.8158 Y6.1469
X26.3276 Y6.3775
X25.7345 Y6.6015
X25.0255 Y6.8058
X24.3029 Y6.9547
X23.573 Y7.0625
X22.8392 Y7.14
X22.1035 Y7.1952
X21.3667 Y7.2342
X20.6294 Y7.2614
X19.8918 Y7.2802
X19.1541 Y7.293
X18.4164 Y7.3016
X17.6786 Y7.3074
X16.9408 Y7.3113
X15.4651 Y7.3154
X13.2517 Y7.3176
X9.5626 Y7.3183
X9.2081 Y7.4202
X8.8845 Y7.5975
X8.319 Y8.0713
X7.936 Y8.7019
X7.6922 Y9.3983
X7.542 Y10.1207
X7.4511 Y10.8529
X7.3968 Y11.5887
X7.3646 Y12.3258
X7.3455 Y13.0634
X7.3343 Y13.8011
X7.3277 Y14.5389
X7.3238 Y15.2767
X7.3202 Y16.7523
X7.3188 Y18.2279
X7.317 Y18.9657
X7.3111 Y19.7035
X7.2961 Y20.4412
X7.2637 Y21.1783
X7.2029 Y21.9136
X7.1108 Y22.5499
X7.0029 Y23.0234
X6.8989 Y23.3545
X6.8017 Y23.5946
X6.7468 Y23.7039
X6.631 Y23.872
X6.4737 Y24.0022
X6.2868 Y24.0844
X6.0846 Y24.1125
X4.867
G3 X4.6902 Y23.5392 I0.0111 J-0.3173
G1 X4.7472 Y23.4974 Z-1.992
X4.8013 Y23.4577 Z-1.9686
X4.8498 Y23.4221 Z-1.9307
X4.8904 Y23.3924 Z-1.8805
X4.9209 Y23.37 Z-1.8203
X4.9398 Y23.3561 Z-1.7532
X4.9462 Y23.3514 Z-1.6825
G0 Z5
X28.3039 Y2.793
Z-1.365
G1 Z-1.6825 F3500
X28.308 Y2.7998 Z-1.7532
X28.32 Y2.82 Z-1.8203
X28.3393 Y2.8525 Z-1.8805
X28.365 Y2.8958 Z-1.9307
X28.3958 Y2.9475 Z-1.9686
X28.4301 Y3.0052 Z-1.992
X28.4662 Y3.0659 Z-2
G3 X28.6875 Y3.8195 I-1.3603 J0.8088
G1 Y4.9922
X28.68 Y5.1421
X28.6593 Y5.2906
X28.6233 Y5.4363
X28.5749 Y5.5782
X28.5032 Y5.7433
X28.4157 Y5.9071
X28.2957 Y6.0941
X28.1545 Y6.2795
X27.9683 Y6.487
X27.7478 Y6.6963
X27.4659 Y6.9236
X27.1386 Y7.1469
X26.706 Y7.3934
X26.238 Y7.6125
X25.6255 Y7.8413
X24.9158 Y8.0432
X24.1935 Y8.1935
X23.4641 Y8.3049
X22.7309 Y8.3867
X21.9954 Y8.4463
X21.2589 Y8.4892
X20.5217 Y8.5198
X19.7842 Y8.5414
X19.0465 Y8.5565
X18.3088 Y8.5669
X17.571 Y8.574
X16.8332 Y8.5789
X16.0954 Y8.5821
X14.6198 Y8.5857
X11.6685 Y8.5879
X10.9307 Y8.5881
X10.57 Y8.6653
X10.2362 Y8.8225
X9.6473 Y9.2669
X9.2446 Y9.8852
X8.9868 Y10.5765
X8.8274 Y11.2969
X8.7307 Y12.0283
X8.6727 Y12.7638
X8.6382 Y13.5009
X8.6178 Y14.2384
X8.6057 Y14.9761
X8.5985 Y15.7139
X8.5943 Y16.4517
X8.5898 Y17.9273
X8.5865 Y18.6651
X8.5791 Y19.4029
X8.5628 Y20.1405
X8.5309 Y20.8777
X8.4747 Y21.6133
X8.3808 Y22.3451
X8.2692 Y22.8858
X8.1621 Y23.253
X8.0577 Y23.5267
X7.9798 Y23.6903
X7.865 Y23.8636
X7.7065 Y23.9981
X7.5169 Y24.0833
X7.311 Y24.1125
X6.0846
G3 X5.9079 Y23.5392 I0.0111 J-0.3173
G1 X5.9649 Y23.4974 Z-1.992
X6.019 Y23.4577 Z-1.9686
X6.0675 Y23.4221 Z-1.9307
X6.108 Y23.3924 Z-1.8805
X6.1385 Y23.37 Z-1.8203
X6.1575 Y23.3561 Z-1.7532
X6.1639 Y23.3514 Z-1.6825
G0 Z5
X28.3039 Y3.9658
Z-1.365
G1 Z-1.6825 F3500
X28.308 Y3.9726 Z-1.7532
X28.32 Y3.9928 Z-1.8203
X28.3393 Y4.0253 Z-1.8805
X28.365 Y4.0685 Z-1.9307
X28.3958 Y4.1203 Z-1.9686
X28.4301 Y4.178 Z-1.992
X28.4662 Y4.2387 Z-2
G3 X28.6875 Y4.9922 I-1.3603 J0.8088
G1 Y6.165
X28.68 Y6.3148
X28.6597 Y6.4635
X28.624 Y6.6092
X28.5763 Y6.7514
X28.5067 Y6.9139
X28.4174 Y7.0835
X28.3013 Y7.2667
X28.1491 Y7.4687
X27.969 Y7.6716
X27.7388 Y7.8925
X27.467 Y8.1142
X27.1243 Y8.3507
X26.7089 Y8.5906
X26.2174 Y8.8239
X25.5904 Y9.062
X24.8819 Y9.2678
X24.1607 Y9.4234
X23.4322 Y9.5406
X22.6996 Y9.6282
X21.9647 Y9.6931
X21.2284 Y9.7408
X20.4914 Y9.7755
X19.754 Y9.8005
X19.0164 Y9.8183
X18.2787 Y9.8309
X17.541 Y9.8396
X16.8032 Y9.8457
X16.0654 Y9.8499
X14.5897 Y9.8546
X12.3763 Y9.8573
X12.0095 Y9.8965
X11.6599 Y10.0144
X11.345 Y10.2066
X10.8002 Y10.7041
X10.436 Y11.3458
X10.2068 Y12.0471
X10.0664 Y12.7714
X9.9819 Y13.5044
X9.9314 Y14.2405
X9.9015 Y14.9777
X9.8838 Y15.7153
X9.8733 Y16.453
X9.8667 Y17.1908
X9.8615 Y17.9286
X9.8549 Y18.6664
X9.8434 Y19.4041
X9.8221 Y20.1416
X9.7842 Y20.8785
X9.7209 Y21.6136
X9.6214 Y22.3446
X9.4998 Y22.9059
X9.3865 Y23.2802
X9.2835 Y23.5424
X9.208 Y23.6969
X9.0927 Y23.8677
X8.9347 Y24.0001
X8.7465 Y24.0839
X8.5424 Y24.1125
X7.311
G3 X7.1343 Y23.5392 I0.0111 J-0.3173
G1 X7.1912 Y23.4974 Z-1.992
X7.2453 Y23.4577 Z-1.9686
X7.2939 Y23.4221 Z-1.9307
X7.3344 Y23.3924 Z-1.8805
X7.3649 Y23.37 Z-1.8203
X7.3838 Y23.3561 Z-1.7532
X7.3903 Y23.3514 Z-1.6825
G0 Z5
X28.3039 Y5.1385
Z-1.365
G1 Z-1.6825 F3500
X28.308 Y5.1454 Z-1.7532
X28.32 Y5.1656 Z-1.8203
X28.3393 Y5.1981 Z-1.8805
X28.365 Y5.2413 Z-1.9307
X28.3958 Y5.293 Z-1.9686
X28.4301 Y5.3507 Z-1.992
X28.4662 Y5.4115 Z-2
G3 X28.6875 Y6.165 I-1.3603 J0.8088
G1 Y7.3378
X28.6795 Y7.4967
X28.66 Y7.6454
X28.6253 Y7.7914
X28.5784 Y7.9338
X28.5099 Y8.0966
X28.42 Y8.2697
X28.3051 Y8.4533
X28.1541 Y8.6563
X27.9755 Y8.8601
X27.7426 Y9.0863
X27.4726 Y9.3092
X27.1232 Y9.5534
X26.7101 Y9.7952
X26.2095 Y10.0366
X25.5745 Y10.2821
X24.8672 Y10.4921
X24.1471 Y10.653
X23.4196 Y10.7757
X22.6877 Y10.8689
X21.9532 Y10.9391
X21.2173 Y10.9915
X20.4805 Y11.0302
X19.7432 Y11.0586
X19.0057 Y11.0792
X18.268 Y11.094
X17.5303 Y11.1046
X16.7925 Y11.112
X16.0547 Y11.1172
X15.3169 Y11.1208
X13.8413 Y11.125
X13.4725 Y11.1358
X13.1119 Y11.2134
X12.778 Y11.3704
X12.483 Y11.5919
X11.9781 Y12.1299
X11.6463 Y12.7889
X11.4394 Y13.4971
X11.3135 Y14.2241
X11.238 Y14.958
X11.1931 Y15.6945
X11.1662 Y16.4318
X11.1495 Y17.1694
X11.1255 Y18.6449
X11.1091 Y19.3825
X11.0824 Y20.1198
X11.0389 Y20.8564
X10.9707 Y21.591
X10.8667 Y22.3215
X10.7422 Y22.8916
X10.6267 Y23.2715
X10.5203 Y23.5412
X10.4435 Y23.6979
X10.3281 Y23.8683
X10.1702 Y24.0004
X9.9822 Y24.0839
X9.7783 Y24.1125
X8.5424
G3 X8.3657 Y23.5392 I0.0111 J-0.3173
G1 X8.4226 Y23.4974 Z-1.992
X8.4767 Y23.4577 Z-1.9686
X8.5253 Y23.4221 Z-1.9307
X8.5658 Y23.3924 Z-1.8805
X8.5963 Y23.37 Z-1.8203
X8.6152 Y23.3561 Z-1.7532
X8.6216 Y23.3514 Z-1.6825
G0 Z5
X28.3039 Y6.3113
Z-1.365
G1 Z-1.6825 F3500
X28.308 Y6.3182 Z-1.7532
X28.32 Y6.3383 Z-1.8203
X28.3393 Y6.3709 Z-1.8805
X28.365 Y6.4141 Z-1.9307
X28.3958 Y6.4658 Z-1.9686
X28.4301 Y6.5235 Z-1.992
X28.4662 Y6.5842 Z-2
G3 X28.6875 Y7.3378 I-1.3603 J0.8088
G1 Y8.6027
X28.68 Y8.7525
X28.6535 Y8.9002
X28.6134 Y9.0447
X28.5584 Y9.1947
X28.4776 Y9.3703
X28.3803 Y9.5434
X28.2458 Y9.7432
X28.0867 Y9.943
X27.8778 Y10.1659
X27.6337 Y10.3876
X27.3138 Y10.6345
X26.9508 Y10.8706
X26.4711 Y11.1305
X25.9111 Y11.378
X25.2145 Y11.6211
X24.5008 Y11.8084
X23.7773 Y11.953
X23.048 Y12.0645
X22.3151 Y12.1499
X21.5802 Y12.215
X20.844 Y12.2642
X20.1071 Y12.301
X19.3698 Y12.3284
X18.6323 Y12.3484
X17.8946 Y12.363
X17.1569 Y12.3736
X16.4191 Y12.3811
X15.6813 Y12.3864
X14.9435 Y12.3902
X14.5773 Y12.4349
X14.2274 Y12.5517
X13.9109 Y12.7413
X13.3602 Y13.2323
X12.9909 Y13.871
X12.7569 Y14.5708
X12.6129 Y15.2944
X12.5256 Y16.027
X12.4724 Y16.7629
X12.4386 Y17.5
X12.414 Y18.2374
X12.3908 Y18.9748
X12.3622 Y19.7121
X12.3216 Y20.4488
X12.262 Y21.1842
X12.1753 Y21.9169
X12.0503 Y22.6189
X11.93 Y23.0776
X11.81 Y23.4204
X11.7063 Y23.6543
X11.6678 Y23.7253
X11.5508 Y23.8852
X11.3955 Y24.0084
X11.2132 Y24.086
X11.0168 Y24.1125
X9.7783
G3 X9.6016 Y23.5392 I0.0111 J-0.3173
G1 X9.6586 Y23.4974 Z-1.992
X9.7127 Y23.4577 Z-1.9686
X9.7612 Y23.4221 Z-1.9307
X9.8017 Y23.3924 Z-1.8805
X9.8322 Y23.37 Z-1.8203
X9.8512 Y23.3561 Z-1.7532
X9.8576 Y23.3514 Z-1.6825
G0 Z5
X28.3039 Y7.5762
Z-1.365
G1 Z-1.6825 F3500
X28.308 Y7.5831 Z-1.7532
X28.32 Y7.6033 Z-1.8203
X28.3393 Y7.6358 Z-1.8805
X28.365 Y7.679 Z-1.9307
X28.3958 Y7.7307 Z-1.9686
X28.4301 Y7.7884 Z-1.992
X28.4662 Y7.8491 Z-2
G3 X28.6875 Y8.6027 I-1.3603 J0.8088
G1 Y9.7755
X28.68 Y9.9253
X28.6573 Y10.0736
X28.6205 Y10.219
X28.5652 Y10.3787
X28.4954 Y10.5378
X28.3958 Y10.7227
X28.2758 Y10.908
X28.1164 Y11.1156
X27.9202 Y11.3326
X27.6753 Y11.5631
X27.3788 Y11.8004
X27.002 Y12.0552
X26.5679 Y12.3005
X26.0103 Y12.5588
X25.3204 Y12.8135
X24.6099 Y13.0126
X23.8886 Y13.1678
X23.1607 Y13.2885
X22.4289 Y13.3822
X21.6946 Y13.4543
X20.9589 Y13.5096
X20.2222 Y13.5515
X19.4851 Y13.583
X18.7477 Y13.6065
X18.01 Y13.6239
X17.2723 Y13.6367
X16.1657 Y13.651
X15.8007 Y13.7041
X15.4535 Y13.829
X15.1421 Y14.0267
X14.6043 Y14.5319
X14.2442 Y15.1759
X14.0159 Y15.8774
X13.8745 Y16.6016
X13.7865 Y17.3341
X13.7287 Y18.0697
X13.6851 Y18.8062
X13.644 Y19.5429
X13.5963 Y20.2792
X13.5339 Y21.0143
X13.4474 Y21.747
X13.3257 Y22.4748
X13.1954 Y23.0048
X13.0786 Y23.3552
X12.9708 Y23.6088
X12.9151 Y23.7153
X12.7986 Y23.879
X12.6424 Y24.0055
X12.4579 Y24.0853
X12.2588 Y24.1125
X11.0168
G3 X10.84 Y23.5392 I0.0111 J-0.3173
G1 X10.897 Y23.4974 Z-1.992
X10.9511 Y23.4577 Z-1.9686
X10.9996 Y23.4221 Z-1.9307
X11.0402 Y23.3924 Z-1.8805
X11.0707 Y23.37 Z-1.8203
X11.0896 Y23.3561 Z-1.7532
X11.096 Y23.3514 Z-1.6825
G0 Z5
X28.3039 Y8.749
Z-1.365
G1 Z-1.6825 F3500
X28.308 Y8.7559 Z-1.7532
X28.32 Y8.776 Z-1.8203
X28.3393 Y8.8086 Z-1.8805
X28.365 Y8.8518 Z-1.9307
X28.3958 Y8.9035 Z-1.9686
X28.4301 Y8.9612 Z-1.992
X28.4662 Y9.0219 Z-2
G3 X28.6875 Y9.7755 I-1.3603 J0.8088
G1 Y11.0237
X28.68 Y11.1735
X28.6535 Y11.3211
X28.6118 Y11.4701
X28.5551 Y11.6237
X28.476 Y11.7946
X28.3696 Y11.9829
X28.2396 Y12.1753
X28.0658 Y12.3925
X27.865 Y12.6059
X27.5941 Y12.851
X27.2894 Y13.0851
X26.8831 Y13.3482
X26.4083 Y13.6041
X25.8298 Y13.8583
X25.1326 Y14.1
X24.4196 Y14.2895
X23.697 Y14.4385
X22.9685 Y14.5555
X22.2364 Y14.6471
X21.502 Y14.7183
X20.7663 Y14.7734
X20.0297 Y14.8156
X19.2925 Y14.8478
X18.5551 Y14.872
X17.8175 Y14.8901
X17.0799 Y14.9056
X16.7351 Y15.0368
X16.4247 Y15.2362
X15.886 Y15.7403
X15.5223 Y16.3822
X15.2882 Y17.0819
X15.1384 Y17.8044
X15.0386 Y18.5354
X14.9643 Y19.2695
X14.8982 Y20.0043
X14.8276 Y20.7387
X14.7413 Y21.4715
X14.6285 Y22.2006
X14.4917 Y22.829
X14.3693 Y23.2321
X14.2523 Y23.5291
X14.1698 Y23.6976
X14.0544 Y23.8681
X13.8965 Y24.0003
X13.7084 Y24.0839
X13.5045 Y24.1125
X12.2588
G3 X12.082 Y23.5392 I0.0111 J-0.3173
G1 X12.139 Y23.4974 Z-1.992
X12.1931 Y23.4577 Z-1.9686
X12.2416 Y23.4221 Z-1.9307
X12.2822 Y23.3924 Z-1.8805
X12.3127 Y23.37 Z-1.8203
X12.3316 Y23.3561 Z-1.7532
X12.338 Y23.3514 Z-1.6825
G0 Z5
X28.3039 Y9.9972
Z-1.365
G1 Z-1.6825 F3500
X28.308 Y10.004 Z-1.7532
X28.32 Y10.0242 Z-1.8203
X28.3393 Y10.0567 Z-1.8805
X28.365 Y10.0999 Z-1.9307
X28.3958 Y10.1517 Z-1.9686
X28.4301 Y10.2094 Z-1.992
X28.4662 Y10.2701 Z-2
G3 X28.6875 Y11.0237 I-1.3603 J0.8088
G1 Y12.1964
X28.68 Y12.3462
X28.658 Y12.4946
X28.6225 Y12.6403
X28.5686 Y12.7993
X28.4993 Y12.96
X28.4032 Y13.1413
X28.2778 Y13.3379
X28.1237 Y13.5413
X27.9217 Y13.7677
X27.6855 Y13.9932
X27.3785 Y14.2423
X27.0169 Y14.4903
X26.5662 Y14.749
X25.9992 Y15.0163
X25.3087 Y15.2764
X24.5999 Y15.4813
X23.8801 Y15.6432
X23.1535 Y15.7712
X22.4226 Y15.8721
X21.689 Y15.9512
X20.9538 Y16.013
X20.2176 Y16.0611
X19.4807 Y16.0981
X18.7434 Y16.1265
X18.3777 Y16.1747
X18.0286 Y16.2942
X17.7134 Y16.4858
X17.1646 Y16.9789
X16.79 Y17.6146
X16.5429 Y18.3098
X16.3767 Y19.0286
X16.2555 Y19.7564
X16.0525 Y21.218
X15.9366 Y21.9467
X15.789 Y22.6696
X15.6552 Y23.1367
X15.5302 Y23.4692
X15.4195 Y23.7046
X15.3993 Y23.7399
X15.2816 Y23.8942
X15.128 Y24.0126
X14.9488 Y24.0871
X14.7564 Y24.1125
X13.5045
G3 X13.3277 Y23.5392 I0.0111 J-0.3173
G1 X13.3847 Y23.4974 Z-1.992
X13.4388 Y23.4577 Z-1.9686
X13.4873 Y23.4221 Z-1.9307
X13.5279 Y23.3924 Z-1.8805
X13.5584 Y23.37 Z-1.8203
X13.5773 Y23.3561 Z-1.7532
X13.5837 Y23.3514 Z-1.6825
G0 Z5
X28.3039 Y11.17
Z-1.365
G1 Z-1.6825 F3500
X28.308 Y11.1768 Z-1.7532
X28.32 Y11.197 Z-1.8203
X28.3393 Y11.2295 Z-1.8805
X28.365 Y11.2727 Z-1.9307
X28.3958 Y11.3244 Z-1.9686
X28.4301 Y11.3821 Z-1.992
X28.4662 Y11.4429 Z-2
G3 X28.6875 Y12.1964 I-1.3603 J0.8088
G1 Y13.4613
X28.68 Y13.6112
X28.6536 Y13.7588
X28.6116 Y13.9098
X28.5548 Y14.0644
X28.4749 Y14.2376
X28.3695 Y14.4249
X28.2378 Y14.6202
X28.0628 Y14.8397
X27.859 Y15.0569
X27.5844 Y15.3059
X27.2739 Y15.5452
X26.8625 Y15.8124
X26.372 Y16.0777
X25.7807 Y16.3385
X25.084 Y16.5811
X24.3717 Y16.7734
X23.6499 Y16.9264
X22.9222 Y17.0482
X22.1907 Y17.1449
X21.4569 Y17.2214
X20.7215 Y17.2817
X19.9852 Y17.3288
X19.6217 Y17.3918
X19.2755 Y17.5192
X18.9621 Y17.7137
X18.4125 Y18.2061
X18.0286 Y18.8361
X17.7645 Y19.525
X17.5742 Y20.2379
X17.4217 Y20.9598
X17.2799 Y21.6838
X17.1269 Y22.4056
X16.9618 Y23.0208
X16.8331 Y23.3818
X16.7166 Y23.6406
X16.6679 Y23.729
X16.5507 Y23.8875
X16.3959 Y24.0095
X16.2143 Y24.0863
X16.0189 Y24.1125
X14.7564
G3 X14.5797 Y23.5392 I0.0111 J-0.3173
G1 X14.6367 Y23.4974 Z-1.992
X14.6908 Y23.4577 Z-1.9686
X14.7393 Y23.4221 Z-1.9307
X14.7798 Y23.3924 Z-1.8805
X14.8103 Y23.37 Z-1.8203
X14.8293 Y23.3561 Z-1.7532
X14.8357 Y23.3514 Z-1.6825
G0 Z5
X28.3039 Y12.4349
Z-1.365
G1 Z-1.6825 F3500
X28.308 Y12.4417 Z-1.7532
X28.32 Y12.4619 Z-1.8203
X28.3393 Y12.4944 Z-1.8805
X28.365 Y12.5376 Z-1.9307
X28.3958 Y12.5894 Z-1.9686
X28.4301 Y12.647 Z-1.992
X28.4662 Y12.7078 Z-2
G3 X28.6875 Y13.4613 I-1.3603 J0.8088
G1 Y14.6341
X28.68 Y14.7839
X28.6589 Y14.9324
X28.6243 Y15.0784
X28.5719 Y15.236
X28.5025 Y15.3996
X28.4085 Y15.5794
X28.2823 Y15.7799
X28.1314 Y15.9817
X27.9262 Y16.2145
X27.6946 Y16.4381
X27.381 Y16.6957
X27.0275 Y16.9413
X26.5687 Y17.2082
X25.9969 Y17.482
X25.308 Y17.7462
X24.6007 Y17.956
X23.8821 Y18.1234
X23.1565 Y18.257
X22.4264 Y18.3636
X21.6935 Y18.4487
X20.9588 Y18.5164
X20.61 Y18.6364
X19.9662 Y18.9968
X19.4801 Y19.5519
X19.1296 Y20.2011
X18.8706 Y20.892
X18.6619 Y21.5997
X18.469 Y22.3118
X18.2614 Y23.0198
X18.1133 Y23.4083
X17.9901 Y23.6669
X17.9461 Y23.7429
X17.8283 Y23.896
X17.675 Y24.0135
X17.4965 Y24.0873
X17.305 Y24.1125
X16.0189
G3 X15.8422 Y23.5392 I0.0111 J-0.3173
G1 X15.8992 Y23.4974 Z-1.992
X15.9533 Y23.4577 Z-1.9686
X16.0018 Y23.4221 Z-1.9307
X16.0423 Y23.3924 Z-1.8805
X16.0728 Y23.37 Z-1.8203
X16.0918 Y23.3561 Z-1.7532
X16.0982 Y23.3514 Z-1.6825
G0 Z5
X28.3039 Y13.6076
Z-1.365
G1 Z-1.6825 F3500
X28.308 Y13.6145 Z-1.7532
X28.32 Y13.6347 Z-1.8203
X28.3393 Y13.6672 Z-1.8805
X28.365 Y13.7104 Z-1.9307
X28.3958 Y13.7621 Z-1.9686
X28.4301 Y13.8198 Z-1.992
X28.4662 Y13.8805 Z-2
G3 X28.6875 Y14.6341 I-1.3603 J0.8088
G1 Y15.8823
X28.68 Y16.0321
X28.6572 Y16.1803
X28.6197 Y16.3268
X28.5663 Y16.4823
X28.4928 Y16.6507
X28.3923 Y16.8386
X28.2699 Y17.0287
X28.1006 Y17.2504
X27.9092 Y17.4631
X27.6425 Y17.7155
X27.3499 Y17.951
X26.9446 Y18.2266
X26.4919 Y18.4839
X25.9119 Y18.7544
X25.2204 Y19.0117
X24.5118 Y19.2172
X23.7927 Y19.3822
X23.0669 Y19.5148
X22.3368 Y19.6216
X21.9801 Y19.7155
X21.3078 Y20.0195
X20.7749 Y20.5298
X20.3741 Y21.1492
X20.0647 Y21.819
X19.8024 Y22.5086
X19.5432 Y23.1994
X19.3714 Y23.571
X19.2785 Y23.7356
X19.1611 Y23.8916
X19.0069 Y24.0114
X18.8268 Y24.0868
X18.6333 Y24.1125
X17.305
G3 X17.1282 Y23.5392 I0.0111 J-0.3173
G1 X17.1852 Y23.4974 Z-1.992
X17.2393 Y23.4577 Z-1.9686
X17.2878 Y23.4221 Z-1.9307
X17.3284 Y23.3924 Z-1.8805
X17.3589 Y23.37 Z-1.8203
X17.3778 Y23.3561 Z-1.7532
X17.3842 Y23.3514 Z-1.6825
G0 Z5
X28.3039 Y14.8558
Z-1.365
G1 Z-1.6825 F3500
X28.308 Y14.8627 Z-1.7532
X28.32 Y14.8828 Z-1.8203
X28.3393 Y14.9153 Z-1.8805
X28.365 Y14.9586 Z-1.9307
X28.3958 Y15.0103 Z-1.9686
X28.4301 Y15.068 Z-1.992
X28.4662 Y15.1287 Z-2
G3 X28.6875 Y15.8823 I-1.3603 J0.8088
G1 Y17.1472
X28.68 Y17.297
X28.6534 Y17.4446
X28.612 Y17.5939
X28.5539 Y17.7526
X28.475 Y17.9238
X28.3642 Y18.1212
X28.2339 Y18.3148
X28.0533 Y18.5417
X27.8503 Y18.7583
X27.568 Y19.0148
X27.2593 Y19.2531
X26.8357 Y19.5288
X26.3452 Y19.7945
X25.7278 Y20.0674
X25.0312 Y20.3106
X24.3197 Y20.5059
X23.5989 Y20.6635
X22.8873 Y20.8581
X22.2654 Y21.2551
X21.7706 Y21.8024
X21.3757 Y22.4256
X20.7773 Y23.5831
X20.6647 Y23.7637
X20.5464 Y23.9087
X20.3956 Y24.0195
X20.2218 Y24.0889
X20.0361 Y24.1125
X18.6333
G3 X18.4565 Y23.5392 I0.0111 J-0.3173
G1 X18.5135 Y23.4974 Z-1.992
X18.5676 Y23.4577 Z-1.9686
X18.6161 Y23.4221 Z-1.9307
X18.6567 Y23.3924 Z-1.8805
X18.6872 Y23.37 Z-1.8203
X18.7061 Y23.3561 Z-1.7532
X18.7125 Y23.3514 Z-1.6825
G0 Z5
X28.3039 Y16.1207
Z-1.365
G1 Z-1.6825 F3500
X28.308 Y16.1276 Z-1.7532
X28.32 Y16.1478 Z-1.8203
X28.3393 Y16.1803 Z-1.8805
X28.365 Y16.2235 Z-1.9307
X28.3958 Y16.2752 Z-1.9686
X28.4301 Y16.3329 Z-1.992
X28.4662 Y16.3936 Z-2
G3 X28.6875 Y17.1472 I-1.3603 J0.8088
G1 Y18.32
X28.68 Y18.4698
X28.6598 Y18.6184
X28.626 Y18.7646
X28.5753 Y18.9204
X28.5059 Y19.0868
X28.4144 Y19.2647
X28.2873 Y19.4695
X28.1396 Y19.6696
X27.9346 Y19.9051
X27.7062 Y20.1285
X27.3877 Y20.3935
X27.041 Y20.6376
X26.5749 Y20.9128
X25.998 Y21.1935
X25.3108 Y21.4621
X24.6055 Y21.6787
X23.9146 Y21.9375
X23.3129 Y22.3645
X22.8128 Y22.907
X22.3827 Y23.5065
X22.1722 Y23.8017
X22.008 Y23.9684
X21.8 Y24.0756
X21.569 Y24.1125
X20.0361
G3 X19.8594 Y23.5392 I0.0111 J-0.3173
G1 X19.9163 Y23.4974 Z-1.992
X19.9704 Y23.4577 Z-1.9686
X20.019 Y23.4221 Z-1.9307
X20.0595 Y23.3924 Z-1.8805
X20.09 Y23.37 Z-1.8203
X20.1089 Y23.3561 Z-1.7532
X20.1154 Y23.3514 Z-1.6825
G0 Z5
X28.3039 Y17.2935
Z-1.365
G1 Z-1.6825 F3500
X28.308 Y17.3003 Z-1.7532
X28.32 Y17.3205 Z-1.8203
X28.3393 Y17.353 Z-1.8805
X28.365 Y17.3963 Z-1.9307
X28.3958 Y17.448 Z-1.9686
X28.4301 Y17.5057 Z-1.992
X28.4662 Y17.5664 Z-2
G3 X28.6875 Y18.32 I-1.3603 J0.8088
G1 Y19.5681
X28.68 Y19.718
X28.6588 Y19.8665
X28.6231 Y20.0121
X28.5714 Y20.1677
X28.5003 Y20.3353
X28.4023 Y20.5228
X28.283 Y20.7123
X28.1165 Y20.9347
X27.9284 Y21.1481
X27.6658 Y21.4016
X27.3756 Y21.6398
X26.9727 Y21.9198
X26.523 Y22.1813
X25.8575 Y22.4998
X25.1834 Y22.7998
X24.5632 Y23.1995
X24.0203 Y23.6991
X23.8212 Y23.908
X23.6817 Y24.0224
X23.5188 Y24.0998
X23.342 Y24.1355
X23.1618 Y24.1274
X23.1174 Y24.1199
X22.9497 Y24.1125
X21.569
G3 X21.3922 Y23.5392 I0.0111 J-0.3173
G1 X21.4492 Y23.4974 Z-1.992
X21.5033 Y23.4577 Z-1.9686
X21.5518 Y23.4221 Z-1.9307
X21.5924 Y23.3924 Z-1.8805
X21.6229 Y23.37 Z-1.8203
X21.6418 Y23.3561 Z-1.7532
X21.6482 Y23.3514 Z-1.6825
G0 Z5
X28.3039 Y18.5417
Z-1.365
G1 Z-1.6825 F3500
X28.308 Y18.5485 Z-1.7532
X28.32 Y18.5687 Z-1.8203
X28.3393 Y18.6012 Z-1.8805
X28.365 Y18.6444 Z-1.9307
X28.3958 Y18.6962 Z-1.9686
X28.4301 Y18.7538 Z-1.992
X28.4662 Y18.8146 Z-2
G3 X28.6875 Y19.5681 I-1.3603 J0.8088
G1 Y20.8331
X28.68 Y20.9829
X28.6557 Y21.1309
X28.6166 Y21.2795
X28.5617 Y21.4356
X28.4859 Y21.6064
X28.3792 Y21.8024
X28.2529 Y21.9956
X28.0774 Y22.2222
X27.8797 Y22.439
X27.6019 Y22.6983
X27.2294 Y22.9938
X26.6164 Y23.4045
X25.996 Y23.8037
X25.4139 Y24.257
X25.0611 Y24.5262
X25.0515 Y24.5324
X24.8483 Y24.6233
X24.6272 Y24.6497
X24.4083 Y24.6093
X24.2113 Y24.5056
X24.1234 Y24.4409
X24.1014 Y24.4268
X23.9557 Y24.3608
X23.589 Y24.2004
X23.5785 Y24.1976
X23.1618 Y24.1274
G3 X23.0667 Y23.5414 I0.0637 J-0.3111
G1 X23.0826 Y23.5322
X28.0976 Y20.635
X28.2114 Y20.5692
G3 X28.6875 Y20.8331 I0.1588 J0.2749
G1 X28.6879 Y21.2778
X28.6881 Y21.2893
X28.7041 Y21.3007
X28.7652 Y21.3443
X28.8344 Y21.4774
X28.8757 Y21.6216
X28.8945 Y21.7704
X28.8954 Y21.9204
X28.8809 Y22.0697
X28.8525 Y22.2187
X28.8069 Y22.3841
X28.7438 Y22.5574
X28.6503 Y22.7615
X28.538 Y22.9623
X28.3791 Y23.1995
X28.1548 Y23.4822
X27.8202 Y23.8407
X27.2751 Y24.3379
X26.8018 Y24.7376
X26.6577 Y24.833
X26.4954 Y24.8924
X26.3238 Y24.9125
X24.7941
X24.7522 Y24.9097
X24.7103 Y24.9012
X24.6683 Y24.8865
X24.6264 Y24.8646
X24.5697 Y24.8202
X24.4588 Y24.7071
X24.3316 Y24.5943
X24.2113 Y24.5056
G3 X24.2376 Y23.9891 I0.1972 J-0.2488
G1 X24.3903 Y23.8917
X28.0068 Y21.5832
X28.4101 Y21.3257
G3 X28.7041 Y21.3007 I0.1708 J0.2676
G1 X28.7204 Y21.3082
X28.7366 Y21.312
X28.9518 Y21.3122
X28.9893 Y21.3141
X29.1173 Y21.3922
X29.2255 Y21.4961
X29.3144 Y21.617
X29.3851 Y21.7493
X29.4391 Y21.8892
X29.4775 Y22.0342
X29.5022 Y22.1822
X29.514 Y22.3333
X29.5136 Y22.5017
X29.4988 Y22.6796
X29.4654 Y22.8827
X29.4132 Y23.0928
X29.3317 Y23.3355
X29.2227 Y23.5904
X29.07 Y23.8805
X28.8498 Y24.228
X28.5393 Y24.6404
X28.5191 Y24.6633
X28.3605 Y24.798
X28.1708 Y24.8833
X27.9648 Y24.9125
X26.3238
G3 X26.0972 Y24.3846 I0.0111 J-0.3173
G1 X26.142 Y24.3341
X28.375 Y21.8139
X28.725 Y21.419
G3 X28.9518 Y21.3122 I0.2376 J0.2106
G1 X29.349 Y21.3125
X29.4988 Y21.32
X29.6334 Y21.3864
X29.7553 Y21.4737
X29.864 Y21.577
X29.9596 Y21.6927
X30.0421 Y21.818
X30.1119 Y21.9507
X30.17 Y22.089
X30.2192 Y22.2392
X30.2608 Y22.4123
X30.2891 Y22.5929
X30.3046 Y22.7979
X30.3035 Y23.0195
X30.2832 Y23.256
X30.2377 Y23.5285
X30.1686 Y23.8036
X30.0573 Y24.1322
X29.9457 Y24.3913
X29.8784 Y24.5184
X29.7617 Y24.681
X29.6058 Y24.8064
X29.422 Y24.8855
X29.2237 Y24.9125
X27.9648
G3 X27.6882 Y24.4609 I0.0111 J-0.3173
G1 X27.7555 Y24.3167
X28.8878 Y21.891
X29.0724 Y21.4955
G3 X29.349 Y21.3125 I0.2877 J0.1343
G1 X29.8748
X30.0247 Y21.32
X30.1695 Y21.3589
X30.3061 Y21.4208
X30.4329 Y21.501
X30.5493 Y21.5956
X30.6552 Y21.7019
X30.7505 Y21.8177
X30.8379 Y21.9453
X30.9182 Y22.0854
X30.9928 Y22.2438
X31.0615 Y22.4267
X31.1169 Y22.6199
X31.1613 Y22.8402
X31.1901 Y23.082
X31.2 Y23.3406
X31.1883 Y23.6183
X31.1566 Y23.8759
X31.1062 Y24.1208
X31.0474 Y24.3228
X31.0047 Y24.4351
X30.8951 Y24.629
X30.7328 Y24.7816
X30.5325 Y24.879
X30.3123 Y24.9125
X29.2237
G3 X28.9247 Y24.5271 I0.0111 J-0.3173
G1 X28.9738 Y24.3033
X29.4972 Y21.9196
X29.5758 Y21.5617
G3 X29.8748 Y21.3125 I0.3101 J0.0681
G1 X30.587
X30.7368 Y21.32
X30.8832 Y21.3526
X31.0233 Y21.4063
X31.1556 Y21.477
X31.2793 Y21.5619
X31.3942 Y21.6582
X31.5003 Y21.7642
X31.608 Y21.8911
X31.7078 Y22.0301
X31.8064 Y22.1934
X31.8988 Y22.3788
X31.9791 Y22.5784
X32.0489 Y22.8026
X32.1038 Y23.0464
X32.1396 Y23.2988
X32.1548 Y23.5482
X32.1505 Y23.7704
X32.1275 Y23.9998
X32.0939 Y24.1843
X32.0468 Y24.3607
X32.026 Y24.4194
X31.9183 Y24.6191
X31.7552 Y24.7768
X31.552 Y24.8778
X31.3278 Y24.9125
X30.3123
G3 X30.0072 Y24.5659 I0.0111 J-0.3173
G1 X30.032 Y24.2986
X30.2518 Y21.9262
X30.282 Y21.6005
G3 X30.587 Y21.3125 I0.3161 J0.0293
G1 X31.4254
X31.5752 Y21.32
X31.7212 Y21.3544
X31.8615 Y21.4074
X31.995 Y21.4758
X32.1212 Y21.5568
X32.2396 Y21.649
X32.358 Y21.7577
X32.4751 Y21.8838
X32.594 Y22.0346
X32.7035 Y22.199
X32.8073 Y22.3858
X32.9013 Y22.5926
X32.9822 Y22.8167
X33.046 Y23.0506
X33.0914 Y23.292
X33.1162 Y23.5263
X33.1214 Y23.7336
X33.1092 Y23.9529
X33.0846 Y24.1332
X33.048 Y24.3001
X33.0212 Y24.388
X32.9178 Y24.5991
X32.7534 Y24.7671
X32.5447 Y24.8752
X32.3126 Y24.9125
X31.3278
G3 X31.0216 Y24.5848 I0.0111 J-0.3173
G1 X31.031 Y24.2976
X31.109 Y21.9274
X31.1191 Y21.6194
G3 X31.4254 Y21.3125 I0.3173 J0.0104
G1 X32.2637
X32.4135 Y21.32
X32.5611 Y21.3465
X32.7041 Y21.392
X32.8412 Y21.4529
X32.9716 Y21.5269
X33.0974 Y21.6142
X33.2194 Y21.7144
X33.3456 Y21.836
X33.4713 Y21.9786
X33.5888 Y22.1355
X33.7024 Y22.3157
X33.8061 Y22.5141
X33.8971 Y22.7283
X33.972 Y22.9534
X34.0294 Y23.1867
X34.067 Y23.419
X34.0835 Y23.6247
Y23.8466
X34.0683 Y24.0346
X34.0418 Y24.1985
X33.9976 Y24.3782
X33.9884 Y24.4057
X33.8825 Y24.6104
X33.7188 Y24.7726
X33.5132 Y24.8767
X33.2855 Y24.9125
X32.3126
G3 X32.0063 Y24.6004 I0.0111 J-0.3173
G1 X32.0013 Y24.2975
X31.9621 Y21.9275
X31.9573 Y21.6351
G3 X32.2637 Y21.3125 I0.3175 J-0.0052
G1 X33.1775
X33.3273 Y21.32
X33.4753 Y21.3445
X33.619 Y21.3876
X33.757 Y21.4464
X33.8887 Y21.5181
X34.0137 Y21.601
X34.1449 Y21.7042
X34.271 Y21.821
X34.3984 Y21.9597
X34.5242 Y22.1209
X34.6397 Y22.2963
X34.7446 Y22.4872
X34.8392 Y22.6981
X34.9185 Y22.9213
X34.9799 Y23.1512
X35.0235 Y23.3895
X35.0444 Y23.5969
X35.0486 Y23.8068
X35.0367 Y24.0037
X35.0134 Y24.1683
X34.9748 Y24.3399
X34.9588 Y24.3915
X34.8549 Y24.6013
X34.6906 Y24.7682
X34.4825 Y24.8755
X34.2513 Y24.9125
X33.2855
G3 X32.9793 Y24.6068 I0.0111 J-0.3173
G1 X32.9681 Y24.2977
X32.8817 Y21.9274
X32.8713 Y21.6414
G3 X33.1775 Y21.3125 I0.3173 J-0.0116
G1 X34.108
X34.2579 Y21.32
X34.4062 Y21.3423
X34.5505 Y21.3832
X34.6894 Y21.4398
X34.8221 Y21.5097
X34.9484 Y21.5907
X35.0801 Y21.6915
X35.2089 Y21.8076
X35.3365 Y21.9426
X35.4646 Y22.102
X35.5834 Y22.2771
X35.6908 Y22.4664
X35.7872 Y22.6735
X35.8693 Y22.8948
X35.9338 Y23.1233
X35.9802 Y23.3589
X36.0041 Y23.5667
X36.0113 Y23.7784
X36.0021 Y23.9765
X35.981 Y24.1419
X35.945 Y24.3137
X35.9249 Y24.3817
X35.8224 Y24.595
X35.6579 Y24.7651
X35.4481 Y24.8747
X35.2144 Y24.9125
X34.2513
G3 X33.9453 Y24.6105 I0.0111 J-0.3173
G1 X33.9302 Y24.2978
X33.8156 Y21.9272
X33.802 Y21.6451
G3 X34.108 Y21.3125 I0.3171 J-0.0153
G1 X35.1141
X35.2639 Y21.32
X35.4109 Y21.3499
X35.5533 Y21.3968
X35.6903 Y21.458
X35.8208 Y21.5318
X35.9505 Y21.6203
X36.0788 Y21.7238
X36.2123 Y21.8505
X36.3401 Y21.993
X36.4633 Y22.1548
X36.5799 Y22.3365
X36.6868 Y22.5368
X36.7795 Y22.7503
X36.8558 Y22.9734
X36.9144 Y23.2038
X36.953 Y23.4301
X36.9708 Y23.6307
X36.9725 Y23.8486
X36.9593 Y24.032
X36.9344 Y24.1939
X36.8921 Y24.3721
X36.8831 Y24.4
X36.7779 Y24.6067
X36.614 Y24.7708
X36.4074 Y24.8762
X36.1783 Y24.9125
X35.2144
G3 X34.9082 Y24.6059 I0.0111 J-0.3173
G1 X34.8977 Y24.2976
X34.8175 Y21.9274
X34.8078 Y21.6406
G3 X35.1141 Y21.3125 I0.3173 J-0.0107
G1 X36.0278
X36.1777 Y21.32
X36.3259 Y21.3429
X36.4701 Y21.3843
X36.6088 Y21.4413
X36.7416 Y21.511
X36.8689 Y21.5929
X37.0015 Y21.6941
X37.1295 Y21.8092
X37.2606 Y21.9476
X37.3881 Y22.1061
X37.5056 Y22.2788
X37.6136 Y22.4685
X37.7112 Y22.6776
X37.7934 Y22.8985
X37.8579 Y23.1262
X37.9048 Y23.3623
X37.9289 Y23.5709
X37.9362 Y23.7775
X37.9271 Y23.9772
X37.9061 Y24.1434
X37.8709 Y24.3119
X37.8506 Y24.3809
X37.7741 Y24.5546
X37.656 Y24.7032
X37.5041 Y24.8169
X37.3282 Y24.8882
X37.1399 Y24.9125
X36.1783
G3 X35.8723 Y24.6113 I0.0111 J-0.3173
G1 X35.8564 Y24.2978
X35.7361 Y21.9272
X35.7218 Y21.6459
G3 X36.0278 Y21.3125 I0.3171 J-0.0161
G1 X37.0339
X37.1837 Y21.32
X37.3307 Y21.3497
X37.4732 Y21.3964
X37.6103 Y21.4574
X37.7409 Y21.5311
X37.8706 Y21.6192
X37.9994 Y21.7228
X38.1334 Y21.8494
X38.2613 Y21.9915
X38.3851 Y22.1535
X38.5023 Y22.3354
X38.6094 Y22.5352
X38.7024 Y22.7483
X38.7791 Y22.9713
X38.8381 Y23.2014
X38.877 Y23.4273
X38.8961 Y23.6377
X38.8981 Y23.8455
X38.8858 Y24.0209
X38.8576 Y24.2061
X38.8198 Y24.3668
X38.8095 Y24.3987
X38.7046 Y24.6059
X38.5406 Y24.7704
X38.3338 Y24.8761
X38.1044 Y24.9125
X37.1399
G3 X36.8337 Y24.6066 I0.0111 J-0.3173
G1 X36.8227 Y24.2976
X36.7379 Y21.9274
X36.7276 Y21.6412
G3 X37.0339 Y21.3125 I0.3173 J-0.0114
G1 X37.9644
X38.1142 Y21.32
X38.2621 Y21.3449
X38.4059 Y21.3878
X38.5441 Y21.4461
X38.6763 Y21.517
X38.803 Y21.5997
X38.9366 Y21.7031
X39.0649 Y21.8201
X39.1952 Y21.9595
X39.323 Y22.1206
X39.4407 Y22.2961
X39.548 Y22.4879
X39.6441 Y22.6974
X39.7243 Y22.9174
X39.788 Y23.1482
X39.8331 Y23.3838
X39.8553 Y23.5882
X39.8613 Y23.7979
X39.8511 Y23.9933
X39.8292 Y24.1571
X39.7923 Y24.3283
X39.7749 Y24.3857
X39.6718 Y24.5976
X39.5074 Y24.7664
X39.2983 Y24.875
X39.0657 Y24.9125
X38.1044
G3 X37.7983 Y24.6102 I0.0111 J-0.3173
G1 X37.7835 Y24.2978
X37.6717 Y21.9272
X37.6583 Y21.6448
G3 X37.9644 Y21.3125 I0.3172 J-0.015
G1 X38.9704
X39.1202 Y21.32
X39.2669 Y21.3514
X39.409 Y21.3995
X39.5455 Y21.4616
X39.6756 Y21.5363
X39.8045 Y21.6251
X39.9342 Y21.7307
X40.0684 Y21.8592
X40.1957 Y22.0023
X40.3196 Y22.1666
X40.4362 Y22.3501
X40.5425 Y22.5514
X40.6344 Y22.7654
X40.7097 Y22.9891
X40.7674 Y23.2198
X40.8047 Y23.4451
X40.8215 Y23.6446
X40.8223 Y23.8611
X40.8083 Y24.043
X40.7828 Y24.2044
X40.7398 Y24.3819
X40.7329 Y24.4031
X40.6273 Y24.6087
X40.4635 Y24.7718
X40.2574 Y24.8765
X40.0291 Y24.9125
X39.0657
G3 X38.7594 Y24.6054 I0.0111 J-0.3173
G1 X38.7495 Y24.2976
X38.6734 Y21.9274
X38.6642 Y21.64
G3 X38.9704 Y21.3125 I0.3173 J-0.0102
G1 X39.8842
X40.034 Y21.32
X40.1821 Y21.3441
X40.326 Y21.3865
X40.4644 Y21.4442
X40.5969 Y21.5145
X40.7251 Y21.5978
X40.8576 Y21.6999
X40.986 Y21.8162
X41.1175 Y21.9563
X41.2446 Y22.1156
X41.3618 Y22.2894
X41.4693 Y22.4804
X41.5662 Y22.6904
X41.6476 Y22.9119
X41.7111 Y23.14
X41.7569 Y23.3763
X41.78 Y23.5831
X41.7864 Y23.7897
X41.7765 Y23.9877
X41.755 Y24.1528
X41.7189 Y24.3217
X41.7003 Y24.384
X41.5975 Y24.5965
X41.433 Y24.7659
X41.2236 Y24.8749
X40.9905 Y24.9125
X40.0291
G3 X39.7231 Y24.6107 I0.0111 J-0.3173
G1 X39.7078 Y24.2978
X39.5919 Y21.9272
X39.5782 Y21.6453
G3 X39.8842 Y21.3125 I0.3171 J-0.0155
G1 X40.8902
X41.04 Y21.32
X41.1869 Y21.3507
X41.3291 Y21.3982
X41.4659 Y21.4598
X41.5962 Y21.534
X41.7253 Y21.6224
X41.8549 Y21.7273
X41.989 Y21.855
X42.1164 Y21.9975
X42.2404 Y22.1609
X42.3575 Y22.3439
X42.464 Y22.5444
X42.5564 Y22.7579
X42.6324 Y22.9813
X42.6906 Y23.2118
X42.7286 Y23.4374
X42.746 Y23.6372
X42.7474 Y23.8542
X42.7339 Y24.0369
X42.7088 Y24.1984
X42.6663 Y24.3762
X42.6582 Y24.4011
X42.5529 Y24.6075
X42.389 Y24.7712
X42.1826 Y24.8763
X41.9538 Y24.9125
X40.9905
G3 X40.6843 Y24.6059 I0.0111 J-0.3173
G1 X40.6739 Y24.2976
X40.5937 Y21.9274
X40.584 Y21.6405
G3 X40.8902 Y21.3125 I0.3173 J-0.0107
G1 X41.8208
X41.9706 Y21.32
X42.1184 Y21.3458
X42.2619 Y21.3895
X42.3998 Y21.4483
X42.5318 Y21.5197
X42.659 Y21.6034
X42.7926 Y21.7077
X42.9209 Y21.8255
X43.0513 Y21.966
X43.1789 Y22.128
X43.2961 Y22.3041
X43.4022 Y22.4954
X43.4978 Y22.7059
X43.5778 Y22.9279
X43.64 Y23.1565
X43.6844 Y23.3931
X43.7058 Y23.5967
X43.711 Y23.8065
X43.7001 Y24.001
X43.6778 Y24.1643
X43.6401 Y24.3357
X43.624 Y24.3883
X43.5205 Y24.5993
X43.3562 Y24.7672
X43.1475 Y24.8752
X42.9155 Y24.9125
X41.9538
G3 X41.6477 Y24.6094 I0.0111 J-0.3173
G1 X41.6337 Y24.2978
X41.5274 Y21.9273
X41.5147 Y21.644
G3 X41.8208 Y21.3125 I0.3172 J-0.0142
G1 X42.8268
X42.9766 Y21.32
X43.1231 Y21.3522
X43.2649 Y21.401
X43.4012 Y21.4637
X43.531 Y21.5388
X43.6595 Y21.628
X43.7897 Y21.7347
X43.9238 Y21.864
X44.0507 Y22.0076
X44.1745 Y22.1729
X44.2908 Y22.3572
X44.3965 Y22.5592
X44.4877 Y22.7737
X44.5624 Y22.9978
X44.6193 Y23.2288
X44.6558 Y23.4539
X44.6719 Y23.6531
X44.672 Y23.8689
X44.6575 Y24.0501
X44.6314 Y24.2114
X44.5879 Y24.3886
X44.5823 Y24.4055
X44.4764 Y24.6102
X44.3127 Y24.7725
X44.107 Y24.8766
X43.8793 Y24.9125
X42.9155
G3 X42.6092 Y24.6047 I0.0111 J-0.3173
G1 X42.6001 Y24.2976
X42.5291 Y21.9274
X42.5205 Y21.6393
G3 X42.8268 Y21.3125 I0.3174 J-0.0095
G1 X43.7406
X43.8904 Y21.32
X44.0383 Y21.3449
X44.182 Y21.388
X44.3202 Y21.4463
X44.4524 Y21.5172
X44.581 Y21.6013
X44.7133 Y21.704
X44.8417 Y21.8213
X44.9733 Y21.9624
X45.1 Y22.1224
X45.2168 Y22.297
X45.3239 Y22.4889
X45.4202 Y22.6995
X45.5009 Y22.9215
X45.5637 Y23.1499
X45.6086 Y23.3865
X45.6308 Y23.5922
X45.6364 Y23.7989
X45.6259 Y23.9958
X45.6039 Y24.1602
X45.5671 Y24.3295
X45.5498 Y24.3865
X45.4466 Y24.5981
X45.2822 Y24.7666
X45.0733 Y24.8751
X44.8408 Y24.9125
X43.8793
G3 X43.5732 Y24.61 I0.0111 J-0.3173
G1 X43.5586 Y24.2978
X43.4477 Y21.9273
X43.4345 Y21.6447
G3 X43.7406 Y21.3125 I0.3172 J-0.0148
G1 X44.7466
X44.8964 Y21.32
X45.0431 Y21.3515
X45.1851 Y21.3997
X45.3216 Y21.4619
X45.4516 Y21.5366
X45.5803 Y21.6253
X45.7103 Y21.7313
X45.8444 Y21.8598
X45.9715 Y22.0029
X46.0955 Y22.1674
X46.2122 Y22.3513
X46.3183 Y22.5525
X46.41 Y22.7665
X46.4853 Y22.9903
X46.5428 Y23.2211
X46.5801 Y23.4464
X46.5968 Y23.6458
X46.5975 Y23.8621
X46.5834 Y24.044
X46.5578 Y24.2054
X46.5147 Y24.3829
X46.508 Y24.4035
X46.4023 Y24.6089
X46.2386 Y24.7719
X46.0325 Y24.8765
X45.8043 Y24.9125
X44.8408
G3 X44.5346 Y24.6053 I0.0111 J-0.3173
G1 X44.5248 Y24.2976
X44.4495 Y21.9274
X44.4403 Y21.6399
G3 X44.7466 Y21.3125 I0.3173 J-0.0101
G1 X45.6771
X45.8269 Y21.32
X45.9746 Y21.3466
X46.1179 Y21.391
X46.2556 Y21.4504
X46.3873 Y21.5223
X46.5149 Y21.6069
X46.6485 Y21.7119
X46.7768 Y21.8305
X46.9072 Y21.9721
X47.0345 Y22.1349
X47.1513 Y22.3118
X47.257 Y22.5039
X47.352 Y22.715
X47.4313 Y22.9375
X47.4927 Y23.1665
X47.5363 Y23.4032
X47.5569 Y23.6057
X47.5613 Y23.8155
X47.5498 Y24.0089
X47.5269 Y24.1716
X47.4885 Y24.3433
X47.4738 Y24.3908
X47.37 Y24.6009
X47.2057 Y24.768
X46.9975 Y24.8755
X46.7662 Y24.9125
X45.8043
G3 X45.4982 Y24.6088 I0.0111 J-0.3173
G1 X45.4849 Y24.2977
X45.3832 Y21.9273
X45.371 Y21.6434
G3 X45.6771 Y21.3125 I0.3172 J-0.0136
G1 X46.6416
X46.7915 Y21.32
X46.939 Y21.3472
X47.0822 Y21.3917
X47.2199 Y21.4512
X47.3514 Y21.5234
X47.4764 Y21.6063
X47.6089 Y21.7104
X47.7405 Y21.832
X47.8677 Y21.9703
X47.9951 Y22.133
X48.114 Y22.3132
X48.2209 Y22.5074
X48.3148 Y22.7161
X48.3941 Y22.9384
X48.4555 Y23.1674
X48.4984 Y23.4011
X48.5189 Y23.6021
X48.5234 Y23.8171
X48.5122 Y24.0074
X48.4894 Y24.1694
X48.4503 Y24.3445
X48.4359 Y24.3908
X48.3321 Y24.6009
X48.1678 Y24.768
X47.9596 Y24.8755
X47.7282 Y24.9125
X46.7662
G3 X46.46 Y24.6085 I0.0111 J-0.3173
G1 X46.447 Y24.2977
X46.3474 Y21.9273
X46.3355 Y21.6431
G3 X46.6416 Y21.3125 I0.3172 J-0.0133
G1 X47.5969
X47.7467 Y21.32
X47.8944 Y21.3462
X48.0379 Y21.3899
X48.1759 Y21.4488
X48.3077 Y21.5204
X48.433 Y21.6028
X48.5659 Y21.7064
X48.6967 Y21.8265
X48.8245 Y21.9642
X48.9521 Y22.1261
X49.071 Y22.3048
X49.1779 Y22.4972
X49.2727 Y22.7058
X49.3528 Y22.9276
X49.415 Y23.156
X49.459 Y23.3907
X49.4804 Y23.5929
X49.4857 Y23.8072
X49.475 Y23.9993
X49.4528 Y24.1619
X49.4145 Y24.3362
X49.3987 Y24.3881
X49.2952 Y24.5991
X49.1309 Y24.7672
X48.9222 Y24.8752
X48.6902 Y24.9125
X47.7282
G3 X47.4221 Y24.6092 I0.0111 J-0.3173
G1 X47.4083 Y24.2977
X47.3034 Y21.9273
X47.2908 Y21.6439
G3 X47.5969 Y21.3125 I0.3172 J-0.014
G1 X48.6029
X48.7528 Y21.32
X48.8992 Y21.3524
X49.041 Y21.4014
X49.1772 Y21.4642
X49.307 Y21.5395
X49.4357 Y21.6289
X49.5658 Y21.7357
X49.6999 Y21.8651
X49.8269 Y22.0091
X49.9504 Y22.1742
X50.0663 Y22.3582
X50.1721 Y22.5605
X50.2632 Y22.7752
X50.3377 Y22.9992
X50.3944 Y23.2303
X50.4308 Y23.4553
X50.4468 Y23.6546
X50.4467 Y23.8704
X50.4321 Y24.0513
X50.4058 Y24.2127
X50.3622 Y24.3899
X50.3569 Y24.4059
X50.2509 Y24.6105
X50.0872 Y24.7727
X49.8817 Y24.8767
X49.6541 Y24.9125
X48.6902
G3 X48.3839 Y24.6045 I0.0111 J-0.3173
G1 X48.3749 Y24.2976
X48.3051 Y21.9274
X48.2967 Y21.6392
G3 X48.6029 Y21.3125 I0.3174 J-0.0093
G1 X49.5335
X49.6833 Y21.32
X49.8308 Y21.3475
X49.9738 Y21.3926
X50.1113 Y21.4526
X50.2427 Y21.525
X50.3708 Y21.6107
X50.5043 Y21.7164
X50.6325 Y21.8359
X50.7629 Y21.9786
X50.8898 Y22.1421
X51.0062 Y22.3198
X51.1114 Y22.5129
X51.2058 Y22.7247
X51.2843 Y22.9477
X51.3449 Y23.1771
X51.3875 Y23.414
X51.4072 Y23.6154
X51.4108 Y23.8252
X51.3987 Y24.0174
X51.3753 Y24.1795
X51.3361 Y24.3515
X51.3229 Y24.3935
X51.2187 Y24.6026
X51.0545 Y24.7688
X50.8468 Y24.8757
X50.6161 Y24.9125
X49.6541
G3 X49.3479 Y24.6081 I0.0111 J-0.3173
G1 X49.3353 Y24.2977
X49.2389 Y21.9273
X49.2273 Y21.6427
G3 X49.5335 Y21.3125 I0.3172 J-0.0129
G1 X50.498
X50.6478 Y21.32
X50.7952 Y21.348
X50.9382 Y21.3933
X51.0756 Y21.4534
X51.2068 Y21.5261
X51.332 Y21.6098
X51.4648 Y21.715
X51.5959 Y21.8371
X51.7233 Y21.9765
X51.8505 Y22.1404
X51.969 Y22.3213
X52.0753 Y22.5161
X52.1686 Y22.7257
X52.2471 Y22.9485
X52.3077 Y23.1778
X52.3498 Y23.4116
X52.3694 Y23.6118
X52.3732 Y23.8264
X52.3612 Y24.0157
X52.3379 Y24.1773
X52.2981 Y24.3524
X52.2852 Y24.3934
X52.181 Y24.6025
X52.0168 Y24.7688
X51.809 Y24.8757
X51.5783 Y24.9125
X50.6161
G3 X50.3099 Y24.6078 I0.0111 J-0.3173
G1 X50.2976 Y24.2977
X50.2032 Y21.9273
X50.1918 Y21.6424
G3 X50.498 Y21.3125 I0.3172 J-0.0126
G1 X51.4533
X51.6031 Y21.32
X51.7506 Y21.3471
X51.8939 Y21.3915
X52.0316 Y21.451
X52.1631 Y21.5232
X52.2882 Y21.6061
X52.4214 Y21.7106
X52.5518 Y21.8311
X52.6797 Y21.97
X52.8073 Y22.1329
X52.9257 Y22.3122
X53.0321 Y22.5052
X53.1264 Y22.7146
X53.2057 Y22.9369
X53.2672 Y23.1657
X53.3104 Y23.4005
X53.331 Y23.6018
X53.3356 Y23.8158
X53.3243 Y24.0069
X53.3016 Y24.1691
X53.2627 Y24.3435
X53.2481 Y24.3905
X53.1443 Y24.6007
X52.9801 Y24.7679
X52.7718 Y24.8754
X52.5404 Y24.9125
X51.5783
G3 X51.2722 Y24.6086 I0.0111 J-0.3173
G1 X51.2591 Y24.2977
X51.1591 Y21.9273
X51.1472 Y21.6432
G3 X51.4533 Y21.3125 I0.3172 J-0.0134
G1 X52.3839
X52.5337 Y21.32
X52.682 Y21.3425
X52.8263 Y21.3833
X52.9653 Y21.4397
X53.0982 Y21.5092
X53.2247 Y21.5898
X53.3579 Y21.6909
X53.4868 Y21.806
X53.6162 Y21.9419
X53.7452 Y22.1011
X53.8644 Y22.2752
X53.9724 Y22.4639
X54.0699 Y22.6711
X54.1527 Y22.8917
X54.2179 Y23.1192
X54.2653 Y23.3544
X54.2899 Y23.5619
X54.2979 Y23.7723
X54.2895 Y23.9707
X54.2691 Y24.1363
X54.2339 Y24.307
X54.213 Y24.3788
X54.1368 Y24.5531
X54.0188 Y24.7023
X53.8666 Y24.8164
X53.6904 Y24.8881
X53.5018 Y24.9125
X52.5404
G3 X52.2344 Y24.6119 I0.0111 J-0.3173
G1 X52.2178 Y24.2979
X52.0927 Y21.9272
X52.0779 Y21.6465
G3 X52.3839 Y21.3125 I0.3171 J-0.0167
G1 X53.3899
X53.5397 Y21.32
X53.6868 Y21.349
X53.8296 Y21.3952
X53.9668 Y21.4557
X54.0977 Y21.5289
X54.2276 Y21.6165
X54.3562 Y21.7193
X54.4902 Y21.8452
X54.6184 Y21.9868
X54.7423 Y22.1478
X54.8597 Y22.3287
X54.9673 Y22.5281
X55.0609 Y22.7407
X55.1382 Y22.9632
X55.1978 Y23.193
X55.2376 Y23.4193
X55.2573 Y23.6298
X55.26 Y23.8385
X55.2481 Y24.0142
X55.2205 Y24.1998
X55.1831 Y24.361
X55.1718 Y24.3965
X55.0671 Y24.6045
X54.9031 Y24.7698
X54.6958 Y24.8759
X54.4659 Y24.9125
X53.5018
G3 X53.1956 Y24.6072 I0.0111 J-0.3173
G1 X53.1839 Y24.2977
X53.0944 Y21.9274
X53.0837 Y21.6418
G3 X53.3899 Y21.3125 I0.3173 J-0.012
G1 X54.3036
X54.4535 Y21.32
X54.6019 Y21.3417
X54.7463 Y21.3822
X54.8855 Y21.4383
X55.0187 Y21.5072
X55.1456 Y21.5879
X55.2784 Y21.6881
X55.4065 Y21.8021
X55.5378 Y21.9392
X55.6659 Y22.0965
X55.7841 Y22.2681
X55.8935 Y22.4581
X55.992 Y22.666
X56.0747 Y22.8847
X56.1412 Y23.1142
X56.1891 Y23.3491
X56.2146 Y23.5588
X56.2229 Y23.7648
X56.2149 Y23.9659
X56.1947 Y24.133
X56.1607 Y24.3007
X56.1387 Y24.377
X56.0627 Y24.5518
X55.9447 Y24.7015
X55.7924 Y24.8161
X55.6159 Y24.888
X55.4268 Y24.9125
X54.4659
G3 X54.1599 Y24.6125 I0.0111 J-0.3173
G1 X54.1427 Y24.2979
X54.013 Y21.9271
X53.9977 Y21.6472
G3 X54.3036 Y21.3125 I0.317 J-0.0173
G1 X55.3097
X55.4595 Y21.32
X55.6068 Y21.3484
X55.7496 Y21.3941
X55.8871 Y21.4542
X56.0182 Y21.527
X56.1482 Y21.6143
X56.2766 Y21.7163
X56.4107 Y21.8417
X56.5393 Y21.9829
X56.6633 Y22.1434
X56.7812 Y22.324
X56.889 Y22.5226
X56.9831 Y22.7349
X57.061 Y22.9571
X57.1212 Y23.1867
X57.1615 Y23.413
X57.1817 Y23.6236
X57.185 Y23.8329
X57.1735 Y24.0089
X57.1464 Y24.1946
X57.1093 Y24.3564
X57.0972 Y24.3948
X56.9928 Y24.6034
X56.8286 Y24.7692
X56.6211 Y24.8758
X56.3907 Y24.9125
X55.4268
G3 X55.1207 Y24.6077 I0.0111 J-0.3173
G1 X55.1084 Y24.2977
X55.0148 Y21.9273
X55.0035 Y21.6424
G3 X55.3097 Y21.3125 I0.3173 J-0.0125
G1 X56.2402
X56.39 Y21.32
X56.5382 Y21.3435
X56.6822 Y21.3853
X56.8209 Y21.4426
X56.9535 Y21.5127
X57.0796 Y21.5939
X57.2132 Y21.6961
X57.3417 Y21.8118
X57.4719 Y21.9495
X57.6002 Y22.1092
X57.7186 Y22.2834
X57.8267 Y22.4738
X57.9238 Y22.6822
X58.0052 Y22.9014
X58.0702 Y23.1315
X58.1167 Y23.3669
X58.1404 Y23.573
X58.1476 Y23.7826
X58.1385 Y23.9799
X58.1176 Y24.1448
X58.0818 Y24.3153
X58.0623 Y24.3814
X57.9857 Y24.555
X57.8676 Y24.7034
X57.7157 Y24.817
X57.5399 Y24.8882
X57.3518 Y24.9125
X56.3907
G3 X56.0847 Y24.6113 I0.0111 J-0.3173
G1 X56.0688 Y24.2978
X55.9485 Y21.9272
X55.9342 Y21.6459
G3 X56.2402 Y21.3125 I0.3171 J-0.0161
G1 X57.2462
X57.396 Y21.32
X57.543 Y21.35
X57.6855 Y21.397
X57.8224 Y21.4582
X57.953 Y21.532
X58.0826 Y21.6202
X58.2115 Y21.724
X58.3457 Y21.8511
X58.4736 Y21.9934
X58.5976 Y22.1558
X58.7147 Y22.3378
X58.8218 Y22.538
X58.9147 Y22.7513
X58.9912 Y22.9743
X59.0501 Y23.2044
X59.0888 Y23.4302
X59.1077 Y23.6404
X59.1096 Y23.8477
X59.0971 Y24.0229
X59.0688 Y24.208
X59.031 Y24.3684
X59.021 Y24.3992
X58.916 Y24.6062
X58.752 Y24.7706
X58.5453 Y24.8761
X58.316 Y24.9125
X57.3518
G3 X57.0456 Y24.6065 I0.0111 J-0.3173
G1 X57.0346 Y24.2976
X56.9502 Y21.9274
X56.94 Y21.6411
G3 X57.2462 Y21.3125 I0.3173 J-0.0113
G1 X58.16
X58.3098 Y21.32
X58.4581 Y21.3427
X58.6023 Y21.3839
X58.7412 Y21.4407
X58.8741 Y21.5102
X59.0016 Y21.592
X59.1344 Y21.6929
X59.2626 Y21.8078
X59.394 Y21.9462
X59.5217 Y22.1044
X59.6395 Y22.2768
X59.7485 Y22.4679
X59.8463 Y22.6765
X59.9283 Y22.8957
X59.9939 Y23.1257
X60.0409 Y23.3608
X60.0653 Y23.5691
X60.0729 Y23.7753
X60.0642 Y23.975
X60.0434 Y24.1412
X60.0086 Y24.3094
X59.988 Y24.3798
X59.9116 Y24.5538
X59.7935 Y24.7027
X59.6415 Y24.8166
X59.4654 Y24.8881
X59.277 Y24.9125
X58.316
G3 X58.01 Y24.6119 I0.0111 J-0.3173
G1 X57.9935 Y24.2979
X57.8688 Y21.9272
X57.854 Y21.6465
G3 X58.16 Y21.3125 I0.3171 J-0.0167
G1 X59.166
X59.3158 Y21.32
X59.4629 Y21.3493
X59.6056 Y21.3957
X59.7428 Y21.4564
X59.8736 Y21.5298
X60.0032 Y21.6175
X60.1321 Y21.7206
X60.2663 Y21.847
X60.3944 Y21.9887
X60.5185 Y22.1504
X60.6361 Y22.332
X60.7435 Y22.5314
X60.8369 Y22.7441
X60.914 Y22.9668
X60.9734 Y23.1967
X61.0129 Y23.4227
X61.0323 Y23.6329
X61.0349 Y23.8412
X61.0228 Y24.0167
X60.9951 Y24.2021
X60.9576 Y24.3631
X60.9466 Y24.3972
X60.8419 Y24.605
X60.6779 Y24.77
X60.4708 Y24.876
X60.241 Y24.9125
X59.277
G3 X58.9708 Y24.6071 I0.0111 J-0.3173
G1 X58.9592 Y24.2977
X58.8705 Y21.9274
X58.8598 Y21.6417
G3 X59.166 Y21.3125 I0.3173 J-0.0119
G1 X60.0966
X60.2464 Y21.32
X60.3944 Y21.3444
X60.5382 Y21.3869
X60.6766 Y21.4448
X60.809 Y21.5154
X60.9356 Y21.5976
X61.0692 Y21.7006
X61.1976 Y21.8171
X61.3279 Y21.9559
X61.456 Y22.1165
X61.5739 Y22.2915
X61.6816 Y22.4828
X61.7781 Y22.6919
X61.8588 Y22.9116
X61.9229 Y23.1421
X61.9685 Y23.3776
X61.9914 Y23.5826
X61.9978 Y23.7922
X61.988 Y23.9883
X61.9665 Y24.1525
X61.93 Y24.3234
X61.9119 Y24.3841
X61.809 Y24.5966
X61.6446 Y24.7659
X61.4352 Y24.8749
X61.2021 Y24.9125
X60.241
G3 X59.9349 Y24.6106 I0.0111 J-0.3173
G1 X59.9197 Y24.2978
X59.8043 Y21.9272
X59.7905 Y21.6453
G3 X60.0966 Y21.3125 I0.3171 J-0.0154
G1 X61.1026
X61.2524 Y21.32
X61.3992 Y21.3509
X61.5414 Y21.3985
X61.6781 Y21.4603
X61.8084 Y21.5346
X61.9375 Y21.6231
X62.067 Y21.728
X62.2013 Y21.856
X62.3288 Y21.9988
X62.4528 Y22.1623
X62.5696 Y22.3453
X62.6762 Y22.5462
X62.7685 Y22.7598
X62.8443 Y22.9832
X62.9024 Y23.2137
X62.9403 Y23.4392
X62.9576 Y23.6389
X62.9589 Y23.8558
X62.9453 Y24.0382
X62.9201 Y24.1997
X62.8775 Y24.3774
X62.8696 Y24.4015
X62.7643 Y24.6077
X62.6004 Y24.7713
X62.3941 Y24.8763
X62.1654 Y24.9125
X61.2021
G3 X60.8959 Y24.6059 I0.0111 J-0.3173
G1 X60.8855 Y24.2976
X60.806 Y21.9274
X60.7963 Y21.6405
G3 X61.1026 Y21.3125 I0.3173 J-0.0107
G1 X62.0164
X62.1662 Y21.32
X62.3143 Y21.3435
X62.4584 Y21.3855
X62.597 Y21.4428
X62.7296 Y21.5128
X62.8576 Y21.5955
X62.9902 Y21.6971
X63.1185 Y21.8129
X63.25 Y21.9523
X63.3773 Y22.1111
X63.4947 Y22.2844
X63.6026 Y22.4748
X63.6999 Y22.6843
X63.7817 Y22.9055
X63.8458 Y23.1333
X63.8922 Y23.3694
X63.9158 Y23.577
X63.9227 Y23.7835
X63.9133 Y23.9823
X63.892 Y24.1479
X63.8565 Y24.3165
X63.837 Y24.3823
X63.7344 Y24.5954
X63.5699 Y24.7653
X63.3602 Y24.8748
X63.1267 Y24.9125
X62.1654
G3 X61.8593 Y24.6111 I0.0111 J-0.3173
G1 X61.8436 Y24.2978
X61.7245 Y21.9272
X61.7104 Y21.6457
G3 X62.0164 Y21.3125 I0.3171 J-0.0159
G1 X63.0224
X63.1722 Y21.32
X63.3191 Y21.3501
X63.4616 Y21.3972
X63.5985 Y21.4584
X63.729 Y21.5323
X63.8584 Y21.6204
X63.9877 Y21.7246
X64.1218 Y21.8518
X64.2494 Y21.9939
X64.3734 Y22.1566
X64.4906 Y22.339
X64.5975 Y22.5391
X64.6903 Y22.7523
X64.7667 Y22.9754
X64.8254 Y23.2056
X64.864 Y23.4314
X64.8819 Y23.6315
X64.8838 Y23.8489
X64.8706 Y24.0322
X64.8459 Y24.1938
X64.8038 Y24.3717
X64.7947 Y24.3996
X64.6897 Y24.6065
X64.5257 Y24.7707
X64.319 Y24.8762
X64.0898 Y24.9125
X63.1267
G3 X62.8205 Y24.6064 I0.0111 J-0.3173
G1 X62.8096 Y24.2976
X62.7262 Y21.9274
X62.7162 Y21.641
G3 X63.0224 Y21.3125 I0.3173 J-0.0112
G1 X63.9529
X64.1028 Y21.32
X64.2506 Y21.3452
X64.3943 Y21.3885
X64.5324 Y21.4469
X64.6645 Y21.518
X64.7915 Y21.6011
X64.9251 Y21.7049
X65.0534 Y21.8221
X65.1837 Y21.962
X65.3115 Y22.1234
X65.429 Y22.2991
X65.5354 Y22.4898
X65.6314 Y22.6998
X65.7119 Y22.9216
X65.7746 Y23.1499
X65.8195 Y23.3864
X65.8415 Y23.5907
X65.8471 Y23.8005
X65.8367 Y23.9957
X65.8147 Y24.1594
X65.7774 Y24.3307
X65.7604 Y24.3867
X65.6572 Y24.5982
X65.4928 Y24.7667
X65.2839 Y24.8751
X65.0515 Y24.9125
X64.0898
G3 X63.7838 Y24.6098 I0.0111 J-0.3173
G1 X63.7693 Y24.2978
X63.6599 Y21.9273
X63.6469 Y21.6445
G3 X63.9529 Y21.3125 I0.3172 J-0.0146
G1 X64.959
X65.1088 Y21.32
X65.2554 Y21.3517
X65.3974 Y21.4
X65.5338 Y21.4624
X65.6638 Y21.5372
X65.7926 Y21.6261
X65.9225 Y21.7322
X66.0566 Y21.8609
X66.1837 Y22.0042
X66.3075 Y22.1688
X66.4239 Y22.3525
X66.53 Y22.5541
X66.6216 Y22.7683
X66.6967 Y22.9921
X66.7541 Y23.223
X66.7911 Y23.4482
X66.8076 Y23.6476
X66.8082 Y23.8639
X66.794 Y24.0456
X66.7682 Y24.207
X66.725 Y24.3844
X66.7186 Y24.404
X66.6129 Y24.6093
X66.4491 Y24.7721
X66.2432 Y24.8765
X66.0151 Y24.9125
X65.0515
G3 X64.7452 Y24.6051 I0.0111 J-0.3173
G1 X64.7356 Y24.2976
X64.6617 Y21.9274
X64.6527 Y21.6397
G3 X64.959 Y21.3125 I0.3173 J-0.0099
G1 X65.8727
X66.0226 Y21.32
X66.1706 Y21.3444
X66.3144 Y21.3871
X66.4527 Y21.445
X66.5851 Y21.5155
X66.7134 Y21.5991
X66.8459 Y21.7014
X66.9742 Y21.8181
X67.1057 Y21.9586
X67.2327 Y22.1182
X67.3497 Y22.2923
X67.4571 Y22.4836
X67.5537 Y22.6938
X67.6348 Y22.9155
X67.6981 Y23.1437
X67.7436 Y23.3801
X67.7663 Y23.5866
X67.7724 Y23.7932
X67.7623 Y23.9908
X67.7405 Y24.1556
X67.7042 Y24.3247
X67.6861 Y24.385
X67.5831 Y24.5971
X67.4186 Y24.7662
X67.2094 Y24.875
X66.9766 Y24.9125
X66.0151
G3 X65.7091 Y24.6104 I0.0111 J-0.3173
G1 X65.694 Y24.2978
X65.5802 Y21.9272
X65.5667 Y21.645
G3 X65.8727 Y21.3125 I0.3171 J-0.0152
G1 X66.8787
X67.0286 Y21.32
X67.1753 Y21.351
X67.3175 Y21.3987
X67.4542 Y21.4606
X67.5844 Y21.535
X67.7133 Y21.6235
X67.843 Y21.7288
X67.9772 Y21.8569
X68.1045 Y21.9996
X68.2284 Y22.1635
X68.3453 Y22.3468
X68.4517 Y22.5476
X68.5438 Y22.7613
X68.6195 Y22.9849
X68.6775 Y23.2155
X68.7152 Y23.4409
X68.7323 Y23.6406
X68.7334 Y23.8573
X68.7197 Y24.0397
X68.6944 Y24.2012
X68.6517 Y24.3788
X68.6441 Y24.4021
X68.5386 Y24.6081
X68.3748 Y24.7715
X68.1685 Y24.8764
X67.94 Y24.9125
X66.9766
G3 X66.6703 Y24.6057 I0.0111 J-0.3173
G1 X66.6602 Y24.2976
X66.582 Y21.9274
X66.5725 Y21.6403
G3 X66.8787 Y21.3125 I0.3173 J-0.0105
G1 X67.8093
X67.9591 Y21.32
X68.1068 Y21.3461
X68.2503 Y21.3901
X68.3881 Y21.4491
X68.5199 Y21.5207
X68.6474 Y21.6048
X68.781 Y21.7094
X68.9092 Y21.8275
X69.0396 Y21.9685
X69.1671 Y22.1307
X69.2841 Y22.3072
X69.3901 Y22.4988
X69.4855 Y22.7095
X69.5652 Y22.9318
X69.6271 Y23.1605
X69.6711 Y23.3971
X69.6922 Y23.6003
X69.6971 Y23.8101
X69.686 Y24.0041
X69.6634 Y24.1672
X69.6254 Y24.3388
X69.6099 Y24.3893
X69.5063 Y24.5999
X69.342 Y24.7675
X69.1335 Y24.8753
X68.9017 Y24.9125
X67.94
G3 X67.6339 Y24.6092 I0.0111 J-0.3173
G1 X67.6201 Y24.2977
X67.5157 Y21.9273
X67.5032 Y21.6438
G3 X67.8093 Y21.3125 I0.3172 J-0.014
G1 X68.8153
X68.9651 Y21.32
X69.1116 Y21.3525
X69.2533 Y21.4015
X69.3895 Y21.4645
X69.5192 Y21.5398
X69.6476 Y21.6291
X69.7779 Y21.7362
X69.912 Y21.8658
X70.0387 Y22.0097
X70.1626 Y22.1754
X70.2787 Y22.3601
X70.3843 Y22.5623
X70.4752 Y22.777
X70.5496 Y23.0013
X70.6062 Y23.2324
X70.6425 Y23.4574
X70.6583 Y23.6564
X70.6581 Y23.872
X70.6434 Y24.0528
X70.6171 Y24.2141
X70.5733 Y24.3912
X70.5683 Y24.4064
X70.4623 Y24.6108
X70.2986 Y24.7728
X70.0931 Y24.8767
X69.8656 Y24.9125
X68.9017
G3 X68.5955 Y24.6045 I0.0111 J-0.3173
G1 X68.5865 Y24.2976
X68.5174 Y21.9274
X68.509 Y21.6391
G3 X68.8153 Y21.3125 I0.3174 J-0.0093
G1 X69.7291
X69.8789 Y21.32
X70.0268 Y21.3452
X70.1704 Y21.3886
X70.3085 Y21.4471
X70.4406 Y21.5181
X70.5694 Y21.6027
X70.7016 Y21.7056
X70.8301 Y21.8232
X70.9616 Y21.9647
X71.0882 Y22.125
X71.2049 Y22.2999
X71.3118 Y22.4921
X71.4079 Y22.703
X71.4883 Y22.9251
X71.5508 Y23.1537
X71.5955 Y23.3904
X71.6173 Y23.5957
X71.6227 Y23.8024
X71.6119 Y23.9988
X71.5897 Y24.163
X71.5526 Y24.3324
X71.5359 Y24.3875
X71.4325 Y24.5987
X71.2682 Y24.7669
X71.0594 Y24.8752
X70.8272 Y24.9125
X69.8656
G3 X69.5595 Y24.6098 I0.0111 J-0.3173
G1 X69.5452 Y24.2978
X69.436 Y21.9273
X69.423 Y21.6444
G3 X69.7291 Y21.3125 I0.3172 J-0.0146
G1 X70.7351
X70.8849 Y21.32
X71.0315 Y21.3518
X71.1735 Y21.4002
X71.3099 Y21.4626
X71.4398 Y21.5376
X71.5684 Y21.6264
X71.6985 Y21.7327
X71.8326 Y21.8616
X71.9596 Y22.0049
X72.0836 Y22.1698
X72.2002 Y22.354
X72.3061 Y22.5555
X72.3976 Y22.7696
X72.4726 Y22.9936
X72.5299 Y23.2245
X72.5668 Y23.4497
X72.5833 Y23.6489
X72.5837 Y23.865
X72.5694 Y24.0467
X72.5436 Y24.208
X72.5004 Y24.3853
X72.4941 Y24.4043
X72.3884 Y24.6095
X72.2246 Y24.7722
X72.0188 Y24.8765
X71.7907 Y24.9125
X70.8272
G3 X70.5209 Y24.6051 I0.0111 J-0.3173
G1 X70.5113 Y24.2976
X70.4378 Y21.9274
X70.4288 Y21.6397
G3 X70.7351 Y21.3125 I0.3173 J-0.0098
G1 X71.6657
X71.8155 Y21.32
X71.9631 Y21.3469
X72.1063 Y21.3915
X72.2439 Y21.4512
X72.3755 Y21.5232
X72.5033 Y21.6082
X72.6369 Y21.7134
X72.7651 Y21.8323
X72.8956 Y21.9744
X73.0227 Y22.1374
X73.1394 Y22.3146
X73.245 Y22.507
X73.3397 Y22.7184
X73.4188 Y22.941
X73.4799 Y23.1701
X73.5231 Y23.4069
X73.5435 Y23.609
X73.5476 Y23.8188
X73.5359 Y24.0118
X73.5129 Y24.1742
X73.4742 Y24.3461
X73.46 Y24.3917
X73.356 Y24.6015
X73.1918 Y24.7683
X72.9838 Y24.8755
X72.7526 Y24.9125
X71.7907
G3 X71.4846 Y24.6086 I0.0111 J-0.3173
G1 X71.4715 Y24.2977
X71.3715 Y21.9273
X71.3595 Y21.6432
G3 X71.6657 Y21.3125 I0.3172 J-0.0134
G1 X72.6302
X72.78 Y21.32
X72.9275 Y21.3475
X73.0706 Y21.3922
X73.2082 Y21.4519
X73.3396 Y21.5243
X73.4647 Y21.6075
X73.5973 Y21.7119
X73.7287 Y21.8337
X73.856 Y21.9723
X73.9833 Y22.1355
X74.1021 Y22.3159
X74.2088 Y22.5103
X74.3025 Y22.7193
X74.3815 Y22.9418
X74.4427 Y23.1708
X74.4854 Y23.4045
X74.5056 Y23.6053
X74.5098 Y23.8201
X74.4983 Y24.0102
X74.4754 Y24.172
X74.436 Y24.3471
X74.4222 Y24.3917
X74.3182 Y24.6014
X74.154 Y24.7683
X73.9459 Y24.8755
X73.7147 Y24.9125
X72.7526
G3 X72.4465 Y24.6083 I0.0111 J-0.3173
G1 X72.4336 Y24.2977
X72.3358 Y21.9273
X72.324 Y21.6429
G3 X72.6302 Y21.3125 I0.3172 J-0.0131
G1 X73.5855
X73.7353 Y21.32
X73.8829 Y21.3465
X74.0263 Y21.3905
X74.1642 Y21.4495
X74.2959 Y21.5213
X74.4212 Y21.6039
X74.5541 Y21.7078
X74.6848 Y21.828
X74.8127 Y21.9661
X74.9403 Y22.1283
X75.059 Y22.3072
X75.1657 Y22.4998
X75.2604 Y22.7087
X75.3402 Y22.9306
X75.4022 Y23.1592
X75.446 Y23.3939
X75.4671 Y23.5958
X75.4721 Y23.81
X75.4613 Y24.0018
X75.4389 Y24.1642
X75.4004 Y24.3386
X75.385 Y24.3889
X75.2814 Y24.5996
X75.1171 Y24.7674
X74.9086 Y24.8753
X74.6767 Y24.9125
X73.7147
G3 X73.4086 Y24.609 I0.0111 J-0.3173
G1 X73.3951 Y24.2977
X73.2917 Y21.9273
X73.2794 Y21.6436
G3 X73.5855 Y21.3125 I0.3172 J-0.0138
G1 X74.5915
X74.7413 Y21.32
X74.8877 Y21.3527
X75.0294 Y21.4019
X75.1655 Y21.4649
X75.2952 Y21.5403
X75.4238 Y21.6299
X75.554 Y21.737
X75.6881 Y21.8667
X75.815 Y22.0109
X75.9385 Y22.1764
X76.0543 Y22.3607
X76.1599 Y22.5633
X76.2508 Y22.7781
X76.3251 Y23.0023
X76.3816 Y23.2335
X76.4177 Y23.4583
X76.4334 Y23.6574
X76.4331 Y23.873
X76.4183 Y24.0537
X76.3919 Y24.2151
X76.3481 Y24.3922
X76.3432 Y24.4067
X76.2372 Y24.611
X76.0735 Y24.7729
X75.8681 Y24.8767
X75.6407 Y24.9125
X74.6767
G3 X74.3704 Y24.6043 I0.0111 J-0.3173
G1 X74.3616 Y24.2976
X74.2935 Y21.9274
X74.2852 Y21.6389
G3 X74.5915 Y21.3125 I0.3174 J-0.0091
G1 X75.522
X75.6718 Y21.32
X75.8193 Y21.3477
X75.9622 Y21.3931
X76.0996 Y21.4533
X76.2309 Y21.5258
X76.3592 Y21.6118
X76.4926 Y21.7178
X76.6208 Y21.8375
X76.7513 Y21.9806
X76.8781 Y22.1444
X76.9943 Y22.3224
X77.0994 Y22.5157
X77.1936 Y22.7278
X77.2719 Y22.9509
X77.3322 Y23.1804
X77.3745 Y23.4173
X77.394 Y23.6184
X77.3973 Y23.8282
X77.385 Y24.02
X77.3614 Y24.1819
X77.3259 Y24.3369
X77.256 Y24.523
X77.1391 Y24.6838
X76.9836 Y24.8077
X76.8008 Y24.8858
X76.6038 Y24.9125
X75.6407
G3 X75.3345 Y24.6079 I0.0111 J-0.3173
G1 X75.3221 Y24.2977
X75.2273 Y21.9273
X75.2159 Y21.6425
G3 X75.522 Y21.3125 I0.3172 J-0.0127
G1 X76.4865
X76.6364 Y21.32
X76.7837 Y21.3483
X76.9266 Y21.3937
X77.064 Y21.4541
X77.195 Y21.527
X77.3203 Y21.6109
X77.4532 Y21.7164
X77.5842 Y21.8387
X77.7116 Y21.9784
X77.8388 Y22.1427
X77.9572 Y22.3238
X78.0632 Y22.5188
X78.1564 Y22.7285
X78.2347 Y22.9516
X78.2951 Y23.181
X78.3353 Y23.4061
X78.3573 Y23.6325
X78.3605 Y23.8298
X78.3489 Y24.0102
X78.3219 Y24.1957
X78.2863 Y24.3516
X78.2728 Y24.3942
X78.1685 Y24.6031
X78.0044 Y24.769
X77.7967 Y24.8757
X77.5662 Y24.9125
X76.6038
G3 X76.2976 Y24.6077 I0.0111 J-0.3173
G1 X76.2853 Y24.2977
X76.1916 Y21.9273
X76.1804 Y21.6424
G3 X76.4865 Y21.3125 I0.3172 J-0.0125
G1 X77.4418
X77.5916 Y21.32
X77.7391 Y21.3473
X77.8823 Y21.392
X78.0199 Y21.4517
X78.1514 Y21.524
X78.2765 Y21.6071
X78.4098 Y21.712
X78.5401 Y21.8326
X78.6681 Y21.9719
X78.7948 Y22.1341
X78.9138 Y22.3147
X79.0208 Y22.5094
X79.1149 Y22.7189
X79.1935 Y22.9398
X79.2554 Y23.1714
X79.2982 Y23.4051
X79.3185 Y23.6058
X79.3229 Y23.8195
X79.3114 Y24.0101
X79.2885 Y24.1719
X79.2494 Y24.3463
X79.2355 Y24.3913
X79.1315 Y24.6012
X78.9673 Y24.7681
X78.7592 Y24.8755
X78.5279 Y24.9125
X77.5662
G3 X77.2601 Y24.6085 I0.0111 J-0.3173
G1 X77.247 Y24.2977
X77.1476 Y21.9273
X77.1357 Y21.6431
G3 X77.4418 Y21.3125 I0.3172 J-0.0133
G1 X78.3724
X78.5222 Y21.32
X78.6705 Y21.3427
X78.8148 Y21.3838
X78.9536 Y21.4404
X79.0865 Y21.51
X79.2129 Y21.5908
X79.3462 Y21.692
X79.4749 Y21.8073
X79.6046 Y21.9437
X79.7336 Y22.1033
X79.8527 Y22.2775
X79.9607 Y22.4664
X80.0581 Y22.6739
X80.1408 Y22.8947
X80.2058 Y23.1222
X80.253 Y23.3575
X80.2774 Y23.5645
X80.2852 Y23.7748
X80.2767 Y23.9729
X80.2562 Y24.1382
X80.2209 Y24.309
X80.2003 Y24.3794
X80.124 Y24.5535
X80.0059 Y24.7025
X79.8538 Y24.8165
X79.6777 Y24.8881
X79.4892 Y24.9125
X78.5279
G3 X78.2219 Y24.6118 I0.0111 J-0.3173
G1 X78.2055 Y24.2979
X78.0811 Y21.9272
X78.0664 Y21.6464
G3 X78.3724 Y21.3125 I0.3171 J-0.0166
G1 X79.3784
X79.5282 Y21.32
X79.6753 Y21.3493
X79.818 Y21.3956
X79.9552 Y21.4562
X80.086 Y21.5296
X80.2158 Y21.6173
X80.3446 Y21.7204
X80.4787 Y21.8465
X80.6068 Y21.9882
X80.7308 Y22.1496
X80.8481 Y22.3307
X80.9556 Y22.5303
X81.049 Y22.743
X81.1262 Y22.9656
X81.1857 Y23.1954
X81.2252 Y23.4217
X81.2447 Y23.632
X81.2473 Y23.8405
X81.2353 Y24.016
X81.2076 Y24.2015
X81.17 Y24.3626
X81.159 Y24.3971
X81.0543 Y24.6049
X80.8903 Y24.7699
X80.6831 Y24.876
X80.4533 Y24.9125
X79.4892
G3 X79.183 Y24.6071 I0.0111 J-0.3173
G1 X79.1714 Y24.2977
X79.0829 Y21.9274
X79.0722 Y21.6417
G3 X79.3784 Y21.3125 I0.3173 J-0.0119
G1 X80.2922
X80.442 Y21.32
X80.5904 Y21.3419
X80.7348 Y21.3825
X80.8739 Y21.4387
X81.007 Y21.5078
X81.1341 Y21.5887
X81.2669 Y21.6891
X81.395 Y21.8032
X81.5264 Y21.9406
X81.6544 Y22.0981
X81.7725 Y22.2698
X81.8818 Y22.46
X81.9802 Y22.6681
X82.0628 Y22.8869
X82.129 Y23.1165
X82.1768 Y23.3514
X82.2021 Y23.5609
X82.2103 Y23.7669
X82.2021 Y23.9677
X82.1818 Y24.1346
X82.1476 Y24.3024
X82.1259 Y24.3775
X82.0499 Y24.5522
X81.9318 Y24.7017
X81.7796 Y24.8162
X81.6031 Y24.888
X81.4142 Y24.9125
X80.4533
G3 X80.1473 Y24.6124 I0.0111 J-0.3173
G1 X80.1303 Y24.2979
X80.0014 Y21.9271
X79.9862 Y21.647
G3 X80.2922 Y21.3125 I0.317 J-0.0172
G1 X81.2982
X81.448 Y21.32
X81.5953 Y21.3486
X81.7381 Y21.3944
X81.8755 Y21.4546
X82.0066 Y21.5275
X82.1365 Y21.6149
X82.265 Y21.7172
X82.3991 Y21.8427
X82.5276 Y21.984
X82.6517 Y22.1447
X82.7695 Y22.3256
X82.8772 Y22.5243
X82.9712 Y22.7366
X83.0489 Y22.959
X83.109 Y23.1886
X83.1491 Y23.4149
X83.1692 Y23.6253
X83.1723 Y23.8345
X83.1608 Y24.0103
X83.1335 Y24.196
X83.0963 Y24.3577
X83.0844 Y24.3952
X82.98 Y24.6037
X82.8159 Y24.7694
X82.6084 Y24.8758
X82.3781 Y24.9125
X81.4142
G3 X81.1081 Y24.6076 I0.0111 J-0.3173
G1 X81.0959 Y24.2977
X81.0032 Y21.9273
X80.992 Y21.6422
G3 X81.2982 Y21.3125 I0.3173 J-0.0124
G1 X82.2288
X82.3786 Y21.32
X82.5267 Y21.3437
X82.6707 Y21.3856
X82.8093 Y21.443
X82.9419 Y21.5132
X83.0681 Y21.5946
X83.2017 Y21.6969
X83.3301 Y21.8127
X83.4604 Y21.9507
X83.5887 Y22.1105
X83.707 Y22.285
X83.815 Y22.4755
X83.9119 Y22.684
X83.9932 Y22.9033
X84.0581 Y23.1335
X84.1044 Y23.3689
X84.128 Y23.5748
X84.135 Y23.7844
X84.1258 Y23.9815
X84.1047 Y24.1462
X84.0688 Y24.3168
X84.0496 Y24.3819
X83.947 Y24.5952
X83.7825 Y24.7652
X83.5728 Y24.8747
X83.3392 Y24.9125
X82.3781
G3 X82.0721 Y24.6112 I0.0111 J-0.3173
G1 X82.0563 Y24.2978
X81.9369 Y21.9272
X81.9227 Y21.6458
G3 X82.2288 Y21.3125 I0.3171 J-0.016
G1 X83.2348
X83.3846 Y21.32
X83.5315 Y21.3502
X83.6739 Y21.3973
X83.8108 Y21.4586
X83.9414 Y21.5325
X84.0708 Y21.6207
X84.1999 Y21.7248
X84.3341 Y21.852
X84.462 Y21.9944
X84.5859 Y22.157
X84.703 Y22.3392
X84.81 Y22.5396
X84.9028 Y22.7529
X84.9792 Y22.9759
X85.0379 Y23.2062
X85.0764 Y23.4319
X85.0943 Y23.632
X85.0961 Y23.8493
X85.083 Y24.0324
X85.0582 Y24.194
X85.0161 Y24.372
X85.0071 Y24.3996
X84.902 Y24.6065
X84.7381 Y24.7707
X84.5314 Y24.8762
X84.3023 Y24.9125
X83.3392
G3 X83.033 Y24.6064 I0.0111 J-0.3173
G1 X83.0221 Y24.2976
X82.9386 Y21.9274
X82.9285 Y21.641
G3 X83.2348 Y21.3125 I0.3173 J-0.0112
G1 X84.1486
X84.2984 Y21.32
X84.4466 Y21.3429
X84.5908 Y21.3842
X84.7296 Y21.4411
X84.8625 Y21.5107
X84.9901 Y21.5926
X85.1228 Y21.6937
X85.251 Y21.8088
X85.3825 Y21.9473
X85.5101 Y22.1056
X85.6278 Y22.2782
X85.7359 Y22.468
X85.8337 Y22.6769
X85.9162 Y22.8977
X85.9809 Y23.1253
X86.0279 Y23.3611
X86.0522 Y23.5697
X86.0597 Y23.776
X86.0508 Y23.9758
X86.0299 Y24.1421
X85.9949 Y24.3103
X85.9744 Y24.3802
X85.898 Y24.5541
X85.7799 Y24.7029
X85.6279 Y24.8167
X85.4519 Y24.8882
X85.2636 Y24.9125
X84.3023
G3 X83.9963 Y24.6116 I0.0111 J-0.3173
G1 X83.98 Y24.2979
X83.8571 Y21.9272
X83.8426 Y21.6462
G3 X84.1486 Y21.3125 I0.3171 J-0.0164
G1 X85.1546
X85.3044 Y21.32
X85.4514 Y21.3495
X85.594 Y21.396
X85.7312 Y21.4568
X85.8619 Y21.5303
X85.9916 Y21.6181
X86.1205 Y21.7215
X86.2546 Y21.8479
X86.3826 Y21.9897
X86.5065 Y22.1515
X86.624 Y22.3332
X86.7312 Y22.5327
X86.8245 Y22.7455
X86.9014 Y22.9683
X86.9607 Y23.1983
X87 Y23.4243
X87.0193 Y23.6346
X87.0216 Y23.8428
X87.0095 Y24.0182
X86.9816 Y24.2036
X86.9439 Y24.3645
X86.9332 Y24.3978
X86.8284 Y24.6053
X86.6644 Y24.7701
X86.4574 Y24.876
X86.2278 Y24.9125
X85.2636
G3 X84.9574 Y24.6069 I0.0111 J-0.3173
G1 X84.946 Y24.2977
X84.8589 Y21.9274
X84.8484 Y21.6415
G3 X85.1546 Y21.3125 I0.3173 J-0.0117
G1 X86.0851
X86.2349 Y21.32
X86.3829 Y21.3446
X86.5267 Y21.3873
X86.665 Y21.4453
X86.7973 Y21.516
X86.9239 Y21.5984
X87.0575 Y21.7015
X87.1859 Y21.8182
X87.3162 Y21.9573
X87.4442 Y22.118
X87.562 Y22.2932
X87.6695 Y22.4847
X87.7659 Y22.6939
X87.8464 Y22.9138
X87.9104 Y23.1444
X87.9558 Y23.3799
X87.9784 Y23.5847
X87.9846 Y23.7944
X87.9747 Y23.9902
X87.9531 Y24.1542
X87.9164 Y24.3252
X87.8985 Y24.3847
X87.7956 Y24.597
X87.6311 Y24.7661
X87.4219 Y24.875
X87.189 Y24.9125
X86.2278
G3 X85.9217 Y24.6105 I0.0111 J-0.3173
G1 X85.9067 Y24.2978
X85.7926 Y21.9272
X85.7791 Y21.6451
G3 X86.0851 Y21.3125 I0.3171 J-0.0153
G1 X87.0911
X87.2409 Y21.32
X87.3877 Y21.3511
X87.5299 Y21.3989
X87.6665 Y21.4608
X87.7967 Y21.5353
X87.9258 Y21.6239
X88.0553 Y21.729
X88.1895 Y21.8572
X88.3169 Y22.0001
X88.4409 Y22.164
X88.5576 Y22.3471
X88.6641 Y22.5482
X88.7562 Y22.762
X88.8319 Y22.9855
X88.8898 Y23.2161
X88.9275 Y23.4415
X88.9446 Y23.6411
X88.9457 Y23.8578
X88.9319 Y24.0401
X88.9066 Y24.2016
X88.8639 Y24.3792
X88.8564 Y24.4021
X88.7509 Y24.6081
X88.5871 Y24.7715
X88.3808 Y24.8764
X88.1523 Y24.9125
X87.189
G3 X86.8827 Y24.6057 I0.0111 J-0.3173
G1 X86.8726 Y24.2976
X86.7943 Y21.9274
X86.7849 Y21.6403
G3 X87.0911 Y21.3125 I0.3173 J-0.0105
G1 X88.0049
X88.1547 Y21.32
X88.3028 Y21.3437
X88.4468 Y21.3859
X88.5854 Y21.4433
X88.7179 Y21.5135
X88.846 Y21.5964
X88.9786 Y21.6982
X89.1069 Y21.8142
X89.2384 Y21.9538
X89.3656 Y22.1129
X89.483 Y22.2863
X89.5907 Y22.477
X89.6878 Y22.6867
X89.7695 Y22.9079
X89.8334 Y23.1359
X89.8795 Y23.3721
X89.9029 Y23.5794
X89.9096 Y23.7859
X89.9 Y23.9844
X89.8786 Y24.1498
X89.8429 Y24.3186
X89.8237 Y24.3829
X89.7211 Y24.5958
X89.5566 Y24.7655
X89.347 Y24.8748
X89.1137 Y24.9125
X88.1523
G3 X87.8463 Y24.611 I0.0111 J-0.3173
G1 X87.8307 Y24.2978
X87.7129 Y21.9272
X87.6989 Y21.6456
G3 X88.0049 Y21.3125 I0.3171 J-0.0158
G1 X89.0109
X89.1607 Y21.32
X89.3076 Y21.3503
X89.45 Y21.3976
X89.5869 Y21.459
X89.7173 Y21.533
X89.8465 Y21.6212
X89.976 Y21.7257
X90.1101 Y21.853
X90.2377 Y21.9953
X90.3617 Y22.1583
X90.4788 Y22.3409
X90.5856 Y22.5412
X90.6781 Y22.7545
X90.7544 Y22.9777
X90.8129 Y23.2081
X90.8513 Y23.4338
X90.869 Y23.6337
X90.8707 Y23.851
X90.8574 Y24.034
X90.8325 Y24.1956
X90.7902 Y24.3734
X90.7816 Y24.4002
X90.6764 Y24.6069
X90.5125 Y24.7709
X90.3059 Y24.8762
X90.0769 Y24.9125
X89.1137
G3 X88.8074 Y24.6062 I0.0111 J-0.3173
G1 X88.7968 Y24.2976
X88.7146 Y21.9274
X88.7047 Y21.6408
G3 X89.0109 Y21.3125 I0.3173 J-0.011
G1 X89.9415
X90.0913 Y21.32
X90.2391 Y21.3455
X90.3827 Y21.3888
X90.5208 Y21.4475
X90.6528 Y21.5187
X90.7799 Y21.602
X90.9135 Y21.706
X91.0418 Y21.8234
X91.1721 Y21.9636
X91.2999 Y22.1252
X91.4172 Y22.3011
X91.5235 Y22.492
X91.6194 Y22.7022
X91.6997 Y22.9241
X91.7622 Y23.1525
X91.8069 Y23.389
X91.8286 Y23.593
X91.8341 Y23.8028
X91.8235 Y23.9978
X91.8013 Y24.1613
X91.7639 Y24.3327
X91.7473 Y24.3873
X91.644 Y24.5986
X91.4796 Y24.7669
X91.2708 Y24.8752
X91.0385 Y24.9125
X90.0769
G3 X89.7708 Y24.6097 I0.0111 J-0.3173
G1 X89.7565 Y24.2978
X89.6483 Y21.9273
X89.6354 Y21.6443
G3 X89.9415 Y21.3125 I0.3172 J-0.0145
G1 X90.9475
X91.0973 Y21.32
X91.2439 Y21.3519
X91.3858 Y21.4004
X91.5222 Y21.4629
X91.6521 Y21.5379
X91.7808 Y21.6269
X91.9108 Y21.7332
X92.0449 Y21.8621
X92.1719 Y22.0055
X92.2957 Y22.1704
X92.4121 Y22.3544
X92.518 Y22.5561
X92.6095 Y22.7704
X92.6844 Y22.9944
X92.7416 Y23.2253
X92.7784 Y23.4504
X92.7948 Y23.6498
X92.7951 Y23.8659
X92.7808 Y24.0473
X92.7549 Y24.2087
X92.7116 Y24.3861
X92.7055 Y24.4046
X92.5997 Y24.6097
X92.436 Y24.7722
X92.2302 Y24.8766
X92.0022 Y24.9125
X91.0385
G3 X90.7323 Y24.6049 I0.0111 J-0.3173
G1 X90.7228 Y24.2976
X90.6501 Y21.9274
X90.6412 Y21.6396
G3 X90.9475 Y21.3125 I0.3174 J-0.0097
G1 X91.8613
X92.0111 Y21.32
X92.1591 Y21.3446
X92.3028 Y21.3874
X92.4411 Y21.4455
X92.5734 Y21.5162
X92.7019 Y21.6
X92.8343 Y21.7024
X92.9626 Y21.8194
X93.0941 Y21.9601
X93.221 Y22.1198
X93.3379 Y22.2941
X93.4452 Y22.4857
X93.5417 Y22.6961
X93.6227 Y22.9178
X93.6857 Y23.1461
X93.731 Y23.3826
X93.7535 Y23.5888
X93.7594 Y23.7954
X93.7492 Y23.9927
X93.7273 Y24.1574
X93.6908 Y24.3266
X93.673 Y24.3856
X93.5699 Y24.5975
X93.4055 Y24.7664
X93.1964 Y24.875
X92.9637 Y24.9125
X92.0022
G3 X91.6962 Y24.6103 I0.0111 J-0.3173
G1 X91.6813 Y24.2978
X91.5686 Y21.9272
X91.5552 Y21.6449
G3 X91.8613 Y21.3125 I0.3171 J-0.0151
G1 X92.8673
X93.0171 Y21.32
X93.1638 Y21.3512
X93.306 Y21.3991
X93.4425 Y21.4611
X93.5727 Y21.5357
X93.7015 Y21.6242
X93.8314 Y21.7298
X93.9655 Y21.858
X94.0927 Y22.0009
X94.2167 Y22.165
X94.3335 Y22.3485
X94.4398 Y22.5495
X94.5317 Y22.7633
X94.6073 Y22.987
X94.665 Y23.2177
X94.7026 Y23.4431
X94.7195 Y23.6426
X94.7205 Y23.8592
X94.7066 Y24.0414
X94.6812 Y24.2029
X94.6383 Y24.3804
X94.6311 Y24.4026
X94.5256 Y24.6084
X94.3617 Y24.7716
X94.1556 Y24.8764
X93.9271 Y24.9125
X92.9637
G3 X92.6575 Y24.6055 I0.0111 J-0.3173
G1 X92.6474 Y24.2976
X92.5704 Y21.9274
X92.561 Y21.6401
G3 X92.8673 Y21.3125 I0.3173 J-0.0103
G1 X93.7978
X93.9477 Y21.32
X94.0953 Y21.3463
X94.2387 Y21.3904
X94.3765 Y21.4496
X94.5083 Y21.5213
X94.6358 Y21.6057
X94.7694 Y21.7103
X94.8977 Y21.8286
X95.0281 Y21.9699
X95.1555 Y22.1323
X95.2724 Y22.309
X95.3783 Y22.5008
X95.4735 Y22.7117
X95.5531 Y22.934
X95.6148 Y23.1628
X95.6586 Y23.3995
X95.6795 Y23.6024
X95.6842 Y23.8122
X95.6729 Y24.006
X95.6503 Y24.1689
X95.6121 Y24.3405
X95.5969 Y24.3899
X95.4932 Y24.6003
X95.3289 Y24.7677
X95.1205 Y24.8754
X94.8889 Y24.9125
X93.9271
G3 X93.621 Y24.609 I0.0111 J-0.3173
G1 X93.6075 Y24.2977
X93.5041 Y21.9273
X93.4917 Y21.6436
G3 X93.7978 Y21.3125 I0.3172 J-0.0138
G1 X94.8038
X94.9537 Y21.32
X95.1001 Y21.3527
X95.2418 Y21.4019
X95.3779 Y21.465
X95.5075 Y21.5404
X95.6358 Y21.6298
X95.7662 Y21.7372
X95.9003 Y21.8669
X96.027 Y22.0109
X96.1508 Y22.1769
X96.2669 Y22.3618
X96.3723 Y22.5641
X96.4631 Y22.7789
X96.5374 Y23.0033
X96.5938 Y23.2345
X96.6299 Y23.4594
X96.6456 Y23.6583
X96.6452 Y23.8737
X96.6303 Y24.0544
X96.6039 Y24.2157
X96.5601 Y24.3927
X96.5554 Y24.4069
X96.4493 Y24.6111
X96.2856 Y24.773
X96.0802 Y24.8768
X95.8529 Y24.9125
X94.8889
G3 X94.5826 Y24.6043 I0.0111 J-0.3173
G1 X94.5738 Y24.2976
X94.5058 Y21.9274
X94.4976 Y21.6389
G3 X94.8038 Y21.3125 I0.3174 J-0.0091
G1 X95.7176
X95.8675 Y21.32
X96.0153 Y21.3454
X96.1588 Y21.389
X96.2969 Y21.4476
X96.429 Y21.5187
X96.5578 Y21.6034
X96.69 Y21.7065
X96.8185 Y21.8243
X96.9501 Y21.9661
X97.0765 Y22.1265
X97.1932 Y22.3016
X97.3 Y22.494
X97.396 Y22.705
X97.4762 Y22.9272
X97.5385 Y23.1559
X97.583 Y23.3926
X97.6047 Y23.5977
X97.6099 Y23.8044
X97.599 Y24.0006
X97.5766 Y24.1646
X97.5394 Y24.3341
X97.523 Y24.388
X97.4195 Y24.5991
X97.2552 Y24.7671
X97.0465 Y24.8752
X96.8144 Y24.9125
X95.8529
G3 X95.5468 Y24.6097 I0.0111 J-0.3173
G1 X95.5325 Y24.2978
X95.4245 Y21.9273
X95.4116 Y21.6443
G3 X95.7176 Y21.3125 I0.3172 J-0.0145
G1 X96.7236
X96.8735 Y21.32
X97.02 Y21.352
X97.1619 Y21.4005
X97.2983 Y21.4631
X97.4282 Y21.5381
X97.5566 Y21.627
X97.6868 Y21.7336
X97.821 Y21.8626
X97.9479 Y22.006
X98.0719 Y22.1712
X98.1884 Y22.3556
X98.2942 Y22.5572
X98.3855 Y22.7714
X98.4605 Y22.9955
X98.5175 Y23.2265
X98.5543 Y23.4516
X98.5706 Y23.6508
X98.5709 Y23.8667
X98.5565 Y24.0482
X98.5306 Y24.2095
X98.4872 Y24.3867
X98.4813 Y24.4048
X98.3755 Y24.6098
X98.2117 Y24.7723
X98.0059 Y24.8766
X97.7781 Y24.9125
X96.8144
G3 X96.5081 Y24.6049 I0.0111 J-0.3173
G1 X96.4987 Y24.2976
X96.4262 Y21.9274
X96.4174 Y21.6395
G3 X96.7236 Y21.3125 I0.3174 J-0.0097
G1 X97.6542
X97.804 Y21.32
X97.9516 Y21.3471
X98.0947 Y21.3918
X98.2323 Y21.4516
X98.3638 Y21.5237
X98.4918 Y21.609
X98.6253 Y21.7143
X98.7535 Y21.8334
X98.884 Y21.9757
X99.0111 Y22.1388
X99.1277 Y22.3162
X99.2332 Y22.5088
X99.3278 Y22.7203
X99.4067 Y22.9431
X99.4677 Y23.1722
X99.5107 Y23.409
X99.5309 Y23.6109
X99.5349 Y23.8207
X99.523 Y24.0135
X99.4999 Y24.1758
X99.4611 Y24.3477
X99.4472 Y24.3923
X99.3431 Y24.6018
X99.1789 Y24.7684
X98.971 Y24.8756
X98.74 Y24.9125
X97.7781
G3 X97.4719 Y24.6084 I0.0111 J-0.3173
G1 X97.4589 Y24.2977
X97.3599 Y21.9273
X97.3481 Y21.6431
G3 X97.6542 Y21.3125 I0.3172 J-0.0132
G1 X98.6187
X98.7685 Y21.32
X98.916 Y21.3476
X99.0591 Y21.3925
X99.1966 Y21.4523
X99.328 Y21.5248
X99.4531 Y21.6082
X99.5858 Y21.7128
X99.7171 Y21.8347
X99.8444 Y21.9735
X99.9717 Y22.1369
X100.0904 Y22.3175
X100.197 Y22.5119
X100.2906 Y22.7211
X100.3695 Y22.9437
X100.4305 Y23.1729
X100.473 Y23.4066
X100.493 Y23.6072
X100.4971 Y23.8219
X100.4855 Y24.0117
X100.4624 Y24.1735
X100.4229 Y24.3486
X100.4094 Y24.3922
X100.3053 Y24.6017
X100.1411 Y24.7684
X99.9331 Y24.8756
X99.7021 Y24.9125
X98.74
G3 X98.4338 Y24.6082 I0.0111 J-0.3173
G1 X98.4211 Y24.2977
X98.3242 Y21.9273
X98.3126 Y21.6428
G3 X98.6187 Y21.3125 I0.3172 J-0.013
G1 X99.574
X99.7238 Y21.32
X99.8714 Y21.3467
X100.0148 Y21.3908
X100.1526 Y21.45
X100.2843 Y21.5219
X100.4095 Y21.6045
X100.5425 Y21.7086
X100.6731 Y21.8288
X100.801 Y21.9672
X100.9286 Y22.1296
X101.0473 Y22.3086
X101.1539 Y22.5013
X101.2484 Y22.7103
X101.3281 Y22.9324
X101.3899 Y23.161
X101.4336 Y23.3957
X101.4545 Y23.5975
X101.4595 Y23.8116
X101.4485 Y24.0032
X101.426 Y24.1656
X101.3874 Y24.3399
X101.3722 Y24.3894
X101.2686 Y24.5999
X101.1043 Y24.7675
X100.8958 Y24.8753
X100.6641 Y24.9125
X99.7021
G3 X99.396 Y24.6089 I0.0111 J-0.3173
G1 X99.3825 Y24.2977
X99.2801 Y21.9273
X99.2679 Y21.6435
G3 X99.574 Y21.3125 I0.3172 J-0.0137
G1 X100.5046
X100.6544 Y21.32
X100.8027 Y21.342
X100.9472 Y21.3825
X101.0863 Y21.4386
X101.2194 Y21.5078
X101.346 Y21.5882
X101.4791 Y21.6889
X101.6081 Y21.8038
X101.7374 Y21.9391
X101.8665 Y22.098
X101.9859 Y22.2718
X102.0941 Y22.4601
X102.1918 Y22.667
X102.275 Y22.8874
X102.3405 Y23.1147
X102.3883 Y23.3498
X102.4133 Y23.5577
X102.4217 Y23.7682
X102.4136 Y23.9671
X102.3934 Y24.1329
X102.3585 Y24.3035
X102.3371 Y24.3777
X102.261 Y24.5523
X102.143 Y24.7018
X101.9907 Y24.8162
X101.8143 Y24.888
X101.6254 Y24.9125
X100.6641
G3 X100.3581 Y24.6123 I0.0111 J-0.3173
G1 X100.3412 Y24.2979
X100.2137 Y21.9272
X100.1986 Y21.6469
G3 X100.5046 Y21.3125 I0.317 J-0.0171
G1 X101.5106
X101.6604 Y21.32
X101.8076 Y21.3486
X101.9505 Y21.3945
X102.0879 Y21.4546
X102.2189 Y21.5276
X102.3489 Y21.615
X102.4773 Y21.7173
X102.6113 Y21.8427
X102.7397 Y21.984
X102.8636 Y22.1445
X102.9811 Y22.325
X103.0889 Y22.524
X103.1828 Y22.7364
X103.2605 Y22.9586
X103.3205 Y23.1883
X103.3606 Y23.4148
X103.3807 Y23.6253
X103.3838 Y23.8346
X103.3722 Y24.0105
X103.3449 Y24.1962
X103.3076 Y24.3579
X103.2958 Y24.3954
X103.1913 Y24.6038
X103.0272 Y24.7694
X102.8197 Y24.8758
X102.5895 Y24.9125
X101.6254
G3 X101.3193 Y24.6075 I0.0111 J-0.3173
G1 X101.3073 Y24.2977
X101.2154 Y21.9274
X101.2044 Y21.6421
G3 X101.5106 Y21.3125 I0.3173 J-0.0123
G1 X102.4751
X102.6249 Y21.32
X102.7721 Y21.3488
X102.9149 Y21.3946
X103.0521 Y21.4552
X103.1831 Y21.5284
X103.3088 Y21.6129
X103.4422 Y21.7191
X103.573 Y21.8415
X103.7008 Y21.9821
X103.8273 Y22.1459
X103.9455 Y22.3275
X104.0515 Y22.5229
X104.1446 Y22.7333
X104.2218 Y22.9543
X104.2824 Y23.186
X104.3238 Y23.4196
X104.3429 Y23.6191
X104.3461 Y23.8334
X104.3337 Y24.0218
X104.31 Y24.183
X104.2697 Y24.358
X104.2579 Y24.3952
X104.1535 Y24.6037
X103.9894 Y24.7694
X103.7819 Y24.8758
X103.5516 Y24.9125
X102.5895
G3 X102.2833 Y24.6074 I0.0111 J-0.3173
G1 X102.2714 Y24.2977
X102.1799 Y21.9274
X102.1689 Y21.6421
G3 X102.4751 Y21.3125 I0.3173 J-0.0122
G1 X103.4304
X103.5802 Y21.32
X103.7276 Y21.3477
X103.8707 Y21.3926
X104.0082 Y21.4525
X104.1396 Y21.525
X104.2649 Y21.6085
X104.3982 Y21.7136
X104.5282 Y21.8344
X104.6564 Y21.9742
X104.784 Y22.1379
X104.9021 Y22.3177
X105.0081 Y22.5111
X105.1021 Y22.7211
X105.1809 Y22.9438
X105.2419 Y23.1728
X105.2846 Y23.4076
X105.3046 Y23.6083
X105.3086 Y23.822
X105.297 Y24.0124
X105.2739 Y24.1742
X105.2345 Y24.3486
X105.2209 Y24.3922
X105.1169 Y24.6018
X104.9527 Y24.7684
X104.7447 Y24.8756
X104.5137 Y24.9125
X103.5516
G3 X103.2455 Y24.6082 I0.0111 J-0.3173
G1 X103.2328 Y24.2977
X103.1358 Y21.9273
X103.1242 Y21.6428
G3 X103.4304 Y21.3125 I0.3172 J-0.013
G1 X104.3609
X104.5107 Y21.32
X104.659 Y21.343
X104.8032 Y21.3843
X104.942 Y21.4411
X105.0748 Y21.5109
X105.201 Y21.5919
X105.3344 Y21.6935
X105.4631 Y21.809
X105.5926 Y21.9455
X105.7215 Y22.1053
X105.8404 Y22.2798
X105.9482 Y22.4689
X106.0454 Y22.6766
X106.1278 Y22.8975
X106.1926 Y23.1252
X106.2394 Y23.3606
X106.2636 Y23.5674
X106.2712 Y23.7777
X106.2624 Y23.9755
X106.2417 Y24.1407
X106.2061 Y24.3115
X106.1859 Y24.3803
X106.1095 Y24.5542
X105.9914 Y24.7029
X105.8394 Y24.8167
X105.6634 Y24.8882
X105.4751 Y24.9125
X104.5137
G3 X104.2077 Y24.6115 I0.0111 J-0.3173
G1 X104.1915 Y24.2979
X104.0694 Y21.9272
X104.0549 Y21.6462
G3 X104.3609 Y21.3125 I0.3171 J-0.0163
G1 X105.3669
X105.5167 Y21.32
X105.6638 Y21.3496
X105.8064 Y21.3962
X105.9435 Y21.457
X106.0742 Y21.5306
X106.2039 Y21.6185
X106.3328 Y21.7219
X106.4668 Y21.8484
X106.5949 Y21.9904
X106.7187 Y22.1521
X106.8359 Y22.3336
X106.9432 Y22.5334
X107.0364 Y22.7463
X107.1133 Y22.9691
X107.1725 Y23.1991
X107.2117 Y23.4252
X107.2309 Y23.6355
X107.2332 Y23.8435
X107.2209 Y24.019
X107.193 Y24.2043
X107.1553 Y24.3651
X107.1447 Y24.398
X107.0399 Y24.6055
X106.8759 Y24.7702
X106.6689 Y24.876
X106.4393 Y24.9125
X105.4751
G3 X105.1689 Y24.6068 I0.0111 J-0.3173
G1 X105.1576 Y24.2977
X105.0712 Y21.9274
X105.0607 Y21.6414
G3 X105.3669 Y21.3125 I0.3173 J-0.0116
G1 X106.2807
X106.4305 Y21.32
X106.5789 Y21.3423
X106.7232 Y21.3831
X106.8622 Y21.4396
X106.9952 Y21.5089
X107.1225 Y21.5901
X107.2552 Y21.6908
X107.3834 Y21.8052
X107.5147 Y21.943
X107.6426 Y22.1008
X107.7605 Y22.2729
X107.8697 Y22.4635
X107.9678 Y22.6717
X108.0502 Y22.8907
X108.1161 Y23.1205
X108.1635 Y23.3556
X108.1884 Y23.5645
X108.1963 Y23.7707
X108.1879 Y23.9709
X108.1674 Y24.1376
X108.1329 Y24.3055
X108.1117 Y24.3786
X108.0355 Y24.5529
X107.9174 Y24.7022
X107.7653 Y24.8164
X107.589 Y24.8881
X107.4003 Y24.9125
X106.4393
G3 X106.1334 Y24.6122 I0.0111 J-0.3173
G1 X106.1165 Y24.2979
X105.9898 Y21.9272
X105.9748 Y21.6468
G3 X106.2807 Y21.3125 I0.317 J-0.017
G1 X107.2867
X107.4365 Y21.32
X107.5837 Y21.3489
X107.7265 Y21.395
X107.8638 Y21.4554
X107.9947 Y21.5286
X108.1245 Y21.6161
X108.2532 Y21.7188
X108.3873 Y21.8447
X108.5156 Y21.9862
X108.6397 Y22.1473
X108.7574 Y22.3285
X108.865 Y22.5276
X108.9587 Y22.7401
X109.0361 Y22.9626
X109.0959 Y23.1924
X109.1357 Y23.4185
X109.1555 Y23.6289
X109.1583 Y23.8377
X109.1466 Y24.0133
X109.119 Y24.1989
X109.0817 Y24.3602
X109.0703 Y24.3962
X108.9657 Y24.6043
X108.8016 Y24.7696
X108.5943 Y24.8759
X108.3643 Y24.9125
X107.4003
G3 X107.0941 Y24.6074 I0.0111 J-0.3173
G1 X107.0823 Y24.2977
X106.9915 Y21.9274
X106.9805 Y21.642
G3 X107.2867 Y21.3125 I0.3173 J-0.0121
G1 X108.2173
X108.3671 Y21.32
X108.5152 Y21.344
X108.6591 Y21.3862
X108.7976 Y21.4439
X108.9301 Y21.5142
X109.0564 Y21.596
X109.19 Y21.6986
X109.3185 Y21.8148
X109.4488 Y21.9532
X109.577 Y22.1133
X109.6951 Y22.288
X109.8029 Y22.4789
X109.8996 Y22.6877
X109.9807 Y22.9072
X110.0452 Y23.1376
X110.0912 Y23.373
X110.1144 Y23.5785
X110.1211 Y23.7881
X110.1116 Y23.9847
X110.0904 Y24.1492
X110.0542 Y24.3199
X110.0354 Y24.383
X109.9328 Y24.5958
X109.7683 Y24.7655
X109.5587 Y24.8748
X109.3254 Y24.9125
X108.3643
G3 X108.0582 Y24.6109 I0.0111 J-0.3173
G1 X108.0427 Y24.2978
X107.9252 Y21.9272
X107.9113 Y21.6455
G3 X108.2173 Y21.3125 I0.3171 J-0.0157
G1 X109.2233
X109.3731 Y21.32
X109.52 Y21.3505
X109.6623 Y21.3979
X109.7991 Y21.4594
X109.9295 Y21.5335
X110.0588 Y21.6219
X110.1881 Y21.7263
X110.3223 Y21.8539
X110.45 Y21.9965
X110.574 Y22.1596
X110.6909 Y22.3421
X110.7978 Y22.5427
X110.8903 Y22.7562
X110.9664 Y22.9794
X111.0248 Y23.2098
X111.0631 Y23.4354
X111.0807 Y23.6353
X111.0822 Y23.8524
X111.0689 Y24.0352
X111.0439 Y24.1968
X111.0015 Y24.3746
X110.9931 Y24.4005
X110.8879 Y24.6071
X110.724 Y24.771
X110.5175 Y24.8762
X110.2885 Y24.9125
X109.3254
G3 X109.0191 Y24.6061 I0.0111 J-0.3173
G1 X109.0085 Y24.2976
X108.9269 Y21.9274
X108.9171 Y21.6407
G3 X109.2233 Y21.3125 I0.3173 J-0.0109
G1 X110.1371
X110.2869 Y21.32
X110.4351 Y21.3432
X110.5792 Y21.3848
X110.7179 Y21.4419
X110.8507 Y21.5117
X110.9785 Y21.594
X111.1111 Y21.6953
X111.2394 Y21.8107
X111.3708 Y21.9497
X111.4984 Y22.1082
X111.6159 Y22.2812
X111.7239 Y22.4712
X111.8215 Y22.6805
X111.9036 Y22.9014
X111.968 Y23.1291
X112.0147 Y23.3651
X112.0387 Y23.5732
X112.0459 Y23.7796
X112.0368 Y23.9789
X112.0157 Y24.1449
X111.9805 Y24.3133
X111.9604 Y24.3812
X111.8839 Y24.5548
X111.7658 Y24.7033
X111.6138 Y24.8169
X111.438 Y24.8882
X111.2498 Y24.9125
X110.2885
G3 X109.9825 Y24.6114 I0.0111 J-0.3173
G1 X109.9665 Y24.2978
X109.8454 Y21.9272
X109.8311 Y21.646
G3 X110.1371 Y21.3125 I0.3171 J-0.0162
G1 X111.1431
X111.2929 Y21.32
X111.4399 Y21.3498
X111.5824 Y21.3966
X111.7195 Y21.4576
X111.8501 Y21.5313
X111.9796 Y21.6192
X112.1087 Y21.723
X112.2428 Y21.8498
X112.3707 Y21.9917
X112.4946 Y22.1539
X112.612 Y22.336
X112.719 Y22.5358
X112.812 Y22.7488
X112.8888 Y22.9717
X112.9478 Y23.2018
X112.9867 Y23.4277
X113.0057 Y23.6379
X113.0078 Y23.8457
X112.9955 Y24.021
X112.9673 Y24.2062
X112.9296 Y24.3668
X112.9193 Y24.3986
X112.8144 Y24.6059
X112.6504 Y24.7704
X112.4435 Y24.8761
X112.2141 Y24.9125
X111.2498
G3 X110.9436 Y24.6066 I0.0111 J-0.3173
G1 X110.9325 Y24.2976
X110.8472 Y21.9274
X110.8369 Y21.6412
G3 X111.1431 Y21.3125 I0.3173 J-0.0114
G1 X112.0736
X112.2235 Y21.32
X112.3714 Y21.3449
X112.5151 Y21.3878
X112.6533 Y21.4461
X112.7855 Y21.517
X112.9123 Y21.5997
X113.0459 Y21.7031
X113.1743 Y21.8201
X113.3046 Y21.9595
X113.4325 Y22.1206
X113.5501 Y22.2961
X113.6575 Y22.4878
X113.7536 Y22.6973
X113.8339 Y22.9174
X113.8976 Y23.1481
X113.9427 Y23.3837
X113.965 Y23.5881
X113.9709 Y23.7978
X113.9608 Y23.9932
X113.939 Y24.157
X113.902 Y24.3281
X113.8846 Y24.3857
X113.7816 Y24.5976
X113.6171 Y24.7664
X113.408 Y24.875
X113.1754 Y24.9125
X112.2141
G3 X111.908 Y24.6102 I0.0111 J-0.3173
G1 X111.8932 Y24.2978
X111.781 Y21.9272
X111.7676 Y21.6448
G3 X112.0736 Y21.3125 I0.3171 J-0.015
G1 X113.0797
X113.2295 Y21.32
X113.3762 Y21.3514
X113.5182 Y21.3994
X113.6548 Y21.4616
X113.7849 Y21.5362
X113.9138 Y21.6249
X114.0435 Y21.7305
X114.1777 Y21.859
X114.305 Y22.0021
X114.429 Y22.1663
X114.5456 Y22.3498
X114.652 Y22.5511
X114.7438 Y22.765
X114.8192 Y22.9887
X114.8769 Y23.2194
X114.9143 Y23.4447
X114.9311 Y23.6442
X114.932 Y23.8607
X114.918 Y24.0426
X114.8925 Y24.2041
X114.8496 Y24.3816
X114.8426 Y24.403
X114.737 Y24.6086
X114.5732 Y24.7717
X114.3671 Y24.8764
X114.1388 Y24.9125
X113.1754
G3 X112.8691 Y24.6054 I0.0111 J-0.3173
G1 X112.8592 Y24.2976
X112.7827 Y21.9274
X112.7734 Y21.6401
G3 X113.0797 Y21.3125 I0.3173 J-0.0102
G1 X113.9934
X114.1433 Y21.32
X114.2913 Y21.344
X114.4352 Y21.3864
X114.5737 Y21.4441
X114.7062 Y21.5144
X114.8344 Y21.5976
X114.9669 Y21.6996
X115.0952 Y21.816
X115.2268 Y21.956
X115.3539 Y22.1153
X115.4711 Y22.289
X115.5787 Y22.48
X115.6756 Y22.6899
X115.757 Y22.9113
X115.8206 Y23.1394
X115.8665 Y23.3757
X115.8896 Y23.5826
X115.896 Y23.7891
X115.8862 Y23.9872
X115.8647 Y24.1524
X115.8287 Y24.3213
X115.81 Y24.3838
X115.7072 Y24.5964
X115.5427 Y24.7658
X115.3333 Y24.8749
X115.1002 Y24.9125
X114.1388
G3 X113.8327 Y24.6107 I0.0111 J-0.3173
G1 X113.8174 Y24.2978
X113.7012 Y21.9272
X113.6874 Y21.6454
G3 X113.9934 Y21.3125 I0.3171 J-0.0155
G1 X114.9995
X115.1493 Y21.32
X115.2961 Y21.3506
X115.4384 Y21.3981
X115.5752 Y21.4597
X115.7055 Y21.5339
X115.8346 Y21.6222
X115.9642 Y21.727
X116.0983 Y21.8547
X116.2258 Y21.9972
X116.3498 Y22.1605
X116.4668 Y22.3435
X116.5734 Y22.5439
X116.6658 Y22.7574
X116.7418 Y22.9808
X116.8001 Y23.2112
X116.8382 Y23.4368
X116.8556 Y23.6367
X116.8571 Y23.8537
X116.8436 Y24.0365
X116.8185 Y24.198
X116.7761 Y24.3757
X116.7679 Y24.401
X116.6626 Y24.6074
X116.4987 Y24.7711
X116.2923 Y24.8763
X116.0634 Y24.9125
X115.1002
G3 X114.7939 Y24.606 I0.0111 J-0.3173
G1 X114.7835 Y24.2976
X114.703 Y21.9274
X114.6932 Y21.6406
G3 X114.9995 Y21.3125 I0.3173 J-0.0108
G1 X115.93
X116.0798 Y21.32
X116.2276 Y21.3457
X116.3711 Y21.3894
X116.5091 Y21.4482
X116.641 Y21.5195
X116.7683 Y21.6032
X116.9019 Y21.7074
X117.0302 Y21.8251
X117.1606 Y21.9657
X117.2882 Y22.1275
X117.4054 Y22.3037
X117.5116 Y22.4949
X117.6072 Y22.7053
X117.6873 Y22.9273
X117.7495 Y23.1559
X117.7939 Y23.3925
X117.8154 Y23.5961
X117.8206 Y23.8059
X117.8098 Y24.0005
X117.7875 Y24.1638
X117.7498 Y24.3353
X117.7336 Y24.3882
X117.6302 Y24.5992
X117.4658 Y24.7672
X117.2572 Y24.8752
X117.0251 Y24.9125
X116.0634
G3 X115.7573 Y24.6095 I0.0111 J-0.3173
G1 X115.7433 Y24.2978
X115.6367 Y21.9273
X115.6239 Y21.6441
G3 X115.93 Y21.3125 I0.3172 J-0.0143
G1 X116.936
X117.0858 Y21.32
X117.2323 Y21.3522
X117.3742 Y21.4009
X117.5105 Y21.4636
X117.6403 Y21.5387
X117.7689 Y21.6278
X117.899 Y21.7345
X118.0331 Y21.8637
X118.16 Y22.0073
X118.2838 Y22.1725
X118.4001 Y22.3568
X118.5059 Y22.5587
X118.5971 Y22.7732
X118.6719 Y22.9973
X118.7288 Y23.2283
X118.7654 Y23.4534
X118.7815 Y23.6525
X118.7816 Y23.8684
X118.7671 Y24.0497
X118.7411 Y24.211
X118.6976 Y24.3882
X118.6919 Y24.4053
X118.586 Y24.6101
X118.4223 Y24.7725
X118.2166 Y24.8766
X117.9889 Y24.9125
X117.0251
G3 X116.7189 Y24.6047 I0.0111 J-0.3173
G1 X116.7096 Y24.2976
X116.6384 Y21.9274
X116.6297 Y21.6394
G3 X116.936 Y21.3125 I0.3174 J-0.0095
G1 X117.8498
X117.9996 Y21.32
X118.1475 Y21.3449
X118.2912 Y21.3879
X118.4295 Y21.4462
X118.5617 Y21.517
X118.6903 Y21.6011
X118.8226 Y21.7038
X118.951 Y21.821
X119.0825 Y21.962
X119.2093 Y22.122
X119.3261 Y22.2966
X119.4333 Y22.4884
X119.5296 Y22.699
X119.6103 Y22.9209
X119.6731 Y23.1493
X119.7181 Y23.3859
X119.7404 Y23.5917
X119.746 Y23.7984
X119.7356 Y23.9953
X119.7135 Y24.1598
X119.6768 Y24.329
X119.6594 Y24.3864
X119.5563 Y24.598
X119.3919 Y24.7666
X119.1829 Y24.8751
X118.9504 Y24.9125
X117.9889
G3 X117.6828 Y24.6101 I0.0111 J-0.3173
G1 X117.6682 Y24.2978
X117.557 Y21.9273
X117.5437 Y21.6447
G3 X117.8498 Y21.3125 I0.3172 J-0.0149
G1 X118.8558
X119.0056 Y21.32
X119.1523 Y21.3514
X119.2944 Y21.3996
X119.4309 Y21.4618
X119.5609 Y21.5365
X119.6897 Y21.6251
X119.8196 Y21.731
X119.9537 Y21.8595
X120.0808 Y22.0026
X120.2048 Y22.167
X120.3216 Y22.3508
X120.4277 Y22.552
X120.5194 Y22.766
X120.5948 Y22.9898
X120.6523 Y23.2205
X120.6896 Y23.4459
X120.7063 Y23.6453
X120.7071 Y23.8617
X120.693 Y24.0436
X120.6674 Y24.205
X120.6245 Y24.3825
X120.6176 Y24.4033
X120.512 Y24.6089
X120.3482 Y24.7719
X120.1422 Y24.8765
X119.9139 Y24.9125
X118.9504
G3 X118.6441 Y24.6053 I0.0111 J-0.3173
G1 X118.6343 Y24.2976
X118.5587 Y21.9274
X118.5496 Y21.6399
G3 X118.8558 Y21.3125 I0.3173 J-0.0101
G1 X119.7864
X119.9362 Y21.32
X120.0838 Y21.3465
X120.2271 Y21.3909
X120.3649 Y21.4503
X120.4965 Y21.5221
X120.6242 Y21.6067
X120.7578 Y21.7116
X120.886 Y21.8302
X121.0165 Y21.9718
X121.1438 Y22.1345
X121.2606 Y22.3113
X121.3663 Y22.5034
X121.4614 Y22.7145
X121.5407 Y22.937
X121.6022 Y23.1659
X121.6458 Y23.4026
X121.6664 Y23.6052
X121.6709 Y23.815
X121.6594 Y24.0084
X121.6366 Y24.1712
X121.5982 Y24.3429
X121.5835 Y24.3907
X121.4796 Y24.6008
X121.3154 Y24.7679
X121.1071 Y24.8754
X120.8757 Y24.9125
X119.9139
G3 X119.6078 Y24.6088 I0.0111 J-0.3173
G1 X119.5944 Y24.2977
X119.4925 Y21.9273
X119.4802 Y21.6435
G3 X119.7864 Y21.3125 I0.3172 J-0.0136
G1 X120.7509
X120.9007 Y21.32
X121.0482 Y21.3471
X121.1915 Y21.3916
X121.3292 Y21.451
X121.4607 Y21.5232
X121.5857 Y21.6061
X121.7182 Y21.7102
X121.8498 Y21.8318
X121.977 Y21.9699
X122.1043 Y22.1326
X122.2233 Y22.3128
X122.3302 Y22.5069
X122.4242 Y22.7156
X122.5035 Y22.9379
X122.5649 Y23.1668
X122.6079 Y23.4005
X122.6285 Y23.6016
X122.633 Y23.8166
X122.6218 Y24.007
X122.599 Y24.169
X122.5599 Y24.3441
X122.5455 Y24.3907
X122.4417 Y24.6008
X122.2775 Y24.7679
X122.0692 Y24.8754
X121.8378 Y24.9125
X120.8757
G3 X120.5696 Y24.6086 I0.0111 J-0.3173
G1 X120.5565 Y24.2977
X120.4567 Y21.9273
X120.4447 Y21.6432
G3 X120.7509 Y21.3125 I0.3172 J-0.0134
G1 X121.7062
X121.856 Y21.32
X122.0037 Y21.3462
X122.1472 Y21.3899
X122.2852 Y21.4487
X122.417 Y21.5203
X122.5423 Y21.6027
X122.6752 Y21.7062
X122.806 Y21.8262
X122.9338 Y21.9639
X123.0614 Y22.1257
X123.1804 Y22.3044
X123.2873 Y22.4968
X123.3821 Y22.7054
X123.4622 Y22.9272
X123.5244 Y23.1555
X123.5685 Y23.3902
X123.5899 Y23.5925
X123.5953 Y23.8067
X123.5846 Y23.9989
X123.5624 Y24.1615
X123.5242 Y24.3359
X123.5083 Y24.388
X123.4048 Y24.5991
X123.2405 Y24.7671
X123.0318 Y24.8752
X122.7997 Y24.9125
X121.8378
G3 X121.5317 Y24.6093 I0.0111 J-0.3173
G1 X121.5179 Y24.2978
X121.4126 Y21.9273
X121.4001 Y21.6439
G3 X121.7062 Y21.3125 I0.3172 J-0.0141
G1 X122.7122
X122.862 Y21.32
X123.0085 Y21.3524
X123.1503 Y21.4013
X123.2865 Y21.4641
X123.4163 Y21.5393
X123.545 Y21.6287
X123.6751 Y21.7355
X123.8092 Y21.8649
X123.9362 Y22.0088
X124.0597 Y22.1738
X124.1756 Y22.3578
X124.2814 Y22.5601
X124.3726 Y22.7747
X124.4471 Y22.9988
X124.5039 Y23.2298
X124.5403 Y23.4548
X124.5563 Y23.6541
Y23.8699
X124.5417 Y24.0509
X124.5155 Y24.2123
X124.4719 Y24.3896
X124.4665 Y24.4058
X124.3605 Y24.6104
X124.1968 Y24.7726
X123.9912 Y24.8767
X123.7636 Y24.9125
X122.7997
G3 X122.4934 Y24.6046 I0.0111 J-0.3173
G1 X122.4844 Y24.2976
X122.4144 Y21.9274
X122.4059 Y21.6392
G3 X122.7122 Y21.3125 I0.3174 J-0.0094
G1 X123.6427
X123.7925 Y21.32
X123.94 Y21.3474
X124.0831 Y21.3925
X124.2206 Y21.4525
X124.352 Y21.5249
X124.48 Y21.6105
X124.6135 Y21.7162
X124.7417 Y21.8356
X124.8722 Y21.9783
X124.9991 Y22.1418
X125.1155 Y22.3194
X125.2208 Y22.5124
X125.3151 Y22.7242
X125.3937 Y22.9472
X125.4543 Y23.1766
X125.497 Y23.4135
X125.5167 Y23.6149
X125.5204 Y23.8247
X125.5083 Y24.017
X125.4849 Y24.1791
X125.4458 Y24.3511
X125.4325 Y24.3934
X125.3283 Y24.6025
X125.1641 Y24.7688
X124.9563 Y24.8757
X124.7256 Y24.9125
X123.7636
G3 X123.4575 Y24.6081 I0.0111 J-0.3173
G1 X123.4448 Y24.2977
X123.3482 Y21.9273
X123.3366 Y21.6427
G3 X123.6427 Y21.3125 I0.3172 J-0.0129
G1 X124.6072
X124.7571 Y21.32
X124.9044 Y21.348
X125.0475 Y21.3932
X125.1849 Y21.4533
X125.3161 Y21.526
X125.4412 Y21.6097
X125.5741 Y21.7148
X125.7052 Y21.8369
X125.8326 Y21.9762
X125.9598 Y22.1401
X126.0783 Y22.321
X126.1846 Y22.5157
X126.278 Y22.7252
X126.3565 Y22.948
X126.4172 Y23.1773
X126.4593 Y23.411
X126.4789 Y23.6114
X126.4827 Y23.8259
X126.4708 Y24.0153
X126.4475 Y24.1769
X126.4077 Y24.352
X126.3948 Y24.3933
X126.2906 Y24.6025
X126.1264 Y24.7688
X125.9186 Y24.8757
X125.6879 Y24.9125
X124.7256
G3 X124.4194 Y24.6079 I0.0111 J-0.3173
G1 X124.4071 Y24.2977
X124.3125 Y21.9273
X124.3011 Y21.6425
G3 X124.6072 Y21.3125 I0.3173 J-0.0127
G1 X125.5625
X125.7123 Y21.32
X125.8599 Y21.3471
X126.0032 Y21.3915
X126.1409 Y21.4509
X126.2724 Y21.5231
X126.3975 Y21.6059
X126.5307 Y21.7104
X126.661 Y21.8308
X126.789 Y21.9697
X126.9166 Y22.1326
X127.035 Y22.3118
X127.1414 Y22.5048
X127.2357 Y22.7141
X127.3151 Y22.9364
X127.3766 Y23.1652
X127.4199 Y23.4
X127.4405 Y23.6014
X127.4451 Y23.8153
X127.4339 Y24.0065
X127.4112 Y24.1687
X127.3723 Y24.3431
X127.3577 Y24.3904
X127.2539 Y24.6006
X127.0897 Y24.7679
X126.8814 Y24.8754
X126.6499 Y24.9125
X125.6879
G3 X125.3817 Y24.6086 I0.0111 J-0.3173
G1 X125.3686 Y24.2977
X125.2684 Y21.9273
X125.2564 Y21.6432
G3 X125.5625 Y21.3125 I0.3172 J-0.0134
G1 X126.4931
X126.6429 Y21.32
X126.7912 Y21.3424
X126.9356 Y21.3832
X127.0746 Y21.4396
X127.2075 Y21.509
X127.334 Y21.5897
X127.4672 Y21.6907
X127.5961 Y21.8058
X127.7255 Y21.9416
X127.8545 Y22.1008
X127.9737 Y22.2749
X128.0817 Y22.4635
X128.1792 Y22.6707
X128.2621 Y22.8913
X128.3273 Y23.1188
X128.3747 Y23.354
X128.3994 Y23.5615
X128.4075 Y23.7719
X128.3991 Y23.9704
X128.3787 Y24.136
X128.3436 Y24.3067
X128.3226 Y24.3787
X128.2464 Y24.553
X128.1283 Y24.7022
X127.9762 Y24.8164
X127.7999 Y24.8881
X127.6113 Y24.9125
X126.6499
G3 X126.3439 Y24.612 I0.0111 J-0.3173
G1 X126.3273 Y24.2979
X126.202 Y21.9272
X126.1871 Y21.6466
G3 X126.4931 Y21.3125 I0.3171 J-0.0168
G1 X127.4991
X127.6489 Y21.32
X127.7961 Y21.349
X127.9388 Y21.3951
X128.0761 Y21.4556
X128.207 Y21.5288
X128.3369 Y21.6164
X128.4655 Y21.7191
X128.5995 Y21.845
X128.7277 Y21.9865
X128.8516 Y22.1475
X128.969 Y22.3284
X129.0766 Y22.5277
X129.1703 Y22.7403
X129.2476 Y22.9627
X129.3073 Y23.1925
X129.347 Y23.4189
X129.3668 Y23.6294
X129.3695 Y23.8382
X129.3577 Y24.0139
X129.3301 Y24.1994
X129.2927 Y24.3607
X129.2448 Y24.5111
X129.2394 Y24.5244
X129.137 Y24.7006
X128.9904 Y24.8422
X128.8108 Y24.9385
X128.6118 Y24.9823
X128.4084 Y24.9701
X128.2049 Y24.9294
X128.0776 Y24.9142
X127.9099 Y24.9125
X127.6113
G3 X127.3051 Y24.6072 I0.0111 J-0.3173
G1 X127.2934 Y24.2977
X127.2037 Y21.9274
X127.1929 Y21.6418
G3 X127.4991 Y21.3125 I0.3173 J-0.012
G1 X127.7422 Y21.3138
X128.0776 Y21.3177
X128.2452 Y21.3226
X128.5806 Y21.351
X128.7292 Y21.3712
X128.8737 Y21.4115
X129.0127 Y21.4678
X129.1456 Y21.5373
X129.2719 Y21.6182
X129.4037 Y21.7187
X129.5307 Y21.8329
X129.659 Y21.9683
X129.7859 Y22.1259
X129.9032 Y22.2983
X130.0102 Y22.4863
X130.1065 Y22.6925
X130.1874 Y22.9097
X130.2522 Y23.138
X130.2986 Y23.3717
X130.3259 Y23.6075
X130.333 Y23.8087
X130.3236 Y24.0187
X130.3006 Y24.2004
X130.2663 Y24.3649
X130.2156 Y24.5374
X130.1597 Y24.6829
X130.0939 Y24.8203
X130.0126 Y24.96
X130.0076 Y24.9671
X129.8601 Y25.1244
X129.6736 Y25.2325
X129.4638 Y25.2823
X129.2486 Y25.2696
X129.0462 Y25.1955
X128.9159 Y25.1249
X128.7063 Y25.0364
X128.6853 Y25.0283
X128.6644 Y25.0214
X128.4084 Y24.9701
G3 X128.1641 Y24.6523 I0.0732 J-0.309
G1 X128.1739 Y24.3008
X128.2397 Y21.939
X128.2474 Y21.6593
G3 X128.5806 Y21.351 I0.3174 J0.0088
G1 X128.7482 Y21.3653
X128.9159 Y21.3937
X129.2512 Y21.4608
X129.4189 Y21.4978
X129.7542 Y21.5988
X129.9219 Y21.6501
X130.1179 Y21.7409
X130.2484 Y21.8147
X130.3714 Y21.9006
X130.4869 Y21.9977
X130.6043 Y22.1137
X130.7162 Y22.2437
X130.8286 Y22.3975
X130.933 Y22.5678
X131.0259 Y22.7505
X131.1078 Y22.9501
X131.1756 Y23.1623
X131.227 Y23.3827
X131.2612 Y23.6114
X131.277 Y23.8423
X131.2742 Y24.0735
X131.2528 Y24.3046
X131.2191 Y24.4982
X131.1677 Y24.6967
X131.1071 Y24.8717
X131.0421 Y25.0198
X130.9578 Y25.1763
X130.8701 Y25.3117
X130.7787 Y25.4307
X130.6709 Y25.5492
X130.5938 Y25.6213
X130.4022 Y25.7516
X130.1801 Y25.8175
X129.9486 Y25.8127
