%
(Made in : Autodesk CAM Post Processor)
(G Code optimized for OpenBuilds OX CNC 1000 x 750 with GRBL V0.9j controller)

(Program Name : 1001)
(2 Operations :)
(1 : Contour2)
(  Tool : Flat End Mill 2 Flutes, Diam = 1.9mm, Len = 12.7mm)
(  Spindle : RPM = 30000, set router dial to 6)
(  Machining time : 8 min 14 sec)
(2 : Horizontal1)
(  Tool : Flat End Mill 2 Flutes, Diam = 1.9mm, Len = 12.7mm)
(  Spindle : RPM = 30000, set router dial to 6)
(  Machining time : 3 min 7 sec)

G90 G94
G17
G21

(Operation 1 of 2 : Contour2)

G53 G0 Z5
G54
S30000 M3
G4 P1.0
X24.01 Y26.8785
Z6
Z1.1894
G1 Z-0.81 F3200
X24.0157 Y26.8814 Z-0.8592
X24.0327 Y26.89 Z-0.905
X24.0596 Y26.9037 Z-0.9444
X24.0947 Y26.9215 Z-0.9745
X24.1355 Y26.9422 Z-0.9935
X24.1794 Y26.9645 Z-1
X25.2682 Y27.5171
X25.3091 Y27.5451
X25.3414 Y27.5828
X25.3628 Y27.6275
X25.3719 Y27.6763
X25.3681 Y27.7257
X25.3516 Y27.7725
X25.3271 Y27.8251
X25.3064 Y27.8777
X25.2884 Y27.9327
X25.274 Y27.9878
X25.2631 Y28.0428
X25.2555 Y28.0979
X25.2512 Y28.1529
X25.25 Y28.208
Y28.9787
X25.2506 Y29.0337
X25.2542 Y29.0888
X25.261 Y29.1438
X25.2711 Y29.1989
X25.2846 Y29.2539
X25.3016 Y29.309
X25.3225 Y29.364
X25.3474 Y29.4191
X25.3516 Y29.4275
X25.3792 Y29.4783
X25.411 Y29.5292
X25.4352 Y29.5635
X25.4618 Y29.5979
X25.4972 Y29.6392
X25.5346 Y29.678
X25.5719 Y29.7127
X25.6161 Y29.7493
X25.682 Y29.7964
X25.7371 Y29.8296
X25.7921 Y29.858
X25.7952 Y29.8594
X25.8487 Y29.8827
X25.9022 Y29.9021
X25.9573 Y29.9185
X26.0124 Y29.9313
X26.0674 Y29.9407
X26.1225 Y29.9468
X26.2326 Y29.95
X32.0486
X32.05 Y29.9525
Y51.5489
X32.0518 Y51.659
X32.0569 Y51.7141
X32.0652 Y51.7691
X32.0691 Y51.7897
X32.0794 Y51.8345
X32.092 Y51.8792
X32.1108 Y51.9343
X32.1334 Y51.9893
X32.1549 Y52.0339
X32.1793 Y52.0784
X32.1919 Y52.0994
X32.2286 Y52.1545
X32.2713 Y52.2095
X32.2894 Y52.2305
X32.3346 Y52.278
X32.3798 Y52.3196
X32.3995 Y52.3361
X32.4546 Y52.3778
X32.5096 Y52.4136
X32.5373 Y52.4297
X32.5786 Y52.4514
X32.6198 Y52.4706
X32.6748 Y52.4926
X32.7299 Y52.5108
X32.7849 Y52.5253
X32.84 Y52.5364
X32.8614 Y52.5398
X32.9058 Y52.5453
X32.9501 Y52.5487
X33.0602 Y52.55
X51.0103
X51.1204 Y52.5504
X51.2306 Y52.5548
X51.3407 Y52.566
X51.4508 Y52.5842
X51.5609 Y52.6089
X51.671 Y52.6405
X51.6988 Y52.6499
X51.7812 Y52.6805
X51.8913 Y52.7279
X51.9561 Y52.76
X52.0014 Y52.7847
X52.1115 Y52.8514
X52.1394 Y52.8701
X52.2217 Y52.929
X52.2859 Y52.9802
X52.3318 Y53.0201
X52.4061 Y53.0903
X52.4419 Y53.1272
X52.5083 Y53.2004
X52.552 Y53.2537
X52.5948 Y53.3105
X52.6622 Y53.4094
X52.6692 Y53.4206
X52.7327 Y53.5307
X52.7723 Y53.609
X52.7871 Y53.6408
X52.8322 Y53.7509
X52.8695 Y53.861
X52.8824 Y53.9054
X52.8994 Y53.9711
X52.9222 Y54.0812
X52.938 Y54.1913
X52.9472 Y54.3014
X52.95 Y54.4115
Y70.4859
X52.9474 Y70.596
X52.9383 Y70.7061
X52.9226 Y70.8162
X52.9 Y70.9263
X52.8824 Y70.9946
X52.8702 Y71.0364
X52.8332 Y71.1465
X52.7882 Y71.2566
X52.7723 Y71.291
X52.734 Y71.3667
X52.6708 Y71.4768
X52.6622 Y71.4906
X52.5966 Y71.5869
X52.552 Y71.6463
X52.5105 Y71.697
X52.4419 Y71.7728
X52.4086 Y71.8071
X52.3318 Y71.8799
X52.289 Y71.9172
X52.2217 Y71.971
X52.1431 Y72.0273
X52.1115 Y72.0485
X52.0014 Y72.1153
X51.9609 Y72.1374
X51.8913 Y72.1721
X51.7812 Y72.2195
X51.7061 Y72.2475
X51.671 Y72.2595
X51.5609 Y72.2911
X51.4508 Y72.3157
X51.3407 Y72.334
X51.2306 Y72.3452
X51.1204 Y72.3496
X51.0103 Y72.35
X33.0602
X32.9501 Y72.3513
X32.8797 Y72.3576
X32.84 Y72.3635
X32.7849 Y72.3746
X32.7299 Y72.3892
X32.6748 Y72.4074
X32.6198 Y72.4294
X32.5808 Y72.4475
X32.5419 Y72.4677
X32.5096 Y72.4863
X32.4546 Y72.5222
X32.3995 Y72.5638
X32.3827 Y72.5778
X32.3361 Y72.6205
X32.2894 Y72.6695
X32.2734 Y72.6879
X32.2304 Y72.743
X32.1934 Y72.798
X32.1793 Y72.8215
X32.1555 Y72.8648
X32.1346 Y72.9081
X32.1117 Y72.9632
X32.0927 Y73.0182
X32.0797 Y73.0642
X32.0691 Y73.1103
X32.0656 Y73.1283
X32.0572 Y73.1834
X32.052 Y73.2384
X32.05 Y73.3485
Y103.956
X32.0523 Y104.0661
X32.0578 Y104.1212
X32.0665 Y104.1762
X32.0691 Y104.1897
X32.0803 Y104.238
X32.0942 Y104.2863
X32.1134 Y104.3414
X32.1367 Y104.3964
X32.1567 Y104.4374
X32.1793 Y104.4784
X32.1963 Y104.5065
X32.2337 Y104.5616
X32.2773 Y104.6166
X32.2894 Y104.6305
X32.3388 Y104.6821
X32.3881 Y104.7267
X32.3995 Y104.7361
X32.4546 Y104.7778
X32.5096 Y104.8137
X32.5503 Y104.8368
X32.6198 Y104.8706
X32.6748 Y104.8926
X32.7299 Y104.9108
X32.7849 Y104.9253
X32.84 Y104.9364
X32.8817 Y104.9426
X32.9234 Y104.9469
X32.9501 Y104.9487
X33.0602 Y104.95
X40.0484
X40.05 Y104.9517
Y128.398
Y128.5081
X40.0521 Y128.5631
X40.0574 Y128.6182
X40.0659 Y128.6732
X40.0778 Y128.7283
X40.0915 Y128.7777
X40.1081 Y128.8272
X40.1123 Y128.8384
X40.1353 Y128.8934
X40.1625 Y128.9485
X40.1886 Y128.9941
X40.2182 Y129.0398
X40.2316 Y129.0586
X40.2748 Y129.1136
X40.3252 Y129.1687
X40.3284 Y129.1719
X40.3834 Y129.2227
X40.4385 Y129.2663
X40.4559 Y129.2788
X40.5023 Y129.3092
X40.5486 Y129.3359
X40.6037 Y129.3634
X40.6587 Y129.3866
X40.6647 Y129.3889
X40.7168 Y129.4068
X40.7689 Y129.4214
X40.8239 Y129.4335
X40.879 Y129.4423
X40.934 Y129.4477
X40.9891 Y129.4499
X41.0992 Y129.45
X310.9008
X311.0109 Y129.4499
X311.066 Y129.4477
X311.121 Y129.4423
X311.1761 Y129.4335
X311.2312 Y129.4214
X311.2832 Y129.4068
X311.3353 Y129.3889
X311.3413 Y129.3866
X311.3963 Y129.3634
X311.4514 Y129.3359
X311.4977 Y129.3092
X311.5441 Y129.2788
X311.5615 Y129.2663
X311.6166 Y129.2227
X311.6717 Y129.1718
X311.6748 Y129.1687
X311.7253 Y129.1136
X311.7684 Y129.0586
X311.7818 Y129.0397
X311.8114 Y128.9941
X311.8375 Y128.9485
X311.8647 Y128.8934
X311.8877 Y128.8384
X311.8919 Y128.8271
X311.9085 Y128.7777
X311.9222 Y128.7283
X311.9341 Y128.6732
X311.9426 Y128.6182
X311.9479 Y128.5631
X311.95 Y128.5081
Y128.398
Y104.9517
X311.9516 Y104.95
X318.9398
X319.0499 Y104.9487
X319.0767 Y104.9469
X319.1183 Y104.9426
X319.16 Y104.9364
X319.2151 Y104.9253
X319.2701 Y104.9108
X319.3252 Y104.8926
X319.3803 Y104.8706
X319.4497 Y104.8368
X319.4904 Y104.8137
X319.5454 Y104.7778
X319.6005 Y104.7361
X319.6119 Y104.7267
X319.6613 Y104.6821
X319.7106 Y104.6305
X319.7227 Y104.6166
X319.7663 Y104.5616
X319.8037 Y104.5065
X319.8208 Y104.4784
X319.8433 Y104.4374
X319.8633 Y104.3964
X319.8866 Y104.3414
X319.9059 Y104.2863
X319.9197 Y104.238
X319.9309 Y104.1897
X319.9335 Y104.1762
X319.9423 Y104.1212
X319.9477 Y104.0661
X319.95 Y103.956
Y79.0737
X319.9493 Y78.9636
X319.9456 Y78.9085
X319.9386 Y78.8535
X319.9309 Y78.8103
X319.9147 Y78.7434
X319.8974 Y78.6883
X319.8764 Y78.6333
X319.8512 Y78.5782
X319.8217 Y78.5232
X319.8208 Y78.5216
X319.7866 Y78.4673
X319.747 Y78.4131
X319.7106 Y78.3695
X319.6797 Y78.3363
X319.6455 Y78.303
X319.6005 Y78.2639
X319.5508 Y78.226
X319.501 Y78.1929
X319.4904 Y78.1864
X319.4353 Y78.1556
X319.3803 Y78.1294
X319.3252 Y78.1074
X319.2701 Y78.0892
X319.2473 Y78.0828
X319.2037 Y78.0721
X319.16 Y78.0636
X319.1049 Y78.0558
X319.0499 Y78.0513
X318.9398 Y78.05
X301.0998
X300.9897 Y78.0499
X300.8796 Y78.0474
X300.7695 Y78.0413
X300.6593 Y78.0305
X300.5492 Y78.0161
X300.4391 Y77.9977
X300.329 Y77.9754
X300.3174 Y77.9727
X300.2188 Y77.9475
X300.1087 Y77.9163
X299.9986 Y77.8809
X299.9478 Y77.8626
X299.8885 Y77.8396
X299.7784 Y77.7944
X299.686 Y77.7525
X299.6682 Y77.7439
X299.5581 Y77.6873
X299.4771 Y77.6424
X299.448 Y77.6252
X299.3379 Y77.5569
X299.3008 Y77.5323
X299.2278 Y77.4822
X299.1467 Y77.4222
X299.1176 Y77.3994
X299.0114 Y77.3121
X299.0075 Y77.3087
X298.8974 Y77.2088
X298.8903 Y77.202
X298.7873 Y77.0985
X298.7809 Y77.0919
X298.6821 Y76.9818
X298.6771 Y76.9759
X298.5923 Y76.8717
X298.567 Y76.8395
X298.5104 Y76.7616
X298.4569 Y76.6829
X298.4361 Y76.6515
X298.3685 Y76.5414
X298.3468 Y76.5036
X298.3072 Y76.4313
X298.2509 Y76.3212
X298.2366 Y76.2904
X298.201 Y76.2111
X298.1563 Y76.101
X298.1265 Y76.0224
X298.1155 Y75.9909
X298.0806 Y75.8808
X298.0497 Y75.7707
X298.0223 Y75.6606
X298.0164 Y75.6331
X298.0004 Y75.5505
X297.9825 Y75.4404
X297.9683 Y75.3303
X297.958 Y75.2202
X297.9522 Y75.1101
X297.95 Y75
Y74.8899
Y52.0994
X297.9502 Y51.9893
X297.9526 Y51.8792
X297.9587 Y51.7691
X297.9695 Y51.659
X297.984 Y51.5489
X298.0023 Y51.4388
X298.0164 Y51.3669
X298.0247 Y51.3287
X298.0525 Y51.2186
X298.0837 Y51.1085
X298.1192 Y50.9984
X298.1265 Y50.9776
X298.1605 Y50.8883
X298.2057 Y50.7782
X298.2366 Y50.7096
X298.2562 Y50.6681
X298.3127 Y50.558
X298.3468 Y50.4964
X298.3748 Y50.4479
X298.4431 Y50.3378
X298.4569 Y50.3171
X298.5178 Y50.2277
X298.567 Y50.1605
X298.6006 Y50.1176
X298.6771 Y50.0241
X298.6913 Y50.0075
X298.7873 Y49.9015
X298.7911 Y49.8974
X298.8974 Y49.7912
X298.9014 Y49.7873
X299.0075 Y49.6913
X299.0239 Y49.6772
X299.1176 Y49.6006
X299.1602 Y49.5672
X299.2278 Y49.5178
X299.3168 Y49.4571
X299.3379 Y49.4431
X299.448 Y49.3748
X299.496 Y49.347
X299.5581 Y49.3127
X299.6682 Y49.2561
X299.7091 Y49.2369
X299.7784 Y49.2056
X299.8885 Y49.1595
X299.9769 Y49.1268
X299.9986 Y49.1191
X300.1087 Y49.0837
X300.2188 Y49.0525
X300.329 Y49.0246
X300.3657 Y49.0167
X300.4391 Y49.0023
X300.5492 Y48.9839
X300.6593 Y48.9695
X300.7695 Y48.9587
X300.8796 Y48.9526
X300.9897 Y48.9501
X301.0998 Y48.95
X318.9398
X319.0499 Y48.9487
X319.1049 Y48.9442
X319.16 Y48.9364
X319.2151 Y48.9253
X319.2701 Y48.9108
X319.284 Y48.9066
X319.3321 Y48.89
X319.3803 Y48.8706
X319.4353 Y48.8444
X319.4904 Y48.8136
X319.5178 Y48.7965
X319.5592 Y48.768
X319.6005 Y48.7361
X319.6568 Y48.6864
X319.7106 Y48.6305
X319.7552 Y48.5763
X319.7902 Y48.5273
X319.8208 Y48.4784
X319.8278 Y48.4662
X319.8564 Y48.4111
X319.8808 Y48.3561
X319.9011 Y48.301
X319.9176 Y48.246
X319.9309 Y48.1897
X319.9402 Y48.1359
X319.9466 Y48.0808
X319.9497 Y48.0258
X319.95 Y47.9157
Y29.9525
X319.9514 Y29.95
X325.7674
X325.8775 Y29.9468
X325.9326 Y29.9407
X325.9876 Y29.9313
X326.0427 Y29.9185
X326.0978 Y29.9021
X326.1513 Y29.8827
X326.2048 Y29.8594
X326.2079 Y29.858
X326.263 Y29.8296
X326.318 Y29.7963
X326.3839 Y29.7493
X326.4282 Y29.7127
X326.4655 Y29.678
X326.5027 Y29.6392
X326.5383 Y29.5979
X326.5648 Y29.5635
X326.589 Y29.5292
X326.6208 Y29.4783
X326.6484 Y29.4275
X326.6526 Y29.4191
X326.6775 Y29.364
X326.6984 Y29.309
X326.7155 Y29.2539
X326.7289 Y29.1989
X326.739 Y29.1438
X326.7458 Y29.0888
X326.7494 Y29.0337
X326.75 Y28.9787
Y28.208
X326.7488 Y28.1529
X326.7445 Y28.0979
X326.7369 Y28.0428
X326.726 Y27.9878
X326.7116 Y27.9327
X326.6936 Y27.8777
X326.6729 Y27.8251
X326.6484 Y27.7725
X326.6459 Y27.7676
X326.6154 Y27.7125
X326.5798 Y27.6575
X326.5383 Y27.6021
X326.4904 Y27.5474
X326.4593 Y27.516
X326.4282 Y27.4873
X326.3663 Y27.4373
X326.318 Y27.4037
X326.263 Y27.3704
X326.2079 Y27.342
X326.1751 Y27.3272
X326.0978 Y27.2979
X326.0427 Y27.2815
X325.9876 Y27.2687
X325.9326 Y27.2593
X325.8775 Y27.2532
X325.7674 Y27.25
X246.0383
X245.9282 Y27.2527
X245.8731 Y27.2585
X245.8181 Y27.2676
X245.763 Y27.28
X245.7079 Y27.296
X245.6664 Y27.3105
X245.6249 Y27.3272
X245.5978 Y27.3393
X245.5427 Y27.3673
X245.4877 Y27.4
X245.4337 Y27.4373
X245.3776 Y27.4823
X245.3436 Y27.5132
X245.3096 Y27.5474
X245.2674 Y27.5951
X245.2202 Y27.6575
X245.1865 Y27.7094
X245.1573 Y27.7614
X245.1541 Y27.7676
X245.1282 Y27.8226
X245.1064 Y27.8777
X245.0884 Y27.9327
X245.074 Y27.9878
X245.0631 Y28.0428
X245.0555 Y28.0979
X245.0512 Y28.1529
X245.05 Y28.208
Y85.048
X245.0486 Y85.05
X161.952
X161.95 Y85.048
Y28.208
X161.9488 Y28.1529
X161.9445 Y28.0979
X161.9369 Y28.0428
X161.926 Y27.9878
X161.9043 Y27.9088
X161.8936 Y27.8777
X161.8718 Y27.8226
X161.8459 Y27.7676
X161.8216 Y27.7231
X161.7941 Y27.6786
X161.7798 Y27.6575
X161.7385 Y27.6024
X161.6904 Y27.5474
X161.684 Y27.5407
X161.629 Y27.488
X161.5739 Y27.4429
X161.5663 Y27.4373
X161.5151 Y27.4017
X161.4638 Y27.3709
X161.4194 Y27.3476
X161.3751 Y27.3272
X161.3536 Y27.3183
X161.2986 Y27.2981
X161.2435 Y27.2817
X161.1885 Y27.2689
X161.1334 Y27.2594
X161.0783 Y27.2532
X161.0233 Y27.2503
X160.9131 Y27.25
X26.2326
X26.1225 Y27.2532
X26.0674 Y27.2593
X26.0124 Y27.2687
X25.9573 Y27.2815
X25.9022 Y27.2979
X25.8249 Y27.3272
X25.7921 Y27.342
X25.7371 Y27.3704
X25.682 Y27.4037
X25.6337 Y27.4373
X25.5719 Y27.4873
X25.5408 Y27.516
X25.5097 Y27.5474
X25.4618 Y27.6021
X25.4202 Y27.6575
X25.3846 Y27.7125
X25.3541 Y27.7676
X25.3516 Y27.7725
X25.331 Y27.8163
X25.3125 Y27.861
X25.2964 Y27.9067 Z-1.0001
X25.2827 Y27.9531
X25.2713 Y28.0001
X25.2623 Y28.0476 Z-1.0002
X25.2558 Y28.0956 Z-1.0003
X25.2517 Y28.1438 Z-1.0004
X25.25 Y28.3374 Z-1.0008
Y28.5309 Z-1.0015
Y28.7245 Z-1.0023
Y28.9181 Z-1.0033
X25.2501 Y29.0149 Z-1.0039
X25.2521 Y29.0632 Z-1.0042
X25.2566 Y29.1114 Z-1.0045
X25.2635 Y29.1593 Z-1.0048
X25.2728 Y29.2068 Z-1.0051
X25.2845 Y29.2538 Z-1.0055
X25.2986 Y29.3001 Z-1.0058
X25.3151 Y29.3456 Z-1.0062
X25.3338 Y29.3902 Z-1.0066
X25.3548 Y29.4338 Z-1.0069
X25.378 Y29.4763 Z-1.0073
X25.4033 Y29.5175 Z-1.0077
X25.4307 Y29.5574 Z-1.0082
X25.4601 Y29.5959 Z-1.0086
X25.4914 Y29.6328 Z-1.009
X25.5246 Y29.668 Z-1.0095
X25.5595 Y29.7016 Z-1.0099
X25.596 Y29.7333 Z-1.0104
X25.6341 Y29.7631 Z-1.0109
X25.6737 Y29.7909 Z-1.0114
X25.7147 Y29.8167 Z-1.0119
X25.7569 Y29.8404 Z-1.0124
X25.8003 Y29.8618 Z-1.0129
X25.8447 Y29.8811 Z-1.0134
X25.89 Y29.898 Z-1.0139
X25.9362 Y29.9126 Z-1.0145
X25.983 Y29.9249 Z-1.0151
X26.0304 Y29.9347 Z-1.0156
X26.0782 Y29.9422 Z-1.0162
X26.1263 Y29.9472 Z-1.0168
X26.1747 Y29.9497 Z-1.0174
X26.3683 Y29.95 Z-1.0199
X26.5618 Z-1.0225
X26.7554 Z-1.0253
X26.949 Z-1.0283
X27.1426 Z-1.0314
X27.3361 Z-1.0347
X27.5297 Z-1.0381
X27.7233 Z-1.0416
X27.9169 Z-1.0453
X28.1104 Z-1.0491
X28.304 Z-1.0531
X28.4976 Z-1.0572
X28.6912 Z-1.0614
X28.8847 Z-1.0658
X29.0783 Z-1.0702
X29.2719 Z-1.0749
X29.4655 Z-1.0796
X29.659 Z-1.0845
X29.8526 Z-1.0894
X29.9494 Z-1.092
X30.0462 Z-1.0945
X30.143 Z-1.0971
X30.2398 Z-1.0997
X30.3365 Z-1.1024
X30.4333 Z-1.1051
X30.5301 Z-1.1078
X30.6269 Z-1.1105
X30.7237 Z-1.1133
X30.8205 Z-1.1161
X30.9173 Z-1.1189
X31.0141 Z-1.1217
X31.1108 Z-1.1246
X31.2076 Z-1.1275
X31.3044 Z-1.1304
X31.4012 Z-1.1334
X31.498 Z-1.1363
X31.5948 Z-1.1393
X31.6916 Z-1.1423
X31.7884 Z-1.1454
X31.8851 Z-1.1485
X31.9819 Z-1.1516
X32.0308 Z-1.1528
X32.0492 Z-1.1531
X32.05 Y29.9546 Z-1.1532
Y29.9684 Z-1.1534
Y29.995 Z-1.1541
Y30.0766 Z-1.1566
Y30.1733 Z-1.1597
Y30.2701 Z-1.1629
Y30.3669 Z-1.1661
Y30.4637 Z-1.1693
Y30.5605 Z-1.1726
Y30.6573 Z-1.1759
Y30.7541 Z-1.1792
Y30.8509 Z-1.1825
Y30.9476 Z-1.1858
Y31.1412 Z-1.1925
Y31.238 Z-1.1959
Y31.3348 Z-1.1993
Y31.4316 Z-1.2027
Y31.5284 Z-1.206
Y31.6252 Z-1.2094
Y31.7219 Z-1.2128
Y31.8187 Z-1.2162
Y31.9155 Z-1.2196
Y32.0123 Z-1.223
Y32.1091 Z-1.2263
Y32.2059 Z-1.2297
Y32.3027 Z-1.2331
Y32.4962 Z-1.2398
Y32.7866 Z-1.25
Y33.077 Z-1.2601
Y33.3673 Z-1.2703
Y33.6577 Z-1.2804
Y33.9481 Z-1.2905
Y34.2384 Z-1.3007
Y34.5288 Z-1.3108
Y34.8191 Z-1.321
Y35.1095 Z-1.3311
Y35.3999 Z-1.3412
Y35.8838 Z-1.3581
Y36.3677 Z-1.375
Y36.8517 Z-1.3919
Y37.5292 Z-1.4156
Y38.4003 Z-1.446
Y39.8521 Z-1.4967
Y45.8529 Z-1.7062
Y46.1433 Z-1.7163
Y46.4336 Z-1.7265
Y46.724 Z-1.7366
Y47.0143 Z-1.7468
Y47.3047 Z-1.7569
Y47.5951 Z-1.767
Y47.6919 Z-1.7704
Y47.7886 Z-1.7738
Y47.8854 Z-1.7772
Y47.9822 Z-1.7806
Y48.079 Z-1.7839
Y48.1758 Z-1.7873
Y48.2726 Z-1.7907
Y48.3694 Z-1.7941
Y48.4662 Z-1.7974
Y48.5629 Z-1.8008
Y48.6597 Z-1.8042
Y48.7565 Z-1.8076
Y48.9501 Z-1.8143
Y49.0469 Z-1.8177
Y49.1437 Z-1.821
Y49.2405 Z-1.8243
Y49.3372 Z-1.8275
Y49.434 Z-1.8308
Y49.5308 Z-1.834
Y49.6276 Z-1.8372
Y49.7244 Z-1.8404
Y49.8212 Z-1.8435
Y49.918 Z-1.8467
Y50.0148 Z-1.8498
Y50.1115 Z-1.8529
Y50.2083 Z-1.8559
Y50.3051 Z-1.859
Y50.4019 Z-1.862
Y50.4987 Z-1.865
Y50.5955 Z-1.8679
Y50.6923 Z-1.8708
Y50.7891 Z-1.8738
Y50.8858 Z-1.8766
Y50.9826 Z-1.8795
Y51.0794 Z-1.8823
Y51.1762 Z-1.8851
Y51.273 Z-1.8879
Y51.3698 Z-1.8907
Y51.4666 Z-1.8934
Y51.5634 Z-1.8961
X32.0519 Y51.6601 Z-1.8987
X32.0562 Y51.7083 Z-1.9001
X32.0629 Y51.7562 Z-1.9014
X32.0721 Y51.8038 Z-1.9027
X32.0837 Y51.8508 Z-1.904
X32.0977 Y51.8971 Z-1.9053
X32.114 Y51.9427 Z-1.9066
X32.1326 Y51.9873 Z-1.9079
X32.1534 Y52.031 Z-1.9091
X32.1765 Y52.0736 Z-1.9104
X32.2016 Y52.1149 Z-1.9116
X32.2289 Y52.1549 Z-1.9129
X32.2582 Y52.1934 Z-1.9141
X32.2893 Y52.2304 Z-1.9154
X32.3224 Y52.2658 Z-1.9166
X32.3572 Y52.2995 Z-1.9178
X32.3936 Y52.3313 Z-1.919
X32.4316 Y52.3612 Z-1.9202
X32.4712 Y52.3892 Z-1.9214
X32.512 Y52.4151 Z-1.9226
X32.5542 Y52.4389 Z-1.9238
X32.5975 Y52.4605 Z-1.925
X32.6418 Y52.4799 Z-1.9262
X32.6871 Y52.497 Z-1.9273
X32.7332 Y52.5117 Z-1.9285
X32.7799 Y52.5242 Z-1.9296
X32.8273 Y52.5342 Z-1.9307
X32.8751 Y52.5417 Z-1.9319
X32.9232 Y52.5469 Z-1.933
X33.0199 Y52.55 Z-1.9352
X33.2135 Z-1.9395
X33.4071 Z-1.9437
X33.6007 Z-1.9478
X33.7942 Z-1.9517
X33.9878 Z-1.9555
X34.1814 Z-1.9592
X34.375 Z-1.9627
X34.5685 Z-1.966
X34.7621 Z-1.9693
X34.9557 Z-1.9723
X35.1493 Z-1.9753
X35.3428 Z-1.978
X35.5364 Z-1.9807
X35.73 Z-1.9831
X35.9236 Z-1.9854
X36.1171 Z-1.9876
X36.3107 Z-1.9895
X36.5043 Z-1.9914
X36.6979 Z-1.993
X36.8914 Z-1.9945
X37.085 Z-1.9958
X37.2786 Z-1.9969
X37.4721 Z-1.9979
X37.6657 Z-1.9987
X37.8593 Z-1.9993
X38.0529 Z-1.9997
X38.2464 Z-1.9999
X38.3984 Z-2
X51.0103
X51.1204 Y52.5504
X51.2306 Y52.5548
X51.3407 Y52.566
X51.4508 Y52.5842
X51.5609 Y52.6089
X51.671 Y52.6405
X51.6988 Y52.6499
X51.7812 Y52.6805
X51.8913 Y52.7279
X51.9561 Y52.76
X52.0014 Y52.7847
X52.1115 Y52.8514
X52.1394 Y52.8701
X52.2217 Y52.929
X52.2859 Y52.9802
X52.3318 Y53.0201
X52.4061 Y53.0903
X52.4419 Y53.1272
X52.5083 Y53.2004
X52.552 Y53.2537
X52.5948 Y53.3105
X52.6622 Y53.4094
X52.6692 Y53.4206
X52.7327 Y53.5307
X52.7723 Y53.609
X52.7871 Y53.6408
X52.8322 Y53.7509
X52.8695 Y53.861
X52.8824 Y53.9054
X52.8994 Y53.9711
X52.9222 Y54.0812
X52.938 Y54.1913
X52.9472 Y54.3014
X52.95 Y54.4115
Y70.4859
X52.9474 Y70.596
X52.9383 Y70.7061
X52.9226 Y70.8162
X52.9 Y70.9263
X52.8824 Y70.9946
X52.8702 Y71.0364
X52.8332 Y71.1465
X52.7882 Y71.2566
X52.7723 Y71.291
X52.734 Y71.3667
X52.6708 Y71.4768
X52.6622 Y71.4906
X52.5966 Y71.5869
X52.552 Y71.6463
X52.5105 Y71.697
X52.4419 Y71.7728
X52.4086 Y71.8071
X52.3318 Y71.8799
X52.289 Y71.9172
X52.2217 Y71.971
X52.1431 Y72.0273
X52.1115 Y72.0485
X52.0014 Y72.1153
X51.9609 Y72.1374
X51.8913 Y72.1721
X51.7812 Y72.2195
X51.7061 Y72.2475
X51.671 Y72.2595
X51.5609 Y72.2911
X51.4508 Y72.3157
X51.3407 Y72.334
X51.2306 Y72.3452
X51.1204 Y72.3496
X51.0103 Y72.35
X33.0602
X32.9501 Y72.3513
X32.8797 Y72.3576
X32.84 Y72.3635
X32.7849 Y72.3746
X32.7299 Y72.3892
X32.6748 Y72.4074
X32.6198 Y72.4294
X32.5808 Y72.4475
X32.5419 Y72.4677
X32.5096 Y72.4863
X32.4546 Y72.5222
X32.3995 Y72.5638
X32.3827 Y72.5778
X32.3361 Y72.6205
X32.2894 Y72.6695
X32.2734 Y72.6879
X32.2304 Y72.743
X32.1934 Y72.798
X32.1793 Y72.8215
X32.1555 Y72.8648
X32.1346 Y72.9081
X32.1117 Y72.9632
X32.0927 Y73.0182
X32.0797 Y73.0642
X32.0691 Y73.1103
X32.0656 Y73.1283
X32.0572 Y73.1834
X32.052 Y73.2384
X32.05 Y73.3485
Y103.956
X32.0523 Y104.0661
X32.0578 Y104.1212
X32.0665 Y104.1762
X32.0691 Y104.1897
X32.0803 Y104.238
X32.0942 Y104.2863
X32.1134 Y104.3414
X32.1367 Y104.3964
X32.1567 Y104.4374
X32.1793 Y104.4784
X32.1963 Y104.5065
X32.2337 Y104.5616
X32.2773 Y104.6166
X32.2894 Y104.6305
X32.3388 Y104.6821
X32.3881 Y104.7267
X32.3995 Y104.7361
X32.4546 Y104.7778
X32.5096 Y104.8137
X32.5503 Y104.8368
X32.6198 Y104.8706
X32.6748 Y104.8926
X32.7299 Y104.9108
X32.7849 Y104.9253
X32.84 Y104.9364
X32.8817 Y104.9426
X32.9234 Y104.9469
X32.9501 Y104.9487
X33.0602 Y104.95
X40.0484
X40.05 Y104.9517
Y128.398
Y128.5081
X40.0521 Y128.5631
X40.0574 Y128.6182
X40.0659 Y128.6732
X40.0778 Y128.7283
X40.0915 Y128.7777
X40.1081 Y128.8272
X40.1123 Y128.8384
X40.1353 Y128.8934
X40.1625 Y128.9485
X40.1886 Y128.9941
X40.2182 Y129.0398
X40.2316 Y129.0586
X40.2748 Y129.1136
X40.3252 Y129.1687
X40.3284 Y129.1719
X40.3834 Y129.2227
X40.4385 Y129.2663
X40.4559 Y129.2788
X40.5023 Y129.3092
X40.5486 Y129.3359
X40.6037 Y129.3634
X40.6587 Y129.3866
X40.6647 Y129.3889
X40.7168 Y129.4068
X40.7689 Y129.4214
X40.8239 Y129.4335
X40.879 Y129.4423
X40.934 Y129.4477
X40.9891 Y129.4499
X41.0992 Y129.45
X310.9008
X311.0109 Y129.4499
X311.066 Y129.4477
X311.121 Y129.4423
X311.1761 Y129.4335
X311.2312 Y129.4214
X311.2832 Y129.4068
X311.3353 Y129.3889
X311.3413 Y129.3866
X311.3963 Y129.3634
X311.4514 Y129.3359
X311.4977 Y129.3092
X311.5441 Y129.2788
X311.5615 Y129.2663
X311.6166 Y129.2227
X311.6717 Y129.1718
X311.6748 Y129.1687
X311.7253 Y129.1136
X311.7684 Y129.0586
X311.7818 Y129.0397
X311.8114 Y128.9941
X311.8375 Y128.9485
X311.8647 Y128.8934
X311.8877 Y128.8384
X311.8919 Y128.8271
X311.9085 Y128.7777
X311.9222 Y128.7283
X311.9341 Y128.6732
X311.9426 Y128.6182
X311.9479 Y128.5631
X311.95 Y128.5081
Y128.398
Y104.9517
X311.9516 Y104.95
X318.9398
X319.0499 Y104.9487
X319.0767 Y104.9469
X319.1183 Y104.9426
X319.16 Y104.9364
X319.2151 Y104.9253
X319.2701 Y104.9108
X319.3252 Y104.8926
X319.3803 Y104.8706
X319.4497 Y104.8368
X319.4904 Y104.8137
X319.5454 Y104.7778
X319.6005 Y104.7361
X319.6119 Y104.7267
X319.6613 Y104.6821
X319.7106 Y104.6305
X319.7227 Y104.6166
X319.7663 Y104.5616
X319.8037 Y104.5065
X319.8208 Y104.4784
X319.8433 Y104.4374
X319.8633 Y104.3964
X319.8866 Y104.3414
X319.9059 Y104.2863
X319.9197 Y104.238
X319.9309 Y104.1897
X319.9335 Y104.1762
X319.9423 Y104.1212
X319.9477 Y104.0661
X319.95 Y103.956
Y79.0737
X319.9493 Y78.9636
X319.9456 Y78.9085
X319.9386 Y78.8535
X319.9309 Y78.8103
X319.9147 Y78.7434
X319.8974 Y78.6883
X319.8764 Y78.6333
X319.8512 Y78.5782
X319.8217 Y78.5232
X319.8208 Y78.5216
X319.7866 Y78.4673
X319.747 Y78.4131
X319.7106 Y78.3695
X319.6797 Y78.3363
X319.6455 Y78.303
X319.6005 Y78.2639
X319.5508 Y78.226
X319.501 Y78.1929
X319.4904 Y78.1864
X319.4353 Y78.1556
X319.3803 Y78.1294
X319.3252 Y78.1074
X319.2701 Y78.0892
X319.2473 Y78.0828
X319.2037 Y78.0721
X319.16 Y78.0636
X319.1049 Y78.0558
X319.0499 Y78.0513
X318.9398 Y78.05
X301.0998
X300.9897 Y78.0499
X300.8796 Y78.0474
X300.7695 Y78.0413
X300.6593 Y78.0305
X300.5492 Y78.0161
X300.4391 Y77.9977
X300.329 Y77.9754
X300.3174 Y77.9727
X300.2188 Y77.9475
X300.1087 Y77.9163
X299.9986 Y77.8809
X299.9478 Y77.8626
X299.8885 Y77.8396
X299.7784 Y77.7944
X299.686 Y77.7525
X299.6682 Y77.7439
X299.5581 Y77.6873
X299.4771 Y77.6424
X299.448 Y77.6252
X299.3379 Y77.5569
X299.3008 Y77.5323
X299.2278 Y77.4822
X299.1467 Y77.4222
X299.1176 Y77.3994
X299.0114 Y77.3121
X299.0075 Y77.3087
X298.8974 Y77.2088
X298.8903 Y77.202
X298.7873 Y77.0985
X298.7809 Y77.0919
X298.6821 Y76.9818
X298.6771 Y76.9759
X298.5923 Y76.8717
X298.567 Y76.8395
X298.5104 Y76.7616
X298.4569 Y76.6829
X298.4361 Y76.6515
X298.3685 Y76.5414
X298.3468 Y76.5036
X298.3072 Y76.4313
X298.2509 Y76.3212
X298.2366 Y76.2904
X298.201 Y76.2111
X298.1563 Y76.101
X298.1265 Y76.0224
X298.1155 Y75.9909
X298.0806 Y75.8808
X298.0497 Y75.7707
X298.0223 Y75.6606
X298.0164 Y75.6331
X298.0004 Y75.5505
X297.9825 Y75.4404
X297.9683 Y75.3303
X297.958 Y75.2202
X297.9522 Y75.1101
X297.95 Y75
Y74.8899
Y52.0994
X297.9502 Y51.9893
X297.9526 Y51.8792
X297.9587 Y51.7691
X297.9695 Y51.659
X297.984 Y51.5489
X298.0023 Y51.4388
X298.0164 Y51.3669
X298.0247 Y51.3287
X298.0525 Y51.2186
X298.0837 Y51.1085
X298.1192 Y50.9984
X298.1265 Y50.9776
X298.1605 Y50.8883
X298.2057 Y50.7782
X298.2366 Y50.7096
X298.2562 Y50.6681
X298.3127 Y50.558
X298.3468 Y50.4964
X298.3748 Y50.4479
X298.4431 Y50.3378
X298.4569 Y50.3171
X298.5178 Y50.2277
X298.567 Y50.1605
X298.6006 Y50.1176
X298.6771 Y50.0241
X298.6913 Y50.0075
X298.7873 Y49.9015
X298.7911 Y49.8974
X298.8974 Y49.7912
X298.9014 Y49.7873
X299.0075 Y49.6913
X299.0239 Y49.6772
X299.1176 Y49.6006
X299.1602 Y49.5672
X299.2278 Y49.5178
X299.3168 Y49.4571
X299.3379 Y49.4431
X299.448 Y49.3748
X299.496 Y49.347
X299.5581 Y49.3127
X299.6682 Y49.2561
X299.7091 Y49.2369
X299.7784 Y49.2056
X299.8885 Y49.1595
X299.9769 Y49.1268
X299.9986 Y49.1191
X300.1087 Y49.0837
X300.2188 Y49.0525
X300.329 Y49.0246
X300.3657 Y49.0167
X300.4391 Y49.0023
X300.5492 Y48.9839
X300.6593 Y48.9695
X300.7695 Y48.9587
X300.8796 Y48.9526
X300.9897 Y48.9501
X301.0998 Y48.95
X318.9398
X319.0499 Y48.9487
X319.1049 Y48.9442
X319.16 Y48.9364
X319.2151 Y48.9253
X319.2701 Y48.9108
X319.284 Y48.9066
X319.3321 Y48.89
X319.3803 Y48.8706
X319.4353 Y48.8444
X319.4904 Y48.8136
X319.5178 Y48.7965
X319.5592 Y48.768
X319.6005 Y48.7361
X319.6568 Y48.6864
X319.7106 Y48.6305
X319.7552 Y48.5763
X319.7902 Y48.5273
X319.8208 Y48.4784
X319.8278 Y48.4662
X319.8564 Y48.4111
X319.8808 Y48.3561
X319.9011 Y48.301
X319.9176 Y48.246
X319.9309 Y48.1897
X319.9402 Y48.1359
X319.9466 Y48.0808
X319.9497 Y48.0258
X319.95 Y47.9157
Y29.9525
X319.9514 Y29.95
X325.7674
X325.8775 Y29.9468
X325.9326 Y29.9407
X325.9876 Y29.9313
X326.0427 Y29.9185
X326.0978 Y29.9021
X326.1513 Y29.8827
X326.2048 Y29.8594
X326.2079 Y29.858
X326.263 Y29.8296
X326.318 Y29.7963
X326.3839 Y29.7493
X326.4282 Y29.7127
X326.4655 Y29.678
X326.5027 Y29.6392
X326.5383 Y29.5979
X326.5648 Y29.5635
X326.589 Y29.5292
X326.6208 Y29.4783
X326.6484 Y29.4275
X326.6526 Y29.4191
X326.6775 Y29.364
X326.6984 Y29.309
X326.7155 Y29.2539
X326.7289 Y29.1989
X326.739 Y29.1438
X326.7458 Y29.0888
X326.7494 Y29.0337
X326.75 Y28.9787
Y28.208
X326.7488 Y28.1529
X326.7445 Y28.0979
X326.7369 Y28.0428
X326.726 Y27.9878
X326.7116 Y27.9327
X326.6936 Y27.8777
X326.6729 Y27.8251
X326.6484 Y27.7725
X326.6459 Y27.7676
X326.6154 Y27.7125
X326.5798 Y27.6575
X326.5383 Y27.6021
X326.4904 Y27.5474
X326.4593 Y27.516
X326.4282 Y27.4873
X326.3663 Y27.4373
X326.318 Y27.4037
X326.263 Y27.3704
X326.2079 Y27.342
X326.1751 Y27.3272
X326.0978 Y27.2979
X326.0427 Y27.2815
X325.9876 Y27.2687
X325.9326 Y27.2593
X325.8775 Y27.2532
X325.7674 Y27.25
X246.0383
X245.9282 Y27.2527
X245.8731 Y27.2585
X245.8181 Y27.2676
X245.763 Y27.28
X245.7079 Y27.296
X245.6664 Y27.3105
X245.6249 Y27.3272
X245.5978 Y27.3393
X245.5427 Y27.3673
X245.4877 Y27.4
X245.4337 Y27.4373
X245.3776 Y27.4823
X245.3436 Y27.5132
X245.3096 Y27.5474
X245.2674 Y27.5951
X245.2202 Y27.6575
X245.1865 Y27.7094
X245.1573 Y27.7614
X245.1541 Y27.7676
X245.1282 Y27.8226
X245.1064 Y27.8777
X245.0884 Y27.9327
X245.074 Y27.9878
X245.0631 Y28.0428
X245.0555 Y28.0979
X245.0512 Y28.1529
X245.05 Y28.208
Y85.048
X245.0486 Y85.05
X161.952
X161.95 Y85.048
Y28.208
X161.9488 Y28.1529
X161.9445 Y28.0979
X161.9369 Y28.0428
X161.926 Y27.9878
X161.9043 Y27.9088
X161.8936 Y27.8777
X161.8718 Y27.8226
X161.8459 Y27.7676
X161.8216 Y27.7231
X161.7941 Y27.6786
X161.7798 Y27.6575
X161.7385 Y27.6024
X161.6904 Y27.5474
X161.684 Y27.5407
X161.629 Y27.488
X161.5739 Y27.4429
X161.5663 Y27.4373
X161.5151 Y27.4017
X161.4638 Y27.3709
X161.4194 Y27.3476
X161.3751 Y27.3272
X161.3536 Y27.3183
X161.2986 Y27.2981
X161.2435 Y27.2817
X161.1885 Y27.2689
X161.1334 Y27.2594
X161.0783 Y27.2532
X161.0233 Y27.2503
X160.9131 Y27.25
X26.2326
X26.1225 Y27.2532
X26.0674 Y27.2593
X26.0124 Y27.2687
X25.9573 Y27.2815
X25.9022 Y27.2979
X25.8249 Y27.3272
X25.7921 Y27.342
X25.7371 Y27.3704
X25.682 Y27.4037
X25.6337 Y27.4373
X25.5719 Y27.4873
X25.5408 Y27.516
X25.5097 Y27.5474
X25.4618 Y27.6021
X25.4202 Y27.6575
X25.3846 Y27.7125
X25.3541 Y27.7676
X25.3516 Y27.7725
X25.3271 Y27.8251
X25.3064 Y27.8777
X25.2884 Y27.9327
X25.274 Y27.9878
X25.2631 Y28.0428
X25.2555 Y28.0979
X25.2512 Y28.1529
X25.25 Y28.208
Y28.9787
X25.2506 Y29.0337
X25.2542 Y29.0888
X25.261 Y29.1438
X25.2711 Y29.1989
X25.2846 Y29.2539
X25.3016 Y29.309
X25.3225 Y29.364
X25.3474 Y29.4191
X25.3516 Y29.4275
X25.3792 Y29.4783
X25.411 Y29.5292
X25.4352 Y29.5635
X25.4618 Y29.5979
X25.4972 Y29.6392
X25.5346 Y29.678
X25.5719 Y29.7127
X25.6161 Y29.7493
X25.682 Y29.7964
X25.7371 Y29.8296
X25.7921 Y29.858
X25.7952 Y29.8594
X25.8487 Y29.8827
X25.9022 Y29.9021
X25.9573 Y29.9185
X26.0124 Y29.9313
X26.0674 Y29.9407
X26.1225 Y29.9468
X26.2326 Y29.95
X32.0486
X32.05 Y29.9525
Y51.5489
X32.0518 Y51.659
X32.0569 Y51.7141
X32.0652 Y51.7691
X32.0691 Y51.7897
X32.0794 Y51.8345
X32.092 Y51.8792
X32.1108 Y51.9343
X32.1334 Y51.9893
X32.1549 Y52.0339
X32.1793 Y52.0784
X32.1919 Y52.0994
X32.2286 Y52.1545
X32.2713 Y52.2095
X32.2894 Y52.2305
X32.3346 Y52.278
X32.3798 Y52.3196
X32.3995 Y52.3361
X32.4546 Y52.3778
X32.5096 Y52.4136
X32.5373 Y52.4297
X32.5786 Y52.4514
X32.6198 Y52.4706
X32.6748 Y52.4926
X32.7299 Y52.5108
X32.7849 Y52.5253
X32.84 Y52.5364
X32.8614 Y52.5398
X32.9058 Y52.5453
X32.9501 Y52.5487
X33.0602 Y52.55
X38.3984
X38.592 Z-2.0001
X38.7856 Z-2.0004
X38.9791 Z-2.0008
X39.1727 Z-2.0015
X39.3663 Z-2.0023
X39.5599 Z-2.0033
X39.7534 Z-2.0045
X39.947 Z-2.0058
X40.1406 Z-2.0073
X40.3342 Z-2.009
X40.5277 Z-2.0109
X40.7213 Z-2.0129
X40.9149 Z-2.0151
X41.1085 Z-2.0174
X41.302 Z-2.0199
X41.4956 Z-2.0225
X41.6892 Z-2.0253
X41.8828 Z-2.0283
X42.0763 Z-2.0314
X42.2699 Z-2.0347
X42.4635 Z-2.0381
X42.6571 Z-2.0416
X42.8506 Z-2.0453
X43.0442 Z-2.0491
X43.2378 Z-2.0531
X43.4314 Z-2.0572
X43.6249 Z-2.0614
X43.8185 Z-2.0658
X44.0121 Z-2.0702
X44.2057 Z-2.0749
X44.3992 Z-2.0796
X44.5928 Z-2.0845
X44.7864 Z-2.0894
X44.8832 Z-2.092
X44.98 Z-2.0945
X45.0768 Z-2.0971
X45.1735 Z-2.0997
X45.2703 Z-2.1024
X45.3671 Z-2.1051
X45.4639 Z-2.1078
X45.5607 Z-2.1105
X45.6575 Z-2.1133
X45.7543 Z-2.1161
X45.8511 Z-2.1189
X45.9478 Z-2.1217
X46.0446 Z-2.1246
X46.1414 Z-2.1275
X46.2382 Z-2.1304
X46.335 Z-2.1334
X46.4318 Z-2.1363
X46.5286 Z-2.1393
X46.6254 Z-2.1423
X46.7221 Z-2.1454
X46.8189 Z-2.1485
X46.9157 Z-2.1516
X47.0125 Z-2.1547
X47.1093 Z-2.1578
X47.2061 Z-2.161
X47.3029 Z-2.1642
X47.3997 Z-2.1674
X47.4964 Z-2.1706
X47.5932 Z-2.1739
X47.69 Z-2.1772
X47.7868 Z-2.1805
X47.8836 Z-2.1838
X47.9804 Z-2.1871
X48.1739 Z-2.1939
X48.2707 Z-2.1972
X48.3675 Z-2.2006
X48.4643 Z-2.204
X48.5611 Z-2.2074
X48.6579 Z-2.2108
X48.7547 Z-2.2141
X48.8515 Z-2.2175
X48.9482 Z-2.2209
X49.045 Z-2.2243
X49.1418 Z-2.2277
X49.2386 Z-2.231
X49.3354 Z-2.2344
X49.529 Z-2.2412
X49.8193 Z-2.2513
X50.1097 Z-2.2614
X50.4001 Z-2.2716
X50.6904 Z-2.2817
X50.9808 Z-2.2919
X51.0776 Z-2.2952
X51.1744 Y52.5515 Z-2.2986
X51.2709 Y52.5582 Z-2.302
X51.3671 Y52.5695 Z-2.3054
X51.4624 Y52.5864 Z-2.3088
X51.5568 Y52.6078 Z-2.3121
X51.6501 Y52.6336 Z-2.3155
X51.7415 Y52.6652 Z-2.3189
X51.8314 Y52.7011 Z-2.3223
X51.9195 Y52.7413 Z-2.3257
X52.005 Y52.7867 Z-2.329
X52.0881 Y52.8363 Z-2.3324
X52.1684 Y52.8904 Z-2.3358
X52.2461 Y52.948 Z-2.3392
X52.3204 Y53.0101 Z-2.3425
X52.3914 Y53.0758 Z-2.3459
X52.4589 Y53.1452 Z-2.3493
X52.5229 Y53.2178 Z-2.3527
X52.5827 Y53.2939 Z-2.3561
X52.6384 Y53.373 Z-2.3594
X52.6901 Y53.4548 Z-2.3628
X52.7372 Y53.5394 Z-2.3662
X52.7803 Y53.6261 Z-2.3696
X52.8184 Y53.7151 Z-2.373
X52.8519 Y53.8058 Z-2.3763
X52.8804 Y53.8983 Z-2.3797
X52.9044 Y53.9921 Z-2.3831
X52.9232 Y54.0871 Z-2.3865
X52.937 Y54.1829 Z-2.3898
X52.9459 Y54.2792 Z-2.3932
X52.9496 Y54.376 Z-2.3966
X52.95 Y54.4728 Z-2.4
Y55.1503 Z-2.4236
Y56.0213 Z-2.4541
Y57.7635 Z-2.5149
Y60.7639 Z-2.6196
Y61.2479 Z-2.6365
Y61.7318 Z-2.6534
Y62.2157 Z-2.6703
Y62.5061 Z-2.6805
Y62.7965 Z-2.6906
Y63.0868 Z-2.7007
Y63.3772 Z-2.7109
Y63.6675 Z-2.721
Y63.9579 Z-2.7312
Y64.2483 Z-2.7413
Y64.5386 Z-2.7514
Y64.829 Z-2.7616
Y64.9258 Z-2.765
Y65.0226 Z-2.7683
Y65.1194 Z-2.7717
Y65.2161 Z-2.7751
Y65.3129 Z-2.7785
Y65.4097 Z-2.7819
Y65.5065 Z-2.7852
Y65.6033 Z-2.7886
Y65.7001 Z-2.792
Y65.7969 Z-2.7954
Y65.8937 Z-2.7987
Y65.9904 Z-2.8021
Y66.0872 Z-2.8055
Y66.184 Z-2.8089
Y66.2808 Z-2.8123
Y66.3776 Z-2.8156
Y66.4744 Z-2.8189
Y66.5712 Z-2.8222
Y66.668 Z-2.8255
Y66.7647 Z-2.8288
Y66.8615 Z-2.832
Y66.9583 Z-2.8352
Y67.0551 Z-2.8384
Y67.1519 Z-2.8416
Y67.2487 Z-2.8447
Y67.3455 Z-2.8479
Y67.4423 Z-2.851
Y67.539 Z-2.854
Y67.6358 Z-2.8571
Y67.7326 Z-2.8601
Y67.8294 Z-2.8631
Y67.9262 Z-2.8661
Y68.023 Z-2.869
Y68.1198 Z-2.872
Y68.2166 Z-2.8749
Y68.3133 Z-2.8777
Y68.4101 Z-2.8806
Y68.5069 Z-2.8834
Y68.6037 Z-2.8862
Y68.7005 Z-2.889
Y68.7973 Z-2.8917
Y68.8941 Z-2.8944
Y68.9909 Z-2.8971
Y69.0876 Z-2.8998
Y69.1844 Z-2.9024
Y69.2812 Z-2.905
Y69.378 Z-2.9076
Y69.4748 Z-2.9101
Y69.5716 Z-2.9126
Y69.7652 Z-2.9175
Y69.9587 Z-2.9224
Y70.1523 Z-2.927
Y70.3459 Z-2.9316
X52.9494 Y70.5395 Z-2.936
X52.9449 Y70.6361 Z-2.9382
X52.9352 Y70.7325 Z-2.9403
X52.9205 Y70.8281 Z-2.9425
X52.9008 Y70.9229 Z-2.9445
X52.8761 Y71.0164 Z-2.9466
X52.8469 Y71.1087 Z-2.9486
X52.8126 Y71.1992 Z-2.9505
X52.7737 Y71.2879 Z-2.9525
X52.73 Y71.3742 Z-2.9544
X52.6822 Y71.4584 Z-2.9562
X52.6299 Y71.5398 Z-2.9581
X52.5736 Y71.6186 Z-2.9599
X52.513 Y71.6941 Z-2.9616
X52.4483 Y71.766 Z-2.9633
X52.3804 Y71.835 Z-2.965
X52.3087 Y71.9 Z-2.9667
X52.2339 Y71.9615 Z-2.9683
X52.1557 Y72.0185 Z-2.9699
X52.075 Y72.0718 Z-2.9714
X51.9915 Y72.1209 Z-2.9729
X51.9057 Y72.1655 Z-2.9744
X51.8173 Y72.205 Z-2.9758
X51.7271 Y72.2402 Z-2.9772
X51.6353 Y72.2708 Z-2.9786
X51.5418 Y72.296 Z-2.9799
X51.4472 Y72.3164 Z-2.9811
X51.3518 Y72.3325 Z-2.9824
X51.2556 Y72.3431 Z-2.9836
X51.0622 Y72.35 Z-2.9858
X50.8686 Z-2.988
X50.675 Z-2.9899
X50.4814 Z-2.9917
X50.2879 Z-2.9933
X50.0943 Z-2.9948
X49.9007 Z-2.996
X49.7071 Z-2.9971
X49.5136 Z-2.9981
X49.32 Z-2.9988
X49.1264 Z-2.9994
X48.9328 Z-2.9998
X48.7393 Z-3
X48.6246
X33.0602
X32.9501 Y72.3513
X32.8797 Y72.3576
X32.84 Y72.3635
X32.7849 Y72.3746
X32.7299 Y72.3892
X32.6748 Y72.4074
X32.6198 Y72.4294
X32.5808 Y72.4475
X32.5419 Y72.4677
X32.5096 Y72.4863
X32.4546 Y72.5222
X32.3995 Y72.5638
X32.3827 Y72.5778
X32.3361 Y72.6205
X32.2894 Y72.6695
X32.2734 Y72.6879
X32.2304 Y72.743
X32.1934 Y72.798
X32.1793 Y72.8215
X32.1555 Y72.8648
X32.1346 Y72.9081
X32.1117 Y72.9632
X32.0927 Y73.0182
X32.0797 Y73.0642
X32.0691 Y73.1103
X32.0656 Y73.1283
X32.0572 Y73.1834
X32.052 Y73.2384
X32.05 Y73.3485
Y103.956
X32.0523 Y104.0661
X32.0578 Y104.1212
X32.0665 Y104.1762
X32.0691 Y104.1897
X32.0803 Y104.238
X32.0942 Y104.2863
X32.1134 Y104.3414
X32.1367 Y104.3964
X32.1567 Y104.4374
X32.1793 Y104.4784
X32.1963 Y104.5065
X32.2337 Y104.5616
X32.2773 Y104.6166
X32.2894 Y104.6305
X32.3388 Y104.6821
X32.3881 Y104.7267
X32.3995 Y104.7361
X32.4546 Y104.7778
X32.5096 Y104.8137
X32.5503 Y104.8368
X32.6198 Y104.8706
X32.6748 Y104.8926
X32.7299 Y104.9108
X32.7849 Y104.9253
X32.84 Y104.9364
X32.8817 Y104.9426
X32.9234 Y104.9469
X32.9501 Y104.9487
X33.0602 Y104.95
X40.0484
X40.05 Y104.9517
Y128.398
Y128.5081
X40.0521 Y128.5631
X40.0574 Y128.6182
X40.0659 Y128.6732
X40.0778 Y128.7283
X40.0915 Y128.7777
X40.1081 Y128.8272
X40.1123 Y128.8384
X40.1353 Y128.8934
X40.1625 Y128.9485
X40.1886 Y128.9941
X40.2182 Y129.0398
X40.2316 Y129.0586
X40.2748 Y129.1136
X40.3252 Y129.1687
X40.3284 Y129.1719
X40.3834 Y129.2227
X40.4385 Y129.2663
X40.4559 Y129.2788
X40.5023 Y129.3092
X40.5486 Y129.3359
X40.6037 Y129.3634
X40.6587 Y129.3866
X40.6647 Y129.3889
X40.7168 Y129.4068
X40.7689 Y129.4214
X40.8239 Y129.4335
X40.879 Y129.4423
X40.934 Y129.4477
X40.9891 Y129.4499
X41.0992 Y129.45
X310.9008
X311.0109 Y129.4499
X311.066 Y129.4477
X311.121 Y129.4423
X311.1761 Y129.4335
X311.2312 Y129.4214
X311.2832 Y129.4068
X311.3353 Y129.3889
X311.3413 Y129.3866
X311.3963 Y129.3634
X311.4514 Y129.3359
X311.4977 Y129.3092
X311.5441 Y129.2788
X311.5615 Y129.2663
X311.6166 Y129.2227
X311.6717 Y129.1718
X311.6748 Y129.1687
X311.7253 Y129.1136
X311.7684 Y129.0586
X311.7818 Y129.0397
X311.8114 Y128.9941
X311.8375 Y128.9485
X311.8647 Y128.8934
X311.8877 Y128.8384
X311.8919 Y128.8271
X311.9085 Y128.7777
X311.9222 Y128.7283
X311.9341 Y128.6732
X311.9426 Y128.6182
X311.9479 Y128.5631
X311.95 Y128.5081
Y128.398
Y104.9517
X311.9516 Y104.95
X318.9398
X319.0499 Y104.9487
X319.0767 Y104.9469
X319.1183 Y104.9426
X319.16 Y104.9364
X319.2151 Y104.9253
X319.2701 Y104.9108
X319.3252 Y104.8926
X319.3803 Y104.8706
X319.4497 Y104.8368
X319.4904 Y104.8137
X319.5454 Y104.7778
X319.6005 Y104.7361
X319.6119 Y104.7267
X319.6613 Y104.6821
X319.7106 Y104.6305
X319.7227 Y104.6166
X319.7663 Y104.5616
X319.8037 Y104.5065
X319.8208 Y104.4784
X319.8433 Y104.4374
X319.8633 Y104.3964
X319.8866 Y104.3414
X319.9059 Y104.2863
X319.9197 Y104.238
X319.9309 Y104.1897
X319.9335 Y104.1762
X319.9423 Y104.1212
X319.9477 Y104.0661
X319.95 Y103.956
Y79.0737
X319.9493 Y78.9636
X319.9456 Y78.9085
X319.9386 Y78.8535
X319.9309 Y78.8103
X319.9147 Y78.7434
X319.8974 Y78.6883
X319.8764 Y78.6333
X319.8512 Y78.5782
X319.8217 Y78.5232
X319.8208 Y78.5216
X319.7866 Y78.4673
X319.747 Y78.4131
X319.7106 Y78.3695
X319.6797 Y78.3363
X319.6455 Y78.303
X319.6005 Y78.2639
X319.5508 Y78.226
X319.501 Y78.1929
X319.4904 Y78.1864
X319.4353 Y78.1556
X319.3803 Y78.1294
X319.3252 Y78.1074
X319.2701 Y78.0892
X319.2473 Y78.0828
X319.2037 Y78.0721
X319.16 Y78.0636
X319.1049 Y78.0558
X319.0499 Y78.0513
X318.9398 Y78.05
X301.0998
X300.9897 Y78.0499
X300.8796 Y78.0474
X300.7695 Y78.0413
X300.6593 Y78.0305
X300.5492 Y78.0161
X300.4391 Y77.9977
X300.329 Y77.9754
X300.3174 Y77.9727
X300.2188 Y77.9475
X300.1087 Y77.9163
X299.9986 Y77.8809
X299.9478 Y77.8626
X299.8885 Y77.8396
X299.7784 Y77.7944
X299.686 Y77.7525
X299.6682 Y77.7439
X299.5581 Y77.6873
X299.4771 Y77.6424
X299.448 Y77.6252
X299.3379 Y77.5569
X299.3008 Y77.5323
X299.2278 Y77.4822
X299.1467 Y77.4222
X299.1176 Y77.3994
X299.0114 Y77.3121
X299.0075 Y77.3087
X298.8974 Y77.2088
X298.8903 Y77.202
X298.7873 Y77.0985
X298.7809 Y77.0919
X298.6821 Y76.9818
X298.6771 Y76.9759
X298.5923 Y76.8717
X298.567 Y76.8395
X298.5104 Y76.7616
X298.4569 Y76.6829
X298.4361 Y76.6515
X298.3685 Y76.5414
X298.3468 Y76.5036
X298.3072 Y76.4313
X298.2509 Y76.3212
X298.2366 Y76.2904
X298.201 Y76.2111
X298.1563 Y76.101
X298.1265 Y76.0224
X298.1155 Y75.9909
X298.0806 Y75.8808
X298.0497 Y75.7707
X298.0223 Y75.6606
X298.0164 Y75.6331
X298.0004 Y75.5505
X297.9825 Y75.4404
X297.9683 Y75.3303
X297.958 Y75.2202
X297.9522 Y75.1101
X297.95 Y75
Y74.8899
Y52.0994
X297.9502 Y51.9893
X297.9526 Y51.8792
X297.9587 Y51.7691
X297.9695 Y51.659
X297.984 Y51.5489
X298.0023 Y51.4388
X298.0164 Y51.3669
X298.0247 Y51.3287
X298.0525 Y51.2186
X298.0837 Y51.1085
X298.1192 Y50.9984
X298.1265 Y50.9776
X298.1605 Y50.8883
X298.2057 Y50.7782
X298.2366 Y50.7096
X298.2562 Y50.6681
X298.3127 Y50.558
X298.3468 Y50.4964
X298.3748 Y50.4479
X298.4431 Y50.3378
X298.4569 Y50.3171
X298.5178 Y50.2277
X298.567 Y50.1605
X298.6006 Y50.1176
X298.6771 Y50.0241
X298.6913 Y50.0075
X298.7873 Y49.9015
X298.7911 Y49.8974
X298.8974 Y49.7912
X298.9014 Y49.7873
X299.0075 Y49.6913
X299.0239 Y49.6772
X299.1176 Y49.6006
X299.1602 Y49.5672
X299.2278 Y49.5178
X299.3168 Y49.4571
X299.3379 Y49.4431
X299.448 Y49.3748
X299.496 Y49.347
X299.5581 Y49.3127
X299.6682 Y49.2561
X299.7091 Y49.2369
X299.7784 Y49.2056
X299.8885 Y49.1595
X299.9769 Y49.1268
X299.9986 Y49.1191
X300.1087 Y49.0837
X300.2188 Y49.0525
X300.329 Y49.0246
X300.3657 Y49.0167
X300.4391 Y49.0023
X300.5492 Y48.9839
X300.6593 Y48.9695
X300.7695 Y48.9587
X300.8796 Y48.9526
X300.9897 Y48.9501
X301.0998 Y48.95
X318.9398
X319.0499 Y48.9487
X319.1049 Y48.9442
X319.16 Y48.9364
X319.2151 Y48.9253
X319.2701 Y48.9108
X319.284 Y48.9066
X319.3321 Y48.89
X319.3803 Y48.8706
X319.4353 Y48.8444
X319.4904 Y48.8136
X319.5178 Y48.7965
X319.5592 Y48.768
X319.6005 Y48.7361
X319.6568 Y48.6864
X319.7106 Y48.6305
X319.7552 Y48.5763
X319.7902 Y48.5273
X319.8208 Y48.4784
X319.8278 Y48.4662
X319.8564 Y48.4111
X319.8808 Y48.3561
X319.9011 Y48.301
X319.9176 Y48.246
X319.9309 Y48.1897
X319.9402 Y48.1359
X319.9466 Y48.0808
X319.9497 Y48.0258
X319.95 Y47.9157
Y29.9525
X319.9514 Y29.95
X325.7674
X325.8775 Y29.9468
X325.9326 Y29.9407
X325.9876 Y29.9313
X326.0427 Y29.9185
X326.0978 Y29.9021
X326.1513 Y29.8827
X326.2048 Y29.8594
X326.2079 Y29.858
X326.263 Y29.8296
X326.318 Y29.7963
X326.3839 Y29.7493
X326.4282 Y29.7127
X326.4655 Y29.678
X326.5027 Y29.6392
X326.5383 Y29.5979
X326.5648 Y29.5635
X326.589 Y29.5292
X326.6208 Y29.4783
X326.6484 Y29.4275
X326.6526 Y29.4191
X326.6775 Y29.364
X326.6984 Y29.309
X326.7155 Y29.2539
X326.7289 Y29.1989
X326.739 Y29.1438
X326.7458 Y29.0888
X326.7494 Y29.0337
X326.75 Y28.9787
Y28.208
X326.7488 Y28.1529
X326.7445 Y28.0979
X326.7369 Y28.0428
X326.726 Y27.9878
X326.7116 Y27.9327
X326.6936 Y27.8777
X326.6729 Y27.8251
X326.6484 Y27.7725
X326.6459 Y27.7676
X326.6154 Y27.7125
X326.5798 Y27.6575
X326.5383 Y27.6021
X326.4904 Y27.5474
X326.4593 Y27.516
X326.4282 Y27.4873
X326.3663 Y27.4373
X326.318 Y27.4037
X326.263 Y27.3704
X326.2079 Y27.342
X326.1751 Y27.3272
X326.0978 Y27.2979
X326.0427 Y27.2815
X325.9876 Y27.2687
X325.9326 Y27.2593
X325.8775 Y27.2532
X325.7674 Y27.25
X246.0383
X245.9282 Y27.2527
X245.8731 Y27.2585
X245.8181 Y27.2676
X245.763 Y27.28
X245.7079 Y27.296
X245.6664 Y27.3105
X245.6249 Y27.3272
X245.5978 Y27.3393
X245.5427 Y27.3673
X245.4877 Y27.4
X245.4337 Y27.4373
X245.3776 Y27.4823
X245.3436 Y27.5132
X245.3096 Y27.5474
X245.2674 Y27.5951
X245.2202 Y27.6575
X245.1865 Y27.7094
X245.1573 Y27.7614
X245.1541 Y27.7676
X245.1282 Y27.8226
X245.1064 Y27.8777
X245.0884 Y27.9327
X245.074 Y27.9878
X245.0631 Y28.0428
X245.0555 Y28.0979
X245.0512 Y28.1529
X245.05 Y28.208
Y85.048
X245.0486 Y85.05
X161.952
X161.95 Y85.048
Y28.208
X161.9488 Y28.1529
X161.9445 Y28.0979
X161.9369 Y28.0428
X161.926 Y27.9878
X161.9043 Y27.9088
X161.8936 Y27.8777
X161.8718 Y27.8226
X161.8459 Y27.7676
X161.8216 Y27.7231
X161.7941 Y27.6786
X161.7798 Y27.6575
X161.7385 Y27.6024
X161.6904 Y27.5474
X161.684 Y27.5407
X161.629 Y27.488
X161.5739 Y27.4429
X161.5663 Y27.4373
X161.5151 Y27.4017
X161.4638 Y27.3709
X161.4194 Y27.3476
X161.3751 Y27.3272
X161.3536 Y27.3183
X161.2986 Y27.2981
X161.2435 Y27.2817
X161.1885 Y27.2689
X161.1334 Y27.2594
X161.0783 Y27.2532
X161.0233 Y27.2503
X160.9131 Y27.25
X26.2326
X26.1225 Y27.2532
X26.0674 Y27.2593
X26.0124 Y27.2687
X25.9573 Y27.2815
X25.9022 Y27.2979
X25.8249 Y27.3272
X25.7921 Y27.342
X25.7371 Y27.3704
X25.682 Y27.4037
X25.6337 Y27.4373
X25.5719 Y27.4873
X25.5408 Y27.516
X25.5097 Y27.5474
X25.4618 Y27.6021
X25.4202 Y27.6575
X25.3846 Y27.7125
X25.3541 Y27.7676
X25.3516 Y27.7725
X25.3271 Y27.8251
X25.3064 Y27.8777
X25.2884 Y27.9327
X25.274 Y27.9878
X25.2631 Y28.0428
X25.2555 Y28.0979
X25.2512 Y28.1529
X25.25 Y28.208
Y28.9787
X25.2506 Y29.0337
X25.2542 Y29.0888
X25.261 Y29.1438
X25.2711 Y29.1989
X25.2846 Y29.2539
X25.3016 Y29.309
X25.3225 Y29.364
X25.3474 Y29.4191
X25.3516 Y29.4275
X25.3792 Y29.4783
X25.411 Y29.5292
X25.4352 Y29.5635
X25.4618 Y29.5979
X25.4972 Y29.6392
X25.5346 Y29.678
X25.5719 Y29.7127
X25.6161 Y29.7493
X25.682 Y29.7964
X25.7371 Y29.8296
X25.7921 Y29.858
X25.7952 Y29.8594
X25.8487 Y29.8827
X25.9022 Y29.9021
X25.9573 Y29.9185
X26.0124 Y29.9313
X26.0674 Y29.9407
X26.1225 Y29.9468
X26.2326 Y29.95
X32.0486
X32.05 Y29.9525
Y51.5489
X32.0518 Y51.659
X32.0569 Y51.7141
X32.0652 Y51.7691
X32.0691 Y51.7897
X32.0794 Y51.8345
X32.092 Y51.8792
X32.1108 Y51.9343
X32.1334 Y51.9893
X32.1549 Y52.0339
X32.1793 Y52.0784
X32.1919 Y52.0994
X32.2286 Y52.1545
X32.2713 Y52.2095
X32.2894 Y52.2305
X32.3346 Y52.278
X32.3798 Y52.3196
X32.3995 Y52.3361
X32.4546 Y52.3778
X32.5096 Y52.4136
X32.5373 Y52.4297
X32.5786 Y52.4514
X32.6198 Y52.4706
X32.6748 Y52.4926
X32.7299 Y52.5108
X32.7849 Y52.5253
X32.84 Y52.5364
X32.8614 Y52.5398
X32.9058 Y52.5453
X32.9501 Y52.5487
X33.0602 Y52.55
X51.0103
X51.1204 Y52.5504
X51.2306 Y52.5548
X51.3407 Y52.566
X51.4508 Y52.5842
X51.5609 Y52.6089
X51.671 Y52.6405
X51.6988 Y52.6499
X51.7812 Y52.6805
X51.8913 Y52.7279
X51.9561 Y52.76
X52.0014 Y52.7847
X52.1115 Y52.8514
X52.1394 Y52.8701
X52.2217 Y52.929
X52.2859 Y52.9802
X52.3318 Y53.0201
X52.4061 Y53.0903
X52.4419 Y53.1272
X52.5083 Y53.2004
X52.552 Y53.2537
X52.5948 Y53.3105
X52.6622 Y53.4094
X52.6692 Y53.4206
X52.7327 Y53.5307
X52.7723 Y53.609
X52.7871 Y53.6408
X52.8322 Y53.7509
X52.8695 Y53.861
X52.8824 Y53.9054
X52.8994 Y53.9711
X52.9222 Y54.0812
X52.938 Y54.1913
X52.9472 Y54.3014
X52.95 Y54.4115
Y70.4859
X52.9474 Y70.596
X52.9383 Y70.7061
X52.9226 Y70.8162
X52.9 Y70.9263
X52.8824 Y70.9946
X52.8702 Y71.0364
X52.8332 Y71.1465
X52.7882 Y71.2566
X52.7723 Y71.291
X52.734 Y71.3667
X52.6708 Y71.4768
X52.6622 Y71.4906
X52.5966 Y71.5869
X52.552 Y71.6463
X52.5105 Y71.697
X52.4419 Y71.7728
X52.4086 Y71.8071
X52.3318 Y71.8799
X52.289 Y71.9172
X52.2217 Y71.971
X52.1431 Y72.0273
X52.1115 Y72.0485
X52.0014 Y72.1153
X51.9609 Y72.1374
X51.8913 Y72.1721
X51.7812 Y72.2195
X51.7061 Y72.2475
X51.671 Y72.2595
X51.5609 Y72.2911
X51.4508 Y72.3157
X51.3407 Y72.334
X51.2306 Y72.3452
X51.1204 Y72.3496
X51.0103 Y72.35
X48.6246
X48.431 Z-3.0001
X48.2374 Z-3.0004
X48.0439 Z-3.0008
X47.8503 Z-3.0015
X47.6567 Z-3.0023
X47.4631 Z-3.0033
X47.2696 Z-3.0045
X47.076 Z-3.0058
X46.8824 Z-3.0073
X46.6888 Z-3.009
X46.4953 Z-3.0109
X46.3017 Z-3.0129
X46.1081 Z-3.0151
X45.9145 Z-3.0174
X45.721 Z-3.0199
X45.5274 Z-3.0225
X45.3338 Z-3.0253
X45.1402 Z-3.0283
X44.9467 Z-3.0314
X44.7531 Z-3.0347
X44.5595 Z-3.0381
X44.3659 Z-3.0416
X44.1724 Z-3.0453
X43.9788 Z-3.0491
X43.7852 Z-3.0531
X43.5916 Z-3.0572
X43.3981 Z-3.0614
X43.2045 Z-3.0658
X43.0109 Z-3.0702
X42.8173 Z-3.0749
X42.6238 Z-3.0796
X42.4302 Z-3.0845
X42.2366 Z-3.0894
X42.1398 Z-3.092
X42.043 Z-3.0945
X41.9463 Z-3.0971
X41.8495 Z-3.0997
X41.7527 Z-3.1024
X41.6559 Z-3.1051
X41.5591 Z-3.1078
X41.4623 Z-3.1105
X41.3655 Z-3.1133
X41.2687 Z-3.1161
X41.172 Z-3.1189
X41.0752 Z-3.1217
X40.9784 Z-3.1246
X40.8816 Z-3.1275
X40.7848 Z-3.1304
X40.688 Z-3.1334
X40.5912 Z-3.1363
X40.4944 Z-3.1393
X40.3977 Z-3.1423
X40.3009 Z-3.1454
X40.2041 Z-3.1485
X40.1073 Z-3.1516
X40.0105 Z-3.1547
X39.9137 Z-3.1578
X39.8169 Z-3.161
X39.7201 Z-3.1642
X39.6234 Z-3.1674
X39.5266 Z-3.1706
X39.4298 Z-3.1739
X39.333 Z-3.1772
X39.2362 Z-3.1805
X39.1394 Z-3.1838
X39.0426 Z-3.1871
X38.8491 Z-3.1939
X38.7523 Z-3.1972
X38.6555 Z-3.2006
X38.5587 Z-3.204
X38.4619 Z-3.2074
X38.3651 Z-3.2108
X38.2683 Z-3.2141
X38.1715 Z-3.2175
X38.0748 Z-3.2209
X37.978 Z-3.2243
X37.8812 Z-3.2277
X37.7844 Z-3.231
X37.6876 Z-3.2344
X37.494 Z-3.2412
X37.2037 Z-3.2513
X36.9133 Z-3.2614
X36.6229 Z-3.2716
X36.3326 Z-3.2817
X36.0422 Z-3.2919
X35.7519 Z-3.302
X35.4615 Z-3.3121
X35.1711 Z-3.3223
X34.8808 Z-3.3324
X34.5904 Z-3.3426
X34.1065 Z-3.3595
X33.6225 Z-3.3764
X33.1386 Z-3.3933
X33.0418 Z-3.3966
X32.945 Y72.3516 Z-3.4
X32.8968 Y72.3556 Z-3.4017
X32.8489 Y72.3621 Z-3.4034
X32.8013 Y72.371 Z-3.4051
X32.7542 Y72.3823 Z-3.4068
X32.7078 Y72.396 Z-3.4085
X32.6622 Y72.4121 Z-3.4101
X32.6174 Y72.4304 Z-3.4118
X32.5736 Y72.451 Z-3.4135
X32.5309 Y72.4739 Z-3.4152
X32.4895 Y72.4988 Z-3.4169
X32.4493 Y72.5259 Z-3.4186
X32.4106 Y72.5549 Z-3.4203
X32.3734 Y72.5859 Z-3.4219
X32.3379 Y72.6187 Z-3.4236
X32.304 Y72.6533 Z-3.4253
X32.272 Y72.6896 Z-3.427
X32.2419 Y72.7275 Z-3.4287
X32.2137 Y72.7668 Z-3.4304
X32.1876 Y72.8076 Z-3.4321
X32.1636 Y72.8496 Z-3.4338
X32.1417 Y72.8928 Z-3.4354
X32.1221 Y72.937 Z-3.4371
X32.1047 Y72.9822 Z-3.4388
X32.0897 Y73.0282 Z-3.4405
X32.077 Y73.0749 Z-3.4422
X32.0668 Y73.1222 Z-3.4439
X32.0589 Y73.1699 Z-3.4456
X32.0535 Y73.218 Z-3.4473
X32.05 Y73.3148 Z-3.4506
Y76.0248 Z-3.5453
Y77.4766 Z-3.5959
Y78.1541 Z-3.6196
Y78.638 Z-3.6365
Y79.122 Z-3.6534
Y79.6059 Z-3.6703
Y79.8963 Z-3.6804
Y80.1866 Z-3.6906
Y80.477 Z-3.7007
Y80.7674 Z-3.7108
Y81.0577 Z-3.721
Y81.3481 Z-3.7311
Y81.6385 Z-3.7413
Y81.9288 Z-3.7514
Y82.2192 Z-3.7615
Y82.316 Z-3.7649
Y82.4128 Z-3.7683
Y82.5095 Z-3.7717
Y82.6063 Z-3.7751
Y82.7031 Z-3.7784
Y82.7999 Z-3.7818
Y82.8967 Z-3.7852
Y82.9935 Z-3.7886
Y83.0903 Z-3.7919
Y83.187 Z-3.7953
Y83.2838 Z-3.7987
Y83.3806 Z-3.8021
Y83.4774 Z-3.8055
Y83.5742 Z-3.8088
Y83.671 Z-3.8122
Y83.7678 Z-3.8156
Y83.8646 Z-3.8189
Y83.9613 Z-3.8222
Y84.0581 Z-3.8255
Y84.1549 Z-3.8287
Y84.2517 Z-3.832
Y84.3485 Z-3.8352
Y84.4453 Z-3.8384
Y84.5421 Z-3.8415
Y84.6389 Z-3.8447
Y84.7356 Z-3.8478
Y84.8324 Z-3.8509
Y84.9292 Z-3.854
Y85.026 Z-3.857
Y85.1228 Z-3.8601
Y85.2196 Z-3.8631
Y85.3164 Z-3.8661
Y85.4132 Z-3.869
Y85.5099 Z-3.8719
Y85.6067 Z-3.8748
Y85.7035 Z-3.8777
Y85.8003 Z-3.8806
Y85.8971 Z-3.8834
Y85.9939 Z-3.8862
Y86.0907 Z-3.8889
Y86.1875 Z-3.8917
Y86.2842 Z-3.8944
Y86.381 Z-3.8971
Y86.4778 Z-3.8997
Y86.5746 Z-3.9024
Y86.6714 Z-3.905
Y86.7682 Z-3.9075
Y86.865 Z-3.9101
Y86.9618 Z-3.9126
Y87.1553 Z-3.9175
Y87.3489 Z-3.9223
Y87.5425 Z-3.927
Y87.7361 Z-3.9316
Y87.9296 Z-3.936
Y88.1232 Z-3.9403
Y88.3168 Z-3.9445
Y88.5104 Z-3.9485
Y88.7039 Z-3.9524
Y88.8975 Z-3.9562
Y89.0911 Z-3.9598
Y89.2847 Z-3.9633
Y89.4782 Z-3.9667
Y89.6718 Z-3.9699
Y89.8654 Z-3.9729
Y90.059 Z-3.9758
Y90.2525 Z-3.9785
Y90.4461 Z-3.9811
Y90.6397 Z-3.9836
Y90.8333 Z-3.9858
Y91.0268 Z-3.9879
Y91.2204 Z-3.9899
Y91.414 Z-3.9917
Y91.6076 Z-3.9933
Y91.8011 Z-3.9947
Y91.9947 Z-3.996
Y92.1883 Z-3.9971
Y92.3819 Z-3.9981
Y92.5754 Z-3.9988
Y92.769 Z-3.9994
Y92.9626 Z-3.9998
Y93.1562 Z-4
Y93.2721
Y103.956
X32.0523 Y104.0661
X32.0578 Y104.1212
X32.0665 Y104.1762
X32.0691 Y104.1897
X32.0803 Y104.238
X32.0942 Y104.2863
X32.1134 Y104.3414
X32.1367 Y104.3964
X32.1567 Y104.4374
X32.1793 Y104.4784
X32.1963 Y104.5065
X32.2337 Y104.5616
X32.2773 Y104.6166
X32.2894 Y104.6305
X32.3388 Y104.6821
X32.3881 Y104.7267
X32.3995 Y104.7361
X32.4546 Y104.7778
X32.5096 Y104.8137
X32.5503 Y104.8368
X32.6198 Y104.8706
X32.6748 Y104.8926
X32.7299 Y104.9108
X32.7849 Y104.9253
X32.84 Y104.9364
X32.8817 Y104.9426
X32.9234 Y104.9469
X32.9501 Y104.9487
X33.0602 Y104.95
X40.0484
X40.05 Y104.9517
Y128.398
Y128.5081
X40.0521 Y128.5631
X40.0574 Y128.6182
X40.0659 Y128.6732
X40.0778 Y128.7283
X40.0915 Y128.7777
X40.1081 Y128.8272
X40.1123 Y128.8384
X40.1353 Y128.8934
X40.1625 Y128.9485
X40.1886 Y128.9941
X40.2182 Y129.0398
X40.2316 Y129.0586
X40.2748 Y129.1136
X40.3252 Y129.1687
X40.3284 Y129.1719
X40.3834 Y129.2227
X40.4385 Y129.2663
X40.4559 Y129.2788
X40.5023 Y129.3092
X40.5486 Y129.3359
X40.6037 Y129.3634
X40.6587 Y129.3866
X40.6647 Y129.3889
X40.7168 Y129.4068
X40.7689 Y129.4214
X40.8239 Y129.4335
X40.879 Y129.4423
X40.934 Y129.4477
X40.9891 Y129.4499
X41.0992 Y129.45
X310.9008
X311.0109 Y129.4499
X311.066 Y129.4477
X311.121 Y129.4423
X311.1761 Y129.4335
X311.2312 Y129.4214
X311.2832 Y129.4068
X311.3353 Y129.3889
X311.3413 Y129.3866
X311.3963 Y129.3634
X311.4514 Y129.3359
X311.4977 Y129.3092
X311.5441 Y129.2788
X311.5615 Y129.2663
X311.6166 Y129.2227
X311.6717 Y129.1718
X311.6748 Y129.1687
X311.7253 Y129.1136
X311.7684 Y129.0586
X311.7818 Y129.0397
X311.8114 Y128.9941
X311.8375 Y128.9485
X311.8647 Y128.8934
X311.8877 Y128.8384
X311.8919 Y128.8271
X311.9085 Y128.7777
X311.9222 Y128.7283
X311.9341 Y128.6732
X311.9426 Y128.6182
X311.9479 Y128.5631
X311.95 Y128.5081
Y128.398
Y104.9517
X311.9516 Y104.95
X318.9398
X319.0499 Y104.9487
X319.0767 Y104.9469
X319.1183 Y104.9426
X319.16 Y104.9364
X319.2151 Y104.9253
X319.2701 Y104.9108
X319.3252 Y104.8926
X319.3803 Y104.8706
X319.4497 Y104.8368
X319.4904 Y104.8137
X319.5454 Y104.7778
X319.6005 Y104.7361
X319.6119 Y104.7267
X319.6613 Y104.6821
X319.7106 Y104.6305
X319.7227 Y104.6166
X319.7663 Y104.5616
X319.8037 Y104.5065
X319.8208 Y104.4784
X319.8433 Y104.4374
X319.8633 Y104.3964
X319.8866 Y104.3414
X319.9059 Y104.2863
X319.9197 Y104.238
X319.9309 Y104.1897
X319.9335 Y104.1762
X319.9423 Y104.1212
X319.9477 Y104.0661
X319.95 Y103.956
Y79.0737
X319.9493 Y78.9636
X319.9456 Y78.9085
X319.9386 Y78.8535
X319.9309 Y78.8103
X319.9147 Y78.7434
X319.8974 Y78.6883
X319.8764 Y78.6333
X319.8512 Y78.5782
X319.8217 Y78.5232
X319.8208 Y78.5216
X319.7866 Y78.4673
X319.747 Y78.4131
X319.7106 Y78.3695
X319.6797 Y78.3363
X319.6455 Y78.303
X319.6005 Y78.2639
X319.5508 Y78.226
X319.501 Y78.1929
X319.4904 Y78.1864
X319.4353 Y78.1556
X319.3803 Y78.1294
X319.3252 Y78.1074
X319.2701 Y78.0892
X319.2473 Y78.0828
X319.2037 Y78.0721
X319.16 Y78.0636
X319.1049 Y78.0558
X319.0499 Y78.0513
X318.9398 Y78.05
X301.0998
X300.9897 Y78.0499
X300.8796 Y78.0474
X300.7695 Y78.0413
X300.6593 Y78.0305
X300.5492 Y78.0161
X300.4391 Y77.9977
X300.329 Y77.9754
X300.3174 Y77.9727
X300.2188 Y77.9475
X300.1087 Y77.9163
X299.9986 Y77.8809
X299.9478 Y77.8626
X299.8885 Y77.8396
X299.7784 Y77.7944
X299.686 Y77.7525
X299.6682 Y77.7439
X299.5581 Y77.6873
X299.4771 Y77.6424
X299.448 Y77.6252
X299.3379 Y77.5569
X299.3008 Y77.5323
X299.2278 Y77.4822
X299.1467 Y77.4222
X299.1176 Y77.3994
X299.0114 Y77.3121
X299.0075 Y77.3087
X298.8974 Y77.2088
X298.8903 Y77.202
X298.7873 Y77.0985
X298.7809 Y77.0919
X298.6821 Y76.9818
X298.6771 Y76.9759
X298.5923 Y76.8717
X298.567 Y76.8395
X298.5104 Y76.7616
X298.4569 Y76.6829
X298.4361 Y76.6515
X298.3685 Y76.5414
X298.3468 Y76.5036
X298.3072 Y76.4313
X298.2509 Y76.3212
X298.2366 Y76.2904
X298.201 Y76.2111
X298.1563 Y76.101
X298.1265 Y76.0224
X298.1155 Y75.9909
X298.0806 Y75.8808
X298.0497 Y75.7707
X298.0223 Y75.6606
X298.0164 Y75.6331
X298.0004 Y75.5505
X297.9825 Y75.4404
X297.9683 Y75.3303
X297.958 Y75.2202
X297.9522 Y75.1101
X297.95 Y75
Y74.8899
Y52.0994
X297.9502 Y51.9893
X297.9526 Y51.8792
X297.9587 Y51.7691
X297.9695 Y51.659
X297.984 Y51.5489
X298.0023 Y51.4388
X298.0164 Y51.3669
X298.0247 Y51.3287
X298.0525 Y51.2186
X298.0837 Y51.1085
X298.1192 Y50.9984
X298.1265 Y50.9776
X298.1605 Y50.8883
X298.2057 Y50.7782
X298.2366 Y50.7096
X298.2562 Y50.6681
X298.3127 Y50.558
X298.3468 Y50.4964
X298.3748 Y50.4479
X298.4431 Y50.3378
X298.4569 Y50.3171
X298.5178 Y50.2277
X298.567 Y50.1605
X298.6006 Y50.1176
X298.6771 Y50.0241
X298.6913 Y50.0075
X298.7873 Y49.9015
X298.7911 Y49.8974
X298.8974 Y49.7912
X298.9014 Y49.7873
X299.0075 Y49.6913
X299.0239 Y49.6772
X299.1176 Y49.6006
X299.1602 Y49.5672
X299.2278 Y49.5178
X299.3168 Y49.4571
X299.3379 Y49.4431
X299.448 Y49.3748
X299.496 Y49.347
X299.5581 Y49.3127
X299.6682 Y49.2561
X299.7091 Y49.2369
X299.7784 Y49.2056
X299.8885 Y49.1595
X299.9769 Y49.1268
X299.9986 Y49.1191
X300.1087 Y49.0837
X300.2188 Y49.0525
X300.329 Y49.0246
X300.3657 Y49.0167
X300.4391 Y49.0023
X300.5492 Y48.9839
X300.6593 Y48.9695
X300.7695 Y48.9587
X300.8796 Y48.9526
X300.9897 Y48.9501
X301.0998 Y48.95
X318.9398
X319.0499 Y48.9487
X319.1049 Y48.9442
X319.16 Y48.9364
X319.2151 Y48.9253
X319.2701 Y48.9108
X319.284 Y48.9066
X319.3321 Y48.89
X319.3803 Y48.8706
X319.4353 Y48.8444
X319.4904 Y48.8136
X319.5178 Y48.7965
X319.5592 Y48.768
X319.6005 Y48.7361
X319.6568 Y48.6864
X319.7106 Y48.6305
X319.7552 Y48.5763
X319.7902 Y48.5273
X319.8208 Y48.4784
X319.8278 Y48.4662
X319.8564 Y48.4111
X319.8808 Y48.3561
X319.9011 Y48.301
X319.9176 Y48.246
X319.9309 Y48.1897
X319.9402 Y48.1359
X319.9466 Y48.0808
X319.9497 Y48.0258
X319.95 Y47.9157
Y29.9525
X319.9514 Y29.95
X325.7674
X325.8775 Y29.9468
X325.9326 Y29.9407
X325.9876 Y29.9313
X326.0427 Y29.9185
X326.0978 Y29.9021
X326.1513 Y29.8827
X326.2048 Y29.8594
X326.2079 Y29.858
X326.263 Y29.8296
X326.318 Y29.7963
X326.3839 Y29.7493
X326.4282 Y29.7127
X326.4655 Y29.678
X326.5027 Y29.6392
X326.5383 Y29.5979
X326.5648 Y29.5635
X326.589 Y29.5292
X326.6208 Y29.4783
X326.6484 Y29.4275
X326.6526 Y29.4191
X326.6775 Y29.364
X326.6984 Y29.309
X326.7155 Y29.2539
X326.7289 Y29.1989
X326.739 Y29.1438
X326.7458 Y29.0888
X326.7494 Y29.0337
X326.75 Y28.9787
Y28.208
X326.7488 Y28.1529
X326.7445 Y28.0979
X326.7369 Y28.0428
X326.726 Y27.9878
X326.7116 Y27.9327
X326.6936 Y27.8777
X326.6729 Y27.8251
X326.6484 Y27.7725
X326.6459 Y27.7676
X326.6154 Y27.7125
X326.5798 Y27.6575
X326.5383 Y27.6021
X326.4904 Y27.5474
X326.4593 Y27.516
X326.4282 Y27.4873
X326.3663 Y27.4373
X326.318 Y27.4037
X326.263 Y27.3704
X326.2079 Y27.342
X326.1751 Y27.3272
X326.0978 Y27.2979
X326.0427 Y27.2815
X325.9876 Y27.2687
X325.9326 Y27.2593
X325.8775 Y27.2532
X325.7674 Y27.25
X246.0383
X245.9282 Y27.2527
X245.8731 Y27.2585
X245.8181 Y27.2676
X245.763 Y27.28
X245.7079 Y27.296
X245.6664 Y27.3105
X245.6249 Y27.3272
X245.5978 Y27.3393
X245.5427 Y27.3673
X245.4877 Y27.4
X245.4337 Y27.4373
X245.3776 Y27.4823
X245.3436 Y27.5132
X245.3096 Y27.5474
X245.2674 Y27.5951
X245.2202 Y27.6575
X245.1865 Y27.7094
X245.1573 Y27.7614
X245.1541 Y27.7676
X245.1282 Y27.8226
X245.1064 Y27.8777
X245.0884 Y27.9327
X245.074 Y27.9878
X245.0631 Y28.0428
X245.0555 Y28.0979
X245.0512 Y28.1529
X245.05 Y28.208
Y85.048
X245.0486 Y85.05
X161.952
X161.95 Y85.048
Y28.208
X161.9488 Y28.1529
X161.9445 Y28.0979
X161.9369 Y28.0428
X161.926 Y27.9878
X161.9043 Y27.9088
X161.8936 Y27.8777
X161.8718 Y27.8226
X161.8459 Y27.7676
X161.8216 Y27.7231
X161.7941 Y27.6786
X161.7798 Y27.6575
X161.7385 Y27.6024
X161.6904 Y27.5474
X161.684 Y27.5407
X161.629 Y27.488
X161.5739 Y27.4429
X161.5663 Y27.4373
X161.5151 Y27.4017
X161.4638 Y27.3709
X161.4194 Y27.3476
X161.3751 Y27.3272
X161.3536 Y27.3183
X161.2986 Y27.2981
X161.2435 Y27.2817
X161.1885 Y27.2689
X161.1334 Y27.2594
X161.0783 Y27.2532
X161.0233 Y27.2503
X160.9131 Y27.25
X26.2326
X26.1225 Y27.2532
X26.0674 Y27.2593
X26.0124 Y27.2687
X25.9573 Y27.2815
X25.9022 Y27.2979
X25.8249 Y27.3272
X25.7921 Y27.342
X25.7371 Y27.3704
X25.682 Y27.4037
X25.6337 Y27.4373
X25.5719 Y27.4873
X25.5408 Y27.516
X25.5097 Y27.5474
X25.4618 Y27.6021
X25.4202 Y27.6575
X25.3846 Y27.7125
X25.3541 Y27.7676
X25.3516 Y27.7725
X25.3271 Y27.8251
X25.3064 Y27.8777
X25.2884 Y27.9327
X25.274 Y27.9878
X25.2631 Y28.0428
X25.2555 Y28.0979
X25.2512 Y28.1529
X25.25 Y28.208
Y28.9787
X25.2506 Y29.0337
X25.2542 Y29.0888
X25.261 Y29.1438
X25.2711 Y29.1989
X25.2846 Y29.2539
X25.3016 Y29.309
X25.3225 Y29.364
X25.3474 Y29.4191
X25.3516 Y29.4275
X25.3792 Y29.4783
X25.411 Y29.5292
X25.4352 Y29.5635
X25.4618 Y29.5979
X25.4972 Y29.6392
X25.5346 Y29.678
X25.5719 Y29.7127
X25.6161 Y29.7493
X25.682 Y29.7964
X25.7371 Y29.8296
X25.7921 Y29.858
X25.7952 Y29.8594
X25.8487 Y29.8827
X25.9022 Y29.9021
X25.9573 Y29.9185
X26.0124 Y29.9313
X26.0674 Y29.9407
X26.1225 Y29.9468
X26.2326 Y29.95
X32.0486
X32.05 Y29.9525
Y51.5489
X32.0518 Y51.659
X32.0569 Y51.7141
X32.0652 Y51.7691
X32.0691 Y51.7897
X32.0794 Y51.8345
X32.092 Y51.8792
X32.1108 Y51.9343
X32.1334 Y51.9893
X32.1549 Y52.0339
X32.1793 Y52.0784
X32.1919 Y52.0994
X32.2286 Y52.1545
X32.2713 Y52.2095
X32.2894 Y52.2305
X32.3346 Y52.278
X32.3798 Y52.3196
X32.3995 Y52.3361
X32.4546 Y52.3778
X32.5096 Y52.4136
X32.5373 Y52.4297
X32.5786 Y52.4514
X32.6198 Y52.4706
X32.6748 Y52.4926
X32.7299 Y52.5108
X32.7849 Y52.5253
X32.84 Y52.5364
X32.8614 Y52.5398
X32.9058 Y52.5453
X32.9501 Y52.5487
X33.0602 Y52.55
X51.0103
X51.1204 Y52.5504
X51.2306 Y52.5548
X51.3407 Y52.566
X51.4508 Y52.5842
X51.5609 Y52.6089
X51.671 Y52.6405
X51.6988 Y52.6499
X51.7812 Y52.6805
X51.8913 Y52.7279
X51.9561 Y52.76
X52.0014 Y52.7847
X52.1115 Y52.8514
X52.1394 Y52.8701
X52.2217 Y52.929
X52.2859 Y52.9802
X52.3318 Y53.0201
X52.4061 Y53.0903
X52.4419 Y53.1272
X52.5083 Y53.2004
X52.552 Y53.2537
X52.5948 Y53.3105
X52.6622 Y53.4094
X52.6692 Y53.4206
X52.7327 Y53.5307
X52.7723 Y53.609
X52.7871 Y53.6408
X52.8322 Y53.7509
X52.8695 Y53.861
X52.8824 Y53.9054
X52.8994 Y53.9711
X52.9222 Y54.0812
X52.938 Y54.1913
X52.9472 Y54.3014
X52.95 Y54.4115
Y70.4859
X52.9474 Y70.596
X52.9383 Y70.7061
X52.9226 Y70.8162
X52.9 Y70.9263
X52.8824 Y70.9946
X52.8702 Y71.0364
X52.8332 Y71.1465
X52.7882 Y71.2566
X52.7723 Y71.291
X52.734 Y71.3667
X52.6708 Y71.4768
X52.6622 Y71.4906
X52.5966 Y71.5869
X52.552 Y71.6463
X52.5105 Y71.697
X52.4419 Y71.7728
X52.4086 Y71.8071
X52.3318 Y71.8799
X52.289 Y71.9172
X52.2217 Y71.971
X52.1431 Y72.0273
X52.1115 Y72.0485
X52.0014 Y72.1153
X51.9609 Y72.1374
X51.8913 Y72.1721
X51.7812 Y72.2195
X51.7061 Y72.2475
X51.671 Y72.2595
X51.5609 Y72.2911
X51.4508 Y72.3157
X51.3407 Y72.334
X51.2306 Y72.3452
X51.1204 Y72.3496
X51.0103 Y72.35
X33.0602
X32.9501 Y72.3513
X32.8797 Y72.3576
X32.84 Y72.3635
X32.7849 Y72.3746
X32.7299 Y72.3892
X32.6748 Y72.4074
X32.6198 Y72.4294
X32.5808 Y72.4475
X32.5419 Y72.4677
X32.5096 Y72.4863
X32.4546 Y72.5222
X32.3995 Y72.5638
X32.3827 Y72.5778
X32.3361 Y72.6205
X32.2894 Y72.6695
X32.2734 Y72.6879
X32.2304 Y72.743
X32.1934 Y72.798
X32.1793 Y72.8215
X32.1555 Y72.8648
X32.1346 Y72.9081
X32.1117 Y72.9632
X32.0927 Y73.0182
X32.0797 Y73.0642
X32.0691 Y73.1103
X32.0656 Y73.1283
X32.0572 Y73.1834
X32.052 Y73.2384
X32.05 Y73.3485
Y93.2721
Y93.4657 Z-4.0001
Y93.6593 Z-4.0004
Y93.8529 Z-4.0008
Y94.0464 Z-4.0015
Y94.24 Z-4.0023
Y94.4336 Z-4.0033
Y94.6272 Z-4.0045
Y94.8207 Z-4.0058
Y95.0143 Z-4.0073
Y95.2079 Z-4.009
Y95.4015 Z-4.0109
Y95.595 Z-4.0129
Y95.7886 Z-4.0151
Y95.9822 Z-4.0174
Y96.1758 Z-4.0199
Y96.3693 Z-4.0225
Y96.5629 Z-4.0253
Y96.7565 Z-4.0283
Y96.9501 Z-4.0314
Y97.1436 Z-4.0347
Y97.3372 Z-4.0381
Y97.5308 Z-4.0416
Y97.7243 Z-4.0453
Y97.9179 Z-4.0491
Y98.1115 Z-4.0531
Y98.3051 Z-4.0572
Y98.4986 Z-4.0614
Y98.6922 Z-4.0658
Y98.8858 Z-4.0702
Y99.0794 Z-4.0749
Y99.2729 Z-4.0796
Y99.4665 Z-4.0845
Y99.6601 Z-4.0894
Y99.7569 Z-4.092
Y99.8537 Z-4.0945
Y99.9505 Z-4.0971
Y100.0472 Z-4.0997
Y100.144 Z-4.1024
Y100.2408 Z-4.1051
Y100.3376 Z-4.1078
Y100.4344 Z-4.1105
Y100.5312 Z-4.1133
Y100.628 Z-4.1161
Y100.7248 Z-4.1189
Y100.8215 Z-4.1217
Y100.9183 Z-4.1246
Y101.0151 Z-4.1275
Y101.1119 Z-4.1304
Y101.2087 Z-4.1334
Y101.3055 Z-4.1363
Y101.4023 Z-4.1393
Y101.4991 Z-4.1423
Y101.5958 Z-4.1454
Y101.6926 Z-4.1485
Y101.7894 Z-4.1516
Y101.8862 Z-4.1547
Y101.983 Z-4.1578
Y102.0798 Z-4.161
Y102.1766 Z-4.1642
Y102.2734 Z-4.1674
Y102.3701 Z-4.1706
Y102.4669 Z-4.1739
Y102.5637 Z-4.1772
Y102.6605 Z-4.1805
Y102.7573 Z-4.1838
Y102.8541 Z-4.1871
Y103.0477 Z-4.1939
Y103.1444 Z-4.1972
Y103.2412 Z-4.2006
Y103.338 Z-4.204
Y103.4348 Z-4.2074
Y103.5316 Z-4.2108
Y103.6284 Z-4.2141
Y103.7252 Z-4.2175
Y103.822 Z-4.2209
Y103.9187 Z-4.2243
X32.0501 Y104.0155 Z-4.2276
X32.0522 Y104.0639 Z-4.2293
X32.0566 Y104.1121 Z-4.231
X32.0636 Y104.16 Z-4.2327
X32.0729 Y104.2075 Z-4.2344
X32.0847 Y104.2544 Z-4.2361
X32.0988 Y104.3007 Z-4.2378
X32.1153 Y104.3462 Z-4.2395
X32.1341 Y104.3908 Z-4.2411
X32.1551 Y104.4344 Z-4.2428
X32.1783 Y104.4768 Z-4.2445
X32.2037 Y104.5181 Z-4.2462
X32.2311 Y104.5579 Z-4.2479
X32.2605 Y104.5964 Z-4.2496
X32.2919 Y104.6333 Z-4.2513
X32.325 Y104.6685 Z-4.253
X32.3599 Y104.702 Z-4.2546
X32.3965 Y104.7337 Z-4.2563
X32.4347 Y104.7635 Z-4.258
X32.4743 Y104.7913 Z-4.2597
X32.5153 Y104.817 Z-4.2614
X32.5575 Y104.8407 Z-4.2631
X32.6009 Y104.8621 Z-4.2648
X32.6453 Y104.8813 Z-4.2665
X32.6907 Y104.8982 Z-4.2681
X32.7368 Y104.9128 Z-4.2698
X32.7836 Y104.925 Z-4.2715
X32.831 Y104.9349 Z-4.2732
X32.8789 Y104.9422 Z-4.2749
X32.927 Y104.9472 Z-4.2766
X32.9753 Y104.9497 Z-4.2783
X33.0721 Y104.95 Z-4.2816
X33.3625 Z-4.2918
X33.6528 Z-4.3019
X33.9432 Z-4.3121
X34.2336 Z-4.3222
X34.5239 Z-4.3323
X34.8143 Z-4.3425
X35.2982 Z-4.3594
X35.7822 Z-4.3763
X36.2661 Z-4.3932
X36.9436 Z-4.4168
X37.8147 Z-4.4473
X39.2665 Z-4.4979
X39.944 Z-4.5216
X40.034 Z-4.524
X40.0464 Z-4.5242
X40.05 Y104.9523 Z-4.5243
Y104.9684 Z-4.5246
Y104.9928 Z-4.5252
Y105.0386 Z-4.5264
Y107.2647 Z-4.6041
Y107.9422 Z-4.6278
Y108.4261 Z-4.6447
Y108.9101 Z-4.6616
Y109.2004 Z-4.6717
Y109.4908 Z-4.6819
Y109.7811 Z-4.692
Y110.0715 Z-4.7021
Y110.3619 Z-4.7123
Y110.6522 Z-4.7224
Y110.9426 Z-4.7326
Y111.233 Z-4.7427
Y111.5233 Z-4.7528
Y111.8137 Z-4.763
Y111.9105 Z-4.7664
Y112.0073 Z-4.7697
Y112.104 Z-4.7731
Y112.2008 Z-4.7765
Y112.2976 Z-4.7799
Y112.3944 Z-4.7832
Y112.4912 Z-4.7866
Y112.588 Z-4.79
Y112.6848 Z-4.7934
Y112.7816 Z-4.7968
Y112.8783 Z-4.8001
Y112.9751 Z-4.8035
Y113.0719 Z-4.8069
Y113.2655 Z-4.8136
Y113.3623 Z-4.817
Y113.4591 Z-4.8203
Y113.5559 Z-4.8236
Y113.6526 Z-4.8269
Y113.7494 Z-4.8301
Y113.8462 Z-4.8333
Y113.943 Z-4.8365
Y114.0398 Z-4.8397
Y114.1366 Z-4.8429
Y114.2334 Z-4.846
Y114.3301 Z-4.8491
Y114.4269 Z-4.8522
Y114.5237 Z-4.8553
Y114.6205 Z-4.8583
Y114.7173 Z-4.8614
Y114.8141 Z-4.8643
Y114.9109 Z-4.8673
Y115.0077 Z-4.8703
Y115.1044 Z-4.8732
Y115.2012 Z-4.8761
Y115.298 Z-4.8789
Y115.3948 Z-4.8818
Y115.4916 Z-4.8846
Y115.5884 Z-4.8873
Y115.6852 Z-4.8901
Y115.782 Z-4.8928
Y115.8787 Z-4.8955
Y115.9755 Z-4.8982
Y116.0723 Z-4.9008
Y116.1691 Z-4.9035
Y116.2659 Z-4.9061
Y116.3627 Z-4.9086
Y116.4595 Z-4.9111
Y116.653 Z-4.9161
Y116.8466 Z-4.921
Y117.0402 Z-4.9257
Y117.2338 Z-4.9303
Y117.4273 Z-4.9347
Y117.6209 Z-4.9391
Y117.8145 Z-4.9433
Y118.0081 Z-4.9474
Y118.2016 Z-4.9513
Y118.3952 Z-4.9551
Y118.5888 Z-4.9588
Y118.7824 Z-4.9623
Y118.9759 Z-4.9657
Y119.1695 Z-4.9689
Y119.3631 Z-4.972
Y119.5567 Z-4.975
Y119.7502 Z-4.9778
Y119.9438 Z-4.9804
Y120.1374 Z-4.9829
Y120.331 Z-4.9852
Y120.5245 Z-4.9874
Y120.7181 Z-4.9894
Y120.9117 Z-4.9912
Y121.1053 Z-4.9928
Y121.2988 Z-4.9943
Y121.4924 Z-4.9957
Y121.686 Z-4.9968
Y121.8796 Z-4.9978
Y122.0731 Z-4.9986
Y122.2667 Z-4.9992
Y122.4603 Z-4.9997
Y122.6539 Z-4.9999
Y122.8256 Z-5
Y128.398
Y128.5081
X40.0521 Y128.5631
X40.0574 Y128.6182
X40.0659 Y128.6732
X40.0778 Y128.7283
X40.0915 Y128.7777
X40.1081 Y128.8272
X40.1123 Y128.8384
X40.1353 Y128.8934
X40.1625 Y128.9485
X40.1886 Y128.9941
X40.2182 Y129.0398
X40.2316 Y129.0586
X40.2748 Y129.1136
X40.3252 Y129.1687
X40.3284 Y129.1719
X40.3834 Y129.2227
X40.4385 Y129.2663
X40.4559 Y129.2788
X40.5023 Y129.3092
X40.5486 Y129.3359
X40.6037 Y129.3634
X40.6587 Y129.3866
X40.6647 Y129.3889
X40.7168 Y129.4068
X40.7689 Y129.4214
X40.8239 Y129.4335
X40.879 Y129.4423
X40.934 Y129.4477
X40.9891 Y129.4499
X41.0992 Y129.45
X310.9008
X311.0109 Y129.4499
X311.066 Y129.4477
X311.121 Y129.4423
X311.1761 Y129.4335
X311.2312 Y129.4214
X311.2832 Y129.4068
X311.3353 Y129.3889
X311.3413 Y129.3866
X311.3963 Y129.3634
X311.4514 Y129.3359
X311.4977 Y129.3092
X311.5441 Y129.2788
X311.5615 Y129.2663
X311.6166 Y129.2227
X311.6717 Y129.1718
X311.6748 Y129.1687
X311.7253 Y129.1136
X311.7684 Y129.0586
X311.7818 Y129.0397
X311.8114 Y128.9941
X311.8375 Y128.9485
X311.8647 Y128.8934
X311.8877 Y128.8384
X311.8919 Y128.8271
X311.9085 Y128.7777
X311.9222 Y128.7283
X311.9341 Y128.6732
X311.9426 Y128.6182
X311.9479 Y128.5631
X311.95 Y128.5081
Y128.398
Y104.9517
X311.9516 Y104.95
X318.9398
X319.0499 Y104.9487
X319.0767 Y104.9469
X319.1183 Y104.9426
X319.16 Y104.9364
X319.2151 Y104.9253
X319.2701 Y104.9108
X319.3252 Y104.8926
X319.3803 Y104.8706
X319.4497 Y104.8368
X319.4904 Y104.8137
X319.5454 Y104.7778
X319.6005 Y104.7361
X319.6119 Y104.7267
X319.6613 Y104.6821
X319.7106 Y104.6305
X319.7227 Y104.6166
X319.7663 Y104.5616
X319.8037 Y104.5065
X319.8208 Y104.4784
X319.8433 Y104.4374
X319.8633 Y104.3964
X319.8866 Y104.3414
X319.9059 Y104.2863
X319.9197 Y104.238
X319.9309 Y104.1897
X319.9335 Y104.1762
X319.9423 Y104.1212
X319.9477 Y104.0661
X319.95 Y103.956
Y79.0737
X319.9493 Y78.9636
X319.9456 Y78.9085
X319.9386 Y78.8535
X319.9309 Y78.8103
X319.9147 Y78.7434
X319.8974 Y78.6883
X319.8764 Y78.6333
X319.8512 Y78.5782
X319.8217 Y78.5232
X319.8208 Y78.5216
X319.7866 Y78.4673
X319.747 Y78.4131
X319.7106 Y78.3695
X319.6797 Y78.3363
X319.6455 Y78.303
X319.6005 Y78.2639
X319.5508 Y78.226
X319.501 Y78.1929
X319.4904 Y78.1864
X319.4353 Y78.1556
X319.3803 Y78.1294
X319.3252 Y78.1074
X319.2701 Y78.0892
X319.2473 Y78.0828
X319.2037 Y78.0721
X319.16 Y78.0636
X319.1049 Y78.0558
X319.0499 Y78.0513
X318.9398 Y78.05
X301.0998
X300.9897 Y78.0499
X300.8796 Y78.0474
X300.7695 Y78.0413
X300.6593 Y78.0305
X300.5492 Y78.0161
X300.4391 Y77.9977
X300.329 Y77.9754
X300.3174 Y77.9727
X300.2188 Y77.9475
X300.1087 Y77.9163
X299.9986 Y77.8809
X299.9478 Y77.8626
X299.8885 Y77.8396
X299.7784 Y77.7944
X299.686 Y77.7525
X299.6682 Y77.7439
X299.5581 Y77.6873
X299.4771 Y77.6424
X299.448 Y77.6252
X299.3379 Y77.5569
X299.3008 Y77.5323
X299.2278 Y77.4822
X299.1467 Y77.4222
X299.1176 Y77.3994
X299.0114 Y77.3121
X299.0075 Y77.3087
X298.8974 Y77.2088
X298.8903 Y77.202
X298.7873 Y77.0985
X298.7809 Y77.0919
X298.6821 Y76.9818
X298.6771 Y76.9759
X298.5923 Y76.8717
X298.567 Y76.8395
X298.5104 Y76.7616
X298.4569 Y76.6829
X298.4361 Y76.6515
X298.3685 Y76.5414
X298.3468 Y76.5036
X298.3072 Y76.4313
X298.2509 Y76.3212
X298.2366 Y76.2904
X298.201 Y76.2111
X298.1563 Y76.101
X298.1265 Y76.0224
X298.1155 Y75.9909
X298.0806 Y75.8808
X298.0497 Y75.7707
X298.0223 Y75.6606
X298.0164 Y75.6331
X298.0004 Y75.5505
X297.9825 Y75.4404
X297.9683 Y75.3303
X297.958 Y75.2202
X297.9522 Y75.1101
X297.95 Y75
Y74.8899
Y52.0994
X297.9502 Y51.9893
X297.9526 Y51.8792
X297.9587 Y51.7691
X297.9695 Y51.659
X297.984 Y51.5489
X298.0023 Y51.4388
X298.0164 Y51.3669
X298.0247 Y51.3287
X298.0525 Y51.2186
X298.0837 Y51.1085
X298.1192 Y50.9984
X298.1265 Y50.9776
X298.1605 Y50.8883
X298.2057 Y50.7782
X298.2366 Y50.7096
X298.2562 Y50.6681
X298.3127 Y50.558
X298.3468 Y50.4964
X298.3748 Y50.4479
X298.4431 Y50.3378
X298.4569 Y50.3171
X298.5178 Y50.2277
X298.567 Y50.1605
X298.6006 Y50.1176
X298.6771 Y50.0241
X298.6913 Y50.0075
X298.7873 Y49.9015
X298.7911 Y49.8974
X298.8974 Y49.7912
X298.9014 Y49.7873
X299.0075 Y49.6913
X299.0239 Y49.6772
X299.1176 Y49.6006
X299.1602 Y49.5672
X299.2278 Y49.5178
X299.3168 Y49.4571
X299.3379 Y49.4431
X299.448 Y49.3748
X299.496 Y49.347
X299.5581 Y49.3127
X299.6682 Y49.2561
X299.7091 Y49.2369
X299.7784 Y49.2056
X299.8885 Y49.1595
X299.9769 Y49.1268
X299.9986 Y49.1191
X300.1087 Y49.0837
X300.2188 Y49.0525
X300.329 Y49.0246
X300.3657 Y49.0167
X300.4391 Y49.0023
X300.5492 Y48.9839
X300.6593 Y48.9695
X300.7695 Y48.9587
X300.8796 Y48.9526
X300.9897 Y48.9501
X301.0998 Y48.95
X318.9398
X319.0499 Y48.9487
X319.1049 Y48.9442
X319.16 Y48.9364
X319.2151 Y48.9253
X319.2701 Y48.9108
X319.284 Y48.9066
X319.3321 Y48.89
X319.3803 Y48.8706
X319.4353 Y48.8444
X319.4904 Y48.8136
X319.5178 Y48.7965
X319.5592 Y48.768
X319.6005 Y48.7361
X319.6568 Y48.6864
X319.7106 Y48.6305
X319.7552 Y48.5763
X319.7902 Y48.5273
X319.8208 Y48.4784
X319.8278 Y48.4662
X319.8564 Y48.4111
X319.8808 Y48.3561
X319.9011 Y48.301
X319.9176 Y48.246
X319.9309 Y48.1897
X319.9402 Y48.1359
X319.9466 Y48.0808
X319.9497 Y48.0258
X319.95 Y47.9157
Y29.9525
X319.9514 Y29.95
X325.7674
X325.8775 Y29.9468
X325.9326 Y29.9407
X325.9876 Y29.9313
X326.0427 Y29.9185
X326.0978 Y29.9021
X326.1513 Y29.8827
X326.2048 Y29.8594
X326.2079 Y29.858
X326.263 Y29.8296
X326.318 Y29.7963
X326.3839 Y29.7493
X326.4282 Y29.7127
X326.4655 Y29.678
X326.5027 Y29.6392
X326.5383 Y29.5979
X326.5648 Y29.5635
X326.589 Y29.5292
X326.6208 Y29.4783
X326.6484 Y29.4275
X326.6526 Y29.4191
X326.6775 Y29.364
X326.6984 Y29.309
X326.7155 Y29.2539
X326.7289 Y29.1989
X326.739 Y29.1438
X326.7458 Y29.0888
X326.7494 Y29.0337
X326.75 Y28.9787
Y28.208
X326.7488 Y28.1529
X326.7445 Y28.0979
X326.7369 Y28.0428
X326.726 Y27.9878
X326.7116 Y27.9327
X326.6936 Y27.8777
X326.6729 Y27.8251
X326.6484 Y27.7725
X326.6459 Y27.7676
X326.6154 Y27.7125
X326.5798 Y27.6575
X326.5383 Y27.6021
X326.4904 Y27.5474
X326.4593 Y27.516
X326.4282 Y27.4873
X326.3663 Y27.4373
X326.318 Y27.4037
X326.263 Y27.3704
X326.2079 Y27.342
X326.1751 Y27.3272
X326.0978 Y27.2979
X326.0427 Y27.2815
X325.9876 Y27.2687
X325.9326 Y27.2593
X325.8775 Y27.2532
X325.7674 Y27.25
X246.0383
X245.9282 Y27.2527
X245.8731 Y27.2585
X245.8181 Y27.2676
X245.763 Y27.28
X245.7079 Y27.296
X245.6664 Y27.3105
X245.6249 Y27.3272
X245.5978 Y27.3393
X245.5427 Y27.3673
X245.4877 Y27.4
X245.4337 Y27.4373
X245.3776 Y27.4823
X245.3436 Y27.5132
X245.3096 Y27.5474
X245.2674 Y27.5951
X245.2202 Y27.6575
X245.1865 Y27.7094
X245.1573 Y27.7614
X245.1541 Y27.7676
X245.1282 Y27.8226
X245.1064 Y27.8777
X245.0884 Y27.9327
X245.074 Y27.9878
X245.0631 Y28.0428
X245.0555 Y28.0979
X245.0512 Y28.1529
X245.05 Y28.208
Y85.048
X245.0486 Y85.05
X161.952
X161.95 Y85.048
Y28.208
X161.9488 Y28.1529
X161.9445 Y28.0979
X161.9369 Y28.0428
X161.926 Y27.9878
X161.9043 Y27.9088
X161.8936 Y27.8777
X161.8718 Y27.8226
X161.8459 Y27.7676
X161.8216 Y27.7231
X161.7941 Y27.6786
X161.7798 Y27.6575
X161.7385 Y27.6024
X161.6904 Y27.5474
X161.684 Y27.5407
X161.629 Y27.488
X161.5739 Y27.4429
X161.5663 Y27.4373
X161.5151 Y27.4017
X161.4638 Y27.3709
X161.4194 Y27.3476
X161.3751 Y27.3272
X161.3536 Y27.3183
X161.2986 Y27.2981
X161.2435 Y27.2817
X161.1885 Y27.2689
X161.1334 Y27.2594
X161.0783 Y27.2532
X161.0233 Y27.2503
X160.9131 Y27.25
X26.2326
X26.1225 Y27.2532
X26.0674 Y27.2593
X26.0124 Y27.2687
X25.9573 Y27.2815
X25.9022 Y27.2979
X25.8249 Y27.3272
X25.7921 Y27.342
X25.7371 Y27.3704
X25.682 Y27.4037
X25.6337 Y27.4373
X25.5719 Y27.4873
X25.5408 Y27.516
X25.5097 Y27.5474
X25.4618 Y27.6021
X25.4202 Y27.6575
X25.3846 Y27.7125
X25.3541 Y27.7676
X25.3516 Y27.7725
X25.3271 Y27.8251
X25.3064 Y27.8777
X25.2884 Y27.9327
X25.274 Y27.9878
X25.2631 Y28.0428
X25.2555 Y28.0979
X25.2512 Y28.1529
X25.25 Y28.208
Y28.9787
X25.2506 Y29.0337
X25.2542 Y29.0888
X25.261 Y29.1438
X25.2711 Y29.1989
X25.2846 Y29.2539
X25.3016 Y29.309
X25.3225 Y29.364
X25.3474 Y29.4191
X25.3516 Y29.4275
X25.3792 Y29.4783
X25.411 Y29.5292
X25.4352 Y29.5635
X25.4618 Y29.5979
X25.4972 Y29.6392
X25.5346 Y29.678
X25.5719 Y29.7127
X25.6161 Y29.7493
X25.682 Y29.7964
X25.7371 Y29.8296
X25.7921 Y29.858
X25.7952 Y29.8594
X25.8487 Y29.8827
X25.9022 Y29.9021
X25.9573 Y29.9185
X26.0124 Y29.9313
X26.0674 Y29.9407
X26.1225 Y29.9468
X26.2326 Y29.95
X32.0486
X32.05 Y29.9525
Y51.5489
X32.0518 Y51.659
X32.0569 Y51.7141
X32.0652 Y51.7691
X32.0691 Y51.7897
X32.0794 Y51.8345
X32.092 Y51.8792
X32.1108 Y51.9343
X32.1334 Y51.9893
X32.1549 Y52.0339
X32.1793 Y52.0784
X32.1919 Y52.0994
X32.2286 Y52.1545
X32.2713 Y52.2095
X32.2894 Y52.2305
X32.3346 Y52.278
X32.3798 Y52.3196
X32.3995 Y52.3361
X32.4546 Y52.3778
X32.5096 Y52.4136
X32.5373 Y52.4297
X32.5786 Y52.4514
X32.6198 Y52.4706
X32.6748 Y52.4926
X32.7299 Y52.5108
X32.7849 Y52.5253
X32.84 Y52.5364
X32.8614 Y52.5398
X32.9058 Y52.5453
X32.9501 Y52.5487
X33.0602 Y52.55
X51.0103
X51.1204 Y52.5504
X51.2306 Y52.5548
X51.3407 Y52.566
X51.4508 Y52.5842
X51.5609 Y52.6089
X51.671 Y52.6405
X51.6988 Y52.6499
X51.7812 Y52.6805
X51.8913 Y52.7279
X51.9561 Y52.76
X52.0014 Y52.7847
X52.1115 Y52.8514
X52.1394 Y52.8701
X52.2217 Y52.929
X52.2859 Y52.9802
X52.3318 Y53.0201
X52.4061 Y53.0903
X52.4419 Y53.1272
X52.5083 Y53.2004
X52.552 Y53.2537
X52.5948 Y53.3105
X52.6622 Y53.4094
X52.6692 Y53.4206
X52.7327 Y53.5307
X52.7723 Y53.609
X52.7871 Y53.6408
X52.8322 Y53.7509
X52.8695 Y53.861
X52.8824 Y53.9054
X52.8994 Y53.9711
X52.9222 Y54.0812
X52.938 Y54.1913
X52.9472 Y54.3014
X52.95 Y54.4115
Y70.4859
X52.9474 Y70.596
X52.9383 Y70.7061
X52.9226 Y70.8162
X52.9 Y70.9263
X52.8824 Y70.9946
X52.8702 Y71.0364
X52.8332 Y71.1465
X52.7882 Y71.2566
X52.7723 Y71.291
X52.734 Y71.3667
X52.6708 Y71.4768
X52.6622 Y71.4906
X52.5966 Y71.5869
X52.552 Y71.6463
X52.5105 Y71.697
X52.4419 Y71.7728
X52.4086 Y71.8071
X52.3318 Y71.8799
X52.289 Y71.9172
X52.2217 Y71.971
X52.1431 Y72.0273
X52.1115 Y72.0485
X52.0014 Y72.1153
X51.9609 Y72.1374
X51.8913 Y72.1721
X51.7812 Y72.2195
X51.7061 Y72.2475
X51.671 Y72.2595
X51.5609 Y72.2911
X51.4508 Y72.3157
X51.3407 Y72.334
X51.2306 Y72.3452
X51.1204 Y72.3496
X51.0103 Y72.35
X33.0602
X32.9501 Y72.3513
X32.8797 Y72.3576
X32.84 Y72.3635
X32.7849 Y72.3746
X32.7299 Y72.3892
X32.6748 Y72.4074
X32.6198 Y72.4294
X32.5808 Y72.4475
X32.5419 Y72.4677
X32.5096 Y72.4863
X32.4546 Y72.5222
X32.3995 Y72.5638
X32.3827 Y72.5778
X32.3361 Y72.6205
X32.2894 Y72.6695
X32.2734 Y72.6879
X32.2304 Y72.743
X32.1934 Y72.798
X32.1793 Y72.8215
X32.1555 Y72.8648
X32.1346 Y72.9081
X32.1117 Y72.9632
X32.0927 Y73.0182
X32.0797 Y73.0642
X32.0691 Y73.1103
X32.0656 Y73.1283
X32.0572 Y73.1834
X32.052 Y73.2384
X32.05 Y73.3485
Y93.2721
Y103.956
X32.0523 Y104.0661
X32.0578 Y104.1212
X32.0665 Y104.1762
X32.0691 Y104.1897
X32.0803 Y104.238
X32.0942 Y104.2863
X32.1134 Y104.3414
X32.1367 Y104.3964
X32.1567 Y104.4374
X32.1793 Y104.4784
X32.1963 Y104.5065
X32.2337 Y104.5616
X32.2773 Y104.6166
X32.2894 Y104.6305
X32.3388 Y104.6821
X32.3881 Y104.7267
X32.3995 Y104.7361
X32.4546 Y104.7778
X32.5096 Y104.8137
X32.5503 Y104.8368
X32.6198 Y104.8706
X32.6748 Y104.8926
X32.7299 Y104.9108
X32.7849 Y104.9253
X32.84 Y104.9364
X32.8817 Y104.9426
X32.9234 Y104.9469
X32.9501 Y104.9487
X33.0602 Y104.95
X40.0484
X40.05 Y104.9517
Y122.8256
Y123.0191 Z-5.0001
Y123.2127 Z-5.0004
Y123.4063 Z-5.0008
Y123.5999 Z-5.0015
Y123.7934 Z-5.0023
Y123.987 Z-5.0033
Y124.1806 Z-5.0045
Y124.3742 Z-5.0058
Y124.5677 Z-5.0073
Y124.7613 Z-5.009
Y124.9549 Z-5.0109
Y125.1484 Z-5.0129
Y125.342 Z-5.0151
Y125.5356 Z-5.0174
Y125.7292 Z-5.0199
Y125.9227 Z-5.0225
Y126.1163 Z-5.0253
Y126.3099 Z-5.0283
Y126.5035 Z-5.0314
Y126.697 Z-5.0347
Y126.8906 Z-5.0381
Y127.0842 Z-5.0416
Y127.2778 Z-5.0453
Y127.4713 Z-5.0491
Y127.6649 Z-5.0531
Y127.8585 Z-5.0572
Y128.0521 Z-5.0614
Y128.2457 Z-5.0658
Y128.4392 Z-5.0702
X40.0507 Y128.536 Z-5.0725
X40.0537 Y128.5843 Z-5.0737
X40.0593 Y128.6324 Z-5.0749
X40.0672 Y128.6801 Z-5.076
X40.0776 Y128.7274 Z-5.0772
X40.0904 Y128.7741 Z-5.0784
X40.1055 Y128.82 Z-5.0796
X40.123 Y128.8652 Z-5.0808
X40.1427 Y128.9093 Z-5.082
X40.1647 Y128.9525 Z-5.0832
X40.1888 Y128.9944 Z-5.0845
X40.215 Y129.0351 Z-5.0857
X40.2433 Y129.0744 Z-5.0869
X40.2735 Y129.1122 Z-5.0882
X40.3057 Y129.1484 Z-5.0894
X40.3396 Y129.1829 Z-5.0907
X40.3752 Y129.2157 Z-5.092
X40.4125 Y129.2465 Z-5.0932
X40.4513 Y129.2755 Z-5.0945
X40.4915 Y129.3024 Z-5.0958
X40.533 Y129.3273 Z-5.0971
X40.5757 Y129.35 Z-5.0984
X40.6196 Y129.3705 Z-5.0997
X40.6644 Y129.3887 Z-5.1011
X40.7101 Y129.4047 Z-5.1024
X40.7565 Y129.4183 Z-5.1037
X40.8036 Y129.4295 Z-5.1051
X40.8512 Y129.4383 Z-5.1064
X40.8992 Y129.4446 Z-5.1078
X40.9474 Y129.4485 Z-5.1091
X40.9958 Y129.45 Z-5.1105
X41.0926 Z-5.1133
X41.1894 Z-5.1161
X41.2862 Z-5.1189
X41.3829 Z-5.1217
X41.4797 Z-5.1246
X41.5765 Z-5.1275
X41.6733 Z-5.1304
X41.7701 Z-5.1334
X41.8669 Z-5.1363
X41.9637 Z-5.1393
X42.0605 Z-5.1423
X42.1572 Z-5.1454
X42.254 Z-5.1485
X42.3508 Z-5.1516
X42.4476 Z-5.1547
X42.5444 Z-5.1578
X42.6412 Z-5.161
X42.738 Z-5.1642
X42.8348 Z-5.1674
X42.9315 Z-5.1706
X43.0283 Z-5.1739
X43.1251 Z-5.1772
X43.2219 Z-5.1805
X43.3187 Z-5.1838
X43.4155 Z-5.1871
X43.6091 Z-5.1939
X43.7058 Z-5.1972
X43.8026 Z-5.2006
X43.8994 Z-5.204
X43.9962 Z-5.2074
X44.093 Z-5.2108
X44.1898 Z-5.2141
X44.2866 Z-5.2175
X44.3834 Z-5.2209
X44.4801 Z-5.2243
X44.5769 Z-5.2277
X44.6737 Z-5.231
X44.7705 Z-5.2344
X44.9641 Z-5.2412
X45.2544 Z-5.2513
X45.5448 Z-5.2614
X45.8352 Z-5.2716
X46.1255 Z-5.2817
X46.4159 Z-5.2919
X46.7062 Z-5.302
X46.9966 Z-5.3121
X47.287 Z-5.3223
X47.5773 Z-5.3324
X47.8677 Z-5.3426
X48.3516 Z-5.3595
X48.8356 Z-5.3764
X49.3195 Z-5.3933
X49.997 Z-5.4169
X50.8681 Z-5.4473
X52.3199 Z-5.498
X59.2886 Z-5.7413
X59.579 Z-5.7515
X59.8693 Z-5.7616
X59.9661 Z-5.765
X60.0629 Z-5.7684
X60.1597 Z-5.7717
X60.2565 Z-5.7751
X60.3533 Z-5.7785
X60.45 Z-5.7819
X60.5468 Z-5.7853
X60.6436 Z-5.7886
X60.7404 Z-5.792
X60.8372 Z-5.7954
X60.934 Z-5.7988
X61.0308 Z-5.8022
X61.1276 Z-5.8055
X61.2243 Z-5.8089
X61.3211 Z-5.8123
X61.4179 Z-5.8156
X61.5147 Z-5.819
X61.6115 Z-5.8223
X61.7083 Z-5.8255
X61.8051 Z-5.8288
X61.9019 Z-5.832
X61.9986 Z-5.8353
X62.0954 Z-5.8385
X62.1922 Z-5.8416
X62.289 Z-5.8448
X62.3858 Z-5.8479
X62.4826 Z-5.851
X62.5794 Z-5.8541
X62.6762 Z-5.8571
X62.7729 Z-5.8601
X62.8697 Z-5.8631
X62.9665 Z-5.8661
X63.0633 Z-5.8691
X63.1601 Z-5.872
X63.2569 Z-5.8749
X63.3537 Z-5.8778
X63.4505 Z-5.8806
X63.5472 Z-5.8834
X63.644 Z-5.8862
X63.7408 Z-5.889
X63.8376 Z-5.8917
X63.9344 Z-5.8945
X64.0312 Z-5.8971
X64.128 Z-5.8998
X64.2248 Z-5.9024
X64.3215 Z-5.905
X64.4183 Z-5.9076
X64.5151 Z-5.9101
X64.6119 Z-5.9126
X64.8055 Z-5.9176
X64.9991 Z-5.9224
X65.1926 Z-5.9271
X65.3862 Z-5.9316
X65.5798 Z-5.9361
X65.7734 Z-5.9404
X65.9669 Z-5.9445
X66.1605 Z-5.9486
X66.3541 Z-5.9525
X66.5477 Z-5.9562
X66.7412 Z-5.9599
X66.9348 Z-5.9634
X67.1284 Z-5.9667
X67.3219 Z-5.9699
X67.5155 Z-5.9729
X67.7091 Z-5.9758
X67.9027 Z-5.9786
X68.0962 Z-5.9812
X68.2898 Z-5.9836
X68.4834 Z-5.9859
X68.677 Z-5.988
X68.8705 Z-5.9899
X69.0641 Z-5.9917
X69.2577 Z-5.9933
X69.4513 Z-5.9948
X69.6448 Z-5.996
X69.8384 Z-5.9971
X70.032 Z-5.9981
X70.2256 Z-5.9988
X70.4191 Z-5.9994
X70.6127 Z-5.9998
X70.8063 Z-6
X70.9201
X310.9008
X311.0109 Y129.4499
X311.066 Y129.4477
X311.121 Y129.4423
X311.1761 Y129.4335
X311.2312 Y129.4214
X311.2832 Y129.4068
X311.3353 Y129.3889
X311.3413 Y129.3866
X311.3963 Y129.3634
X311.4514 Y129.3359
X311.4977 Y129.3092
X311.5441 Y129.2788
X311.5615 Y129.2663
X311.6166 Y129.2227
X311.6717 Y129.1718
X311.6748 Y129.1687
X311.7253 Y129.1136
X311.7684 Y129.0586
X311.7818 Y129.0397
X311.8114 Y128.9941
X311.8375 Y128.9485
X311.8647 Y128.8934
X311.8877 Y128.8384
X311.8919 Y128.8271
X311.9085 Y128.7777
X311.9222 Y128.7283
X311.9341 Y128.6732
X311.9426 Y128.6182
X311.9479 Y128.5631
X311.95 Y128.5081
Y128.398
Y104.9517
X311.9516 Y104.95
X318.9398
X319.0499 Y104.9487
X319.0767 Y104.9469
X319.1183 Y104.9426
X319.16 Y104.9364
X319.2151 Y104.9253
X319.2701 Y104.9108
X319.3252 Y104.8926
X319.3803 Y104.8706
X319.4497 Y104.8368
X319.4904 Y104.8137
X319.5454 Y104.7778
X319.6005 Y104.7361
X319.6119 Y104.7267
X319.6613 Y104.6821
X319.7106 Y104.6305
X319.7227 Y104.6166
X319.7663 Y104.5616
X319.8037 Y104.5065
X319.8208 Y104.4784
X319.8433 Y104.4374
X319.8633 Y104.3964
X319.8866 Y104.3414
X319.9059 Y104.2863
X319.9197 Y104.238
X319.9309 Y104.1897
X319.9335 Y104.1762
X319.9423 Y104.1212
X319.9477 Y104.0661
X319.95 Y103.956
Y79.0737
X319.9493 Y78.9636
X319.9456 Y78.9085
X319.9386 Y78.8535
X319.9309 Y78.8103
X319.9147 Y78.7434
X319.8974 Y78.6883
X319.8764 Y78.6333
X319.8512 Y78.5782
X319.8217 Y78.5232
X319.8208 Y78.5216
X319.7866 Y78.4673
X319.747 Y78.4131
X319.7106 Y78.3695
X319.6797 Y78.3363
X319.6455 Y78.303
X319.6005 Y78.2639
X319.5508 Y78.226
X319.501 Y78.1929
X319.4904 Y78.1864
X319.4353 Y78.1556
X319.3803 Y78.1294
X319.3252 Y78.1074
X319.2701 Y78.0892
X319.2473 Y78.0828
X319.2037 Y78.0721
X319.16 Y78.0636
X319.1049 Y78.0558
X319.0499 Y78.0513
X318.9398 Y78.05
X301.0998
X300.9897 Y78.0499
X300.8796 Y78.0474
X300.7695 Y78.0413
X300.6593 Y78.0305
X300.5492 Y78.0161
X300.4391 Y77.9977
X300.329 Y77.9754
X300.3174 Y77.9727
X300.2188 Y77.9475
X300.1087 Y77.9163
X299.9986 Y77.8809
X299.9478 Y77.8626
X299.8885 Y77.8396
X299.7784 Y77.7944
X299.686 Y77.7525
X299.6682 Y77.7439
X299.5581 Y77.6873
X299.4771 Y77.6424
X299.448 Y77.6252
X299.3379 Y77.5569
X299.3008 Y77.5323
X299.2278 Y77.4822
X299.1467 Y77.4222
X299.1176 Y77.3994
X299.0114 Y77.3121
X299.0075 Y77.3087
X298.8974 Y77.2088
X298.8903 Y77.202
X298.7873 Y77.0985
X298.7809 Y77.0919
X298.6821 Y76.9818
X298.6771 Y76.9759
X298.5923 Y76.8717
X298.567 Y76.8395
X298.5104 Y76.7616
X298.4569 Y76.6829
X298.4361 Y76.6515
X298.3685 Y76.5414
X298.3468 Y76.5036
X298.3072 Y76.4313
X298.2509 Y76.3212
X298.2366 Y76.2904
X298.201 Y76.2111
X298.1563 Y76.101
X298.1265 Y76.0224
X298.1155 Y75.9909
X298.0806 Y75.8808
X298.0497 Y75.7707
X298.0223 Y75.6606
X298.0164 Y75.6331
X298.0004 Y75.5505
X297.9825 Y75.4404
X297.9683 Y75.3303
X297.958 Y75.2202
X297.9522 Y75.1101
X297.95 Y75
Y74.8899
Y52.0994
X297.9502 Y51.9893
X297.9526 Y51.8792
X297.9587 Y51.7691
X297.9695 Y51.659
X297.984 Y51.5489
X298.0023 Y51.4388
X298.0164 Y51.3669
X298.0247 Y51.3287
X298.0525 Y51.2186
X298.0837 Y51.1085
X298.1192 Y50.9984
X298.1265 Y50.9776
X298.1605 Y50.8883
X298.2057 Y50.7782
X298.2366 Y50.7096
X298.2562 Y50.6681
X298.3127 Y50.558
X298.3468 Y50.4964
X298.3748 Y50.4479
X298.4431 Y50.3378
X298.4569 Y50.3171
X298.5178 Y50.2277
X298.567 Y50.1605
X298.6006 Y50.1176
X298.6771 Y50.0241
X298.6913 Y50.0075
X298.7873 Y49.9015
X298.7911 Y49.8974
X298.8974 Y49.7912
X298.9014 Y49.7873
X299.0075 Y49.6913
X299.0239 Y49.6772
X299.1176 Y49.6006
X299.1602 Y49.5672
X299.2278 Y49.5178
X299.3168 Y49.4571
X299.3379 Y49.4431
X299.448 Y49.3748
X299.496 Y49.347
X299.5581 Y49.3127
X299.6682 Y49.2561
X299.7091 Y49.2369
X299.7784 Y49.2056
X299.8885 Y49.1595
X299.9769 Y49.1268
X299.9986 Y49.1191
X300.1087 Y49.0837
X300.2188 Y49.0525
X300.329 Y49.0246
X300.3657 Y49.0167
X300.4391 Y49.0023
X300.5492 Y48.9839
X300.6593 Y48.9695
X300.7695 Y48.9587
X300.8796 Y48.9526
X300.9897 Y48.9501
X301.0998 Y48.95
X318.9398
X319.0499 Y48.9487
X319.1049 Y48.9442
X319.16 Y48.9364
X319.2151 Y48.9253
X319.2701 Y48.9108
X319.284 Y48.9066
X319.3321 Y48.89
X319.3803 Y48.8706
X319.4353 Y48.8444
X319.4904 Y48.8136
X319.5178 Y48.7965
X319.5592 Y48.768
X319.6005 Y48.7361
X319.6568 Y48.6864
X319.7106 Y48.6305
X319.7552 Y48.5763
X319.7902 Y48.5273
X319.8208 Y48.4784
X319.8278 Y48.4662
X319.8564 Y48.4111
X319.8808 Y48.3561
X319.9011 Y48.301
X319.9176 Y48.246
X319.9309 Y48.1897
X319.9402 Y48.1359
X319.9466 Y48.0808
X319.9497 Y48.0258
X319.95 Y47.9157
Y29.9525
X319.9514 Y29.95
X325.7674
X325.8775 Y29.9468
X325.9326 Y29.9407
X325.9876 Y29.9313
X326.0427 Y29.9185
X326.0978 Y29.9021
X326.1513 Y29.8827
X326.2048 Y29.8594
X326.2079 Y29.858
X326.263 Y29.8296
X326.318 Y29.7963
X326.3839 Y29.7493
X326.4282 Y29.7127
X326.4655 Y29.678
X326.5027 Y29.6392
X326.5383 Y29.5979
X326.5648 Y29.5635
X326.589 Y29.5292
X326.6208 Y29.4783
X326.6484 Y29.4275
X326.6526 Y29.4191
X326.6775 Y29.364
X326.6984 Y29.309
X326.7155 Y29.2539
X326.7289 Y29.1989
X326.739 Y29.1438
X326.7458 Y29.0888
X326.7494 Y29.0337
X326.75 Y28.9787
Y28.208
X326.7488 Y28.1529
X326.7445 Y28.0979
X326.7369 Y28.0428
X326.726 Y27.9878
X326.7116 Y27.9327
X326.6936 Y27.8777
X326.6729 Y27.8251
X326.6484 Y27.7725
X326.6459 Y27.7676
X326.6154 Y27.7125
X326.5798 Y27.6575
X326.5383 Y27.6021
X326.4904 Y27.5474
X326.4593 Y27.516
X326.4282 Y27.4873
X326.3663 Y27.4373
X326.318 Y27.4037
X326.263 Y27.3704
X326.2079 Y27.342
X326.1751 Y27.3272
X326.0978 Y27.2979
X326.0427 Y27.2815
X325.9876 Y27.2687
X325.9326 Y27.2593
X325.8775 Y27.2532
X325.7674 Y27.25
X246.0383
X245.9282 Y27.2527
X245.8731 Y27.2585
X245.8181 Y27.2676
X245.763 Y27.28
X245.7079 Y27.296
X245.6664 Y27.3105
X245.6249 Y27.3272
X245.5978 Y27.3393
X245.5427 Y27.3673
X245.4877 Y27.4
X245.4337 Y27.4373
X245.3776 Y27.4823
X245.3436 Y27.5132
X245.3096 Y27.5474
X245.2674 Y27.5951
X245.2202 Y27.6575
X245.1865 Y27.7094
X245.1573 Y27.7614
X245.1541 Y27.7676
X245.1282 Y27.8226
X245.1064 Y27.8777
X245.0884 Y27.9327
X245.074 Y27.9878
X245.0631 Y28.0428
X245.0555 Y28.0979
X245.0512 Y28.1529
X245.05 Y28.208
Y85.048
X245.0486 Y85.05
X161.952
X161.95 Y85.048
Y28.208
X161.9488 Y28.1529
X161.9445 Y28.0979
X161.9369 Y28.0428
X161.926 Y27.9878
X161.9043 Y27.9088
X161.8936 Y27.8777
X161.8718 Y27.8226
X161.8459 Y27.7676
X161.8216 Y27.7231
X161.7941 Y27.6786
X161.7798 Y27.6575
X161.7385 Y27.6024
X161.6904 Y27.5474
X161.684 Y27.5407
X161.629 Y27.488
X161.5739 Y27.4429
X161.5663 Y27.4373
X161.5151 Y27.4017
X161.4638 Y27.3709
X161.4194 Y27.3476
X161.3751 Y27.3272
X161.3536 Y27.3183
X161.2986 Y27.2981
X161.2435 Y27.2817
X161.1885 Y27.2689
X161.1334 Y27.2594
X161.0783 Y27.2532
X161.0233 Y27.2503
X160.9131 Y27.25
X26.2326
X26.1225 Y27.2532
X26.0674 Y27.2593
X26.0124 Y27.2687
X25.9573 Y27.2815
X25.9022 Y27.2979
X25.8249 Y27.3272
X25.7921 Y27.342
X25.7371 Y27.3704
X25.682 Y27.4037
X25.6337 Y27.4373
X25.5719 Y27.4873
X25.5408 Y27.516
X25.5097 Y27.5474
X25.4618 Y27.6021
X25.4202 Y27.6575
X25.3846 Y27.7125
X25.3541 Y27.7676
X25.3516 Y27.7725
X25.3271 Y27.8251
X25.3064 Y27.8777
X25.2884 Y27.9327
X25.274 Y27.9878
X25.2631 Y28.0428
X25.2555 Y28.0979
X25.2512 Y28.1529
X25.25 Y28.208
Y28.9787
X25.2506 Y29.0337
X25.2542 Y29.0888
X25.261 Y29.1438
X25.2711 Y29.1989
X25.2846 Y29.2539
X25.3016 Y29.309
X25.3225 Y29.364
X25.3474 Y29.4191
X25.3516 Y29.4275
X25.3792 Y29.4783
X25.411 Y29.5292
X25.4352 Y29.5635
X25.4618 Y29.5979
X25.4972 Y29.6392
X25.5346 Y29.678
X25.5719 Y29.7127
X25.6161 Y29.7493
X25.682 Y29.7964
X25.7371 Y29.8296
X25.7921 Y29.858
X25.7952 Y29.8594
X25.8487 Y29.8827
X25.9022 Y29.9021
X25.9573 Y29.9185
X26.0124 Y29.9313
X26.0674 Y29.9407
X26.1225 Y29.9468
X26.2326 Y29.95
X32.0486
X32.05 Y29.9525
Y51.5489
X32.0518 Y51.659
X32.0569 Y51.7141
X32.0652 Y51.7691
X32.0691 Y51.7897
X32.0794 Y51.8345
X32.092 Y51.8792
X32.1108 Y51.9343
X32.1334 Y51.9893
X32.1549 Y52.0339
X32.1793 Y52.0784
X32.1919 Y52.0994
X32.2286 Y52.1545
X32.2713 Y52.2095
X32.2894 Y52.2305
X32.3346 Y52.278
X32.3798 Y52.3196
X32.3995 Y52.3361
X32.4546 Y52.3778
X32.5096 Y52.4136
X32.5373 Y52.4297
X32.5786 Y52.4514
X32.6198 Y52.4706
X32.6748 Y52.4926
X32.7299 Y52.5108
X32.7849 Y52.5253
X32.84 Y52.5364
X32.8614 Y52.5398
X32.9058 Y52.5453
X32.9501 Y52.5487
X33.0602 Y52.55
X51.0103
X51.1204 Y52.5504
X51.2306 Y52.5548
X51.3407 Y52.566
X51.4508 Y52.5842
X51.5609 Y52.6089
X51.671 Y52.6405
X51.6988 Y52.6499
X51.7812 Y52.6805
X51.8913 Y52.7279
X51.9561 Y52.76
X52.0014 Y52.7847
X52.1115 Y52.8514
X52.1394 Y52.8701
X52.2217 Y52.929
X52.2859 Y52.9802
X52.3318 Y53.0201
X52.4061 Y53.0903
X52.4419 Y53.1272
X52.5083 Y53.2004
X52.552 Y53.2537
X52.5948 Y53.3105
X52.6622 Y53.4094
X52.6692 Y53.4206
X52.7327 Y53.5307
X52.7723 Y53.609
X52.7871 Y53.6408
X52.8322 Y53.7509
X52.8695 Y53.861
X52.8824 Y53.9054
X52.8994 Y53.9711
X52.9222 Y54.0812
X52.938 Y54.1913
X52.9472 Y54.3014
X52.95 Y54.4115
Y70.4859
X52.9474 Y70.596
X52.9383 Y70.7061
X52.9226 Y70.8162
X52.9 Y70.9263
X52.8824 Y70.9946
X52.8702 Y71.0364
X52.8332 Y71.1465
X52.7882 Y71.2566
X52.7723 Y71.291
X52.734 Y71.3667
X52.6708 Y71.4768
X52.6622 Y71.4906
X52.5966 Y71.5869
X52.552 Y71.6463
X52.5105 Y71.697
X52.4419 Y71.7728
X52.4086 Y71.8071
X52.3318 Y71.8799
X52.289 Y71.9172
X52.2217 Y71.971
X52.1431 Y72.0273
X52.1115 Y72.0485
X52.0014 Y72.1153
X51.9609 Y72.1374
X51.8913 Y72.1721
X51.7812 Y72.2195
X51.7061 Y72.2475
X51.671 Y72.2595
X51.5609 Y72.2911
X51.4508 Y72.3157
X51.3407 Y72.334
X51.2306 Y72.3452
X51.1204 Y72.3496
X51.0103 Y72.35
X33.0602
X32.9501 Y72.3513
X32.8797 Y72.3576
X32.84 Y72.3635
X32.7849 Y72.3746
X32.7299 Y72.3892
X32.6748 Y72.4074
X32.6198 Y72.4294
X32.5808 Y72.4475
X32.5419 Y72.4677
X32.5096 Y72.4863
X32.4546 Y72.5222
X32.3995 Y72.5638
X32.3827 Y72.5778
X32.3361 Y72.6205
X32.2894 Y72.6695
X32.2734 Y72.6879
X32.2304 Y72.743
X32.1934 Y72.798
X32.1793 Y72.8215
X32.1555 Y72.8648
X32.1346 Y72.9081
X32.1117 Y72.9632
X32.0927 Y73.0182
X32.0797 Y73.0642
X32.0691 Y73.1103
X32.0656 Y73.1283
X32.0572 Y73.1834
X32.052 Y73.2384
X32.05 Y73.3485
Y103.956
X32.0523 Y104.0661
X32.0578 Y104.1212
X32.0665 Y104.1762
X32.0691 Y104.1897
X32.0803 Y104.238
X32.0942 Y104.2863
X32.1134 Y104.3414
X32.1367 Y104.3964
X32.1567 Y104.4374
X32.1793 Y104.4784
X32.1963 Y104.5065
X32.2337 Y104.5616
X32.2773 Y104.6166
X32.2894 Y104.6305
X32.3388 Y104.6821
X32.3881 Y104.7267
X32.3995 Y104.7361
X32.4546 Y104.7778
X32.5096 Y104.8137
X32.5503 Y104.8368
X32.6198 Y104.8706
X32.6748 Y104.8926
X32.7299 Y104.9108
X32.7849 Y104.9253
X32.84 Y104.9364
X32.8817 Y104.9426
X32.9234 Y104.9469
X32.9501 Y104.9487
X33.0602 Y104.95
X40.0484
X40.05 Y104.9517
Y122.8256
Y128.398
Y128.5081
X40.0521 Y128.5631
X40.0574 Y128.6182
X40.0659 Y128.6732
X40.0778 Y128.7283
X40.0915 Y128.7777
X40.1081 Y128.8272
X40.1123 Y128.8384
X40.1353 Y128.8934
X40.1625 Y128.9485
X40.1886 Y128.9941
X40.2182 Y129.0398
X40.2316 Y129.0586
X40.2748 Y129.1136
X40.3252 Y129.1687
X40.3284 Y129.1719
X40.3834 Y129.2227
X40.4385 Y129.2663
X40.4559 Y129.2788
X40.5023 Y129.3092
X40.5486 Y129.3359
X40.6037 Y129.3634
X40.6587 Y129.3866
X40.6647 Y129.3889
X40.7168 Y129.4068
X40.7689 Y129.4214
X40.8239 Y129.4335
X40.879 Y129.4423
X40.934 Y129.4477
X40.9891 Y129.4499
X41.0992 Y129.45
X70.9201
X71.1137 Z-6.0001
X71.3072 Z-6.0004
X71.5008 Z-6.0008
X71.6944 Z-6.0015
X71.888 Z-6.0023
X72.0815 Z-6.0033
X72.2751 Z-6.0045
X72.4687 Z-6.0058
X72.6623 Z-6.0073
X72.8558 Z-6.009
X73.0494 Z-6.0109
X73.243 Z-6.0129
X73.4366 Z-6.0151
X73.6301 Z-6.0174
X73.8237 Z-6.0199
X74.0173 Z-6.0225
X74.2109 Z-6.0253
X74.4044 Z-6.0283
X74.598 Z-6.0314
X74.7916 Z-6.0347
X74.9852 Z-6.0381
X75.1787 Z-6.0416
X75.3723 Z-6.0453
X75.5659 Z-6.0491
X75.7595 Z-6.0531
X75.953 Z-6.0572
X76.1466 Z-6.0614
X76.3402 Z-6.0658
X76.5338 Z-6.0702
X76.7273 Z-6.0749
X76.9209 Z-6.0796
X77.1145 Z-6.0845
X77.3081 Z-6.0894
X77.4048 Z-6.092
X77.5016 Z-6.0945
X77.5984 Z-6.0971
X77.6952 Z-6.0997
X77.792 Z-6.1024
X77.8888 Z-6.1051
X77.9856 Z-6.1078
X78.0824 Z-6.1105
X78.1791 Z-6.1133
X78.2759 Z-6.1161
X78.3727 Z-6.1189
X78.4695 Z-6.1217
X78.5663 Z-6.1246
X78.6631 Z-6.1275
X78.7599 Z-6.1304
X78.8567 Z-6.1334
X78.9534 Z-6.1363
X79.0502 Z-6.1393
X79.147 Z-6.1423
X79.2438 Z-6.1454
X79.3406 Z-6.1485
X79.4374 Z-6.1516
X79.5342 Z-6.1547
X79.631 Z-6.1578
X79.7277 Z-6.161
X79.8245 Z-6.1642
X79.9213 Z-6.1674
X80.0181 Z-6.1706
X80.1149 Z-6.1739
X80.2117 Z-6.1772
X80.3085 Z-6.1805
X80.4053 Z-6.1838
X80.502 Z-6.1871
X80.6956 Z-6.1939
X80.7924 Z-6.1972
X80.8892 Z-6.2006
X80.986 Z-6.204
X81.0828 Z-6.2074
X81.1796 Z-6.2108
X81.2763 Z-6.2141
X81.3731 Z-6.2175
X81.4699 Z-6.2209
X81.5667 Z-6.2243
X81.6635 Z-6.2277
X81.7603 Z-6.231
X81.8571 Z-6.2344
X82.0506 Z-6.2412
X82.341 Z-6.2513
X82.6314 Z-6.2614
X82.9217 Z-6.2716
X83.2121 Z-6.2817
X83.5024 Z-6.2919
X83.7928 Z-6.302
X84.0832 Z-6.3121
X84.3735 Z-6.3223
X84.6639 Z-6.3324
X84.9543 Z-6.3426
X85.4382 Z-6.3595
X85.9221 Z-6.3764
X86.4061 Z-6.3933
X87.0836 Z-6.4169
X87.9547 Z-6.4473
X89.4065 Z-6.498
X96.3752 Z-6.7413
X96.6655 Z-6.7515
X96.9559 Z-6.7616
X97.0527 Z-6.765
X97.1495 Z-6.7684
X97.2462 Z-6.7717
X97.343 Z-6.7751
X97.4398 Z-6.7785
X97.5366 Z-6.7819
X97.6334 Z-6.7853
X97.7302 Z-6.7886
X97.827 Z-6.792
X97.9238 Z-6.7954
X98.0205 Z-6.7988
X98.1173 Z-6.8022
X98.2141 Z-6.8055
X98.3109 Z-6.8089
X98.4077 Z-6.8123
X98.5045 Z-6.8156
X98.6013 Z-6.819
X98.6981 Z-6.8223
X98.7948 Z-6.8255
X98.8916 Z-6.8288
X98.9884 Z-6.832
X99.0852 Z-6.8353
X99.182 Z-6.8385
X99.2788 Z-6.8416
X99.3756 Z-6.8448
X99.4724 Z-6.8479
X99.5691 Z-6.851
X99.6659 Z-6.8541
X99.7627 Z-6.8571
X99.8595 Z-6.8601
X99.9563 Z-6.8631
X100.0531 Z-6.8661
X100.1499 Z-6.8691
X100.2467 Z-6.872
X100.3434 Z-6.8749
X100.4402 Z-6.8778
X100.537 Z-6.8806
X100.6338 Z-6.8834
X100.7306 Z-6.8862
X100.8274 Z-6.889
X100.9242 Z-6.8917
X101.021 Z-6.8945
X101.1177 Z-6.8971
X101.2145 Z-6.8998
X101.3113 Z-6.9024
X101.4081 Z-6.905
X101.5049 Z-6.9076
X101.6017 Z-6.9101
X101.6985 Z-6.9126
X101.892 Z-6.9176
X102.0856 Z-6.9224
X102.2792 Z-6.9271
X102.4728 Z-6.9316
X102.6663 Z-6.9361
X102.8599 Z-6.9404
X103.0535 Z-6.9445
X103.2471 Z-6.9486
X103.4406 Z-6.9525
X103.6342 Z-6.9562
X103.8278 Z-6.9599
X104.0214 Z-6.9634
X104.2149 Z-6.9667
X104.4085 Z-6.9699
X104.6021 Z-6.9729
X104.7957 Z-6.9758
X104.9892 Z-6.9786
X105.1828 Z-6.9812
X105.3764 Z-6.9836
X105.57 Z-6.9859
X105.7635 Z-6.988
X105.9571 Z-6.9899
X106.1507 Z-6.9917
X106.3443 Z-6.9933
X106.5378 Z-6.9948
X106.7314 Z-6.996
X106.925 Z-6.9971
X107.1186 Z-6.9981
X107.3121 Z-6.9988
X107.5057 Z-6.9994
X107.6993 Z-6.9998
X107.8929 Z-7
X108.0067
X310.9008
X311.0109 Y129.4499
X311.066 Y129.4477
X311.121 Y129.4423
X311.1761 Y129.4335
X311.2312 Y129.4214
X311.2832 Y129.4068
X311.3353 Y129.3889
X311.3413 Y129.3866
X311.3963 Y129.3634
X311.4514 Y129.3359
X311.4977 Y129.3092
X311.5441 Y129.2788
X311.5615 Y129.2663
X311.6166 Y129.2227
X311.6717 Y129.1718
X311.6748 Y129.1687
X311.7253 Y129.1136
X311.7684 Y129.0586
X311.7818 Y129.0397
X311.8114 Y128.9941
X311.8375 Y128.9485
X311.8647 Y128.8934
X311.8877 Y128.8384
X311.8919 Y128.8271
X311.9085 Y128.7777
X311.9222 Y128.7283
X311.9341 Y128.6732
X311.9426 Y128.6182
X311.9479 Y128.5631
X311.95 Y128.5081
Y128.398
Y104.9517
X311.9516 Y104.95
X318.9398
X319.0499 Y104.9487
X319.0767 Y104.9469
X319.1183 Y104.9426
X319.16 Y104.9364
X319.2151 Y104.9253
X319.2701 Y104.9108
X319.3252 Y104.8926
X319.3803 Y104.8706
X319.4497 Y104.8368
X319.4904 Y104.8137
X319.5454 Y104.7778
X319.6005 Y104.7361
X319.6119 Y104.7267
X319.6613 Y104.6821
X319.7106 Y104.6305
X319.7227 Y104.6166
X319.7663 Y104.5616
X319.8037 Y104.5065
X319.8208 Y104.4784
X319.8433 Y104.4374
X319.8633 Y104.3964
X319.8866 Y104.3414
X319.9059 Y104.2863
X319.9197 Y104.238
X319.9309 Y104.1897
X319.9335 Y104.1762
X319.9423 Y104.1212
X319.9477 Y104.0661
X319.95 Y103.956
Y79.0737
X319.9493 Y78.9636
X319.9456 Y78.9085
X319.9386 Y78.8535
X319.9309 Y78.8103
X319.9147 Y78.7434
X319.8974 Y78.6883
X319.8764 Y78.6333
X319.8512 Y78.5782
X319.8217 Y78.5232
X319.8208 Y78.5216
X319.7866 Y78.4673
X319.747 Y78.4131
X319.7106 Y78.3695
X319.6797 Y78.3363
X319.6455 Y78.303
X319.6005 Y78.2639
X319.5508 Y78.226
X319.501 Y78.1929
X319.4904 Y78.1864
X319.4353 Y78.1556
X319.3803 Y78.1294
X319.3252 Y78.1074
X319.2701 Y78.0892
X319.2473 Y78.0828
X319.2037 Y78.0721
X319.16 Y78.0636
X319.1049 Y78.0558
X319.0499 Y78.0513
X318.9398 Y78.05
X301.0998
X300.9897 Y78.0499
X300.8796 Y78.0474
X300.7695 Y78.0413
X300.6593 Y78.0305
X300.5492 Y78.0161
X300.4391 Y77.9977
X300.329 Y77.9754
X300.3174 Y77.9727
X300.2188 Y77.9475
X300.1087 Y77.9163
X299.9986 Y77.8809
X299.9478 Y77.8626
X299.8885 Y77.8396
X299.7784 Y77.7944
X299.686 Y77.7525
X299.6682 Y77.7439
X299.5581 Y77.6873
X299.4771 Y77.6424
X299.448 Y77.6252
X299.3379 Y77.5569
X299.3008 Y77.5323
X299.2278 Y77.4822
X299.1467 Y77.4222
X299.1176 Y77.3994
X299.0114 Y77.3121
X299.0075 Y77.3087
X298.8974 Y77.2088
X298.8903 Y77.202
X298.7873 Y77.0985
X298.7809 Y77.0919
X298.6821 Y76.9818
