%
(Made in : Autodesk CAM Post Processor)
(G Code optimized for OpenBuilds OX CNC 1000 x 750 with GRBL V0.9j controller)

(Program Name : 1001)
(2 Operations :)
(1 : Contour2)
(  Tool : Flat End Mill 2 Flutes, Diam = 1.9mm, Len = 12.7mm)
(  Spindle : RPM = 30000, set router dial to 6)
(  Machining time : 7 min 55 sec)
(2 : Horizontal1)
(  Tool : Flat End Mill 2 Flutes, Diam = 1.9mm, Len = 12.7mm)
(  Spindle : RPM = 30000, set router dial to 6)
(  Machining time : 1 min 59 sec)

G90 G94
G17
G21

(Operation 1 of 2 : Contour2)

G53 G0 Z5
G54
S30000 M3
G4 P1.0
X-2.2191 Y24.9279
Z6
Z1.1895
G1 Z-0.81 F3200
X-2.2132 Y24.9307 Z-0.8592
X-2.1961 Y24.9389 Z-0.905
X-2.1689 Y24.952 Z-0.9444
X-2.1334 Y24.969 Z-0.9745
X-2.0921 Y24.9889 Z-0.9935
X-2.0478 Y25.0102 Z-1
X-0.947 Y25.5385
X-0.9055 Y25.5657
X-0.8724 Y25.6026
X-0.85 Y25.6469
X-0.8398 Y25.6954
X-0.8425 Y25.7449
X-0.8579 Y25.7921
X-0.8808 Y25.844
X-0.9 Y25.8959
X-0.9168 Y25.9509
X-0.93 Y26.006
X-0.9398 Y26.061
X-0.9463 Y26.1161
X-0.9496 Y26.1711
X-0.95 Y26.2262
Y39.9885
X-0.949 Y40.0436
X-0.9449 Y40.0986
X-0.9375 Y40.1537
X-0.9268 Y40.2087
X-0.9126 Y40.2638
X-0.8949 Y40.3188
X-0.8777 Y40.3634
X-0.8579 Y40.408
X-0.8476 Y40.4289
X-0.8175 Y40.484
X-0.7823 Y40.539
X-0.7478 Y40.5859
X-0.7219 Y40.6175
X-0.6936 Y40.6491
X-0.6377 Y40.7041
X-0.6044 Y40.733
X-0.571 Y40.7592
X-0.5276 Y40.79
X-0.4726 Y40.8241
X-0.4175 Y40.8533
X-0.3831 Y40.8693
X-0.3074 Y40.8989
X-0.2523 Y40.9159
X-0.1973 Y40.9293
X-0.1422 Y40.9393
X-0.0872 Y40.946
X-0.0321 Y40.9495
X0.0229 Y40.95
X19.9527
X20.0628 Y40.9507
X20.173 Y40.9551
X20.2831 Y40.9634
X20.3932 Y40.9757
X20.4193 Y40.9794
X20.5033 Y40.9924
X20.6134 Y41.0122
X20.7235 Y41.0374
X20.8336 Y41.0667
X20.9108 Y41.0895
X20.9437 Y41.1
X21.0538 Y41.138
X21.1639 Y41.1812
X21.2079 Y41.1996
X21.2741 Y41.2291
X21.3842 Y41.2828
X21.4361 Y41.3097
X21.4943 Y41.3415
X21.6044 Y41.4065
X21.6256 Y41.4198
X21.7145 Y41.4776
X21.7893 Y41.5299
X21.8246 Y41.5559
X21.9314 Y41.64
X21.9347 Y41.6428
X22.0448 Y41.7376
X22.0587 Y41.7501
X22.1549 Y41.8423
X22.173 Y41.8602
X22.265 Y41.9576
X22.2765 Y41.9703
X22.3698 Y42.0804
X22.3751 Y42.087
X22.4548 Y42.1905
X22.4853 Y42.2324
X22.5322 Y42.3006
X22.5954 Y42.3981
X22.6033 Y42.4107
X22.667 Y42.5208
X22.7055 Y42.5922
X22.7253 Y42.6309
X22.7778 Y42.741
X22.8156 Y42.8278
X22.825 Y42.8511
X22.8675 Y42.9612
X22.9049 Y43.0713
X22.9257 Y43.1394
X22.9379 Y43.1814
X22.9662 Y43.2915
X22.9907 Y43.4016
X23.0103 Y43.5117
X23.0264 Y43.6218
X23.0358 Y43.7085
X23.0379 Y43.7319
X23.0457 Y43.842
X23.0494 Y43.9521
X23.05 Y44.0622
Y66.9628
X23.0491 Y67.0729
X23.0442 Y67.183
X23.0358 Y67.2915
X23.0357 Y67.2931
X23.0229 Y67.4032
X23.0063 Y67.5133
X22.9854 Y67.6234
X22.9602 Y67.7335
X22.9307 Y67.8436
X22.9257 Y67.8606
X22.8968 Y67.9537
X22.8581 Y68.0638
X22.8156 Y68.1722
X22.8149 Y68.1739
X22.7663 Y68.284
X22.7127 Y68.3941
X22.7055 Y68.4078
X22.653 Y68.5042
X22.5954 Y68.6018
X22.5875 Y68.6143
X22.5154 Y68.7244
X22.4853 Y68.7676
X22.4363 Y68.8345
X22.3751 Y68.913
X22.3493 Y68.9446
X22.265 Y69.0424
X22.2539 Y69.0547
X22.1549 Y69.1578
X22.1479 Y69.1648
X22.0448 Y69.2624
X22.0311 Y69.2749
X21.9347 Y69.3572
X21.9008 Y69.385
X21.8246 Y69.4441
X21.7539 Y69.4951
X21.7145 Y69.5224
X21.6044 Y69.5935
X21.5855 Y69.6052
X21.4943 Y69.6585
X21.3881 Y69.7153
X21.3842 Y69.7172
X21.2741 Y69.7709
X21.1639 Y69.8191
X21.1487 Y69.8253
X21.0538 Y69.8622
X20.9437 Y69.9
X20.8336 Y69.9332
X20.8261 Y69.9354
X20.7235 Y69.9626
X20.6134 Y69.9878
X20.5033 Y70.0076
X20.3932 Y70.0243
X20.2831 Y70.0365
X20.173 Y70.0449
X20.1614 Y70.0455
X20.0628 Y70.0493
X19.9527 Y70.05
X0.0229
X-0.0321 Y70.0505
X-0.0872 Y70.054
X-0.1422 Y70.0607
X-0.1973 Y70.0707
X-0.2523 Y70.0841
X-0.3074 Y70.1011
X-0.3624 Y70.1218
X-0.4175 Y70.1466
X-0.4354 Y70.1556
X-0.4815 Y70.1811
X-0.5276 Y70.21
X-0.5652 Y70.2364
X-0.6028 Y70.2657
X-0.6377 Y70.2958
X-0.6793 Y70.3358
X-0.7162 Y70.3758
X-0.7478 Y70.4141
X-0.7746 Y70.45
X-0.7989 Y70.4859
X-0.8306 Y70.539
X-0.8579 Y70.592
X-0.8598 Y70.596
X-0.8836 Y70.6511
X-0.9034 Y70.7061
X-0.9195 Y70.7612
X-0.9321 Y70.8162
X-0.9412 Y70.8713
X-0.9471 Y70.9263
X-0.95 Y71.0364
Y128.9485
X-0.9482 Y129.0586
X-0.9432 Y129.1136
X-0.9349 Y129.1687
X-0.9233 Y129.2237
X-0.9082 Y129.2788
X-0.8894 Y129.3338
X-0.8668 Y129.3889
X-0.8579 Y129.408
X-0.8348 Y129.4535
X-0.8084 Y129.499
X-0.7799 Y129.5424
X-0.7478 Y129.5859
X-0.7291 Y129.6091
X-0.6866 Y129.6566
X-0.6377 Y129.7041
X-0.6207 Y129.7192
X-0.5742 Y129.7569
X-0.5276 Y129.79
X-0.4635 Y129.8293
X-0.4175 Y129.8533
X-0.3624 Y129.8781
X-0.3074 Y129.8989
X-0.2523 Y129.9159
X-0.1973 Y129.9293
X-0.1418 Y129.9394
X-0.0872 Y129.946
X-0.0321 Y129.9495
X0.0229 Y129.95
X285.9771
X286.0321 Y129.9495
X286.0872 Y129.946
X286.1418 Y129.9394
X286.1973 Y129.9293
X286.2523 Y129.9159
X286.3074 Y129.8989
X286.3625 Y129.8781
X286.4175 Y129.8533
X286.4635 Y129.8293
X286.5276 Y129.79
X286.5742 Y129.7569
X286.6208 Y129.7192
X286.6377 Y129.7041
X286.6866 Y129.6566
X286.7291 Y129.6091
X286.7478 Y129.5859
X286.7799 Y129.5424
X286.8084 Y129.499
X286.8348 Y129.4535
X286.8579 Y129.408
X286.8668 Y129.3889
X286.8894 Y129.3338
X286.9082 Y129.2788
X286.9233 Y129.2237
X286.9349 Y129.1687
X286.9432 Y129.1136
X286.9482 Y129.0586
X286.95 Y128.9485
Y71.0364
X286.9471 Y70.9263
X286.9413 Y70.8713
X286.9321 Y70.8162
X286.9195 Y70.7612
X286.9034 Y70.7061
X286.8836 Y70.6511
X286.8599 Y70.596
X286.8579 Y70.592
X286.8307 Y70.539
X286.7989 Y70.4859
X286.7746 Y70.45
X286.7478 Y70.4141
X286.7162 Y70.3758
X286.6793 Y70.3358
X286.6377 Y70.2958
X286.6028 Y70.2657
X286.5652 Y70.2364
X286.5276 Y70.21
X286.4815 Y70.1811
X286.4354 Y70.1556
X286.4175 Y70.1466
X286.3625 Y70.1218
X286.3074 Y70.1011
X286.2523 Y70.0841
X286.1973 Y70.0707
X286.1422 Y70.0607
X286.0872 Y70.054
X286.0321 Y70.0505
X285.9771 Y70.05
X268.0292
X267.9191 Y70.049
X267.8389 Y70.0455
X267.809 Y70.0438
X267.6989 Y70.0349
X267.5888 Y70.0217
X267.4787 Y70.0047
X267.3686 Y69.984
X267.2585 Y69.9581
X267.1743 Y69.9354
X267.1484 Y69.9279
X267.0383 Y69.8944
X266.9282 Y69.8549
X266.8527 Y69.8253
X266.818 Y69.8116
X266.7079 Y69.7626
X266.6116 Y69.7153
X266.5978 Y69.7081
X266.4877 Y69.6483
X266.4142 Y69.6052
X266.3776 Y69.5822
X266.2675 Y69.5098
X266.2463 Y69.4951
X266.1574 Y69.4306
X266.0992 Y69.385
X266.0473 Y69.3424
X265.9686 Y69.2749
X265.9372 Y69.2464
X265.8523 Y69.1648
X265.8271 Y69.1396
X265.7462 Y69.0547
X265.7169 Y69.0223
X265.6509 Y68.9446
X265.6068 Y68.8903
X265.5633 Y68.8345
X265.4967 Y68.7419
X265.4845 Y68.7244
X265.4127 Y68.6143
X265.3866 Y68.5719
X265.347 Y68.5042
X265.2877 Y68.3941
X265.2765 Y68.372
X265.2337 Y68.284
X265.1852 Y68.1739
X265.1664 Y68.1266
X265.1419 Y68.0638
X265.1031 Y67.9537
X265.0698 Y67.8436
X265.0563 Y67.7952
X265.0399 Y67.7335
X265.0143 Y67.6234
X264.994 Y67.5133
X264.9772 Y67.4032
X264.9644 Y67.2931
X264.9557 Y67.183
X264.9508 Y67.0729
X264.95 Y66.9628
Y44.0622
X264.9505 Y43.9521
X264.9543 Y43.842
X264.9621 Y43.7319
X264.9737 Y43.6218
X264.9899 Y43.5117
X265.0092 Y43.4016
X265.0337 Y43.2915
X265.0563 Y43.2048
X265.0626 Y43.1814
X265.0952 Y43.0713
X265.1323 Y42.9612
X265.1664 Y42.8734
X265.1753 Y42.8511
X265.2221 Y42.741
X265.275 Y42.6309
X265.2765 Y42.628
X265.333 Y42.5208
X265.3866 Y42.4281
X265.3969 Y42.4107
X265.4678 Y42.3006
X265.4967 Y42.2581
X265.5449 Y42.1905
X265.6068 Y42.1097
X265.6305 Y42.0804
X265.7169 Y41.9777
X265.7236 Y41.9703
X265.8271 Y41.8605
X265.9372 Y41.7536
X265.941 Y41.7501
X266.0473 Y41.6576
X266.0687 Y41.64
X266.1574 Y41.5694
X266.2108 Y41.5299
X266.2675 Y41.4902
X266.3744 Y41.4198
X266.3776 Y41.4178
X266.4877 Y41.3516
X266.5638 Y41.3097
X266.5978 Y41.2919
X266.7079 Y41.2374
X266.792 Y41.1996
X266.818 Y41.1882
X266.9282 Y41.1446
X267.0383 Y41.1056
X267.0892 Y41.0895
X267.1484 Y41.0721
X267.2585 Y41.0419
X267.3686 Y41.016
X267.4787 Y40.9953
X267.581 Y40.9794
X267.5888 Y40.9783
X267.6989 Y40.9651
X267.809 Y40.9562
X267.9191 Y40.951
X268.0292 Y40.95
X285.9771
X286.0321 Y40.9495
X286.0872 Y40.946
X286.1422 Y40.9393
X286.1973 Y40.9293
X286.2523 Y40.9159
X286.3074 Y40.8989
X286.3831 Y40.8693
X286.4175 Y40.8533
X286.4726 Y40.8241
X286.5276 Y40.79
X286.571 Y40.7592
X286.6044 Y40.733
X286.6377 Y40.7041
X286.6936 Y40.6491
X286.722 Y40.6175
X286.7478 Y40.5859
X286.7823 Y40.539
X286.8175 Y40.484
X286.8477 Y40.4289
X286.8579 Y40.408
X286.8777 Y40.3634
X286.8949 Y40.3188
X286.9127 Y40.2638
X286.9268 Y40.2087
X286.9375 Y40.1537
X286.9449 Y40.0986
X286.949 Y40.0436
X286.95 Y39.9885
Y26.2262
X286.9496 Y26.1711
X286.9463 Y26.1161
X286.9398 Y26.061
X286.93 Y26.006
X286.9168 Y25.9509
X286.9 Y25.8959
X286.8808 Y25.844
X286.8579 Y25.7921
X286.8549 Y25.7858
X286.826 Y25.7307
X286.7922 Y25.6757
X286.7478 Y25.6142
X286.7071 Y25.5656
X286.6742 Y25.5307
X286.6377 Y25.4959
X286.5901 Y25.4555
X286.5276 Y25.41
X286.4726 Y25.3759
X286.4175 Y25.3467
X286.4149 Y25.3454
X286.3611 Y25.3213
X286.3074 Y25.3011
X286.2523 Y25.2842
X286.1973 Y25.2707
X286.1422 Y25.2607
X286.0872 Y25.254
X286.0321 Y25.2506
X285.9771 Y25.25
X213.0846
X212.9745 Y25.2504
X212.9195 Y25.2534
X212.8644 Y25.2598
X212.8094 Y25.2694
X212.7543 Y25.2823
X212.6993 Y25.2989
X212.6442 Y25.3192
X212.5852 Y25.3454
X212.5341 Y25.3721
X212.479 Y25.4056
X212.424 Y25.4446
X212.4099 Y25.4555
X212.3619 Y25.4962
X212.3139 Y25.543
X212.2929 Y25.5656
X212.2471 Y25.6206
X212.2078 Y25.6757
X212.2038 Y25.6818
X212.1723 Y25.7338
X212.1451 Y25.7858
X212.1205 Y25.8408
X212.1 Y25.8959
X212.0937 Y25.9153
X212.0807 Y25.9607
X212.07 Y26.006
X212.0602 Y26.061
X212.0537 Y26.1161
X212.0504 Y26.1711
X212.05 Y26.2262
Y85.048
X212.0479 Y85.05
X128.9514
X128.95 Y85.048
Y26.2262
X128.9496 Y26.1711
X128.9463 Y26.1161
X128.9398 Y26.061
X128.93 Y26.006
X128.9168 Y25.9509
X128.9 Y25.8959
X128.8795 Y25.8408
X128.8549 Y25.7858
X128.851 Y25.7777
X128.8237 Y25.7267
X128.7922 Y25.6757
X128.7677 Y25.6405
X128.7408 Y25.6053
X128.7071 Y25.5656
X128.6689 Y25.5254
X128.6307 Y25.4896
X128.5901 Y25.4555
X128.5553 Y25.4292
X128.5206 Y25.4054
X128.4677 Y25.3731
X128.4148 Y25.3454
X128.4105 Y25.3433
X128.3555 Y25.319
X128.3004 Y25.2988
X128.2453 Y25.2823
X128.1903 Y25.2693
X128.1352 Y25.2597
X128.0802 Y25.2534
X127.9701 Y25.25
X0.0229
X-0.0321 Y25.2506
X-0.0872 Y25.254
X-0.1422 Y25.2607
X-0.1973 Y25.2707
X-0.2523 Y25.2842
X-0.3074 Y25.3011
X-0.3611 Y25.3213
X-0.4148 Y25.3454
X-0.4175 Y25.3467
X-0.4726 Y25.3759
X-0.5276 Y25.41
X-0.5901 Y25.4555
X-0.6377 Y25.4959
X-0.6742 Y25.5307
X-0.7071 Y25.5656
X-0.7478 Y25.6142
X-0.7922 Y25.6757
X-0.826 Y25.7307
X-0.8549 Y25.7858
X-0.8579 Y25.7921
X-0.8776 Y25.8363
X-0.895 Y25.8814
X-0.9101 Y25.9274 Z-1.0001
X-0.9228 Y25.9741
X-0.9331 Y26.0214
X-0.9409 Y26.0692 Z-1.0002
X-0.9464 Y26.1173 Z-1.0003
X-0.9494 Y26.1656 Z-1.0004
X-0.95 Y26.3591 Z-1.0008
Y26.5527 Z-1.0015
Y26.7463 Z-1.0023
Y26.9399 Z-1.0033
Y27.1334 Z-1.0045
Y27.327 Z-1.0058
Y27.5206 Z-1.0073
Y27.7142 Z-1.009
Y27.9077 Z-1.0109
Y28.1013 Z-1.0129
Y28.2949 Z-1.0151
Y28.4884 Z-1.0174
Y28.682 Z-1.0199
Y28.8756 Z-1.0225
Y29.0692 Z-1.0253
Y29.2627 Z-1.0283
Y29.4563 Z-1.0314
Y29.6499 Z-1.0347
Y29.8435 Z-1.0381
Y30.037 Z-1.0416
Y30.2306 Z-1.0453
Y30.4242 Z-1.0491
Y30.6178 Z-1.0531
Y30.8113 Z-1.0572
Y31.0049 Z-1.0614
Y31.1985 Z-1.0658
Y31.3921 Z-1.0702
Y31.5856 Z-1.0749
Y31.7792 Z-1.0796
Y31.9728 Z-1.0845
Y32.1664 Z-1.0894
Y32.2632 Z-1.092
Y32.3599 Z-1.0945
Y32.4567 Z-1.0971
Y32.5535 Z-1.0997
Y32.6503 Z-1.1024
Y32.7471 Z-1.1051
Y32.8439 Z-1.1078
Y32.9407 Z-1.1105
Y33.0375 Z-1.1133
Y33.1342 Z-1.1161
Y33.231 Z-1.1189
Y33.3278 Z-1.1217
Y33.4246 Z-1.1246
Y33.5214 Z-1.1275
Y33.6182 Z-1.1304
Y33.715 Z-1.1334
Y33.8118 Z-1.1363
Y33.9085 Z-1.1393
Y34.0053 Z-1.1423
Y34.1021 Z-1.1454
Y34.1989 Z-1.1485
Y34.2957 Z-1.1516
Y34.3925 Z-1.1547
Y34.4893 Z-1.1578
Y34.5861 Z-1.161
Y34.6828 Z-1.1642
Y34.7796 Z-1.1674
Y34.8764 Z-1.1706
Y34.9732 Z-1.1739
Y35.07 Z-1.1772
Y35.1668 Z-1.1805
Y35.2636 Z-1.1838
Y35.3604 Z-1.1871
Y35.5539 Z-1.1939
Y35.6507 Z-1.1972
Y35.7475 Z-1.2006
Y35.8443 Z-1.204
Y35.9411 Z-1.2074
Y36.0379 Z-1.2108
Y36.1347 Z-1.2141
Y36.2314 Z-1.2175
Y36.3282 Z-1.2209
Y36.425 Z-1.2243
Y36.5218 Z-1.2277
Y36.6186 Z-1.231
Y36.7154 Z-1.2344
Y36.9089 Z-1.2412
Y37.1993 Z-1.2513
Y37.4897 Z-1.2614
Y37.78 Z-1.2716
Y38.0704 Z-1.2817
Y38.3608 Z-1.2919
Y38.6511 Z-1.302
Y38.9415 Z-1.3121
Y39.2318 Z-1.3223
Y39.5222 Z-1.3324
Y39.8126 Z-1.3426
Y39.9094 Z-1.3459
Y40.0061 Z-1.3493
X-0.9484 Y40.0545 Z-1.351
X-0.9444 Y40.1027 Z-1.3527
X-0.938 Y40.1507 Z-1.3544
X-0.9291 Y40.1983 Z-1.3561
X-0.9178 Y40.2453 Z-1.3578
X-0.9041 Y40.2918 Z-1.3594
X-0.8881 Y40.3374 Z-1.3611
X-0.8697 Y40.3822 Z-1.3628
X-0.8491 Y40.426 Z-1.3645
X-0.8263 Y40.4687 Z-1.3662
X-0.8014 Y40.5102 Z-1.3679
X-0.7744 Y40.5503 Z-1.3696
X-0.7453 Y40.589 Z-1.3713
X-0.7144 Y40.6262 Z-1.3729
X-0.6816 Y40.6618 Z-1.3746
X-0.647 Y40.6956 Z-1.3763
X-0.6107 Y40.7277 Z-1.378
X-0.5729 Y40.7579 Z-1.3797
X-0.5335 Y40.786 Z-1.3814
X-0.4928 Y40.8122 Z-1.3831
X-0.4508 Y40.8362 Z-1.3848
X-0.4076 Y40.8581 Z-1.3864
X-0.3634 Y40.8778 Z-1.3881
X-0.3182 Y40.8951 Z-1.3898
X-0.2722 Y40.9102 Z-1.3915
X-0.2255 Y40.9228 Z-1.3932
X-0.1782 Y40.9331 Z-1.3949
X-0.1305 Y40.941 Z-1.3966
X-0.0824 Y40.9464 Z-1.3983
X-0.0341 Y40.9494 Z-1.3999
X0.0627 Y40.95 Z-1.4033
X0.7402 Z-1.427
X1.8049 Z-1.4641
X3.7406 Z-1.5317
X5.9667 Z-1.6095
X6.6443 Z-1.6331
X7.1282 Z-1.65
X7.6121 Z-1.6669
X7.9025 Z-1.677
X8.1929 Z-1.6872
X8.4832 Z-1.6973
X8.7736 Z-1.7075
X9.0639 Z-1.7176
X9.3543 Z-1.7277
X9.6447 Z-1.7379
X9.935 Z-1.748
X10.2254 Z-1.7581
X10.5157 Z-1.7683
X10.6125 Z-1.7717
X10.7093 Z-1.775
X10.8061 Z-1.7784
X10.9029 Z-1.7818
X10.9997 Z-1.7852
X11.0965 Z-1.7886
X11.1933 Z-1.7919
X11.29 Z-1.7953
X11.3868 Z-1.7987
X11.4836 Z-1.8021
X11.5804 Z-1.8055
X11.6772 Z-1.8088
X11.774 Z-1.8122
X11.8708 Z-1.8156
X11.9676 Z-1.8189
X12.0643 Z-1.8222
X12.1611 Z-1.8255
X12.2579 Z-1.8287
X12.3547 Z-1.832
X12.4515 Z-1.8352
X12.5483 Z-1.8384
X12.6451 Z-1.8415
X12.7419 Z-1.8447
X12.8386 Z-1.8478
X12.9354 Z-1.8509
X13.0322 Z-1.854
X13.129 Z-1.857
X13.2258 Z-1.8601
X13.3226 Z-1.8631
X13.4194 Z-1.8661
X13.5162 Z-1.869
X13.6129 Z-1.8719
X13.7097 Z-1.8748
X13.8065 Z-1.8777
X13.9033 Z-1.8806
X14.0001 Z-1.8834
X14.0969 Z-1.8862
X14.1937 Z-1.8889
X14.2905 Z-1.8917
X14.3872 Z-1.8944
X14.484 Z-1.8971
X14.5808 Z-1.8997
X14.6776 Z-1.9024
X14.7744 Z-1.905
X14.8712 Z-1.9075
X14.968 Z-1.9101
X15.0648 Z-1.9126
X15.2583 Z-1.9175
X15.4519 Z-1.9223
X15.6455 Z-1.927
X15.8391 Z-1.9316
X16.0326 Z-1.936
X16.2262 Z-1.9403
X16.4198 Z-1.9445
X16.6133 Z-1.9485
X16.8069 Z-1.9524
X17.0005 Z-1.9562
X17.1941 Z-1.9598
X17.3876 Z-1.9633
X17.5812 Z-1.9667
X17.7748 Z-1.9699
X17.9684 Z-1.9729
X18.1619 Z-1.9758
X18.3555 Z-1.9785
X18.5491 Z-1.9811
X18.7427 Z-1.9836
X18.9362 Z-1.9858
X19.1298 Z-1.9879
X19.3234 Z-1.9899
X19.517 Z-1.9917
X19.7105 Z-1.9933
X19.9041 Z-1.9947
X20.0977 Y40.9517 Z-1.996
X20.2908 Y40.9641 Z-1.9971
X20.4828 Y40.989 Z-1.9981
X20.6729 Y41.025 Z-1.9988
X20.8601 Y41.0745 Z-1.9994
X21.0442 Y41.1343 Z-1.9998
X21.2237 Y41.2066 Z-2
X21.3288 Y41.2558
X21.3842 Y41.2828
X21.4361 Y41.3097
X21.4943 Y41.3415
X21.6044 Y41.4065
X21.6256 Y41.4198
X21.7145 Y41.4776
X21.7893 Y41.5299
X21.8246 Y41.5559
X21.9314 Y41.64
X21.9347 Y41.6428
X22.0448 Y41.7376
X22.0587 Y41.7501
X22.1549 Y41.8423
X22.173 Y41.8602
X22.265 Y41.9576
X22.2765 Y41.9703
X22.3698 Y42.0804
X22.3751 Y42.087
X22.4548 Y42.1905
X22.4853 Y42.2324
X22.5322 Y42.3006
X22.5954 Y42.3981
X22.6033 Y42.4107
X22.667 Y42.5208
X22.7055 Y42.5922
X22.7253 Y42.6309
X22.7778 Y42.741
X22.8156 Y42.8278
X22.825 Y42.8511
X22.8675 Y42.9612
X22.9049 Y43.0713
X22.9257 Y43.1394
X22.9379 Y43.1814
X22.9662 Y43.2915
X22.9907 Y43.4016
X23.0103 Y43.5117
X23.0264 Y43.6218
X23.0358 Y43.7085
X23.0379 Y43.7319
X23.0457 Y43.842
X23.0494 Y43.9521
X23.05 Y44.0622
Y66.9628
X23.0491 Y67.0729
X23.0442 Y67.183
X23.0358 Y67.2915
X23.0357 Y67.2931
X23.0229 Y67.4032
X23.0063 Y67.5133
X22.9854 Y67.6234
X22.9602 Y67.7335
X22.9307 Y67.8436
X22.9257 Y67.8606
X22.8968 Y67.9537
X22.8581 Y68.0638
X22.8156 Y68.1722
X22.8149 Y68.1739
X22.7663 Y68.284
X22.7127 Y68.3941
X22.7055 Y68.4078
X22.653 Y68.5042
X22.5954 Y68.6018
X22.5875 Y68.6143
X22.5154 Y68.7244
X22.4853 Y68.7676
X22.4363 Y68.8345
X22.3751 Y68.913
X22.3493 Y68.9446
X22.265 Y69.0424
X22.2539 Y69.0547
X22.1549 Y69.1578
X22.1479 Y69.1648
X22.0448 Y69.2624
X22.0311 Y69.2749
X21.9347 Y69.3572
X21.9008 Y69.385
X21.8246 Y69.4441
X21.7539 Y69.4951
X21.7145 Y69.5224
X21.6044 Y69.5935
X21.5855 Y69.6052
X21.4943 Y69.6585
X21.3881 Y69.7153
X21.3842 Y69.7172
X21.2741 Y69.7709
X21.1639 Y69.8191
X21.1487 Y69.8253
X21.0538 Y69.8622
X20.9437 Y69.9
X20.8336 Y69.9332
X20.8261 Y69.9354
X20.7235 Y69.9626
X20.6134 Y69.9878
X20.5033 Y70.0076
X20.3932 Y70.0243
X20.2831 Y70.0365
X20.173 Y70.0449
X20.1614 Y70.0455
X20.0628 Y70.0493
X19.9527 Y70.05
X0.0229
X-0.0321 Y70.0505
X-0.0872 Y70.054
X-0.1422 Y70.0607
X-0.1973 Y70.0707
X-0.2523 Y70.0841
X-0.3074 Y70.1011
X-0.3624 Y70.1218
X-0.4175 Y70.1466
X-0.4354 Y70.1556
X-0.4815 Y70.1811
X-0.5276 Y70.21
X-0.5652 Y70.2364
X-0.6028 Y70.2657
X-0.6377 Y70.2958
X-0.6793 Y70.3358
X-0.7162 Y70.3758
X-0.7478 Y70.4141
X-0.7746 Y70.45
X-0.7989 Y70.4859
X-0.8306 Y70.539
X-0.8579 Y70.592
X-0.8598 Y70.596
X-0.8836 Y70.6511
X-0.9034 Y70.7061
X-0.9195 Y70.7612
X-0.9321 Y70.8162
X-0.9412 Y70.8713
X-0.9471 Y70.9263
X-0.95 Y71.0364
Y128.9485
X-0.9482 Y129.0586
X-0.9432 Y129.1136
X-0.9349 Y129.1687
X-0.9233 Y129.2237
X-0.9082 Y129.2788
X-0.8894 Y129.3338
X-0.8668 Y129.3889
X-0.8579 Y129.408
X-0.8348 Y129.4535
X-0.8084 Y129.499
X-0.7799 Y129.5424
X-0.7478 Y129.5859
X-0.7291 Y129.6091
X-0.6866 Y129.6566
X-0.6377 Y129.7041
X-0.6207 Y129.7192
X-0.5742 Y129.7569
X-0.5276 Y129.79
X-0.4635 Y129.8293
X-0.4175 Y129.8533
X-0.3624 Y129.8781
X-0.3074 Y129.8989
X-0.2523 Y129.9159
X-0.1973 Y129.9293
X-0.1418 Y129.9394
X-0.0872 Y129.946
X-0.0321 Y129.9495
X0.0229 Y129.95
X285.9771
X286.0321 Y129.9495
X286.0872 Y129.946
X286.1418 Y129.9394
X286.1973 Y129.9293
X286.2523 Y129.9159
X286.3074 Y129.8989
X286.3625 Y129.8781
X286.4175 Y129.8533
X286.4635 Y129.8293
X286.5276 Y129.79
X286.5742 Y129.7569
X286.6208 Y129.7192
X286.6377 Y129.7041
X286.6866 Y129.6566
X286.7291 Y129.6091
X286.7478 Y129.5859
X286.7799 Y129.5424
X286.8084 Y129.499
X286.8348 Y129.4535
X286.8579 Y129.408
X286.8668 Y129.3889
X286.8894 Y129.3338
X286.9082 Y129.2788
X286.9233 Y129.2237
X286.9349 Y129.1687
X286.9432 Y129.1136
X286.9482 Y129.0586
X286.95 Y128.9485
Y71.0364
X286.9471 Y70.9263
X286.9413 Y70.8713
X286.9321 Y70.8162
X286.9195 Y70.7612
X286.9034 Y70.7061
X286.8836 Y70.6511
X286.8599 Y70.596
X286.8579 Y70.592
X286.8307 Y70.539
X286.7989 Y70.4859
X286.7746 Y70.45
X286.7478 Y70.4141
X286.7162 Y70.3758
X286.6793 Y70.3358
X286.6377 Y70.2958
X286.6028 Y70.2657
X286.5652 Y70.2364
X286.5276 Y70.21
X286.4815 Y70.1811
X286.4354 Y70.1556
X286.4175 Y70.1466
X286.3625 Y70.1218
X286.3074 Y70.1011
X286.2523 Y70.0841
X286.1973 Y70.0707
X286.1422 Y70.0607
X286.0872 Y70.054
X286.0321 Y70.0505
X285.9771 Y70.05
X268.0292
X267.9191 Y70.049
X267.8389 Y70.0455
X267.809 Y70.0438
X267.6989 Y70.0349
X267.5888 Y70.0217
X267.4787 Y70.0047
X267.3686 Y69.984
X267.2585 Y69.9581
X267.1743 Y69.9354
X267.1484 Y69.9279
X267.0383 Y69.8944
X266.9282 Y69.8549
X266.8527 Y69.8253
X266.818 Y69.8116
X266.7079 Y69.7626
X266.6116 Y69.7153
X266.5978 Y69.7081
X266.4877 Y69.6483
X266.4142 Y69.6052
X266.3776 Y69.5822
X266.2675 Y69.5098
X266.2463 Y69.4951
X266.1574 Y69.4306
X266.0992 Y69.385
X266.0473 Y69.3424
X265.9686 Y69.2749
X265.9372 Y69.2464
X265.8523 Y69.1648
X265.8271 Y69.1396
X265.7462 Y69.0547
X265.7169 Y69.0223
X265.6509 Y68.9446
X265.6068 Y68.8903
X265.5633 Y68.8345
X265.4967 Y68.7419
X265.4845 Y68.7244
X265.4127 Y68.6143
X265.3866 Y68.5719
X265.347 Y68.5042
X265.2877 Y68.3941
X265.2765 Y68.372
X265.2337 Y68.284
X265.1852 Y68.1739
X265.1664 Y68.1266
X265.1419 Y68.0638
X265.1031 Y67.9537
X265.0698 Y67.8436
X265.0563 Y67.7952
X265.0399 Y67.7335
X265.0143 Y67.6234
X264.994 Y67.5133
X264.9772 Y67.4032
X264.9644 Y67.2931
X264.9557 Y67.183
X264.9508 Y67.0729
X264.95 Y66.9628
Y44.0622
X264.9505 Y43.9521
X264.9543 Y43.842
X264.9621 Y43.7319
X264.9737 Y43.6218
X264.9899 Y43.5117
X265.0092 Y43.4016
X265.0337 Y43.2915
X265.0563 Y43.2048
X265.0626 Y43.1814
X265.0952 Y43.0713
X265.1323 Y42.9612
X265.1664 Y42.8734
X265.1753 Y42.8511
X265.2221 Y42.741
X265.275 Y42.6309
X265.2765 Y42.628
X265.333 Y42.5208
X265.3866 Y42.4281
X265.3969 Y42.4107
X265.4678 Y42.3006
X265.4967 Y42.2581
X265.5449 Y42.1905
X265.6068 Y42.1097
X265.6305 Y42.0804
X265.7169 Y41.9777
X265.7236 Y41.9703
X265.8271 Y41.8605
X265.9372 Y41.7536
X265.941 Y41.7501
X266.0473 Y41.6576
X266.0687 Y41.64
X266.1574 Y41.5694
X266.2108 Y41.5299
X266.2675 Y41.4902
X266.3744 Y41.4198
X266.3776 Y41.4178
X266.4877 Y41.3516
X266.5638 Y41.3097
X266.5978 Y41.2919
X266.7079 Y41.2374
X266.792 Y41.1996
X266.818 Y41.1882
X266.9282 Y41.1446
X267.0383 Y41.1056
X267.0892 Y41.0895
X267.1484 Y41.0721
X267.2585 Y41.0419
X267.3686 Y41.016
X267.4787 Y40.9953
X267.581 Y40.9794
X267.5888 Y40.9783
X267.6989 Y40.9651
X267.809 Y40.9562
X267.9191 Y40.951
X268.0292 Y40.95
X285.9771
X286.0321 Y40.9495
X286.0872 Y40.946
X286.1422 Y40.9393
X286.1973 Y40.9293
X286.2523 Y40.9159
X286.3074 Y40.8989
X286.3831 Y40.8693
X286.4175 Y40.8533
X286.4726 Y40.8241
X286.5276 Y40.79
X286.571 Y40.7592
X286.6044 Y40.733
X286.6377 Y40.7041
X286.6936 Y40.6491
X286.722 Y40.6175
X286.7478 Y40.5859
X286.7823 Y40.539
X286.8175 Y40.484
X286.8477 Y40.4289
X286.8579 Y40.408
X286.8777 Y40.3634
X286.8949 Y40.3188
X286.9127 Y40.2638
X286.9268 Y40.2087
X286.9375 Y40.1537
X286.9449 Y40.0986
X286.949 Y40.0436
X286.95 Y39.9885
Y26.2262
X286.9496 Y26.1711
X286.9463 Y26.1161
X286.9398 Y26.061
X286.93 Y26.006
X286.9168 Y25.9509
X286.9 Y25.8959
X286.8808 Y25.844
X286.8579 Y25.7921
X286.8549 Y25.7858
X286.826 Y25.7307
X286.7922 Y25.6757
X286.7478 Y25.6142
X286.7071 Y25.5656
X286.6742 Y25.5307
X286.6377 Y25.4959
X286.5901 Y25.4555
X286.5276 Y25.41
X286.4726 Y25.3759
X286.4175 Y25.3467
X286.4149 Y25.3454
X286.3611 Y25.3213
X286.3074 Y25.3011
X286.2523 Y25.2842
X286.1973 Y25.2707
X286.1422 Y25.2607
X286.0872 Y25.254
X286.0321 Y25.2506
X285.9771 Y25.25
X213.0846
X212.9745 Y25.2504
X212.9195 Y25.2534
X212.8644 Y25.2598
X212.8094 Y25.2694
X212.7543 Y25.2823
X212.6993 Y25.2989
X212.6442 Y25.3192
X212.5852 Y25.3454
X212.5341 Y25.3721
X212.479 Y25.4056
X212.424 Y25.4446
X212.4099 Y25.4555
X212.3619 Y25.4962
X212.3139 Y25.543
X212.2929 Y25.5656
X212.2471 Y25.6206
X212.2078 Y25.6757
X212.2038 Y25.6818
X212.1723 Y25.7338
X212.1451 Y25.7858
X212.1205 Y25.8408
X212.1 Y25.8959
X212.0937 Y25.9153
X212.0807 Y25.9607
X212.07 Y26.006
X212.0602 Y26.061
X212.0537 Y26.1161
X212.0504 Y26.1711
X212.05 Y26.2262
Y85.048
X212.0479 Y85.05
X128.9514
X128.95 Y85.048
Y26.2262
X128.9496 Y26.1711
X128.9463 Y26.1161
X128.9398 Y26.061
X128.93 Y26.006
X128.9168 Y25.9509
X128.9 Y25.8959
X128.8795 Y25.8408
X128.8549 Y25.7858
X128.851 Y25.7777
X128.8237 Y25.7267
X128.7922 Y25.6757
X128.7677 Y25.6405
X128.7408 Y25.6053
X128.7071 Y25.5656
X128.6689 Y25.5254
X128.6307 Y25.4896
X128.5901 Y25.4555
X128.5553 Y25.4292
X128.5206 Y25.4054
X128.4677 Y25.3731
X128.4148 Y25.3454
X128.4105 Y25.3433
X128.3555 Y25.319
X128.3004 Y25.2988
X128.2453 Y25.2823
X128.1903 Y25.2693
X128.1352 Y25.2597
X128.0802 Y25.2534
X127.9701 Y25.25
X0.0229
X-0.0321 Y25.2506
X-0.0872 Y25.254
X-0.1422 Y25.2607
X-0.1973 Y25.2707
X-0.2523 Y25.2842
X-0.3074 Y25.3011
X-0.3611 Y25.3213
X-0.4148 Y25.3454
X-0.4175 Y25.3467
X-0.4726 Y25.3759
X-0.5276 Y25.41
X-0.5901 Y25.4555
X-0.6377 Y25.4959
X-0.6742 Y25.5307
X-0.7071 Y25.5656
X-0.7478 Y25.6142
X-0.7922 Y25.6757
X-0.826 Y25.7307
X-0.8549 Y25.7858
X-0.8579 Y25.7921
X-0.8808 Y25.844
X-0.9 Y25.8959
X-0.9168 Y25.9509
X-0.93 Y26.006
X-0.9398 Y26.061
X-0.9463 Y26.1161
X-0.9496 Y26.1711
X-0.95 Y26.2262
Y39.9885
X-0.949 Y40.0436
X-0.9449 Y40.0986
X-0.9375 Y40.1537
X-0.9268 Y40.2087
X-0.9126 Y40.2638
X-0.8949 Y40.3188
X-0.8777 Y40.3634
X-0.8579 Y40.408
X-0.8476 Y40.4289
X-0.8175 Y40.484
X-0.7823 Y40.539
X-0.7478 Y40.5859
X-0.7219 Y40.6175
X-0.6936 Y40.6491
X-0.6377 Y40.7041
X-0.6044 Y40.733
X-0.571 Y40.7592
X-0.5276 Y40.79
X-0.4726 Y40.8241
X-0.4175 Y40.8533
X-0.3831 Y40.8693
X-0.3074 Y40.8989
X-0.2523 Y40.9159
X-0.1973 Y40.9293
X-0.1422 Y40.9393
X-0.0872 Y40.946
X-0.0321 Y40.9495
X0.0229 Y40.95
X19.9527
X20.0628 Y40.9507
X20.173 Y40.9551
X20.2831 Y40.9634
X20.3932 Y40.9757
X20.4193 Y40.9794
X20.5033 Y40.9924
X20.6134 Y41.0122
X20.7235 Y41.0374
X20.8336 Y41.0667
X20.9108 Y41.0895
X20.9437 Y41.1
X21.0538 Y41.138
X21.1639 Y41.1812
X21.2079 Y41.1996
X21.2741 Y41.2291
X21.3288 Y41.2558
X21.5005 Y41.345 Z-2.0001
X21.6659 Y41.4455 Z-2.0004
X21.8248 Y41.5561 Z-2.0008
X21.9759 Y41.6771 Z-2.0015
X22.1192 Y41.8072 Z-2.0023
X22.2543 Y41.9458 Z-2.0033
X22.38 Y42.0929 Z-2.0045
X22.496 Y42.2479 Z-2.0058
X22.6025 Y42.4095 Z-2.0073
X22.6979 Y42.5779 Z-2.009
X22.7827 Y42.7519 Z-2.0109
X22.8562 Y42.931 Z-2.0129
X22.9183 Y43.1143 Z-2.0151
X22.9686 Y43.3012 Z-2.0174
X23.007 Y43.4909 Z-2.0199
X23.0332 Y43.6826 Z-2.0225
X23.0472 Y43.8757 Z-2.0253
X23.05 Y44.0692 Z-2.0283
Y44.2628 Z-2.0314
Y44.4564 Z-2.0347
Y44.65 Z-2.0381
Y44.8435 Z-2.0416
Y45.0371 Z-2.0453
Y45.2307 Z-2.0491
Y45.4243 Z-2.0531
Y45.6178 Z-2.0572
Y45.8114 Z-2.0614
Y46.005 Z-2.0658
Y46.1986 Z-2.0702
Y46.3921 Z-2.0749
Y46.5857 Z-2.0796
Y46.7793 Z-2.0845
Y46.9729 Z-2.0894
Y47.0696 Z-2.092
Y47.1664 Z-2.0945
Y47.2632 Z-2.0971
Y47.36 Z-2.0997
Y47.4568 Z-2.1024
Y47.5536 Z-2.1051
Y47.6504 Z-2.1078
Y47.7472 Z-2.1105
Y47.8439 Z-2.1133
Y47.9407 Z-2.1161
Y48.0375 Z-2.1189
Y48.1343 Z-2.1217
Y48.2311 Z-2.1246
Y48.3279 Z-2.1275
Y48.4247 Z-2.1304
Y48.5215 Z-2.1334
Y48.6182 Z-2.1363
Y48.715 Z-2.1393
Y48.8118 Z-2.1423
Y48.9086 Z-2.1454
Y49.0054 Z-2.1485
Y49.1022 Z-2.1516
Y49.199 Z-2.1547
Y49.2957 Z-2.1578
Y49.3925 Z-2.161
Y49.4893 Z-2.1642
Y49.5861 Z-2.1674
Y49.6829 Z-2.1706
Y49.7797 Z-2.1739
Y49.8765 Z-2.1772
Y49.9733 Z-2.1805
Y50.07 Z-2.1838
Y50.1668 Z-2.1871
Y50.3604 Z-2.1939
Y50.4572 Z-2.1972
Y50.554 Z-2.2006
Y50.6508 Z-2.204
Y50.7476 Z-2.2074
Y50.8443 Z-2.2108
Y50.9411 Z-2.2141
Y51.0379 Z-2.2175
Y51.1347 Z-2.2209
Y51.2315 Z-2.2243
Y51.3283 Z-2.2277
Y51.4251 Z-2.231
Y51.5219 Z-2.2344
Y51.7154 Z-2.2412
Y52.0058 Z-2.2513
Y52.2962 Z-2.2614
Y52.5865 Z-2.2716
Y52.8769 Z-2.2817
Y53.1672 Z-2.2919
Y53.4576 Z-2.302
Y53.748 Z-2.3121
Y54.0383 Z-2.3223
Y54.3287 Z-2.3324
Y54.6191 Z-2.3426
Y55.103 Z-2.3595
Y55.5869 Z-2.3764
Y56.0709 Z-2.3933
Y56.7484 Z-2.4169
Y57.6195 Z-2.4473
Y59.0713 Z-2.498
Y66.04 Z-2.7413
Y66.3303 Z-2.7515
Y66.6207 Z-2.7616
Y66.7175 Z-2.765
Y66.8143 Z-2.7684
Y66.911 Z-2.7717
X23.0498 Y67.0078 Z-2.7751
X23.0479 Y67.1046 Z-2.7785
X23.043 Y67.2013 Z-2.7819
X23.0353 Y67.2977 Z-2.7853
X23.0242 Y67.3939 Z-2.7886
X23.0101 Y67.4897 Z-2.792
X22.9932 Y67.585 Z-2.7954
X22.9732 Y67.6796 Z-2.7988
X22.9499 Y67.7736 Z-2.8022
X22.9239 Y67.8668 Z-2.8055
X22.895 Y67.9592 Z-2.8089
X22.8631 Y68.0506 Z-2.8123
X22.8282 Y68.1409 Z-2.8156
X22.7906 Y68.23 Z-2.819
X22.7505 Y68.3181 Z-2.8223
X22.7071 Y68.4047 Z-2.8255
X22.6611 Y68.4898 Z-2.8288
X22.6126 Y68.5736 Z-2.832
X22.5613 Y68.6556 Z-2.8353
X22.5073 Y68.736 Z-2.8384
X22.4509 Y68.8147 Z-2.8416
X22.3922 Y68.8916 Z-2.8448
X22.331 Y68.9666 Z-2.8479
X22.2675 Y69.0396 Z-2.851
X22.2016 Y69.1105 Z-2.8541
X22.1334 Y69.1791 Z-2.8571
X22.0632 Y69.2458 Z-2.8601
X21.9908 Y69.3101 Z-2.8631
X21.9165 Y69.3721 Z-2.8661
X21.8407 Y69.4322 Z-2.8691
X21.7624 Y69.4891 Z-2.872
X21.6824 Y69.5436 Z-2.8749
X21.6008 Y69.5957 Z-2.8778
X21.5177 Y69.6453 Z-2.8806
X21.4329 Y69.692 Z-2.8834
X21.3467 Y69.7361 Z-2.8862
X21.2593 Y69.7777 Z-2.889
X21.1706 Y69.8164 Z-2.8917
X21.0807 Y69.8522 Z-2.8944
X20.9896 Y69.885 Z-2.8971
X20.8975 Y69.9145 Z-2.8998
X20.8044 Y69.9413 Z-2.9024
X20.7108 Y69.9657 Z-2.905
X20.6164 Y69.9871 Z-2.9076
X20.5212 Y70.0047 Z-2.9101
X20.4256 Y70.0197 Z-2.9126
X20.2332 Y70.0411 Z-2.9176
X20.0399 Y70.0495 Z-2.9224
X19.8463 Y70.05 Z-2.9271
X19.6527 Z-2.9316
X19.4591 Z-2.9361
X19.2656 Z-2.9404
X19.072 Z-2.9445
X18.8784 Z-2.9486
X18.6848 Z-2.9525
X18.4913 Z-2.9562
X18.2977 Z-2.9599
X18.1041 Z-2.9634
X17.9105 Z-2.9667
X17.717 Z-2.9699
X17.5234 Z-2.9729
X17.3298 Z-2.9758
X17.1362 Z-2.9786
X16.9427 Z-2.9812
X16.7491 Z-2.9836
X16.5555 Z-2.9859
X16.3619 Z-2.988
X16.1684 Z-2.9899
X15.9748 Z-2.9917
X15.7812 Z-2.9933
X15.5876 Z-2.9948
X15.3941 Z-2.996
X15.2005 Z-2.9971
X15.0069 Z-2.9981
X14.8133 Z-2.9988
X14.6198 Z-2.9994
X14.4262 Z-2.9998
X14.2326 Z-3
X14.1187
X0.0229
X-0.0321 Y70.0505
X-0.0872 Y70.054
X-0.1422 Y70.0607
X-0.1973 Y70.0707
X-0.2523 Y70.0841
X-0.3074 Y70.1011
X-0.3624 Y70.1218
X-0.4175 Y70.1466
X-0.4354 Y70.1556
X-0.4815 Y70.1811
X-0.5276 Y70.21
X-0.5652 Y70.2364
X-0.6028 Y70.2657
X-0.6377 Y70.2958
X-0.6793 Y70.3358
X-0.7162 Y70.3758
X-0.7478 Y70.4141
X-0.7746 Y70.45
X-0.7989 Y70.4859
X-0.8306 Y70.539
X-0.8579 Y70.592
X-0.8598 Y70.596
X-0.8836 Y70.6511
X-0.9034 Y70.7061
X-0.9195 Y70.7612
X-0.9321 Y70.8162
X-0.9412 Y70.8713
X-0.9471 Y70.9263
X-0.95 Y71.0364
Y128.9485
X-0.9482 Y129.0586
X-0.9432 Y129.1136
X-0.9349 Y129.1687
X-0.9233 Y129.2237
X-0.9082 Y129.2788
X-0.8894 Y129.3338
X-0.8668 Y129.3889
X-0.8579 Y129.408
X-0.8348 Y129.4535
X-0.8084 Y129.499
X-0.7799 Y129.5424
X-0.7478 Y129.5859
X-0.7291 Y129.6091
X-0.6866 Y129.6566
X-0.6377 Y129.7041
X-0.6207 Y129.7192
X-0.5742 Y129.7569
X-0.5276 Y129.79
X-0.4635 Y129.8293
X-0.4175 Y129.8533
X-0.3624 Y129.8781
X-0.3074 Y129.8989
X-0.2523 Y129.9159
X-0.1973 Y129.9293
X-0.1418 Y129.9394
X-0.0872 Y129.946
X-0.0321 Y129.9495
X0.0229 Y129.95
X285.9771
X286.0321 Y129.9495
X286.0872 Y129.946
X286.1418 Y129.9394
X286.1973 Y129.9293
X286.2523 Y129.9159
X286.3074 Y129.8989
X286.3625 Y129.8781
X286.4175 Y129.8533
X286.4635 Y129.8293
X286.5276 Y129.79
X286.5742 Y129.7569
X286.6208 Y129.7192
X286.6377 Y129.7041
X286.6866 Y129.6566
X286.7291 Y129.6091
X286.7478 Y129.5859
X286.7799 Y129.5424
X286.8084 Y129.499
X286.8348 Y129.4535
X286.8579 Y129.408
X286.8668 Y129.3889
X286.8894 Y129.3338
X286.9082 Y129.2788
X286.9233 Y129.2237
X286.9349 Y129.1687
X286.9432 Y129.1136
X286.9482 Y129.0586
X286.95 Y128.9485
Y71.0364
X286.9471 Y70.9263
X286.9413 Y70.8713
X286.9321 Y70.8162
X286.9195 Y70.7612
X286.9034 Y70.7061
X286.8836 Y70.6511
X286.8599 Y70.596
X286.8579 Y70.592
X286.8307 Y70.539
X286.7989 Y70.4859
X286.7746 Y70.45
X286.7478 Y70.4141
X286.7162 Y70.3758
X286.6793 Y70.3358
X286.6377 Y70.2958
X286.6028 Y70.2657
X286.5652 Y70.2364
X286.5276 Y70.21
X286.4815 Y70.1811
X286.4354 Y70.1556
X286.4175 Y70.1466
X286.3625 Y70.1218
X286.3074 Y70.1011
X286.2523 Y70.0841
X286.1973 Y70.0707
X286.1422 Y70.0607
X286.0872 Y70.054
X286.0321 Y70.0505
X285.9771 Y70.05
X268.0292
X267.9191 Y70.049
X267.8389 Y70.0455
X267.809 Y70.0438
X267.6989 Y70.0349
X267.5888 Y70.0217
X267.4787 Y70.0047
X267.3686 Y69.984
X267.2585 Y69.9581
X267.1743 Y69.9354
X267.1484 Y69.9279
X267.0383 Y69.8944
X266.9282 Y69.8549
X266.8527 Y69.8253
X266.818 Y69.8116
X266.7079 Y69.7626
X266.6116 Y69.7153
X266.5978 Y69.7081
X266.4877 Y69.6483
X266.4142 Y69.6052
X266.3776 Y69.5822
X266.2675 Y69.5098
X266.2463 Y69.4951
X266.1574 Y69.4306
X266.0992 Y69.385
X266.0473 Y69.3424
X265.9686 Y69.2749
X265.9372 Y69.2464
X265.8523 Y69.1648
X265.8271 Y69.1396
X265.7462 Y69.0547
X265.7169 Y69.0223
X265.6509 Y68.9446
X265.6068 Y68.8903
X265.5633 Y68.8345
X265.4967 Y68.7419
X265.4845 Y68.7244
X265.4127 Y68.6143
X265.3866 Y68.5719
X265.347 Y68.5042
X265.2877 Y68.3941
X265.2765 Y68.372
X265.2337 Y68.284
X265.1852 Y68.1739
X265.1664 Y68.1266
X265.1419 Y68.0638
X265.1031 Y67.9537
X265.0698 Y67.8436
X265.0563 Y67.7952
X265.0399 Y67.7335
X265.0143 Y67.6234
X264.994 Y67.5133
X264.9772 Y67.4032
X264.9644 Y67.2931
X264.9557 Y67.183
X264.9508 Y67.0729
X264.95 Y66.9628
Y44.0622
X264.9505 Y43.9521
X264.9543 Y43.842
X264.9621 Y43.7319
X264.9737 Y43.6218
X264.9899 Y43.5117
X265.0092 Y43.4016
X265.0337 Y43.2915
X265.0563 Y43.2048
X265.0626 Y43.1814
X265.0952 Y43.0713
X265.1323 Y42.9612
X265.1664 Y42.8734
X265.1753 Y42.8511
X265.2221 Y42.741
X265.275 Y42.6309
X265.2765 Y42.628
X265.333 Y42.5208
X265.3866 Y42.4281
X265.3969 Y42.4107
X265.4678 Y42.3006
X265.4967 Y42.2581
X265.5449 Y42.1905
X265.6068 Y42.1097
X265.6305 Y42.0804
X265.7169 Y41.9777
X265.7236 Y41.9703
X265.8271 Y41.8605
X265.9372 Y41.7536
X265.941 Y41.7501
X266.0473 Y41.6576
X266.0687 Y41.64
X266.1574 Y41.5694
X266.2108 Y41.5299
X266.2675 Y41.4902
X266.3744 Y41.4198
X266.3776 Y41.4178
X266.4877 Y41.3516
X266.5638 Y41.3097
X266.5978 Y41.2919
X266.7079 Y41.2374
X266.792 Y41.1996
X266.818 Y41.1882
X266.9282 Y41.1446
X267.0383 Y41.1056
X267.0892 Y41.0895
X267.1484 Y41.0721
X267.2585 Y41.0419
X267.3686 Y41.016
X267.4787 Y40.9953
X267.581 Y40.9794
X267.5888 Y40.9783
X267.6989 Y40.9651
X267.809 Y40.9562
X267.9191 Y40.951
X268.0292 Y40.95
X285.9771
X286.0321 Y40.9495
X286.0872 Y40.946
X286.1422 Y40.9393
X286.1973 Y40.9293
X286.2523 Y40.9159
X286.3074 Y40.8989
X286.3831 Y40.8693
X286.4175 Y40.8533
X286.4726 Y40.8241
X286.5276 Y40.79
X286.571 Y40.7592
X286.6044 Y40.733
X286.6377 Y40.7041
X286.6936 Y40.6491
X286.722 Y40.6175
X286.7478 Y40.5859
X286.7823 Y40.539
X286.8175 Y40.484
X286.8477 Y40.4289
X286.8579 Y40.408
X286.8777 Y40.3634
X286.8949 Y40.3188
X286.9127 Y40.2638
X286.9268 Y40.2087
X286.9375 Y40.1537
X286.9449 Y40.0986
X286.949 Y40.0436
X286.95 Y39.9885
Y26.2262
X286.9496 Y26.1711
X286.9463 Y26.1161
X286.9398 Y26.061
X286.93 Y26.006
X286.9168 Y25.9509
X286.9 Y25.8959
X286.8808 Y25.844
X286.8579 Y25.7921
X286.8549 Y25.7858
X286.826 Y25.7307
X286.7922 Y25.6757
X286.7478 Y25.6142
X286.7071 Y25.5656
X286.6742 Y25.5307
X286.6377 Y25.4959
X286.5901 Y25.4555
X286.5276 Y25.41
X286.4726 Y25.3759
X286.4175 Y25.3467
X286.4149 Y25.3454
X286.3611 Y25.3213
X286.3074 Y25.3011
X286.2523 Y25.2842
X286.1973 Y25.2707
X286.1422 Y25.2607
X286.0872 Y25.254
X286.0321 Y25.2506
X285.9771 Y25.25
X213.0846
X212.9745 Y25.2504
X212.9195 Y25.2534
X212.8644 Y25.2598
X212.8094 Y25.2694
X212.7543 Y25.2823
X212.6993 Y25.2989
X212.6442 Y25.3192
X212.5852 Y25.3454
X212.5341 Y25.3721
X212.479 Y25.4056
X212.424 Y25.4446
X212.4099 Y25.4555
X212.3619 Y25.4962
X212.3139 Y25.543
X212.2929 Y25.5656
X212.2471 Y25.6206
X212.2078 Y25.6757
X212.2038 Y25.6818
X212.1723 Y25.7338
X212.1451 Y25.7858
X212.1205 Y25.8408
X212.1 Y25.8959
X212.0937 Y25.9153
X212.0807 Y25.9607
X212.07 Y26.006
X212.0602 Y26.061
X212.0537 Y26.1161
X212.0504 Y26.1711
X212.05 Y26.2262
Y85.048
X212.0479 Y85.05
X128.9514
X128.95 Y85.048
Y26.2262
X128.9496 Y26.1711
X128.9463 Y26.1161
X128.9398 Y26.061
X128.93 Y26.006
X128.9168 Y25.9509
X128.9 Y25.8959
X128.8795 Y25.8408
X128.8549 Y25.7858
X128.851 Y25.7777
X128.8237 Y25.7267
X128.7922 Y25.6757
X128.7677 Y25.6405
X128.7408 Y25.6053
X128.7071 Y25.5656
X128.6689 Y25.5254
X128.6307 Y25.4896
X128.5901 Y25.4555
X128.5553 Y25.4292
X128.5206 Y25.4054
X128.4677 Y25.3731
X128.4148 Y25.3454
X128.4105 Y25.3433
X128.3555 Y25.319
X128.3004 Y25.2988
X128.2453 Y25.2823
X128.1903 Y25.2693
X128.1352 Y25.2597
X128.0802 Y25.2534
X127.9701 Y25.25
X0.0229
X-0.0321 Y25.2506
X-0.0872 Y25.254
X-0.1422 Y25.2607
X-0.1973 Y25.2707
X-0.2523 Y25.2842
X-0.3074 Y25.3011
X-0.3611 Y25.3213
X-0.4148 Y25.3454
X-0.4175 Y25.3467
X-0.4726 Y25.3759
X-0.5276 Y25.41
X-0.5901 Y25.4555
X-0.6377 Y25.4959
X-0.6742 Y25.5307
X-0.7071 Y25.5656
X-0.7478 Y25.6142
X-0.7922 Y25.6757
X-0.826 Y25.7307
X-0.8549 Y25.7858
X-0.8579 Y25.7921
X-0.8808 Y25.844
X-0.9 Y25.8959
X-0.9168 Y25.9509
X-0.93 Y26.006
X-0.9398 Y26.061
X-0.9463 Y26.1161
X-0.9496 Y26.1711
X-0.95 Y26.2262
Y39.9885
X-0.949 Y40.0436
X-0.9449 Y40.0986
X-0.9375 Y40.1537
X-0.9268 Y40.2087
X-0.9126 Y40.2638
X-0.8949 Y40.3188
X-0.8777 Y40.3634
X-0.8579 Y40.408
X-0.8476 Y40.4289
X-0.8175 Y40.484
X-0.7823 Y40.539
X-0.7478 Y40.5859
X-0.7219 Y40.6175
X-0.6936 Y40.6491
X-0.6377 Y40.7041
X-0.6044 Y40.733
X-0.571 Y40.7592
X-0.5276 Y40.79
X-0.4726 Y40.8241
X-0.4175 Y40.8533
X-0.3831 Y40.8693
X-0.3074 Y40.8989
X-0.2523 Y40.9159
X-0.1973 Y40.9293
X-0.1422 Y40.9393
X-0.0872 Y40.946
X-0.0321 Y40.9495
X0.0229 Y40.95
X19.9527
X20.0628 Y40.9507
X20.173 Y40.9551
X20.2831 Y40.9634
X20.3932 Y40.9757
X20.4193 Y40.9794
X20.5033 Y40.9924
X20.6134 Y41.0122
X20.7235 Y41.0374
X20.8336 Y41.0667
X20.9108 Y41.0895
X20.9437 Y41.1
X21.0538 Y41.138
X21.1639 Y41.1812
X21.2079 Y41.1996
X21.2741 Y41.2291
X21.3842 Y41.2828
X21.4361 Y41.3097
X21.4943 Y41.3415
X21.6044 Y41.4065
X21.6256 Y41.4198
X21.7145 Y41.4776
X21.7893 Y41.5299
X21.8246 Y41.5559
X21.9314 Y41.64
X21.9347 Y41.6428
X22.0448 Y41.7376
X22.0587 Y41.7501
X22.1549 Y41.8423
X22.173 Y41.8602
X22.265 Y41.9576
X22.2765 Y41.9703
X22.3698 Y42.0804
X22.3751 Y42.087
X22.4548 Y42.1905
X22.4853 Y42.2324
X22.5322 Y42.3006
X22.5954 Y42.3981
X22.6033 Y42.4107
X22.667 Y42.5208
X22.7055 Y42.5922
X22.7253 Y42.6309
X22.7778 Y42.741
X22.8156 Y42.8278
X22.825 Y42.8511
X22.8675 Y42.9612
X22.9049 Y43.0713
X22.9257 Y43.1394
X22.9379 Y43.1814
X22.9662 Y43.2915
X22.9907 Y43.4016
X23.0103 Y43.5117
X23.0264 Y43.6218
X23.0358 Y43.7085
X23.0379 Y43.7319
X23.0457 Y43.842
X23.0494 Y43.9521
X23.05 Y44.0622
Y66.9628
X23.0491 Y67.0729
X23.0442 Y67.183
X23.0358 Y67.2915
X23.0357 Y67.2931
X23.0229 Y67.4032
X23.0063 Y67.5133
X22.9854 Y67.6234
X22.9602 Y67.7335
X22.9307 Y67.8436
X22.9257 Y67.8606
X22.8968 Y67.9537
X22.8581 Y68.0638
X22.8156 Y68.1722
X22.8149 Y68.1739
X22.7663 Y68.284
X22.7127 Y68.3941
X22.7055 Y68.4078
X22.653 Y68.5042
X22.5954 Y68.6018
X22.5875 Y68.6143
X22.5154 Y68.7244
X22.4853 Y68.7676
X22.4363 Y68.8345
X22.3751 Y68.913
X22.3493 Y68.9446
X22.265 Y69.0424
X22.2539 Y69.0547
X22.1549 Y69.1578
X22.1479 Y69.1648
X22.0448 Y69.2624
X22.0311 Y69.2749
X21.9347 Y69.3572
X21.9008 Y69.385
X21.8246 Y69.4441
X21.7539 Y69.4951
X21.7145 Y69.5224
X21.6044 Y69.5935
X21.5855 Y69.6052
X21.4943 Y69.6585
X21.3881 Y69.7153
X21.3842 Y69.7172
X21.2741 Y69.7709
X21.1639 Y69.8191
X21.1487 Y69.8253
X21.0538 Y69.8622
X20.9437 Y69.9
X20.8336 Y69.9332
X20.8261 Y69.9354
X20.7235 Y69.9626
X20.6134 Y69.9878
X20.5033 Y70.0076
X20.3932 Y70.0243
X20.2831 Y70.0365
X20.173 Y70.0449
X20.1614 Y70.0455
X20.0628 Y70.0493
X19.9527 Y70.05
X14.1187
X13.9252 Z-3.0001
X13.7316 Z-3.0004
X13.538 Z-3.0008
X13.3444 Z-3.0015
X13.1509 Z-3.0023
X12.9573 Z-3.0033
X12.7637 Z-3.0045
X12.5701 Z-3.0058
X12.3766 Z-3.0073
X12.183 Z-3.009
X11.9894 Z-3.0109
X11.7958 Z-3.0129
X11.6023 Z-3.0151
X11.4087 Z-3.0174
X11.2151 Z-3.0199
X11.0215 Z-3.0225
X10.828 Z-3.0253
X10.6344 Z-3.0283
X10.4408 Z-3.0314
X10.2472 Z-3.0347
X10.0537 Z-3.0381
X9.8601 Z-3.0416
X9.6665 Z-3.0453
X9.4729 Z-3.0491
X9.2794 Z-3.0531
X9.0858 Z-3.0572
X8.8922 Z-3.0614
X8.6986 Z-3.0658
X8.5051 Z-3.0702
X8.3115 Z-3.0749
X8.1179 Z-3.0796
X7.9243 Z-3.0845
X7.7308 Z-3.0894
X7.634 Z-3.092
X7.5372 Z-3.0945
X7.4404 Z-3.0971
X7.3436 Z-3.0997
X7.2468 Z-3.1024
X7.15 Z-3.1051
X7.0533 Z-3.1078
X6.9565 Z-3.1105
X6.8597 Z-3.1133
X6.7629 Z-3.1161
X6.6661 Z-3.1189
X6.5693 Z-3.1217
X6.4725 Z-3.1246
X6.3757 Z-3.1275
X6.279 Z-3.1304
X6.1822 Z-3.1334
X6.0854 Z-3.1363
X5.9886 Z-3.1393
X5.8918 Z-3.1423
X5.795 Z-3.1454
X5.6982 Z-3.1485
X5.6014 Z-3.1516
X5.5047 Z-3.1547
X5.4079 Z-3.1578
X5.3111 Z-3.161
X5.2143 Z-3.1642
X5.1175 Z-3.1674
X5.0207 Z-3.1706
X4.9239 Z-3.1739
X4.8271 Z-3.1772
X4.7304 Z-3.1805
X4.6336 Z-3.1838
X4.5368 Z-3.1871
X4.3432 Z-3.1939
X4.2464 Z-3.1972
X4.1496 Z-3.2006
X4.0528 Z-3.204
X3.9561 Z-3.2074
X3.8593 Z-3.2108
X3.7625 Z-3.2141
X3.6657 Z-3.2175
X3.5689 Z-3.2209
X3.4721 Z-3.2243
X3.3753 Z-3.2277
X3.2785 Z-3.231
X3.1818 Z-3.2344
X2.9882 Z-3.2412
X2.6978 Z-3.2513
X2.4075 Z-3.2614
X2.1171 Z-3.2716
X1.8267 Z-3.2817
X1.5364 Z-3.2919
X1.246 Z-3.302
X0.9557 Z-3.3121
X0.6653 Z-3.3223
X0.3749 Z-3.3324
X0.0846 Z-3.3426
X-0.0122 Y70.0501 Z-3.3459
X-0.0606 Y70.0519 Z-3.3476
X-0.1088 Y70.0562 Z-3.3493
X-0.1567 Y70.063 Z-3.351
X-0.2042 Y70.0722 Z-3.3527
X-0.2512 Y70.0838 Z-3.3544
X-0.2975 Y70.0978 Z-3.3561
X-0.3431 Y70.1141 Z-3.3578
X-0.3878 Y70.1327 Z-3.3594
X-0.4314 Y70.1536 Z-3.3611
X-0.474 Y70.1767 Z-3.3628
X-0.5153 Y70.2019 Z-3.3645
X-0.5553 Y70.2291 Z-3.3662
X-0.5938 Y70.2584 Z-3.3679
X-0.6308 Y70.2896 Z-3.3696
X-0.6661 Y70.3227 Z-3.3712
X-0.6998 Y70.3575 Z-3.3729
X-0.7316 Y70.3939 Z-3.3746
X-0.7615 Y70.432 Z-3.3763
X-0.7894 Y70.4715 Z-3.378
X-0.8153 Y70.5124 Z-3.3797
X-0.8391 Y70.5545 Z-3.3814
X-0.8607 Y70.5978 Z-3.3831
X-0.8801 Y70.6422 Z-3.3847
X-0.8971 Y70.6875 Z-3.3864
X-0.9119 Y70.7336 Z-3.3881
X-0.9243 Y70.7804 Z-3.3898
X-0.9342 Y70.8277 Z-3.3915
X-0.9418 Y70.8755 Z-3.3932
X-0.9469 Y70.9237 Z-3.3949
X-0.9496 Y70.972 Z-3.3966
X-0.95 Y71.0688 Z-3.3999
Y71.7463 Z-3.4236
Y72.6174 Z-3.454
Y74.3596 Z-3.5148
Y77.36 Z-3.6196
Y77.8439 Z-3.6365
Y78.3278 Z-3.6534
Y78.8118 Z-3.6703
Y79.1021 Z-3.6804
Y79.3925 Z-3.6906
Y79.6829 Z-3.7007
Y79.9732 Z-3.7108
Y80.2636 Z-3.721
Y80.5539 Z-3.7311
Y80.8443 Z-3.7413
Y81.1347 Z-3.7514
Y81.425 Z-3.7615
Y81.5218 Z-3.7649
Y81.6186 Z-3.7683
Y81.7154 Z-3.7717
Y81.8122 Z-3.775
Y81.909 Z-3.7784
Y82.0058 Z-3.7818
Y82.1025 Z-3.7852
Y82.1993 Z-3.7886
Y82.2961 Z-3.7919
Y82.3929 Z-3.7953
Y82.4897 Z-3.7987
Y82.5865 Z-3.8021
Y82.6833 Z-3.8055
Y82.78 Z-3.8088
Y82.8768 Z-3.8122
Y82.9736 Z-3.8156
Y83.0704 Z-3.8189
Y83.1672 Z-3.8222
Y83.264 Z-3.8255
Y83.3608 Z-3.8287
Y83.4576 Z-3.832
Y83.5543 Z-3.8352
Y83.6511 Z-3.8384
Y83.7479 Z-3.8415
Y83.8447 Z-3.8447
Y83.9415 Z-3.8478
Y84.0383 Z-3.8509
Y84.1351 Z-3.854
Y84.2319 Z-3.857
Y84.3286 Z-3.8601
Y84.4254 Z-3.8631
Y84.5222 Z-3.8661
Y84.619 Z-3.869
Y84.7158 Z-3.8719
Y84.8126 Z-3.8748
Y84.9094 Z-3.8777
Y85.0062 Z-3.8806
Y85.1029 Z-3.8834
Y85.1997 Z-3.8862
Y85.2965 Z-3.8889
Y85.3933 Z-3.8917
Y85.4901 Z-3.8944
Y85.5869 Z-3.8971
Y85.6837 Z-3.8997
Y85.7805 Z-3.9024
Y85.8772 Z-3.905
Y85.974 Z-3.9075
Y86.0708 Z-3.9101
Y86.1676 Z-3.9126
Y86.3612 Z-3.9175
Y86.5548 Z-3.9223
Y86.7483 Z-3.927
Y86.9419 Z-3.9316
Y87.1355 Z-3.936
Y87.3291 Z-3.9403
Y87.5226 Z-3.9445
Y87.7162 Z-3.9485
Y87.9098 Z-3.9524
Y88.1033 Z-3.9562
Y88.2969 Z-3.9598
Y88.4905 Z-3.9633
Y88.6841 Z-3.9667
Y88.8776 Z-3.9699
Y89.0712 Z-3.9729
Y89.2648 Z-3.9758
Y89.4584 Z-3.9785
Y89.6519 Z-3.9811
Y89.8455 Z-3.9836
Y90.0391 Z-3.9858
Y90.2327 Z-3.9879
Y90.4262 Z-3.9899
Y90.6198 Z-3.9917
Y90.8134 Z-3.9933
Y91.007 Z-3.9947
Y91.2005 Z-3.996
Y91.3941 Z-3.9971
Y91.5877 Z-3.9981
Y91.7813 Z-3.9988
Y91.9748 Z-3.9994
Y92.1684 Z-3.9998
Y92.362 Z-4
Y92.4781
Y128.9485
X-0.9482 Y129.0586
X-0.9432 Y129.1136
X-0.9349 Y129.1687
X-0.9233 Y129.2237
X-0.9082 Y129.2788
X-0.8894 Y129.3338
X-0.8668 Y129.3889
X-0.8579 Y129.408
X-0.8348 Y129.4535
X-0.8084 Y129.499
X-0.7799 Y129.5424
X-0.7478 Y129.5859
X-0.7291 Y129.6091
X-0.6866 Y129.6566
X-0.6377 Y129.7041
X-0.6207 Y129.7192
X-0.5742 Y129.7569
X-0.5276 Y129.79
X-0.4635 Y129.8293
X-0.4175 Y129.8533
X-0.3624 Y129.8781
X-0.3074 Y129.8989
X-0.2523 Y129.9159
X-0.1973 Y129.9293
X-0.1418 Y129.9394
X-0.0872 Y129.946
X-0.0321 Y129.9495
X0.0229 Y129.95
X285.9771
X286.0321 Y129.9495
X286.0872 Y129.946
X286.1418 Y129.9394
X286.1973 Y129.9293
X286.2523 Y129.9159
X286.3074 Y129.8989
X286.3625 Y129.8781
X286.4175 Y129.8533
X286.4635 Y129.8293
X286.5276 Y129.79
X286.5742 Y129.7569
X286.6208 Y129.7192
X286.6377 Y129.7041
X286.6866 Y129.6566
X286.7291 Y129.6091
X286.7478 Y129.5859
X286.7799 Y129.5424
X286.8084 Y129.499
X286.8348 Y129.4535
X286.8579 Y129.408
X286.8668 Y129.3889
X286.8894 Y129.3338
X286.9082 Y129.2788
X286.9233 Y129.2237
X286.9349 Y129.1687
X286.9432 Y129.1136
X286.9482 Y129.0586
X286.95 Y128.9485
Y71.0364
X286.9471 Y70.9263
X286.9413 Y70.8713
X286.9321 Y70.8162
X286.9195 Y70.7612
X286.9034 Y70.7061
X286.8836 Y70.6511
X286.8599 Y70.596
X286.8579 Y70.592
X286.8307 Y70.539
X286.7989 Y70.4859
X286.7746 Y70.45
X286.7478 Y70.4141
X286.7162 Y70.3758
X286.6793 Y70.3358
X286.6377 Y70.2958
X286.6028 Y70.2657
X286.5652 Y70.2364
X286.5276 Y70.21
X286.4815 Y70.1811
X286.4354 Y70.1556
X286.4175 Y70.1466
X286.3625 Y70.1218
X286.3074 Y70.1011
X286.2523 Y70.0841
X286.1973 Y70.0707
X286.1422 Y70.0607
X286.0872 Y70.054
X286.0321 Y70.0505
X285.9771 Y70.05
X268.0292
X267.9191 Y70.049
X267.8389 Y70.0455
X267.809 Y70.0438
X267.6989 Y70.0349
X267.5888 Y70.0217
X267.4787 Y70.0047
X267.3686 Y69.984
X267.2585 Y69.9581
X267.1743 Y69.9354
X267.1484 Y69.9279
X267.0383 Y69.8944
X266.9282 Y69.8549
X266.8527 Y69.8253
X266.818 Y69.8116
X266.7079 Y69.7626
X266.6116 Y69.7153
X266.5978 Y69.7081
X266.4877 Y69.6483
X266.4142 Y69.6052
X266.3776 Y69.5822
X266.2675 Y69.5098
X266.2463 Y69.4951
X266.1574 Y69.4306
X266.0992 Y69.385
X266.0473 Y69.3424
X265.9686 Y69.2749
X265.9372 Y69.2464
X265.8523 Y69.1648
X265.8271 Y69.1396
X265.7462 Y69.0547
X265.7169 Y69.0223
X265.6509 Y68.9446
X265.6068 Y68.8903
X265.5633 Y68.8345
X265.4967 Y68.7419
X265.4845 Y68.7244
X265.4127 Y68.6143
X265.3866 Y68.5719
X265.347 Y68.5042
X265.2877 Y68.3941
X265.2765 Y68.372
X265.2337 Y68.284
X265.1852 Y68.1739
X265.1664 Y68.1266
X265.1419 Y68.0638
X265.1031 Y67.9537
X265.0698 Y67.8436
X265.0563 Y67.7952
X265.0399 Y67.7335
X265.0143 Y67.6234
X264.994 Y67.5133
X264.9772 Y67.4032
X264.9644 Y67.2931
X264.9557 Y67.183
X264.9508 Y67.0729
X264.95 Y66.9628
Y44.0622
X264.9505 Y43.9521
X264.9543 Y43.842
X264.9621 Y43.7319
X264.9737 Y43.6218
X264.9899 Y43.5117
X265.0092 Y43.4016
X265.0337 Y43.2915
X265.0563 Y43.2048
X265.0626 Y43.1814
X265.0952 Y43.0713
X265.1323 Y42.9612
X265.1664 Y42.8734
X265.1753 Y42.8511
X265.2221 Y42.741
X265.275 Y42.6309
X265.2765 Y42.628
X265.333 Y42.5208
X265.3866 Y42.4281
X265.3969 Y42.4107
X265.4678 Y42.3006
X265.4967 Y42.2581
X265.5449 Y42.1905
X265.6068 Y42.1097
X265.6305 Y42.0804
X265.7169 Y41.9777
X265.7236 Y41.9703
X265.8271 Y41.8605
X265.9372 Y41.7536
X265.941 Y41.7501
X266.0473 Y41.6576
X266.0687 Y41.64
X266.1574 Y41.5694
X266.2108 Y41.5299
X266.2675 Y41.4902
X266.3744 Y41.4198
X266.3776 Y41.4178
X266.4877 Y41.3516
X266.5638 Y41.3097
X266.5978 Y41.2919
X266.7079 Y41.2374
X266.792 Y41.1996
X266.818 Y41.1882
X266.9282 Y41.1446
X267.0383 Y41.1056
X267.0892 Y41.0895
X267.1484 Y41.0721
X267.2585 Y41.0419
X267.3686 Y41.016
X267.4787 Y40.9953
X267.581 Y40.9794
X267.5888 Y40.9783
X267.6989 Y40.9651
X267.809 Y40.9562
X267.9191 Y40.951
X268.0292 Y40.95
X285.9771
X286.0321 Y40.9495
X286.0872 Y40.946
X286.1422 Y40.9393
X286.1973 Y40.9293
X286.2523 Y40.9159
X286.3074 Y40.8989
X286.3831 Y40.8693
X286.4175 Y40.8533
X286.4726 Y40.8241
X286.5276 Y40.79
X286.571 Y40.7592
X286.6044 Y40.733
X286.6377 Y40.7041
X286.6936 Y40.6491
X286.722 Y40.6175
X286.7478 Y40.5859
X286.7823 Y40.539
X286.8175 Y40.484
X286.8477 Y40.4289
X286.8579 Y40.408
X286.8777 Y40.3634
X286.8949 Y40.3188
X286.9127 Y40.2638
X286.9268 Y40.2087
X286.9375 Y40.1537
X286.9449 Y40.0986
X286.949 Y40.0436
X286.95 Y39.9885
Y26.2262
X286.9496 Y26.1711
X286.9463 Y26.1161
X286.9398 Y26.061
X286.93 Y26.006
X286.9168 Y25.9509
X286.9 Y25.8959
X286.8808 Y25.844
X286.8579 Y25.7921
X286.8549 Y25.7858
X286.826 Y25.7307
X286.7922 Y25.6757
X286.7478 Y25.6142
X286.7071 Y25.5656
X286.6742 Y25.5307
X286.6377 Y25.4959
X286.5901 Y25.4555
X286.5276 Y25.41
X286.4726 Y25.3759
X286.4175 Y25.3467
X286.4149 Y25.3454
X286.3611 Y25.3213
X286.3074 Y25.3011
X286.2523 Y25.2842
X286.1973 Y25.2707
X286.1422 Y25.2607
X286.0872 Y25.254
X286.0321 Y25.2506
X285.9771 Y25.25
X213.0846
X212.9745 Y25.2504
X212.9195 Y25.2534
X212.8644 Y25.2598
X212.8094 Y25.2694
X212.7543 Y25.2823
X212.6993 Y25.2989
X212.6442 Y25.3192
X212.5852 Y25.3454
X212.5341 Y25.3721
X212.479 Y25.4056
X212.424 Y25.4446
X212.4099 Y25.4555
X212.3619 Y25.4962
X212.3139 Y25.543
X212.2929 Y25.5656
X212.2471 Y25.6206
X212.2078 Y25.6757
X212.2038 Y25.6818
X212.1723 Y25.7338
X212.1451 Y25.7858
X212.1205 Y25.8408
X212.1 Y25.8959
X212.0937 Y25.9153
X212.0807 Y25.9607
X212.07 Y26.006
X212.0602 Y26.061
X212.0537 Y26.1161
X212.0504 Y26.1711
X212.05 Y26.2262
Y85.048
X212.0479 Y85.05
X128.9514
X128.95 Y85.048
Y26.2262
X128.9496 Y26.1711
X128.9463 Y26.1161
X128.9398 Y26.061
X128.93 Y26.006
X128.9168 Y25.9509
X128.9 Y25.8959
X128.8795 Y25.8408
X128.8549 Y25.7858
X128.851 Y25.7777
X128.8237 Y25.7267
X128.7922 Y25.6757
X128.7677 Y25.6405
X128.7408 Y25.6053
X128.7071 Y25.5656
X128.6689 Y25.5254
X128.6307 Y25.4896
X128.5901 Y25.4555
X128.5553 Y25.4292
X128.5206 Y25.4054
X128.4677 Y25.3731
X128.4148 Y25.3454
X128.4105 Y25.3433
X128.3555 Y25.319
X128.3004 Y25.2988
X128.2453 Y25.2823
X128.1903 Y25.2693
X128.1352 Y25.2597
X128.0802 Y25.2534
X127.9701 Y25.25
X0.0229
X-0.0321 Y25.2506
X-0.0872 Y25.254
X-0.1422 Y25.2607
X-0.1973 Y25.2707
X-0.2523 Y25.2842
X-0.3074 Y25.3011
X-0.3611 Y25.3213
X-0.4148 Y25.3454
X-0.4175 Y25.3467
X-0.4726 Y25.3759
X-0.5276 Y25.41
X-0.5901 Y25.4555
X-0.6377 Y25.4959
X-0.6742 Y25.5307
X-0.7071 Y25.5656
X-0.7478 Y25.6142
X-0.7922 Y25.6757
X-0.826 Y25.7307
X-0.8549 Y25.7858
X-0.8579 Y25.7921
X-0.8808 Y25.844
X-0.9 Y25.8959
X-0.9168 Y25.9509
X-0.93 Y26.006
X-0.9398 Y26.061
X-0.9463 Y26.1161
X-0.9496 Y26.1711
X-0.95 Y26.2262
Y39.9885
X-0.949 Y40.0436
X-0.9449 Y40.0986
X-0.9375 Y40.1537
X-0.9268 Y40.2087
X-0.9126 Y40.2638
X-0.8949 Y40.3188
X-0.8777 Y40.3634
X-0.8579 Y40.408
X-0.8476 Y40.4289
X-0.8175 Y40.484
X-0.7823 Y40.539
X-0.7478 Y40.5859
X-0.7219 Y40.6175
X-0.6936 Y40.6491
X-0.6377 Y40.7041
X-0.6044 Y40.733
X-0.571 Y40.7592
X-0.5276 Y40.79
X-0.4726 Y40.8241
X-0.4175 Y40.8533
X-0.3831 Y40.8693
X-0.3074 Y40.8989
X-0.2523 Y40.9159
X-0.1973 Y40.9293
X-0.1422 Y40.9393
X-0.0872 Y40.946
X-0.0321 Y40.9495
X0.0229 Y40.95
X19.9527
X20.0628 Y40.9507
X20.173 Y40.9551
X20.2831 Y40.9634
X20.3932 Y40.9757
X20.4193 Y40.9794
X20.5033 Y40.9924
X20.6134 Y41.0122
X20.7235 Y41.0374
X20.8336 Y41.0667
X20.9108 Y41.0895
X20.9437 Y41.1
X21.0538 Y41.138
X21.1639 Y41.1812
X21.2079 Y41.1996
X21.2741 Y41.2291
X21.3842 Y41.2828
X21.4361 Y41.3097
X21.4943 Y41.3415
X21.6044 Y41.4065
X21.6256 Y41.4198
X21.7145 Y41.4776
X21.7893 Y41.5299
X21.8246 Y41.5559
X21.9314 Y41.64
X21.9347 Y41.6428
X22.0448 Y41.7376
X22.0587 Y41.7501
X22.1549 Y41.8423
X22.173 Y41.8602
X22.265 Y41.9576
X22.2765 Y41.9703
X22.3698 Y42.0804
X22.3751 Y42.087
X22.4548 Y42.1905
X22.4853 Y42.2324
X22.5322 Y42.3006
X22.5954 Y42.3981
X22.6033 Y42.4107
X22.667 Y42.5208
X22.7055 Y42.5922
X22.7253 Y42.6309
X22.7778 Y42.741
X22.8156 Y42.8278
X22.825 Y42.8511
X22.8675 Y42.9612
X22.9049 Y43.0713
X22.9257 Y43.1394
X22.9379 Y43.1814
X22.9662 Y43.2915
X22.9907 Y43.4016
X23.0103 Y43.5117
X23.0264 Y43.6218
X23.0358 Y43.7085
X23.0379 Y43.7319
X23.0457 Y43.842
X23.0494 Y43.9521
X23.05 Y44.0622
Y66.9628
X23.0491 Y67.0729
X23.0442 Y67.183
X23.0358 Y67.2915
X23.0357 Y67.2931
X23.0229 Y67.4032
X23.0063 Y67.5133
X22.9854 Y67.6234
X22.9602 Y67.7335
X22.9307 Y67.8436
X22.9257 Y67.8606
X22.8968 Y67.9537
X22.8581 Y68.0638
X22.8156 Y68.1722
X22.8149 Y68.1739
X22.7663 Y68.284
X22.7127 Y68.3941
X22.7055 Y68.4078
X22.653 Y68.5042
X22.5954 Y68.6018
X22.5875 Y68.6143
X22.5154 Y68.7244
X22.4853 Y68.7676
X22.4363 Y68.8345
X22.3751 Y68.913
X22.3493 Y68.9446
X22.265 Y69.0424
X22.2539 Y69.0547
X22.1549 Y69.1578
X22.1479 Y69.1648
X22.0448 Y69.2624
X22.0311 Y69.2749
X21.9347 Y69.3572
X21.9008 Y69.385
X21.8246 Y69.4441
X21.7539 Y69.4951
X21.7145 Y69.5224
X21.6044 Y69.5935
X21.5855 Y69.6052
X21.4943 Y69.6585
X21.3881 Y69.7153
X21.3842 Y69.7172
X21.2741 Y69.7709
X21.1639 Y69.8191
X21.1487 Y69.8253
X21.0538 Y69.8622
X20.9437 Y69.9
X20.8336 Y69.9332
X20.8261 Y69.9354
X20.7235 Y69.9626
X20.6134 Y69.9878
X20.5033 Y70.0076
X20.3932 Y70.0243
X20.2831 Y70.0365
X20.173 Y70.0449
X20.1614 Y70.0455
X20.0628 Y70.0493
X19.9527 Y70.05
X0.0229
X-0.0321 Y70.0505
X-0.0872 Y70.054
X-0.1422 Y70.0607
X-0.1973 Y70.0707
X-0.2523 Y70.0841
X-0.3074 Y70.1011
X-0.3624 Y70.1218
X-0.4175 Y70.1466
X-0.4354 Y70.1556
X-0.4815 Y70.1811
X-0.5276 Y70.21
X-0.5652 Y70.2364
X-0.6028 Y70.2657
X-0.6377 Y70.2958
X-0.6793 Y70.3358
X-0.7162 Y70.3758
X-0.7478 Y70.4141
X-0.7746 Y70.45
X-0.7989 Y70.4859
X-0.8306 Y70.539
X-0.8579 Y70.592
X-0.8598 Y70.596
X-0.8836 Y70.6511
X-0.9034 Y70.7061
X-0.9195 Y70.7612
X-0.9321 Y70.8162
X-0.9412 Y70.8713
X-0.9471 Y70.9263
X-0.95 Y71.0364
Y92.4781
Y92.6717 Z-4.0001
Y92.8652 Z-4.0004
Y93.0588 Z-4.0008
Y93.2524 Z-4.0015
Y93.446 Z-4.0023
Y93.6395 Z-4.0033
Y93.8331 Z-4.0045
Y94.0267 Z-4.0058
Y94.2203 Z-4.0073
Y94.4138 Z-4.009
Y94.6074 Z-4.0109
Y94.801 Z-4.0129
Y94.9946 Z-4.0151
Y95.1881 Z-4.0174
Y95.3817 Z-4.0199
Y95.5753 Z-4.0225
Y95.7689 Z-4.0253
Y95.9624 Z-4.0283
Y96.156 Z-4.0314
Y96.3496 Z-4.0347
Y96.5432 Z-4.0381
Y96.7367 Z-4.0416
Y96.9303 Z-4.0453
Y97.1239 Z-4.0491
Y97.3175 Z-4.0531
Y97.511 Z-4.0572
Y97.7046 Z-4.0614
Y97.8982 Z-4.0658
Y98.0917 Z-4.0702
Y98.2853 Z-4.0749
Y98.4789 Z-4.0796
Y98.6725 Z-4.0845
Y98.866 Z-4.0894
Y98.9628 Z-4.092
Y99.0596 Z-4.0945
Y99.1564 Z-4.0971
Y99.2532 Z-4.0997
Y99.35 Z-4.1024
Y99.4468 Z-4.1051
Y99.5436 Z-4.1078
Y99.6403 Z-4.1105
Y99.7371 Z-4.1133
Y99.8339 Z-4.1161
Y99.9307 Z-4.1189
Y100.0275 Z-4.1217
Y100.1243 Z-4.1246
Y100.2211 Z-4.1275
Y100.3179 Z-4.1304
Y100.4146 Z-4.1334
Y100.5114 Z-4.1363
Y100.6082 Z-4.1393
Y100.705 Z-4.1423
Y100.8018 Z-4.1454
Y100.8986 Z-4.1485
Y100.9954 Z-4.1516
Y101.0922 Z-4.1547
Y101.1889 Z-4.1578
Y101.2857 Z-4.161
Y101.3825 Z-4.1642
Y101.4793 Z-4.1674
Y101.5761 Z-4.1706
Y101.6729 Z-4.1739
Y101.7697 Z-4.1772
Y101.8665 Z-4.1805
Y101.9632 Z-4.1838
Y102.06 Z-4.1871
Y102.2536 Z-4.1939
Y102.3504 Z-4.1972
Y102.4472 Z-4.2006
Y102.544 Z-4.204
Y102.6408 Z-4.2074
Y102.7375 Z-4.2108
Y102.8343 Z-4.2141
Y102.9311 Z-4.2175
Y103.0279 Z-4.2209
Y103.1247 Z-4.2243
Y103.2215 Z-4.2277
Y103.3183 Z-4.231
Y103.415 Z-4.2344
Y103.6086 Z-4.2412
Y103.899 Z-4.2513
Y104.1893 Z-4.2614
Y104.4797 Z-4.2716
Y104.7701 Z-4.2817
Y105.0604 Z-4.2919
Y105.3508 Z-4.302
Y105.6412 Z-4.3121
Y105.9315 Z-4.3223
Y106.2219 Z-4.3324
Y106.5122 Z-4.3426
Y106.9962 Z-4.3595
Y107.4801 Z-4.3764
Y107.9641 Z-4.3933
Y108.6416 Z-4.4169
Y109.5126 Z-4.4473
Y110.9645 Z-4.498
Y117.9332 Z-4.7413
Y118.2235 Z-4.7515
Y118.5139 Z-4.7616
Y118.6107 Z-4.765
Y118.7075 Z-4.7684
Y118.8042 Z-4.7717
Y118.901 Z-4.7751
Y118.9978 Z-4.7785
Y119.0946 Z-4.7819
Y119.1914 Z-4.7853
Y119.2882 Z-4.7886
Y119.385 Z-4.792
Y119.4818 Z-4.7954
Y119.5785 Z-4.7988
Y119.6753 Z-4.8022
Y119.7721 Z-4.8055
Y119.8689 Z-4.8089
Y119.9657 Z-4.8123
Y120.0625 Z-4.8156
Y120.1593 Z-4.819
Y120.2561 Z-4.8223
Y120.3528 Z-4.8255
Y120.4496 Z-4.8288
Y120.5464 Z-4.832
Y120.6432 Z-4.8353
Y120.74 Z-4.8385
Y120.8368 Z-4.8416
Y120.9336 Z-4.8448
Y121.0303 Z-4.8479
Y121.1271 Z-4.851
Y121.2239 Z-4.8541
Y121.3207 Z-4.8571
Y121.4175 Z-4.8601
Y121.5143 Z-4.8631
Y121.6111 Z-4.8661
Y121.7079 Z-4.8691
Y121.8046 Z-4.872
Y121.9014 Z-4.8749
Y121.9982 Z-4.8778
Y122.095 Z-4.8806
Y122.1918 Z-4.8834
Y122.2886 Z-4.8862
Y122.3854 Z-4.889
Y122.4822 Z-4.8917
Y122.5789 Z-4.8945
Y122.6757 Z-4.8971
Y122.7725 Z-4.8998
Y122.8693 Z-4.9024
Y122.9661 Z-4.905
Y123.0629 Z-4.9076
Y123.1597 Z-4.9101
Y123.2565 Z-4.9126
Y123.45 Z-4.9176
Y123.6436 Z-4.9224
Y123.8372 Z-4.9271
Y124.0308 Z-4.9316
Y124.2243 Z-4.9361
Y124.4179 Z-4.9404
Y124.6115 Z-4.9445
Y124.8051 Z-4.9486
Y124.9986 Z-4.9525
Y125.1922 Z-4.9562
Y125.3858 Z-4.9599
Y125.5794 Z-4.9634
Y125.7729 Z-4.9667
Y125.9665 Z-4.9699
Y126.1601 Z-4.9729
Y126.3536 Z-4.9758
Y126.5472 Z-4.9786
Y126.7408 Z-4.9812
Y126.9344 Z-4.9836
Y127.1279 Z-4.9859
Y127.3215 Z-4.988
Y127.5151 Z-4.9899
Y127.7087 Z-4.9917
Y127.9022 Z-4.9933
Y128.0958 Z-4.9948
Y128.2894 Z-4.996
Y128.483 Z-4.9971
Y128.6765 Z-4.9981
Y128.8701 Z-4.9988
X-0.9479 Y129.0637 Z-4.9994
X-0.9434 Y129.1119 Z-4.9995
X-0.9365 Y129.1598 Z-4.9996
X-0.9271 Y129.2072 Z-4.9997
X-0.9154 Y129.2542 Z-4.9998
X-0.9012 Y129.3005
X-0.8848 Y129.346 Z-4.9999
X-0.866 Y129.3906
X-0.845 Y129.4342 Z-5
X-0.8175 Y129.484
X-0.7868 Y129.5319
X-0.7799 Y129.5424
X-0.7478 Y129.5859
X-0.7291 Y129.6091
X-0.6866 Y129.6566
X-0.6377 Y129.7041
X-0.6207 Y129.7192
X-0.5742 Y129.7569
X-0.5276 Y129.79
X-0.4635 Y129.8293
X-0.4175 Y129.8533
X-0.3624 Y129.8781
X-0.3074 Y129.8989
X-0.2523 Y129.9159
X-0.1973 Y129.9293
X-0.1418 Y129.9394
X-0.0872 Y129.946
X-0.0321 Y129.9495
X0.0229 Y129.95
X285.9771
X286.0321 Y129.9495
X286.0872 Y129.946
X286.1418 Y129.9394
X286.1973 Y129.9293
X286.2523 Y129.9159
X286.3074 Y129.8989
X286.3625 Y129.8781
X286.4175 Y129.8533
X286.4635 Y129.8293
X286.5276 Y129.79
X286.5742 Y129.7569
X286.6208 Y129.7192
X286.6377 Y129.7041
X286.6866 Y129.6566
X286.7291 Y129.6091
X286.7478 Y129.5859
X286.7799 Y129.5424
X286.8084 Y129.499
X286.8348 Y129.4535
X286.8579 Y129.408
X286.8668 Y129.3889
X286.8894 Y129.3338
X286.9082 Y129.2788
X286.9233 Y129.2237
X286.9349 Y129.1687
X286.9432 Y129.1136
X286.9482 Y129.0586
X286.95 Y128.9485
Y71.0364
X286.9471 Y70.9263
X286.9413 Y70.8713
X286.9321 Y70.8162
X286.9195 Y70.7612
X286.9034 Y70.7061
X286.8836 Y70.6511
X286.8599 Y70.596
X286.8579 Y70.592
X286.8307 Y70.539
X286.7989 Y70.4859
X286.7746 Y70.45
X286.7478 Y70.4141
X286.7162 Y70.3758
X286.6793 Y70.3358
X286.6377 Y70.2958
X286.6028 Y70.2657
X286.5652 Y70.2364
X286.5276 Y70.21
X286.4815 Y70.1811
X286.4354 Y70.1556
X286.4175 Y70.1466
X286.3625 Y70.1218
X286.3074 Y70.1011
X286.2523 Y70.0841
X286.1973 Y70.0707
X286.1422 Y70.0607
X286.0872 Y70.054
X286.0321 Y70.0505
X285.9771 Y70.05
X268.0292
X267.9191 Y70.049
X267.8389 Y70.0455
X267.809 Y70.0438
X267.6989 Y70.0349
X267.5888 Y70.0217
X267.4787 Y70.0047
X267.3686 Y69.984
X267.2585 Y69.9581
X267.1743 Y69.9354
X267.1484 Y69.9279
X267.0383 Y69.8944
X266.9282 Y69.8549
X266.8527 Y69.8253
X266.818 Y69.8116
X266.7079 Y69.7626
X266.6116 Y69.7153
X266.5978 Y69.7081
X266.4877 Y69.6483
X266.4142 Y69.6052
X266.3776 Y69.5822
X266.2675 Y69.5098
X266.2463 Y69.4951
X266.1574 Y69.4306
X266.0992 Y69.385
X266.0473 Y69.3424
X265.9686 Y69.2749
X265.9372 Y69.2464
X265.8523 Y69.1648
X265.8271 Y69.1396
X265.7462 Y69.0547
X265.7169 Y69.0223
X265.6509 Y68.9446
X265.6068 Y68.8903
X265.5633 Y68.8345
X265.4967 Y68.7419
X265.4845 Y68.7244
X265.4127 Y68.6143
X265.3866 Y68.5719
X265.347 Y68.5042
X265.2877 Y68.3941
X265.2765 Y68.372
X265.2337 Y68.284
X265.1852 Y68.1739
X265.1664 Y68.1266
X265.1419 Y68.0638
X265.1031 Y67.9537
X265.0698 Y67.8436
X265.0563 Y67.7952
X265.0399 Y67.7335
X265.0143 Y67.6234
X264.994 Y67.5133
X264.9772 Y67.4032
X264.9644 Y67.2931
X264.9557 Y67.183
X264.9508 Y67.0729
X264.95 Y66.9628
Y44.0622
X264.9505 Y43.9521
X264.9543 Y43.842
X264.9621 Y43.7319
X264.9737 Y43.6218
X264.9899 Y43.5117
X265.0092 Y43.4016
X265.0337 Y43.2915
X265.0563 Y43.2048
X265.0626 Y43.1814
X265.0952 Y43.0713
X265.1323 Y42.9612
X265.1664 Y42.8734
X265.1753 Y42.8511
X265.2221 Y42.741
X265.275 Y42.6309
X265.2765 Y42.628
X265.333 Y42.5208
X265.3866 Y42.4281
X265.3969 Y42.4107
X265.4678 Y42.3006
X265.4967 Y42.2581
X265.5449 Y42.1905
X265.6068 Y42.1097
X265.6305 Y42.0804
X265.7169 Y41.9777
X265.7236 Y41.9703
X265.8271 Y41.8605
X265.9372 Y41.7536
X265.941 Y41.7501
X266.0473 Y41.6576
X266.0687 Y41.64
X266.1574 Y41.5694
X266.2108 Y41.5299
X266.2675 Y41.4902
X266.3744 Y41.4198
X266.3776 Y41.4178
X266.4877 Y41.3516
X266.5638 Y41.3097
X266.5978 Y41.2919
X266.7079 Y41.2374
X266.792 Y41.1996
X266.818 Y41.1882
X266.9282 Y41.1446
X267.0383 Y41.1056
X267.0892 Y41.0895
X267.1484 Y41.0721
X267.2585 Y41.0419
X267.3686 Y41.016
X267.4787 Y40.9953
X267.581 Y40.9794
X267.5888 Y40.9783
X267.6989 Y40.9651
X267.809 Y40.9562
X267.9191 Y40.951
X268.0292 Y40.95
X285.9771
X286.0321 Y40.9495
X286.0872 Y40.946
X286.1422 Y40.9393
X286.1973 Y40.9293
X286.2523 Y40.9159
X286.3074 Y40.8989
X286.3831 Y40.8693
X286.4175 Y40.8533
X286.4726 Y40.8241
X286.5276 Y40.79
X286.571 Y40.7592
X286.6044 Y40.733
X286.6377 Y40.7041
X286.6936 Y40.6491
X286.722 Y40.6175
X286.7478 Y40.5859
X286.7823 Y40.539
X286.8175 Y40.484
X286.8477 Y40.4289
X286.8579 Y40.408
X286.8777 Y40.3634
X286.8949 Y40.3188
X286.9127 Y40.2638
X286.9268 Y40.2087
X286.9375 Y40.1537
X286.9449 Y40.0986
X286.949 Y40.0436
X286.95 Y39.9885
Y26.2262
X286.9496 Y26.1711
X286.9463 Y26.1161
X286.9398 Y26.061
X286.93 Y26.006
X286.9168 Y25.9509
X286.9 Y25.8959
X286.8808 Y25.844
X286.8579 Y25.7921
X286.8549 Y25.7858
X286.826 Y25.7307
X286.7922 Y25.6757
X286.7478 Y25.6142
X286.7071 Y25.5656
X286.6742 Y25.5307
X286.6377 Y25.4959
X286.5901 Y25.4555
X286.5276 Y25.41
X286.4726 Y25.3759
X286.4175 Y25.3467
X286.4149 Y25.3454
X286.3611 Y25.3213
X286.3074 Y25.3011
X286.2523 Y25.2842
X286.1973 Y25.2707
X286.1422 Y25.2607
X286.0872 Y25.254
X286.0321 Y25.2506
X285.9771 Y25.25
X213.0846
X212.9745 Y25.2504
X212.9195 Y25.2534
X212.8644 Y25.2598
X212.8094 Y25.2694
X212.7543 Y25.2823
X212.6993 Y25.2989
X212.6442 Y25.3192
X212.5852 Y25.3454
X212.5341 Y25.3721
X212.479 Y25.4056
X212.424 Y25.4446
X212.4099 Y25.4555
X212.3619 Y25.4962
X212.3139 Y25.543
X212.2929 Y25.5656
X212.2471 Y25.6206
X212.2078 Y25.6757
X212.2038 Y25.6818
X212.1723 Y25.7338
X212.1451 Y25.7858
X212.1205 Y25.8408
X212.1 Y25.8959
X212.0937 Y25.9153
X212.0807 Y25.9607
X212.07 Y26.006
X212.0602 Y26.061
X212.0537 Y26.1161
X212.0504 Y26.1711
X212.05 Y26.2262
Y85.048
X212.0479 Y85.05
X128.9514
X128.95 Y85.048
Y26.2262
X128.9496 Y26.1711
X128.9463 Y26.1161
X128.9398 Y26.061
X128.93 Y26.006
X128.9168 Y25.9509
X128.9 Y25.8959
X128.8795 Y25.8408
X128.8549 Y25.7858
X128.851 Y25.7777
X128.8237 Y25.7267
X128.7922 Y25.6757
X128.7677 Y25.6405
X128.7408 Y25.6053
X128.7071 Y25.5656
X128.6689 Y25.5254
X128.6307 Y25.4896
X128.5901 Y25.4555
X128.5553 Y25.4292
X128.5206 Y25.4054
X128.4677 Y25.3731
X128.4148 Y25.3454
X128.4105 Y25.3433
X128.3555 Y25.319
X128.3004 Y25.2988
X128.2453 Y25.2823
X128.1903 Y25.2693
X128.1352 Y25.2597
X128.0802 Y25.2534
X127.9701 Y25.25
X0.0229
X-0.0321 Y25.2506
X-0.0872 Y25.254
X-0.1422 Y25.2607
X-0.1973 Y25.2707
X-0.2523 Y25.2842
X-0.3074 Y25.3011
X-0.3611 Y25.3213
X-0.4148 Y25.3454
X-0.4175 Y25.3467
X-0.4726 Y25.3759
X-0.5276 Y25.41
X-0.5901 Y25.4555
X-0.6377 Y25.4959
X-0.6742 Y25.5307
X-0.7071 Y25.5656
X-0.7478 Y25.6142
X-0.7922 Y25.6757
X-0.826 Y25.7307
X-0.8549 Y25.7858
X-0.8579 Y25.7921
X-0.8808 Y25.844
X-0.9 Y25.8959
X-0.9168 Y25.9509
X-0.93 Y26.006
X-0.9398 Y26.061
X-0.9463 Y26.1161
X-0.9496 Y26.1711
X-0.95 Y26.2262
Y39.9885
X-0.949 Y40.0436
X-0.9449 Y40.0986
X-0.9375 Y40.1537
X-0.9268 Y40.2087
X-0.9126 Y40.2638
X-0.8949 Y40.3188
X-0.8777 Y40.3634
X-0.8579 Y40.408
X-0.8476 Y40.4289
X-0.8175 Y40.484
X-0.7823 Y40.539
X-0.7478 Y40.5859
X-0.7219 Y40.6175
X-0.6936 Y40.6491
X-0.6377 Y40.7041
X-0.6044 Y40.733
X-0.571 Y40.7592
X-0.5276 Y40.79
X-0.4726 Y40.8241
X-0.4175 Y40.8533
X-0.3831 Y40.8693
X-0.3074 Y40.8989
X-0.2523 Y40.9159
X-0.1973 Y40.9293
X-0.1422 Y40.9393
X-0.0872 Y40.946
X-0.0321 Y40.9495
X0.0229 Y40.95
X19.9527
X20.0628 Y40.9507
X20.173 Y40.9551
X20.2831 Y40.9634
X20.3932 Y40.9757
X20.4193 Y40.9794
X20.5033 Y40.9924
X20.6134 Y41.0122
X20.7235 Y41.0374
X20.8336 Y41.0667
X20.9108 Y41.0895
X20.9437 Y41.1
X21.0538 Y41.138
X21.1639 Y41.1812
X21.2079 Y41.1996
X21.2741 Y41.2291
X21.3842 Y41.2828
X21.4361 Y41.3097
X21.4943 Y41.3415
X21.6044 Y41.4065
X21.6256 Y41.4198
X21.7145 Y41.4776
X21.7893 Y41.5299
X21.8246 Y41.5559
X21.9314 Y41.64
X21.9347 Y41.6428
X22.0448 Y41.7376
X22.0587 Y41.7501
X22.1549 Y41.8423
X22.173 Y41.8602
X22.265 Y41.9576
X22.2765 Y41.9703
X22.3698 Y42.0804
X22.3751 Y42.087
X22.4548 Y42.1905
X22.4853 Y42.2324
X22.5322 Y42.3006
X22.5954 Y42.3981
X22.6033 Y42.4107
X22.667 Y42.5208
X22.7055 Y42.5922
X22.7253 Y42.6309
X22.7778 Y42.741
X22.8156 Y42.8278
X22.825 Y42.8511
X22.8675 Y42.9612
X22.9049 Y43.0713
X22.9257 Y43.1394
X22.9379 Y43.1814
X22.9662 Y43.2915
X22.9907 Y43.4016
X23.0103 Y43.5117
X23.0264 Y43.6218
X23.0358 Y43.7085
X23.0379 Y43.7319
X23.0457 Y43.842
X23.0494 Y43.9521
X23.05 Y44.0622
Y66.9628
X23.0491 Y67.0729
X23.0442 Y67.183
X23.0358 Y67.2915
X23.0357 Y67.2931
X23.0229 Y67.4032
X23.0063 Y67.5133
X22.9854 Y67.6234
X22.9602 Y67.7335
X22.9307 Y67.8436
X22.9257 Y67.8606
X22.8968 Y67.9537
X22.8581 Y68.0638
X22.8156 Y68.1722
X22.8149 Y68.1739
X22.7663 Y68.284
X22.7127 Y68.3941
X22.7055 Y68.4078
X22.653 Y68.5042
X22.5954 Y68.6018
X22.5875 Y68.6143
X22.5154 Y68.7244
X22.4853 Y68.7676
X22.4363 Y68.8345
X22.3751 Y68.913
X22.3493 Y68.9446
X22.265 Y69.0424
X22.2539 Y69.0547
X22.1549 Y69.1578
X22.1479 Y69.1648
X22.0448 Y69.2624
X22.0311 Y69.2749
X21.9347 Y69.3572
X21.9008 Y69.385
X21.8246 Y69.4441
X21.7539 Y69.4951
X21.7145 Y69.5224
X21.6044 Y69.5935
X21.5855 Y69.6052
X21.4943 Y69.6585
X21.3881 Y69.7153
X21.3842 Y69.7172
X21.2741 Y69.7709
X21.1639 Y69.8191
X21.1487 Y69.8253
X21.0538 Y69.8622
X20.9437 Y69.9
X20.8336 Y69.9332
X20.8261 Y69.9354
X20.7235 Y69.9626
X20.6134 Y69.9878
X20.5033 Y70.0076
X20.3932 Y70.0243
X20.2831 Y70.0365
X20.173 Y70.0449
X20.1614 Y70.0455
X20.0628 Y70.0493
X19.9527 Y70.05
X0.0229
X-0.0321 Y70.0505
X-0.0872 Y70.054
X-0.1422 Y70.0607
X-0.1973 Y70.0707
X-0.2523 Y70.0841
X-0.3074 Y70.1011
X-0.3624 Y70.1218
X-0.4175 Y70.1466
X-0.4354 Y70.1556
X-0.4815 Y70.1811
X-0.5276 Y70.21
X-0.5652 Y70.2364
X-0.6028 Y70.2657
X-0.6377 Y70.2958
X-0.6793 Y70.3358
X-0.7162 Y70.3758
X-0.7478 Y70.4141
X-0.7746 Y70.45
X-0.7989 Y70.4859
X-0.8306 Y70.539
X-0.8579 Y70.592
X-0.8598 Y70.596
X-0.8836 Y70.6511
X-0.9034 Y70.7061
X-0.9195 Y70.7612
X-0.9321 Y70.8162
X-0.9412 Y70.8713
X-0.9471 Y70.9263
X-0.95 Y71.0364
Y128.9485
X-0.9482 Y129.0586
X-0.9432 Y129.1136
X-0.9349 Y129.1687
X-0.9233 Y129.2237
X-0.9082 Y129.2788
X-0.8894 Y129.3338
X-0.8668 Y129.3889
X-0.8579 Y129.408
X-0.8348 Y129.4535
X-0.8084 Y129.499
X-0.7868 Y129.5319
X-0.7589 Y129.5714
X-0.7288 Y129.6094
X-0.6968 Y129.6457 Z-5.0001
X-0.6631 Y129.6803
X-0.6276 Y129.7132
X-0.5904 Y129.7442 Z-5.0002
X-0.5517 Y129.7733 Z-5.0003
X-0.5116 Y129.8004 Z-5.0004
X-0.4702 Y129.8255 Z-5.0005
X-0.4276 Y129.8483 Z-5.0006
X-0.3838 Y129.869 Z-5.0007
X-0.3391 Y129.8874 Z-5.0008
X-0.2934 Y129.9035 Z-5.001
X-0.247 Y129.9173 Z-5.0011
X-0.2 Y129.9287 Z-5.0013
X-0.1524 Y129.9377 Z-5.0015
X-0.1045 Y129.9442 Z-5.0017
X-0.0563 Y129.9483 Z-5.0019
X0.0405 Y129.95 Z-5.0023
X0.2341 Z-5.0033
X0.4276 Z-5.0045
X0.6212 Z-5.0058
X0.8148 Z-5.0073
X1.0084 Z-5.009
X1.2019 Z-5.0109
X1.3955 Z-5.0129
X1.5891 Z-5.0151
X1.7827 Z-5.0174
X1.9762 Z-5.0199
X2.1698 Z-5.0225
X2.3634 Z-5.0253
X2.557 Z-5.0283
X2.7505 Z-5.0314
X2.9441 Z-5.0347
X3.1377 Z-5.0381
X3.3313 Z-5.0416
X3.5248 Z-5.0453
X3.7184 Z-5.0491
X3.912 Z-5.0531
X4.1056 Z-5.0572
X4.2991 Z-5.0614
X4.4927 Z-5.0658
X4.6863 Z-5.0702
X4.8799 Z-5.0749
X5.0734 Z-5.0796
X5.267 Z-5.0845
X5.4606 Z-5.0894
X5.5574 Z-5.092
X5.6542 Z-5.0945
X5.751 Z-5.0971
X5.8477 Z-5.0997
X5.9445 Z-5.1024
X6.0413 Z-5.1051
X6.1381 Z-5.1078
X6.2349 Z-5.1105
X6.3317 Z-5.1133
X6.4285 Z-5.1161
X6.5253 Z-5.1189
X6.622 Z-5.1217
X6.7188 Z-5.1246
X6.8156 Z-5.1275
X6.9124 Z-5.1304
X7.0092 Z-5.1334
X7.106 Z-5.1363
X7.2028 Z-5.1393
X7.2996 Z-5.1423
X7.3963 Z-5.1454
X7.4931 Z-5.1485
X7.5899 Z-5.1516
X7.6867 Z-5.1547
X7.7835 Z-5.1578
X7.8803 Z-5.161
X7.9771 Z-5.1642
X8.0738 Z-5.1674
X8.1706 Z-5.1706
X8.2674 Z-5.1739
X8.3642 Z-5.1772
X8.461 Z-5.1805
X8.5578 Z-5.1838
X8.6546 Z-5.1871
X8.8481 Z-5.1939
X8.9449 Z-5.1972
X9.0417 Z-5.2006
X9.1385 Z-5.204
X9.2353 Z-5.2074
X9.3321 Z-5.2108
X9.4289 Z-5.2141
X9.5257 Z-5.2175
X9.6224 Z-5.2209
X9.7192 Z-5.2243
X9.816 Z-5.2277
X9.9128 Z-5.231
X10.0096 Z-5.2344
X10.2032 Z-5.2412
X10.4935 Z-5.2513
X10.7839 Z-5.2614
X11.0743 Z-5.2716
X11.3646 Z-5.2817
X11.655 Z-5.2919
X11.9453 Z-5.302
X12.2357 Z-5.3121
X12.5261 Z-5.3223
X12.8164 Z-5.3324
X13.1068 Z-5.3426
X13.5907 Z-5.3595
X14.0747 Z-5.3764
X14.5586 Z-5.3933
X15.2361 Z-5.4169
X16.1072 Z-5.4473
X17.559 Z-5.498
X24.5277 Z-5.7413
X24.8181 Z-5.7515
X25.1084 Z-5.7616
X25.2052 Z-5.765
X25.302 Z-5.7684
X25.3988 Z-5.7717
X25.4956 Z-5.7751
X25.5924 Z-5.7785
X25.6891 Z-5.7819
X25.7859 Z-5.7853
X25.8827 Z-5.7886
X25.9795 Z-5.792
X26.0763 Z-5.7954
X26.1731 Z-5.7988
X26.2699 Z-5.8022
X26.3667 Z-5.8055
X26.4634 Z-5.8089
X26.5602 Z-5.8123
X26.657 Z-5.8156
X26.7538 Z-5.819
X26.8506 Z-5.8223
X26.9474 Z-5.8255
X27.0442 Z-5.8288
X27.141 Z-5.832
X27.2377 Z-5.8353
X27.3345 Z-5.8385
X27.4313 Z-5.8416
X27.5281 Z-5.8448
X27.6249 Z-5.8479
X27.7217 Z-5.851
X27.8185 Z-5.8541
X27.9153 Z-5.8571
X28.012 Z-5.8601
X28.1088 Z-5.8631
X28.2056 Z-5.8661
X28.3024 Z-5.8691
X28.3992 Z-5.872
X28.496 Z-5.8749
X28.5928 Z-5.8778
X28.6896 Z-5.8806
X28.7863 Z-5.8834
X28.8831 Z-5.8862
X28.9799 Z-5.889
X29.0767 Z-5.8917
X29.1735 Z-5.8945
X29.2703 Z-5.8971
X29.3671 Z-5.8998
X29.4639 Z-5.9024
X29.5606 Z-5.905
X29.6574 Z-5.9076
X29.7542 Z-5.9101
X29.851 Z-5.9126
X30.0446 Z-5.9176
X30.2381 Z-5.9224
X30.4317 Z-5.9271
X30.6253 Z-5.9316
X30.8189 Z-5.9361
X31.0124 Z-5.9404
X31.206 Z-5.9445
X31.3996 Z-5.9486
X31.5932 Z-5.9525
X31.7867 Z-5.9562
X31.9803 Z-5.9599
X32.1739 Z-5.9634
X32.3675 Z-5.9667
X32.561 Z-5.9699
X32.7546 Z-5.9729
X32.9482 Z-5.9758
X33.1418 Z-5.9786
X33.3353 Z-5.9812
X33.5289 Z-5.9836
X33.7225 Z-5.9859
X33.9161 Z-5.988
X34.1096 Z-5.9899
X34.3032 Z-5.9917
X34.4968 Z-5.9933
X34.6904 Z-5.9948
X34.8839 Z-5.996
X35.0775 Z-5.9971
X35.2711 Z-5.9981
X35.4647 Z-5.9988
X35.6582 Z-5.9994
X35.8518 Z-5.9998
X36.0454 Z-6
X36.1592
X285.9771
X286.0321 Y129.9495
X286.0872 Y129.946
X286.1418 Y129.9394
X286.1973 Y129.9293
X286.2523 Y129.9159
X286.3074 Y129.8989
X286.3625 Y129.8781
X286.4175 Y129.8533
X286.4635 Y129.8293
X286.5276 Y129.79
X286.5742 Y129.7569
X286.6208 Y129.7192
X286.6377 Y129.7041
X286.6866 Y129.6566
X286.7291 Y129.6091
X286.7478 Y129.5859
X286.7799 Y129.5424
X286.8084 Y129.499
X286.8348 Y129.4535
X286.8579 Y129.408
X286.8668 Y129.3889
X286.8894 Y129.3338
X286.9082 Y129.2788
X286.9233 Y129.2237
X286.9349 Y129.1687
X286.9432 Y129.1136
X286.9482 Y129.0586
X286.95 Y128.9485
Y71.0364
X286.9471 Y70.9263
X286.9413 Y70.8713
X286.9321 Y70.8162
X286.9195 Y70.7612
X286.9034 Y70.7061
X286.8836 Y70.6511
X286.8599 Y70.596
X286.8579 Y70.592
X286.8307 Y70.539
X286.7989 Y70.4859
X286.7746 Y70.45
X286.7478 Y70.4141
X286.7162 Y70.3758
X286.6793 Y70.3358
X286.6377 Y70.2958
X286.6028 Y70.2657
X286.5652 Y70.2364
X286.5276 Y70.21
X286.4815 Y70.1811
X286.4354 Y70.1556
X286.4175 Y70.1466
X286.3625 Y70.1218
X286.3074 Y70.1011
X286.2523 Y70.0841
X286.1973 Y70.0707
X286.1422 Y70.0607
X286.0872 Y70.054
X286.0321 Y70.0505
X285.9771 Y70.05
X268.0292
X267.9191 Y70.049
X267.8389 Y70.0455
X267.809 Y70.0438
X267.6989 Y70.0349
X267.5888 Y70.0217
X267.4787 Y70.0047
X267.3686 Y69.984
X267.2585 Y69.9581
X267.1743 Y69.9354
X267.1484 Y69.9279
X267.0383 Y69.8944
X266.9282 Y69.8549
X266.8527 Y69.8253
X266.818 Y69.8116
X266.7079 Y69.7626
X266.6116 Y69.7153
X266.5978 Y69.7081
X266.4877 Y69.6483
X266.4142 Y69.6052
X266.3776 Y69.5822
X266.2675 Y69.5098
X266.2463 Y69.4951
X266.1574 Y69.4306
X266.0992 Y69.385
X266.0473 Y69.3424
X265.9686 Y69.2749
X265.9372 Y69.2464
X265.8523 Y69.1648
X265.8271 Y69.1396
X265.7462 Y69.0547
X265.7169 Y69.0223
X265.6509 Y68.9446
X265.6068 Y68.8903
X265.5633 Y68.8345
X265.4967 Y68.7419
X265.4845 Y68.7244
X265.4127 Y68.6143
X265.3866 Y68.5719
X265.347 Y68.5042
X265.2877 Y68.3941
X265.2765 Y68.372
X265.2337 Y68.284
X265.1852 Y68.1739
X265.1664 Y68.1266
X265.1419 Y68.0638
X265.1031 Y67.9537
X265.0698 Y67.8436
X265.0563 Y67.7952
X265.0399 Y67.7335
X265.0143 Y67.6234
X264.994 Y67.5133
X264.9772 Y67.4032
X264.9644 Y67.2931
X264.9557 Y67.183
X264.9508 Y67.0729
X264.95 Y66.9628
Y44.0622
X264.9505 Y43.9521
X264.9543 Y43.842
X264.9621 Y43.7319
X264.9737 Y43.6218
X264.9899 Y43.5117
X265.0092 Y43.4016
X265.0337 Y43.2915
X265.0563 Y43.2048
X265.0626 Y43.1814
X265.0952 Y43.0713
X265.1323 Y42.9612
X265.1664 Y42.8734
X265.1753 Y42.8511
X265.2221 Y42.741
X265.275 Y42.6309
X265.2765 Y42.628
X265.333 Y42.5208
X265.3866 Y42.4281
X265.3969 Y42.4107
X265.4678 Y42.3006
X265.4967 Y42.2581
X265.5449 Y42.1905
X265.6068 Y42.1097
X265.6305 Y42.0804
X265.7169 Y41.9777
X265.7236 Y41.9703
X265.8271 Y41.8605
X265.9372 Y41.7536
X265.941 Y41.7501
X266.0473 Y41.6576
X266.0687 Y41.64
X266.1574 Y41.5694
X266.2108 Y41.5299
X266.2675 Y41.4902
X266.3744 Y41.4198
X266.3776 Y41.4178
X266.4877 Y41.3516
X266.5638 Y41.3097
X266.5978 Y41.2919
X266.7079 Y41.2374
X266.792 Y41.1996
X266.818 Y41.1882
X266.9282 Y41.1446
X267.0383 Y41.1056
X267.0892 Y41.0895
X267.1484 Y41.0721
X267.2585 Y41.0419
X267.3686 Y41.016
X267.4787 Y40.9953
X267.581 Y40.9794
X267.5888 Y40.9783
X267.6989 Y40.9651
X267.809 Y40.9562
X267.9191 Y40.951
X268.0292 Y40.95
X285.9771
X286.0321 Y40.9495
X286.0872 Y40.946
X286.1422 Y40.9393
X286.1973 Y40.9293
X286.2523 Y40.9159
X286.3074 Y40.8989
X286.3831 Y40.8693
X286.4175 Y40.8533
X286.4726 Y40.8241
X286.5276 Y40.79
X286.571 Y40.7592
X286.6044 Y40.733
X286.6377 Y40.7041
X286.6936 Y40.6491
X286.722 Y40.6175
X286.7478 Y40.5859
X286.7823 Y40.539
X286.8175 Y40.484
X286.8477 Y40.4289
X286.8579 Y40.408
X286.8777 Y40.3634
X286.8949 Y40.3188
X286.9127 Y40.2638
X286.9268 Y40.2087
X286.9375 Y40.1537
X286.9449 Y40.0986
X286.949 Y40.0436
X286.95 Y39.9885
Y26.2262
X286.9496 Y26.1711
X286.9463 Y26.1161
X286.9398 Y26.061
X286.93 Y26.006
X286.9168 Y25.9509
X286.9 Y25.8959
X286.8808 Y25.844
X286.8579 Y25.7921
X286.8549 Y25.7858
X286.826 Y25.7307
X286.7922 Y25.6757
X286.7478 Y25.6142
X286.7071 Y25.5656
X286.6742 Y25.5307
X286.6377 Y25.4959
X286.5901 Y25.4555
X286.5276 Y25.41
X286.4726 Y25.3759
X286.4175 Y25.3467
X286.4149 Y25.3454
X286.3611 Y25.3213
X286.3074 Y25.3011
X286.2523 Y25.2842
X286.1973 Y25.2707
X286.1422 Y25.2607
X286.0872 Y25.254
X286.0321 Y25.2506
X285.9771 Y25.25
X213.0846
X212.9745 Y25.2504
X212.9195 Y25.2534
X212.8644 Y25.2598
X212.8094 Y25.2694
X212.7543 Y25.2823
X212.6993 Y25.2989
X212.6442 Y25.3192
X212.5852 Y25.3454
X212.5341 Y25.3721
X212.479 Y25.4056
X212.424 Y25.4446
X212.4099 Y25.4555
X212.3619 Y25.4962
X212.3139 Y25.543
X212.2929 Y25.5656
X212.2471 Y25.6206
X212.2078 Y25.6757
X212.2038 Y25.6818
X212.1723 Y25.7338
X212.1451 Y25.7858
X212.1205 Y25.8408
X212.1 Y25.8959
X212.0937 Y25.9153
X212.0807 Y25.9607
X212.07 Y26.006
X212.0602 Y26.061
X212.0537 Y26.1161
X212.0504 Y26.1711
X212.05 Y26.2262
Y85.048
X212.0479 Y85.05
X128.9514
X128.95 Y85.048
Y26.2262
X128.9496 Y26.1711
X128.9463 Y26.1161
X128.9398 Y26.061
X128.93 Y26.006
X128.9168 Y25.9509
X128.9 Y25.8959
X128.8795 Y25.8408
X128.8549 Y25.7858
X128.851 Y25.7777
X128.8237 Y25.7267
X128.7922 Y25.6757
X128.7677 Y25.6405
X128.7408 Y25.6053
X128.7071 Y25.5656
X128.6689 Y25.5254
X128.6307 Y25.4896
X128.5901 Y25.4555
X128.5553 Y25.4292
X128.5206 Y25.4054
X128.4677 Y25.3731
X128.4148 Y25.3454
X128.4105 Y25.3433
X128.3555 Y25.319
X128.3004 Y25.2988
X128.2453 Y25.2823
X128.1903 Y25.2693
X128.1352 Y25.2597
X128.0802 Y25.2534
X127.9701 Y25.25
X0.0229
X-0.0321 Y25.2506
X-0.0872 Y25.254
X-0.1422 Y25.2607
X-0.1973 Y25.2707
X-0.2523 Y25.2842
X-0.3074 Y25.3011
X-0.3611 Y25.3213
X-0.4148 Y25.3454
X-0.4175 Y25.3467
X-0.4726 Y25.3759
X-0.5276 Y25.41
X-0.5901 Y25.4555
X-0.6377 Y25.4959
X-0.6742 Y25.5307
X-0.7071 Y25.5656
X-0.7478 Y25.6142
X-0.7922 Y25.6757
X-0.826 Y25.7307
X-0.8549 Y25.7858
X-0.8579 Y25.7921
X-0.8808 Y25.844
X-0.9 Y25.8959
X-0.9168 Y25.9509
X-0.93 Y26.006
X-0.9398 Y26.061
X-0.9463 Y26.1161
X-0.9496 Y26.1711
X-0.95 Y26.2262
Y39.9885
X-0.949 Y40.0436
X-0.9449 Y40.0986
X-0.9375 Y40.1537
X-0.9268 Y40.2087
X-0.9126 Y40.2638
X-0.8949 Y40.3188
X-0.8777 Y40.3634
X-0.8579 Y40.408
X-0.8476 Y40.4289
X-0.8175 Y40.484
X-0.7823 Y40.539
X-0.7478 Y40.5859
X-0.7219 Y40.6175
X-0.6936 Y40.6491
X-0.6377 Y40.7041
X-0.6044 Y40.733
X-0.571 Y40.7592
X-0.5276 Y40.79
X-0.4726 Y40.8241
X-0.4175 Y40.8533
X-0.3831 Y40.8693
X-0.3074 Y40.8989
X-0.2523 Y40.9159
X-0.1973 Y40.9293
X-0.1422 Y40.9393
X-0.0872 Y40.946
X-0.0321 Y40.9495
X0.0229 Y40.95
X19.9527
X20.0628 Y40.9507
X20.173 Y40.9551
X20.2831 Y40.9634
X20.3932 Y40.9757
X20.4193 Y40.9794
X20.5033 Y40.9924
X20.6134 Y41.0122
X20.7235 Y41.0374
X20.8336 Y41.0667
X20.9108 Y41.0895
X20.9437 Y41.1
X21.0538 Y41.138
X21.1639 Y41.1812
X21.2079 Y41.1996
X21.2741 Y41.2291
X21.3842 Y41.2828
X21.4361 Y41.3097
X21.4943 Y41.3415
X21.6044 Y41.4065
X21.6256 Y41.4198
X21.7145 Y41.4776
X21.7893 Y41.5299
X21.8246 Y41.5559
X21.9314 Y41.64
X21.9347 Y41.6428
X22.0448 Y41.7376
X22.0587 Y41.7501
X22.1549 Y41.8423
X22.173 Y41.8602
X22.265 Y41.9576
X22.2765 Y41.9703
X22.3698 Y42.0804
X22.3751 Y42.087
X22.4548 Y42.1905
X22.4853 Y42.2324
X22.5322 Y42.3006
X22.5954 Y42.3981
X22.6033 Y42.4107
X22.667 Y42.5208
X22.7055 Y42.5922
X22.7253 Y42.6309
X22.7778 Y42.741
X22.8156 Y42.8278
X22.825 Y42.8511
X22.8675 Y42.9612
X22.9049 Y43.0713
X22.9257 Y43.1394
X22.9379 Y43.1814
X22.9662 Y43.2915
X22.9907 Y43.4016
X23.0103 Y43.5117
X23.0264 Y43.6218
X23.0358 Y43.7085
X23.0379 Y43.7319
X23.0457 Y43.842
X23.0494 Y43.9521
X23.05 Y44.0622
Y66.9628
X23.0491 Y67.0729
X23.0442 Y67.183
X23.0358 Y67.2915
X23.0357 Y67.2931
X23.0229 Y67.4032
X23.0063 Y67.5133
X22.9854 Y67.6234
X22.9602 Y67.7335
X22.9307 Y67.8436
X22.9257 Y67.8606
X22.8968 Y67.9537
X22.8581 Y68.0638
X22.8156 Y68.1722
X22.8149 Y68.1739
X22.7663 Y68.284
X22.7127 Y68.3941
X22.7055 Y68.4078
X22.653 Y68.5042
X22.5954 Y68.6018
X22.5875 Y68.6143
X22.5154 Y68.7244
X22.4853 Y68.7676
X22.4363 Y68.8345
X22.3751 Y68.913
X22.3493 Y68.9446
X22.265 Y69.0424
X22.2539 Y69.0547
X22.1549 Y69.1578
X22.1479 Y69.1648
X22.0448 Y69.2624
X22.0311 Y69.2749
X21.9347 Y69.3572
X21.9008 Y69.385
X21.8246 Y69.4441
X21.7539 Y69.4951
X21.7145 Y69.5224
X21.6044 Y69.5935
X21.5855 Y69.6052
X21.4943 Y69.6585
X21.3881 Y69.7153
X21.3842 Y69.7172
X21.2741 Y69.7709
X21.1639 Y69.8191
X21.1487 Y69.8253
X21.0538 Y69.8622
X20.9437 Y69.9
X20.8336 Y69.9332
X20.8261 Y69.9354
X20.7235 Y69.9626
X20.6134 Y69.9878
X20.5033 Y70.0076
X20.3932 Y70.0243
X20.2831 Y70.0365
X20.173 Y70.0449
X20.1614 Y70.0455
X20.0628 Y70.0493
X19.9527 Y70.05
X0.0229
X-0.0321 Y70.0505
X-0.0872 Y70.054
X-0.1422 Y70.0607
X-0.1973 Y70.0707
X-0.2523 Y70.0841
X-0.3074 Y70.1011
X-0.3624 Y70.1218
X-0.4175 Y70.1466
X-0.4354 Y70.1556
X-0.4815 Y70.1811
X-0.5276 Y70.21
X-0.5652 Y70.2364
X-0.6028 Y70.2657
X-0.6377 Y70.2958
X-0.6793 Y70.3358
X-0.7162 Y70.3758
X-0.7478 Y70.4141
X-0.7746 Y70.45
X-0.7989 Y70.4859
X-0.8306 Y70.539
X-0.8579 Y70.592
X-0.8598 Y70.596
X-0.8836 Y70.6511
X-0.9034 Y70.7061
X-0.9195 Y70.7612
X-0.9321 Y70.8162
X-0.9412 Y70.8713
X-0.9471 Y70.9263
X-0.95 Y71.0364
Y128.9485
X-0.9482 Y129.0586
X-0.9432 Y129.1136
X-0.9349 Y129.1687
X-0.9233 Y129.2237
X-0.9082 Y129.2788
X-0.8894 Y129.3338
X-0.8668 Y129.3889
X-0.8579 Y129.408
X-0.8348 Y129.4535
X-0.8084 Y129.499
X-0.7868 Y129.5319
X-0.7799 Y129.5424
X-0.7478 Y129.5859
X-0.7291 Y129.6091
X-0.6866 Y129.6566
X-0.6377 Y129.7041
X-0.6207 Y129.7192
X-0.5742 Y129.7569
X-0.5276 Y129.79
X-0.4635 Y129.8293
X-0.4175 Y129.8533
X-0.3624 Y129.8781
X-0.3074 Y129.8989
X-0.2523 Y129.9159
X-0.1973 Y129.9293
X-0.1418 Y129.9394
X-0.0872 Y129.946
X-0.0321 Y129.9495
X0.0229 Y129.95
X36.1592
X36.3528 Z-6.0001
X36.5463 Z-6.0004
X36.7399 Z-6.0008
X36.9335 Z-6.0015
X37.1271 Z-6.0023
X37.3206 Z-6.0033
X37.5142 Z-6.0045
X37.7078 Z-6.0058
X37.9014 Z-6.0073
X38.0949 Z-6.009
X38.2885 Z-6.0109
X38.4821 Z-6.0129
X38.6757 Z-6.0151
X38.8692 Z-6.0174
X39.0628 Z-6.0199
X39.2564 Z-6.0225
X39.45 Z-6.0253
X39.6435 Z-6.0283
X39.8371 Z-6.0314
X40.0307 Z-6.0347
X40.2243 Z-6.0381
X40.4178 Z-6.0416
X40.6114 Z-6.0453
X40.805 Z-6.0491
X40.9986 Z-6.0531
X41.1921 Z-6.0572
X41.3857 Z-6.0614
X41.5793 Z-6.0658
X41.7729 Z-6.0702
X41.9664 Z-6.0749
X42.16 Z-6.0796
X42.3536 Z-6.0845
X42.5472 Z-6.0894
X42.6439 Z-6.092
X42.7407 Z-6.0945
X42.8375 Z-6.0971
X42.9343 Z-6.0997
X43.0311 Z-6.1024
X43.1279 Z-6.1051
X43.2247 Z-6.1078
X43.3215 Z-6.1105
X43.4182 Z-6.1133
X43.515 Z-6.1161
X43.6118 Z-6.1189
X43.7086 Z-6.1217
X43.8054 Z-6.1246
X43.9022 Z-6.1275
X43.999 Z-6.1304
X44.0958 Z-6.1334
X44.1925 Z-6.1363
X44.2893 Z-6.1393
X44.3861 Z-6.1423
X44.4829 Z-6.1454
X44.5797 Z-6.1485
X44.6765 Z-6.1516
X44.7733 Z-6.1547
X44.8701 Z-6.1578
X44.9668 Z-6.161
X45.0636 Z-6.1642
X45.1604 Z-6.1674
X45.2572 Z-6.1706
X45.354 Z-6.1739
X45.4508 Z-6.1772
X45.5476 Z-6.1805
X45.6443 Z-6.1838
X45.7411 Z-6.1871
X45.9347 Z-6.1939
X46.0315 Z-6.1972
X46.1283 Z-6.2006
X46.2251 Z-6.204
X46.3219 Z-6.2074
X46.4186 Z-6.2108
X46.5154 Z-6.2141
X46.6122 Z-6.2175
X46.709 Z-6.2209
X46.8058 Z-6.2243
X46.9026 Z-6.2277
X46.9994 Z-6.231
X47.0962 Z-6.2344
X47.2897 Z-6.2412
X47.5801 Z-6.2513
X47.8705 Z-6.2614
X48.1608 Z-6.2716
X48.4512 Z-6.2817
X48.7415 Z-6.2919
X49.0319 Z-6.302
X49.3223 Z-6.3121
X49.6126 Z-6.3223
X49.903 Z-6.3324
X50.1934 Z-6.3426
X50.6773 Z-6.3595
X51.1612 Z-6.3764
X51.6452 Z-6.3933
X52.3227 Z-6.4169
X53.1938 Z-6.4473
X54.6456 Z-6.498
X61.6143 Z-6.7413
X61.9046 Z-6.7515
X62.195 Z-6.7616
X62.2918 Z-6.765
X62.3886 Z-6.7684
X62.4853 Z-6.7717
X62.5821 Z-6.7751
X62.6789 Z-6.7785
X62.7757 Z-6.7819
X62.8725 Z-6.7853
X62.9693 Z-6.7886
X63.0661 Z-6.792
X63.1629 Z-6.7954
X63.2596 Z-6.7988
X63.3564 Z-6.8022
X63.4532 Z-6.8055
X63.55 Z-6.8089
X63.6468 Z-6.8123
X63.7436 Z-6.8156
X63.8404 Z-6.819
X63.9372 Z-6.8223
X64.0339 Z-6.8255
X64.1307 Z-6.8288
X64.2275 Z-6.832
X64.3243 Z-6.8353
X64.4211 Z-6.8385
X64.5179 Z-6.8416
X64.6147 Z-6.8448
X64.7115 Z-6.8479
X64.8082 Z-6.851
X64.905 Z-6.8541
X65.0018 Z-6.8571
X65.0986 Z-6.8601
X65.1954 Z-6.8631
X65.2922 Z-6.8661
X65.389 Z-6.8691
X65.4858 Z-6.872
X65.5825 Z-6.8749
X65.6793 Z-6.8778
X65.7761 Z-6.8806
X65.8729 Z-6.8834
X65.9697 Z-6.8862
X66.0665 Z-6.889
X66.1633 Z-6.8917
X66.2601 Z-6.8945
X66.3568 Z-6.8971
X66.4536 Z-6.8998
X66.5504 Z-6.9024
X66.6472 Z-6.905
X66.744 Z-6.9076
X66.8408 Z-6.9101
X66.9376 Z-6.9126
X67.1311 Z-6.9176
X67.3247 Z-6.9224
X67.5183 Z-6.9271
X67.7119 Z-6.9316
X67.9054 Z-6.9361
X68.099 Z-6.9404
X68.2926 Z-6.9445
X68.4862 Z-6.9486
X68.6797 Z-6.9525
X68.8733 Z-6.9562
X69.0669 Z-6.9599
X69.2605 Z-6.9634
X69.454 Z-6.9667
X69.6476 Z-6.9699
X69.8412 Z-6.9729
X70.0348 Z-6.9758
X70.2283 Z-6.9786
X70.4219 Z-6.9812
X70.6155 Z-6.9836
X70.8091 Z-6.9859
X71.0026 Z-6.988
X71.1962 Z-6.9899
X71.3898 Z-6.9917
X71.5834 Z-6.9933
X71.7769 Z-6.9948
X71.9705 Z-6.996
X72.1641 Z-6.9971
X72.3577 Z-6.9981
X72.5512 Z-6.9988
X72.7448 Z-6.9994
X72.9384 Z-6.9998
X73.132 Z-7
X73.2458
X285.9771
X286.0321 Y129.9495
X286.0872 Y129.946
X286.1418 Y129.9394
X286.1973 Y129.9293
X286.2523 Y129.9159
X286.3074 Y129.8989
X286.3625 Y129.8781
X286.4175 Y129.8533
X286.4635 Y129.8293
X286.5276 Y129.79
X286.5742 Y129.7569
X286.6208 Y129.7192
X286.6377 Y129.7041
X286.6866 Y129.6566
X286.7291 Y129.6091
X286.7478 Y129.5859
X286.7799 Y129.5424
X286.8084 Y129.499
X286.8348 Y129.4535
X286.8579 Y129.408
X286.8668 Y129.3889
X286.8894 Y129.3338
X286.9082 Y129.2788
X286.9233 Y129.2237
X286.9349 Y129.1687
X286.9432 Y129.1136
X286.9482 Y129.0586
X286.95 Y128.9485
Y71.0364
X286.9471 Y70.9263
X286.9413 Y70.8713
X286.9321 Y70.8162
X286.9195 Y70.7612
X286.9034 Y70.7061
X286.8836 Y70.6511
X286.8599 Y70.596
X286.8579 Y70.592
X286.8307 Y70.539
X286.7989 Y70.4859
X286.7746 Y70.45
X286.7478 Y70.4141
X286.7162 Y70.3758
X286.6793 Y70.3358
X286.6377 Y70.2958
X286.6028 Y70.2657
X286.5652 Y70.2364
X286.5276 Y70.21
X286.4815 Y70.1811
X286.4354 Y70.1556
X286.4175 Y70.1466
X286.3625 Y70.1218
X286.3074 Y70.1011
X286.2523 Y70.0841
X286.1973 Y70.0707
X286.1422 Y70.0607
X286.0872 Y70.054
X286.0321 Y70.0505
X285.9771 Y70.05
X268.0292
X267.9191 Y70.049
X267.8389 Y70.0455
X267.809 Y70.0438
X267.6989 Y70.0349
X267.5888 Y70.0217
X267.4787 Y70.0047
X267.3686 Y69.984
X267.2585 Y69.9581
X267.1743 Y69.9354
X267.1484 Y69.9279
X267.0383 Y69.8944
X266.9282 Y69.8549
X266.8527 Y69.8253
X266.818 Y69.8116
X266.7079 Y69.7626
X266.6116 Y69.7153
X266.5978 Y69.7081
X266.4877 Y69.6483
X266.4142 Y69.6052
X266.3776 Y69.5822
X266.2675 Y69.5098
X266.2463 Y69.4951
X266.1574 Y69.4306
X266.0992 Y69.385
X266.0473 Y69.3424
X265.9686 Y69.2749
X265.9372 Y69.2464
X265.8523 Y69.1648
X265.8271 Y69.1396
X265.7462 Y69.0547
X265.7169 Y69.0223
X265.6509 Y68.9446
X265.6068 Y68.8903
X265.5633 Y68.8345
X265.4967 Y68.7419
X265.4845 Y68.7244
X265.4127 Y68.6143
X265.3866 Y68.5719
X265.347 Y68.5042
X265.2877 Y68.3941
X265.2765 Y68.372
X265.2337 Y68.284
X265.1852 Y68.1739
X265.1664 Y68.1266
X265.1419 Y68.0638
X265.1031 Y67.9537
X265.0698 Y67.8436
X265.0563 Y67.7952
X265.0399 Y67.7335
X265.0143 Y67.6234
X264.994 Y67.5133
X264.9772 Y67.4032
X264.9644 Y67.2931
X264.9557 Y67.183
X264.9508 Y67.0729
X264.95 Y66.9628
Y44.0622
X264.9505 Y43.9521
X264.9543 Y43.842
X264.9621 Y43.7319
X264.9737 Y43.6218
X264.9899 Y43.5117
X265.0092 Y43.4016
X265.0337 Y43.2915
X265.0563 Y43.2048
X265.0626 Y43.1814
X265.0952 Y43.0713
X265.1323 Y42.9612
X265.1664 Y42.8734
X265.1753 Y42.8511
X265.2221 Y42.741
X265.275 Y42.6309
X265.2765 Y42.628
X265.333 Y42.5208
X265.3866 Y42.4281
X265.3969 Y42.4107
X265.4678 Y42.3006
X265.4967 Y42.2581
X265.5449 Y42.1905
X265.6068 Y42.1097
X265.6305 Y42.0804
X265.7169 Y41.9777
X265.7236 Y41.9703
X265.8271 Y41.8605
X265.9372 Y41.7536
X265.941 Y41.7501
X266.0473 Y41.6576
X266.0687 Y41.64
X266.1574 Y41.5694
X266.2108 Y41.5299
X266.2675 Y41.4902
X266.3744 Y41.4198
X266.3776 Y41.4178
X266.4877 Y41.3516
X266.5638 Y41.3097
X266.5978 Y41.2919
X266.7079 Y41.2374
X266.792 Y41.1996
X266.818 Y41.1882
X266.9282 Y41.1446
X267.0383 Y41.1056
X267.0892 Y41.0895
X267.1484 Y41.0721
X267.2585 Y41.0419
X267.3686 Y41.016
X267.4787 Y40.9953
X267.581 Y40.9794
X267.5888 Y40.9783
X267.6989 Y40.9651
X267.809 Y40.9562
X267.9191 Y40.951
X268.0292 Y40.95
X285.9771
X286.0321 Y40.9495
X286.0872 Y40.946
X286.1422 Y40.9393
X286.1973 Y40.9293
X286.2523 Y40.9159
X286.3074 Y40.8989
X286.3831 Y40.8693
X286.4175 Y40.8533
X286.4726 Y40.8241
X286.5276 Y40.79
X286.571 Y40.7592
X286.6044 Y40.733
X286.6377 Y40.7041
X286.6936 Y40.6491
X286.722 Y40.6175
X286.7478 Y40.5859
X286.7823 Y40.539
X286.8175 Y40.484
X286.8477 Y40.4289
X286.8579 Y40.408
X286.8777 Y40.3634
X286.8949 Y40.3188
X286.9127 Y40.2638
X286.9268 Y40.2087
X286.9375 Y40.1537
X286.9449 Y40.0986
X286.949 Y40.0436
X286.95 Y39.9885
Y26.2262
X286.9496 Y26.1711
X286.9463 Y26.1161
X286.9398 Y26.061
X286.93 Y26.006
X286.9168 Y25.9509
X286.9 Y25.8959
X286.8808 Y25.844
X286.8579 Y25.7921
X286.8549 Y25.7858
X286.826 Y25.7307
X286.7922 Y25.6757
X286.7478 Y25.6142
X286.7071 Y25.5656
X286.6742 Y25.5307
X286.6377 Y25.4959
X286.5901 Y25.4555
X286.5276 Y25.41
X286.4726 Y25.3759
X286.4175 Y25.3467
X286.4149 Y25.3454
X286.3611 Y25.3213
X286.3074 Y25.3011
X286.2523 Y25.2842
X286.1973 Y25.2707
X286.1422 Y25.2607
X286.0872 Y25.254
X286.0321 Y25.2506
X285.9771 Y25.25
X213.0846
X212.9745 Y25.2504
X212.9195 Y25.2534
X212.8644 Y25.2598
X212.8094 Y25.2694
X212.7543 Y25.2823
X212.6993 Y25.2989
X212.6442 Y25.3192
X212.5852 Y25.3454
X212.5341 Y25.3721
X212.479 Y25.4056
X212.424 Y25.4446
X212.4099 Y25.4555
X212.3619 Y25.4962
X212.3139 Y25.543
X212.2929 Y25.5656
X212.2471 Y25.6206
X212.2078 Y25.6757
X212.2038 Y25.6818
X212.1723 Y25.7338
X212.1451 Y25.7858
X212.1205 Y25.8408
X212.1 Y25.8959
X212.0937 Y25.9153
X212.0807 Y25.9607
X212.07 Y26.006
X212.0602 Y26.061
X212.0537 Y26.1161
X212.0504 Y26.1711
X212.05 Y26.2262
Y85.048
X212.0479 Y85.05
X128.9514
X128.95 Y85.048
Y26.2262
X128.9496 Y26.1711
X128.9463 Y26.1161
X128.9398 Y26.061
X128.93 Y26.006
X128.9168 Y25.9509
X128.9 Y25.8959
X128.8795 Y25.8408
X128.8549 Y25.7858
X128.851 Y25.7777
X128.8237 Y25.7267
X128.7922 Y25.6757
X128.7677 Y25.6405
X128.7408 Y25.6053
X128.7071 Y25.5656
X128.6689 Y25.5254
X128.6307 Y25.4896
X128.5901 Y25.4555
X128.5553 Y25.4292
X128.5206 Y25.4054
X128.4677 Y25.3731
X128.4148 Y25.3454
X128.4105 Y25.3433
X128.3555 Y25.319
X128.3004 Y25.2988
X128.2453 Y25.2823
X128.1903 Y25.2693
X128.1352 Y25.2597
X128.0802 Y25.2534
X127.9701 Y25.25
X0.0229
X-0.0321 Y25.2506
X-0.0872 Y25.254
X-0.1422 Y25.2607
X-0.1973 Y25.2707
X-0.2523 Y25.2842
X-0.3074 Y25.3011
X-0.3611 Y25.3213
X-0.4148 Y25.3454
X-0.4175 Y25.3467
X-0.4726 Y25.3759
X-0.5276 Y25.41
X-0.5901 Y25.4555
X-0.6377 Y25.4959
X-0.6742 Y25.5307
X-0.7071 Y25.5656
X-0.7478 Y25.6142
X-0.7922 Y25.6757
X-0.826 Y25.7307
X-0.8549 Y25.7858
X-0.8579 Y25.7921
X-0.8808 Y25.844
X-0.9 Y25.8959
X-0.9168 Y25.9509
X-0.93 Y26.006
X-0.9398 Y26.061
X-0.9463 Y26.1161
X-0.9496 Y26.1711
X-0.95 Y26.2262
Y39.9885
X-0.949 Y40.0436
X-0.9449 Y40.0986
X-0.9375 Y40.1537
X-0.9268 Y40.2087
X-0.9126 Y40.2638
X-0.8949 Y40.3188
X-0.8777 Y40.3634
X-0.8579 Y40.408
X-0.8476 Y40.4289
X-0.8175 Y40.484
X-0.7823 Y40.539
X-0.7478 Y40.5859
X-0.7219 Y40.6175
X-0.6936 Y40.6491
X-0.6377 Y40.7041
X-0.6044 Y40.733
X-0.571 Y40.7592
X-0.5276 Y40.79
X-0.4726 Y40.8241
X-0.4175 Y40.8533
X-0.3831 Y40.8693
X-0.3074 Y40.8989
X-0.2523 Y40.9159
X-0.1973 Y40.9293
X-0.1422 Y40.9393
X-0.0872 Y40.946
X-0.0321 Y40.9495
X0.0229 Y40.95
X19.9527
X20.0628 Y40.9507
X20.173 Y40.9551
X20.2831 Y40.9634
X20.3932 Y40.9757
X20.4193 Y40.9794
X20.5033 Y40.9924
X20.6134 Y41.0122
X20.7235 Y41.0374
X20.8336 Y41.0667
X20.9108 Y41.0895
X20.9437 Y41.1
X21.0538 Y41.138
X21.1639 Y41.1812
X21.2079 Y41.1996
X21.2741 Y41.2291
X21.3842 Y41.2828
X21.4361 Y41.3097
X21.4943 Y41.3415
X21.6044 Y41.4065
X21.6256 Y41.4198
X21.7145 Y41.4776
X21.7893 Y41.5299
X21.8246 Y41.5559
X21.9314 Y41.64
X21.9347 Y41.6428
X22.0448 Y41.7376
X22.0587 Y41.7501
X22.1549 Y41.8423
X22.173 Y41.8602
X22.265 Y41.9576
X22.2765 Y41.9703
X22.3698 Y42.0804
X22.3751 Y42.087
X22.4548 Y42.1905
X22.4853 Y42.2324
X22.5322 Y42.3006
X22.5954 Y42.3981
X22.6033 Y42.4107
X22.667 Y42.5208
X22.7055 Y42.5922
X22.7253 Y42.6309
X22.7778 Y42.741
X22.8156 Y42.8278
X22.825 Y42.8511
X22.8675 Y42.9612
X22.9049 Y43.0713
X22.9257 Y43.1394
X22.9379 Y43.1814
X22.9662 Y43.2915
X22.9907 Y43.4016
X23.0103 Y43.5117
X23.0264 Y43.6218
X23.0358 Y43.7085
X23.0379 Y43.7319
X23.0457 Y43.842
X23.0494 Y43.9521
X23.05 Y44.0622
Y66.9628
X23.0491 Y67.0729
X23.0442 Y67.183
X23.0358 Y67.2915
X23.0357 Y67.2931
X23.0229 Y67.4032
X23.0063 Y67.5133
X22.9854 Y67.6234
X22.9602 Y67.7335
X22.9307 Y67.8436
X22.9257 Y67.8606
X22.8968 Y67.9537
X22.8581 Y68.0638
X22.8156 Y68.1722
X22.8149 Y68.1739
X22.7663 Y68.284
X22.7127 Y68.3941
X22.7055 Y68.4078
X22.653 Y68.5042
X22.5954 Y68.6018
X22.5875 Y68.6143
X22.5154 Y68.7244
X22.4853 Y68.7676
X22.4363 Y68.8345
X22.3751 Y68.913
X22.3493 Y68.9446
X22.265 Y69.0424
X22.2539 Y69.0547
X22.1549 Y69.1578
X22.1479 Y69.1648
X22.0448 Y69.2624
X22.0311 Y69.2749
X21.9347 Y69.3572
X21.9008 Y69.385
X21.8246 Y69.4441
X21.7539 Y69.4951
X21.7145 Y69.5224
X21.6044 Y69.5935
X21.5855 Y69.6052
X21.4943 Y69.6585
X21.3881 Y69.7153
X21.3842 Y69.7172
X21.2741 Y69.7709
X21.1639 Y69.8191
X21.1487 Y69.8253
X21.0538 Y69.8622
X20.9437 Y69.9
X20.8336 Y69.9332
X20.8261 Y69.9354
X20.7235 Y69.9626
X20.6134 Y69.9878
X20.5033 Y70.0076
X20.3932 Y70.0243
X20.2831 Y70.0365
X20.173 Y70.0449
X20.1614 Y70.0455
X20.0628 Y70.0493
X19.9527 Y70.05
X0.0229
X-0.0321 Y70.0505
X-0.0872 Y70.054
X-0.1422 Y70.0607
X-0.1973 Y70.0707
X-0.2523 Y70.0841
X-0.3074 Y70.1011
X-0.3624 Y70.1218
X-0.4175 Y70.1466
X-0.4354 Y70.1556
X-0.4815 Y70.1811
X-0.5276 Y70.21
X-0.5652 Y70.2364
X-0.6028 Y70.2657
X-0.6377 Y70.2958
X-0.6793 Y70.3358
X-0.7162 Y70.3758
X-0.7478 Y70.4141
X-0.7746 Y70.45
X-0.7989 Y70.4859
X-0.8306 Y70.539
X-0.8579 Y70.592
X-0.8598 Y70.596
X-0.8836 Y70.6511
X-0.9034 Y70.7061
X-0.9195 Y70.7612
X-0.9321 Y70.8162
X-0.9412 Y70.8713
X-0.9471 Y70.9263
X-0.95 Y71.0364
Y128.9485
X-0.9482 Y129.0586
X-0.9432 Y129.1136
X-0.9349 Y129.1687
X-0.9233 Y129.2237
X-0.9082 Y129.2788
X-0.8894 Y129.3338
X-0.8668 Y129.3889
X-0.8579 Y129.408
X-0.8348 Y129.4535
X-0.8084 Y129.499
X-0.7799 Y129.5424
X-0.7478 Y129.5859
X-0.7291 Y129.6091
X-0.6866 Y129.6566
X-0.6377 Y129.7041
X-0.6207 Y129.7192
X-0.5742 Y129.7569
X-0.5276 Y129.79
X-0.4635 Y129.8293
X-0.4175 Y129.8533
X-0.3624 Y129.8781
X-0.3074 Y129.8989
X-0.2523 Y129.9159
X-0.1973 Y129.9293
X-0.1418 Y129.9394
X-0.0872 Y129.946
X-0.0321 Y129.9495
X0.0229 Y129.95
X73.2458
X73.4393 Z-7.0001
X73.6329 Z-7.0004
X73.8265 Z-7.0008
X74.0201 Z-7.0015
X74.2136 Z-7.0023
X74.4072 Z-7.0033
X74.6008 Z-7.0045
X74.7943 Z-7.0058
X74.9879 Z-7.0073
X75.1815 Z-7.009
X75.3751 Z-7.0109
X75.5686 Z-7.0129
X75.7622 Z-7.0151
X75.9558 Z-7.0174
X76.1494 Z-7.0199
X76.3429 Z-7.0225
X76.5365 Z-7.0253
X76.7301 Z-7.0283
X76.9237 Z-7.0314
X77.1172 Z-7.0347
X77.3108 Z-7.0381
X77.5044 Z-7.0416
X77.698 Z-7.0453
X77.8915 Z-7.0491
X78.0851 Z-7.0531
X78.2787 Z-7.0572
X78.4723 Z-7.0614
X78.6658 Z-7.0658
X78.8594 Z-7.0702
X79.053 Z-7.0749
X79.2466 Z-7.0796
X79.4401 Z-7.0845
X79.6337 Z-7.0894
X79.7305 Z-7.092
X79.8273 Z-7.0945
X79.9241 Z-7.0971
X80.0209 Z-7.0997
X80.1177 Z-7.1024
X80.2144 Z-7.1051
X80.3112 Z-7.1078
X80.408 Z-7.1105
X80.5048 Z-7.1133
X80.6016 Z-7.1161
X80.6984 Z-7.1189
X80.7952 Z-7.1217
X80.892 Z-7.1246
X80.9887 Z-7.1275
X81.0855 Z-7.1304
X81.1823 Z-7.1334
X81.2791 Z-7.1363
X81.3759 Z-7.1393
X81.4727 Z-7.1423
X81.5695 Z-7.1454
X81.6663 Z-7.1485
X81.763 Z-7.1516
X81.8598 Z-7.1547
X81.9566 Z-7.1578
X82.0534 Z-7.161
X82.1502 Z-7.1642
X82.247 Z-7.1674
X82.3438 Z-7.1706
X82.4406 Z-7.1739
X82.5373 Z-7.1772
X82.6341 Z-7.1805
X82.7309 Z-7.1838
X82.8277 Z-7.1871
X83.0213 Z-7.1939
X83.1181 Z-7.1972
X83.2149 Z-7.2006
X83.3116 Z-7.204
X83.4084 Z-7.2074
X83.5052 Z-7.2108
X83.602 Z-7.2141
X83.6988 Z-7.2175
X83.7956 Z-7.2209
X83.8924 Z-7.2243
X83.9892 Z-7.2277
X84.0859 Z-7.231
X84.1827 Z-7.2344
X84.3763 Z-7.2412
X84.6667 Z-7.2513
X84.957 Z-7.2614
X85.2474 Z-7.2716
X85.5378 Z-7.2817
X85.8281 Z-7.2919
X86.1185 Z-7.302
X86.4088 Z-7.3121
X86.6992 Z-7.3223
X86.9896 Z-7.3324
X87.2799 Z-7.3426
X87.7639 Z-7.3595
X88.2478 Z-7.3764
X88.7317 Z-7.3933
X89.4092 Z-7.4169
X90.2803 Z-7.4473
X91.7321 Z-7.498
X98.7008 Z-7.7413
X98.9912 Z-7.7515
X99.2815 Z-7.7616
X99.3783 Z-7.765
X99.4751 Z-7.7684
X99.5719 Z-7.7717
X99.6687 Z-7.7751
X99.7655 Z-7.7785
X99.8623 Z-7.7819
X99.9591 Z-7.7853
X100.0558 Z-7.7886
X100.1526 Z-7.792
X100.2494 Z-7.7954
X100.3462 Z-7.7988
X100.443 Z-7.8022
X100.5398 Z-7.8055
X100.6366 Z-7.8089
X100.7334 Z-7.8123
X100.8301 Z-7.8156
X100.9269 Z-7.819
X101.0237 Z-7.8223
X101.1205 Z-7.8255
X101.2173 Z-7.8288
X101.3141 Z-7.832
X101.4109 Z-7.8353
X101.5077 Z-7.8385
X101.6044 Z-7.8416
X101.7012 Z-7.8448
X101.798 Z-7.8479
X101.8948 Z-7.851
X101.9916 Z-7.8541
X102.0884 Z-7.8571
X102.1852 Z-7.8601
X102.282 Z-7.8631
X102.3787 Z-7.8661
X102.4755 Z-7.8691
X102.5723 Z-7.872
X102.6691 Z-7.8749
X102.7659 Z-7.8778
X102.8627 Z-7.8806
X102.9595 Z-7.8834
X103.0563 Z-7.8862
X103.153 Z-7.889
X103.2498 Z-7.8917
X103.3466 Z-7.8945
X103.4434 Z-7.8971
X103.5402 Z-7.8998
X103.637 Z-7.9024
X103.7338 Z-7.905
X103.8306 Z-7.9076
X103.9273 Z-7.9101
X104.0241 Z-7.9126
X104.2177 Z-7.9176
X104.4113 Z-7.9224
X104.6049 Z-7.9271
X104.7984 Z-7.9316
X104.992 Z-7.9361
X105.1856 Z-7.9404
X105.3792 Z-7.9445
X105.5727 Z-7.9486
X105.7663 Z-7.9525
X105.9599 Z-7.9562
X106.1535 Z-7.9599
X106.347 Z-7.9634
X106.5406 Z-7.9667
X106.7342 Z-7.9699
X106.9277 Z-7.9729
X107.1213 Z-7.9758
X107.3149 Z-7.9786
X107.5085 Z-7.9812
X107.702 Z-7.9836
X107.8956 Z-7.9859
X108.0892 Z-7.988
X108.2828 Z-7.9899
X108.4763 Z-7.9917
X108.6699 Z-7.9933
X108.8635 Z-7.9948
X109.0571 Z-7.996
X109.2506 Z-7.9971
X109.4442 Z-7.9981
X109.6378 Z-7.9988
X109.8314 Z-7.9994
X110.0249 Z-7.9998
X110.2185 Z-8
X110.3323
X285.9771
X286.0321 Y129.9495
X286.0872 Y129.946
X286.1418 Y129.9394
X286.1973 Y129.9293
X286.2523 Y129.9159
X286.3074 Y129.8989
X286.3625 Y129.8781
X286.4175 Y129.8533
X286.4635 Y129.8293
X286.5276 Y129.79
X286.5742 Y129.7569
X286.6208 Y129.7192
X286.6377 Y129.7041
X286.6866 Y129.6566
X286.7291 Y129.6091
X286.7478 Y129.5859
X286.7799 Y129.5424
X286.8084 Y129.499
X286.8348 Y129.4535
X286.8579 Y129.408
X286.8668 Y129.3889
X286.8894 Y129.3338
X286.9082 Y129.2788
X286.9233 Y129.2237
X286.9349 Y129.1687
X286.9432 Y129.1136
X286.9482 Y129.0586
X286.95 Y128.9485
Y71.0364
X286.9471 Y70.9263
X286.9413 Y70.8713
X286.9321 Y70.8162
X286.9195 Y70.7612
X286.9034 Y70.7061
X286.8836 Y70.6511
X286.8599 Y70.596
X286.8579 Y70.592
X286.8307 Y70.539
X286.7989 Y70.4859
X286.7746 Y70.45
X286.7478 Y70.4141
X286.7162 Y70.3758
X286.6793 Y70.3358
X286.6377 Y70.2958
X286.6028 Y70.2657
X286.5652 Y70.2364
X286.5276 Y70.21
X286.4815 Y70.1811
X286.4354 Y70.1556
X286.4175 Y70.1466
X286.3625 Y70.1218
X286.3074 Y70.1011
X286.2523 Y70.0841
X286.1973 Y70.0707
X286.1422 Y70.0607
X286.0872 Y70.054
X286.0321 Y70.0505
X285.9771 Y70.05
X268.0292
X267.9191 Y70.049
X267.8389 Y70.0455
X267.809 Y70.0438
X267.6989 Y70.0349
X267.5888 Y70.0217
X267.4787 Y70.0047
X267.3686 Y69.984
X267.2585 Y69.9581
X267.1743 Y69.9354
X267.1484 Y69.9279
X267.0383 Y69.8944
X266.9282 Y69.8549
X266.8527 Y69.8253
