%
(Made in : Autodesk CAM Post Processor)
(G Code optimized for OpenBuilds OX CNC 1000 x 750 with GRBL V0.9j controller)

(Program Name : 1001)
(2 Operations :)
(1 : Contour2)
(  Tool : Flat End Mill 2 Flutes, Diam = 1.9mm, Len = 12.7mm)
(  Spindle : RPM = 30000, set router dial to 6)
(  Machining time : 5 min 14 sec)
(2 : Horizontal1)
(  Tool : Flat End Mill 2 Flutes, Diam = 1.9mm, Len = 12.7mm)
(  Spindle : RPM = 30000, set router dial to 6)
(  Machining time : 1 min 24 sec)

G90 G94
G17
G21

(Operation 1 of 2 : Contour2)

G53 G0 Z5
G54
S30000 M3
G4 P1.0
X-2.2469 Y24.9734
Z6
Z1.1867
G1 Z-0.81 F3200
X-2.241 Y24.9761 Z-0.8592
X-2.2239 Y24.9842 Z-0.905
X-2.1966 Y24.9971 Z-0.9444
X-2.161 Y25.0139 Z-0.9745
X-2.1195 Y25.0335 Z-0.9935
X-2.0751 Y25.0545 Z-1
X-0.9661 Y25.5782
X-0.9244 Y25.6051
X-0.8911 Y25.6418
X-0.8684 Y25.6859
X-0.8579 Y25.7344
X-0.8603 Y25.7839
X-0.8755 Y25.8311
X-0.8902 Y25.8683
X-0.9088 Y25.9234
X-0.9238 Y25.9784
X-0.9353 Y26.0334
X-0.9434 Y26.0885
X-0.9483 Y26.1435
X-0.95 Y26.1985
Y128.9999
X-0.9484 Y129.055
X-0.9436 Y129.11
X-0.9356 Y129.165
X-0.9242 Y129.2201
X-0.9093 Y129.2751
X-0.8908 Y129.3301
X-0.8755 Y129.3689
X-0.8418 Y129.4402
X-0.8107 Y129.4952
X-0.7744 Y129.5503
X-0.7653 Y129.5628
X-0.727 Y129.6116
X-0.683 Y129.6603
X-0.6552 Y129.6879
X-0.6055 Y129.732
X-0.5558 Y129.7704
X-0.5451 Y129.778
X-0.49 Y129.8139
X-0.435 Y129.8446
X-0.3959 Y129.8636
X-0.3567 Y129.8805
X-0.3248 Y129.8927
X-0.2698 Y129.9109
X-0.2147 Y129.9254
X-0.1597 Y129.9365
X-0.1046 Y129.9442
X-0.0495 Y129.9487
X0.0055 Y129.95
X285.9945
X286.0496 Y129.9487
X286.1046 Y129.9442
X286.1597 Y129.9365
X286.2147 Y129.9254
X286.2698 Y129.9109
X286.3249 Y129.8927
X286.3568 Y129.8805
X286.3959 Y129.8636
X286.435 Y129.8446
X286.4901 Y129.8139
X286.5451 Y129.778
X286.5558 Y129.7704
X286.6055 Y129.732
X286.6552 Y129.6879
X286.683 Y129.6603
X286.727 Y129.6116
X286.7654 Y129.5628
X286.7744 Y129.5503
X286.8107 Y129.4952
X286.8419 Y129.4402
X286.8755 Y129.3689
X286.8908 Y129.3301
X286.9093 Y129.2751
X286.9242 Y129.2201
X286.9356 Y129.165
X286.9436 Y129.11
X286.9484 Y129.055
X286.95 Y128.9999
Y76.0583
X286.9486 Y75.9483
X286.944 Y75.8932
X286.9361 Y75.8382
X286.9249 Y75.7832
X286.9103 Y75.7281
X286.8944 Y75.6796
X286.8755 Y75.6311
X286.8699 Y75.6181
X286.8436 Y75.563
X286.8127 Y75.508
X286.7902 Y75.4726
X286.7654 Y75.4372
X286.7349 Y75.3979
X286.6975 Y75.355
X286.6552 Y75.3121
X286.6288 Y75.2879
X286.5869 Y75.253
X286.5451 Y75.2219
X286.476 Y75.1778
X286.435 Y75.1554
X286.3799 Y75.1292
X286.3249 Y75.1072
X286.2698 Y75.0891
X286.2147 Y75.0746
X286.1828 Y75.0677
X286.1046 Y75.0558
X286.0496 Y75.0513
X285.9945 Y75.05
X271.0178
X270.9077 Y75.0485
X270.7975 Y75.0431
X270.6874 Y75.0336
X270.5773 Y75.02
X270.4672 Y75.0029
X270.3571 Y74.9815
X270.2568 Y74.9577
X270.2469 Y74.9551
X270.1368 Y74.9245
X270.0267 Y74.8907
X269.9166 Y74.8505
X269.9091 Y74.8476
X269.8064 Y74.8067
X269.6963 Y74.7572
X269.6557 Y74.7375
X269.5862 Y74.702
X269.4761 Y74.6418
X269.4519 Y74.6275
X269.3659 Y74.5749
X269.2784 Y74.5174
X269.2558 Y74.5017
X269.1457 Y74.4214
X269.1278 Y74.4073
X269.0356 Y74.3327
X268.9941 Y74.2973
X268.9254 Y74.2357
X268.8748 Y74.1872
X268.8153 Y74.1278
X268.7668 Y74.0771
X268.7052 Y74.0087
X268.6696 Y73.9671
X268.5951 Y73.8753
X268.5807 Y73.857
X268.5002 Y73.7469
X268.485 Y73.725
X268.4269 Y73.6369
X268.3748 Y73.552
X268.3599 Y73.5268
X268.2996 Y73.4167
X268.2647 Y73.3487
X268.2442 Y73.3067
X268.1946 Y73.1966
X268.1546 Y73.0964
X268.1508 Y73.0865
X268.1104 Y72.9765
X268.0764 Y72.8664
X268.0457 Y72.7564
X268.0445 Y72.7516
X268.0193 Y72.6463
X267.9977 Y72.5362
X267.9804 Y72.4262
X267.9667 Y72.3161
X267.9571 Y72.206
X267.9516 Y72.096
X267.95 Y71.9859
Y39.0762
X267.9504 Y38.9662
X267.9536 Y38.8561
X267.9608 Y38.746
X267.9721 Y38.636
X267.9876 Y38.5259
X268.0066 Y38.4158
X268.0302 Y38.3058
X268.0445 Y38.2484
X268.0587 Y38.1957
X268.0907 Y38.0856
X268.1272 Y37.9756
X268.1546 Y37.9035
X268.1695 Y37.8655
X268.2157 Y37.7554
X268.2647 Y37.6513
X268.2677 Y37.6454
X268.3248 Y37.5353
X268.3748 Y37.448
X268.3883 Y37.4252
X268.4582 Y37.3152
X268.485 Y37.275
X268.5341 Y37.2051
X268.5951 Y37.1247
X268.6185 Y37.0951
X268.7052 Y36.9912
X268.7105 Y36.985
X268.8127 Y36.8749
X268.8153 Y36.8722
X268.9249 Y36.7649
X268.9254 Y36.7643
X269.0356 Y36.6673
X269.0507 Y36.6548
X269.1457 Y36.5786
X269.1907 Y36.5447
X269.2558 Y36.4983
X269.3509 Y36.4347
X269.3659 Y36.4251
X269.4761 Y36.3582
X269.5357 Y36.3246
X269.5862 Y36.298
X269.6963 Y36.2428
X269.7581 Y36.2145
X269.8064 Y36.1933
X269.9166 Y36.1496
X270.0267 Y36.1093
X270.042 Y36.1045
X270.1368 Y36.0755
X270.2469 Y36.0448
X270.3571 Y36.0185
X270.4672 Y35.9971
X270.484 Y35.9944
X270.5773 Y35.98
X270.6874 Y35.9663
X270.7975 Y35.9569
X270.9077 Y35.9515
X271.0178 Y35.95
X285.9945
X286.0496 Y35.9487
X286.1046 Y35.9442
X286.1597 Y35.9365
X286.2147 Y35.9254
X286.2698 Y35.9109
X286.3249 Y35.8927
X286.3471 Y35.8843
X286.391 Y35.8658
X286.435 Y35.8446
X286.4901 Y35.8139
X286.5451 Y35.778
X286.5505 Y35.7743
X286.6028 Y35.7342
X286.6552 Y35.6879
X286.6792 Y35.6642
X286.7253 Y35.6135
X286.7654 Y35.5628
X286.7717 Y35.5541
X286.8083 Y35.4991
X286.8398 Y35.4441
X286.8587 Y35.4065
X286.8755 Y35.3689
X286.8894 Y35.334
X286.9081 Y35.279
X286.9232 Y35.2239
X286.9349 Y35.1689
X286.9432 Y35.1139
X286.9482 Y35.0588
X286.95 Y35.0038
Y34.7837
Y26.1985
X286.9483 Y26.1435
X286.9435 Y26.0885
X286.9353 Y26.0334
X286.9238 Y25.9784
X286.9088 Y25.9234
X286.8902 Y25.8683
X286.8755 Y25.8311
X286.8411 Y25.7583
X286.8098 Y25.7032
X286.7733 Y25.6482
X286.7654 Y25.6372
X286.7263 Y25.5877
X286.6815 Y25.5381
X286.6552 Y25.5121
X286.6045 Y25.4671
X286.5537 Y25.4281
X286.5451 Y25.422
X286.4901 Y25.3862
X286.435 Y25.3554
X286.394 Y25.3356
X286.353 Y25.318
X286.3249 Y25.3073
X286.2698 Y25.2891
X286.2147 Y25.2746
X286.1597 Y25.2635
X286.1046 Y25.2558
X286.0496 Y25.2513
X285.9945 Y25.25
X263.0889
X262.9788 Y25.2503
X262.9238 Y25.2531
X262.8687 Y25.2591
X262.8136 Y25.2685
X262.7586 Y25.2812
X262.7035 Y25.2975
X262.6484 Y25.3175
X262.6471 Y25.318
X262.5927 Y25.3418
X262.5383 Y25.3697
X262.4923 Y25.3971
X262.4463 Y25.4281
X262.4282 Y25.4414
X262.3734 Y25.486
X262.3185 Y25.5381
X262.3181 Y25.5386
X262.2689 Y25.5934
X262.2267 Y25.6482
X262.2079 Y25.6755
X262.182 Y25.7169
X262.1589 Y25.7583
X262.1323 Y25.8133
X262.1098 Y25.8683
X262.0978 Y25.9024
X262.0762 Y25.9784
X262.0684 Y26.0142
X262.065 Y26.0321
X262.0634 Y26.0411
X262.0627 Y26.0455
X262.0623 Y26.0478
X262.061 Y26.05
X213.0932
X212.9831 Y26.0502
X212.928 Y26.0527
X212.8729 Y26.0585
X212.8179 Y26.0676
X212.7628 Y26.0801
X212.7324 Y26.0885
X212.6925 Y26.1011
X212.6527 Y26.1158
X212.5976 Y26.1394
X212.5426 Y26.1674
X212.4899 Y26.1985
X212.4324 Y26.2382
X212.3905 Y26.2713
X212.3485 Y26.3086
X212.3223 Y26.3342
X212.2833 Y26.3765
X212.2486 Y26.4187
X212.2122 Y26.4691
X212.1751 Y26.5287
X212.146 Y26.5838
X212.1214 Y26.6388
X212.1021 Y26.6898
X212.0838 Y26.7489
X212.0705 Y26.8039
X212.0605 Y26.8589
X212.0539 Y26.914
X212.0505 Y26.969
X212.05 Y27.0791
Y85.0476
X212.0482 Y85.05
X128.9523
X128.95 Y85.0476
Y27.0791
X128.9495 Y26.969
X128.9461 Y26.914
X128.9395 Y26.8589
X128.9295 Y26.8039
X128.9162 Y26.7489
X128.8993 Y26.6938
X128.8786 Y26.6388
X128.8492 Y26.5742
X128.8249 Y26.5287
X128.7909 Y26.4737
X128.7514 Y26.4187
X128.7391 Y26.4032
X128.6983 Y26.3559
X128.6515 Y26.3086
X128.629 Y26.288
X128.5739 Y26.243
X128.5189 Y26.2042
X128.5101 Y26.1985
X128.4594 Y26.1685
X128.4087 Y26.1424
X128.3537 Y26.1183
X128.2986 Y26.0982
X128.2676 Y26.0885
X128.1885 Y26.0689
X128.1334 Y26.0594
X128.0784 Y26.0532
X127.9682 Y26.05
X23.939
X23.9377 Y26.0478
X23.9374 Y26.0455
X23.9366 Y26.0411
X23.935 Y26.0321
X23.9317 Y26.0142
X23.9238 Y25.9784
X23.9022 Y25.9024
X23.8902 Y25.8683
X23.8677 Y25.8133
X23.8411 Y25.7583
X23.818 Y25.7169
X23.7921 Y25.6755
X23.7733 Y25.6482
X23.7311 Y25.5934
X23.6819 Y25.5386
X23.6815 Y25.5381
X23.6266 Y25.486
X23.5718 Y25.4414
X23.5537 Y25.4281
X23.5077 Y25.3971
X23.4617 Y25.3697
X23.4073 Y25.3418
X23.3529 Y25.318
X23.3516 Y25.3175
X23.2965 Y25.2975
X23.2414 Y25.2812
X23.1864 Y25.2685
X23.1313 Y25.2591
X23.0763 Y25.2531
X23.0212 Y25.2503
X22.9111 Y25.25
X0.0055
X-0.0495 Y25.2513
X-0.1046 Y25.2558
X-0.1597 Y25.2635
X-0.2147 Y25.2746
X-0.2698 Y25.2891
X-0.3248 Y25.3073
X-0.3529 Y25.318
X-0.394 Y25.3356
X-0.435 Y25.3554
X-0.49 Y25.3862
X-0.5451 Y25.422
X-0.5537 Y25.4281
X-0.6045 Y25.4671
X-0.6552 Y25.5121
X-0.6815 Y25.5381
X-0.7263 Y25.5877
X-0.7653 Y25.6372
X-0.7733 Y25.6482
X-0.8098 Y25.7032
X-0.8411 Y25.7583
X-0.8755 Y25.8311
X-0.8931 Y25.8762
X-0.9084 Y25.9221
X-0.9214 Y25.9687 Z-1.0001
X-0.932 Y26.016
X-0.9402 Y26.0637
X-0.9459 Y26.1117 Z-1.0002
X-0.9492 Y26.16 Z-1.0003
X-0.95 Y26.2084 Z-1.0004
Y26.402 Z-1.0008
Y26.5955 Z-1.0015
Y26.7891 Z-1.0023
Y26.9827 Z-1.0033
Y27.1763 Z-1.0045
Y27.3698 Z-1.0058
Y27.5634 Z-1.0073
Y27.757 Z-1.009
Y27.9506 Z-1.0109
Y28.1441 Z-1.0129
Y28.3377 Z-1.0151
Y28.5313 Z-1.0174
Y28.7249 Z-1.0199
Y28.9184 Z-1.0225
Y29.112 Z-1.0253
Y29.3056 Z-1.0283
Y29.4992 Z-1.0314
Y29.6927 Z-1.0347
Y29.8863 Z-1.0381
Y30.0799 Z-1.0416
Y30.2735 Z-1.0453
Y30.467 Z-1.0491
Y30.6606 Z-1.0531
Y30.8542 Z-1.0572
Y31.0478 Z-1.0614
Y31.2413 Z-1.0658
Y31.4349 Z-1.0702
Y31.6285 Z-1.0749
Y31.8221 Z-1.0796
Y32.0156 Z-1.0845
Y32.2092 Z-1.0894
Y32.306 Z-1.092
Y32.4028 Z-1.0945
Y32.4996 Z-1.0971
Y32.5963 Z-1.0997
Y32.6931 Z-1.1024
Y32.7899 Z-1.1051
Y32.8867 Z-1.1078
Y32.9835 Z-1.1105
Y33.0803 Z-1.1133
Y33.1771 Z-1.1161
Y33.2739 Z-1.1189
Y33.3706 Z-1.1217
Y33.4674 Z-1.1246
Y33.5642 Z-1.1275
Y33.661 Z-1.1304
Y33.7578 Z-1.1334
Y33.8546 Z-1.1363
Y33.9514 Z-1.1393
Y34.0482 Z-1.1423
Y34.1449 Z-1.1454
Y34.2417 Z-1.1485
Y34.3385 Z-1.1516
Y34.4353 Z-1.1547
Y34.5321 Z-1.1578
Y34.6289 Z-1.161
Y34.7257 Z-1.1642
Y34.8225 Z-1.1674
Y34.9192 Z-1.1706
Y35.016 Z-1.1739
Y35.1128 Z-1.1772
Y35.2096 Z-1.1805
Y35.3064 Z-1.1838
Y35.4032 Z-1.1871
Y35.5968 Z-1.1939
Y35.6935 Z-1.1972
Y35.7903 Z-1.2006
Y35.8871 Z-1.204
Y35.9839 Z-1.2074
Y36.0807 Z-1.2108
Y36.1775 Z-1.2141
Y36.2743 Z-1.2175
Y36.3711 Z-1.2209
Y36.4678 Z-1.2243
Y36.5646 Z-1.2277
Y36.6614 Z-1.231
Y36.7582 Z-1.2344
Y36.9518 Z-1.2412
Y37.2421 Z-1.2513
Y37.5325 Z-1.2614
Y37.8229 Z-1.2716
Y38.1132 Z-1.2817
Y38.4036 Z-1.2919
Y38.694 Z-1.302
Y38.9843 Z-1.3121
Y39.2747 Z-1.3223
Y39.565 Z-1.3324
Y39.8554 Z-1.3426
Y40.3393 Z-1.3595
Y40.8233 Z-1.3764
Y41.3072 Z-1.3933
Y41.9847 Z-1.4169
Y42.8558 Z-1.4473
Y44.3076 Z-1.498
Y51.2763 Z-1.7413
Y51.5667 Z-1.7515
Y51.857 Z-1.7616
Y51.9538 Z-1.765
Y52.0506 Z-1.7684
Y52.1474 Z-1.7717
Y52.2442 Z-1.7751
Y52.341 Z-1.7785
Y52.4378 Z-1.7819
Y52.5345 Z-1.7853
Y52.6313 Z-1.7886
Y52.7281 Z-1.792
Y52.8249 Z-1.7954
Y52.9217 Z-1.7988
Y53.0185 Z-1.8022
Y53.1153 Z-1.8055
Y53.2121 Z-1.8089
Y53.3088 Z-1.8123
Y53.4056 Z-1.8156
Y53.5024 Z-1.819
Y53.5992 Z-1.8223
Y53.696 Z-1.8255
Y53.7928 Z-1.8288
Y53.8896 Z-1.832
Y53.9864 Z-1.8353
Y54.0831 Z-1.8385
Y54.1799 Z-1.8416
Y54.2767 Z-1.8448
Y54.3735 Z-1.8479
Y54.4703 Z-1.851
Y54.5671 Z-1.8541
Y54.6639 Z-1.8571
Y54.7606 Z-1.8601
Y54.8574 Z-1.8631
Y54.9542 Z-1.8661
Y55.051 Z-1.8691
Y55.1478 Z-1.872
Y55.2446 Z-1.8749
Y55.3414 Z-1.8778
Y55.4382 Z-1.8806
Y55.5349 Z-1.8834
Y55.6317 Z-1.8862
Y55.7285 Z-1.889
Y55.8253 Z-1.8917
Y55.9221 Z-1.8945
Y56.0189 Z-1.8971
Y56.1157 Z-1.8998
Y56.2125 Z-1.9024
Y56.3092 Z-1.905
Y56.406 Z-1.9076
Y56.5028 Z-1.9101
Y56.5996 Z-1.9126
Y56.7932 Z-1.9176
Y56.9868 Z-1.9224
Y57.1803 Z-1.9271
Y57.3739 Z-1.9316
Y57.5675 Z-1.9361
Y57.7611 Z-1.9404
Y57.9546 Z-1.9445
Y58.1482 Z-1.9486
Y58.3418 Z-1.9525
Y58.5354 Z-1.9562
Y58.7289 Z-1.9599
Y58.9225 Z-1.9634
Y59.1161 Z-1.9667
Y59.3097 Z-1.9699
Y59.5032 Z-1.9729
Y59.6968 Z-1.9758
Y59.8904 Z-1.9786
Y60.084 Z-1.9812
Y60.2775 Z-1.9836
Y60.4711 Z-1.9859
Y60.6647 Z-1.988
Y60.8582 Z-1.9899
Y61.0518 Z-1.9917
Y61.2454 Z-1.9933
Y61.439 Z-1.9948
Y61.6325 Z-1.996
Y61.8261 Z-1.9971
Y62.0197 Z-1.9981
Y62.2133 Z-1.9988
Y62.4068 Z-1.9994
Y62.6004 Z-1.9998
Y62.794 Z-2
Y62.9078
Y128.9999
X-0.9484 Y129.055
X-0.9436 Y129.11
X-0.9356 Y129.165
X-0.9242 Y129.2201
X-0.9093 Y129.2751
X-0.8908 Y129.3301
X-0.8755 Y129.3689
X-0.8418 Y129.4402
X-0.8107 Y129.4952
X-0.7744 Y129.5503
X-0.7653 Y129.5628
X-0.727 Y129.6116
X-0.683 Y129.6603
X-0.6552 Y129.6879
X-0.6055 Y129.732
X-0.5558 Y129.7704
X-0.5451 Y129.778
X-0.49 Y129.8139
X-0.435 Y129.8446
X-0.3959 Y129.8636
X-0.3567 Y129.8805
X-0.3248 Y129.8927
X-0.2698 Y129.9109
X-0.2147 Y129.9254
X-0.1597 Y129.9365
X-0.1046 Y129.9442
X-0.0495 Y129.9487
X0.0055 Y129.95
X285.9945
X286.0496 Y129.9487
X286.1046 Y129.9442
X286.1597 Y129.9365
X286.2147 Y129.9254
X286.2698 Y129.9109
X286.3249 Y129.8927
X286.3568 Y129.8805
X286.3959 Y129.8636
X286.435 Y129.8446
X286.4901 Y129.8139
X286.5451 Y129.778
X286.5558 Y129.7704
X286.6055 Y129.732
X286.6552 Y129.6879
X286.683 Y129.6603
X286.727 Y129.6116
X286.7654 Y129.5628
X286.7744 Y129.5503
X286.8107 Y129.4952
X286.8419 Y129.4402
X286.8755 Y129.3689
X286.8908 Y129.3301
X286.9093 Y129.2751
X286.9242 Y129.2201
X286.9356 Y129.165
X286.9436 Y129.11
X286.9484 Y129.055
X286.95 Y128.9999
Y76.0583
X286.9486 Y75.9483
X286.944 Y75.8932
X286.9361 Y75.8382
X286.9249 Y75.7832
X286.9103 Y75.7281
X286.8944 Y75.6796
X286.8755 Y75.6311
X286.8699 Y75.6181
X286.8436 Y75.563
X286.8127 Y75.508
X286.7902 Y75.4726
X286.7654 Y75.4372
X286.7349 Y75.3979
X286.6975 Y75.355
X286.6552 Y75.3121
X286.6288 Y75.2879
X286.5869 Y75.253
X286.5451 Y75.2219
X286.476 Y75.1778
X286.435 Y75.1554
X286.3799 Y75.1292
X286.3249 Y75.1072
X286.2698 Y75.0891
X286.2147 Y75.0746
X286.1828 Y75.0677
X286.1046 Y75.0558
X286.0496 Y75.0513
X285.9945 Y75.05
X271.0178
X270.9077 Y75.0485
X270.7975 Y75.0431
X270.6874 Y75.0336
X270.5773 Y75.02
X270.4672 Y75.0029
X270.3571 Y74.9815
X270.2568 Y74.9577
X270.2469 Y74.9551
X270.1368 Y74.9245
X270.0267 Y74.8907
X269.9166 Y74.8505
X269.9091 Y74.8476
X269.8064 Y74.8067
X269.6963 Y74.7572
X269.6557 Y74.7375
X269.5862 Y74.702
X269.4761 Y74.6418
X269.4519 Y74.6275
X269.3659 Y74.5749
X269.2784 Y74.5174
X269.2558 Y74.5017
X269.1457 Y74.4214
X269.1278 Y74.4073
X269.0356 Y74.3327
X268.9941 Y74.2973
X268.9254 Y74.2357
X268.8748 Y74.1872
X268.8153 Y74.1278
X268.7668 Y74.0771
X268.7052 Y74.0087
X268.6696 Y73.9671
X268.5951 Y73.8753
X268.5807 Y73.857
X268.5002 Y73.7469
X268.485 Y73.725
X268.4269 Y73.6369
X268.3748 Y73.552
X268.3599 Y73.5268
X268.2996 Y73.4167
X268.2647 Y73.3487
X268.2442 Y73.3067
X268.1946 Y73.1966
X268.1546 Y73.0964
X268.1508 Y73.0865
X268.1104 Y72.9765
X268.0764 Y72.8664
X268.0457 Y72.7564
X268.0445 Y72.7516
X268.0193 Y72.6463
X267.9977 Y72.5362
X267.9804 Y72.4262
X267.9667 Y72.3161
X267.9571 Y72.206
X267.9516 Y72.096
X267.95 Y71.9859
Y39.0762
X267.9504 Y38.9662
X267.9536 Y38.8561
X267.9608 Y38.746
X267.9721 Y38.636
X267.9876 Y38.5259
X268.0066 Y38.4158
X268.0302 Y38.3058
X268.0445 Y38.2484
X268.0587 Y38.1957
X268.0907 Y38.0856
X268.1272 Y37.9756
X268.1546 Y37.9035
X268.1695 Y37.8655
X268.2157 Y37.7554
X268.2647 Y37.6513
X268.2677 Y37.6454
X268.3248 Y37.5353
X268.3748 Y37.448
X268.3883 Y37.4252
X268.4582 Y37.3152
X268.485 Y37.275
X268.5341 Y37.2051
X268.5951 Y37.1247
X268.6185 Y37.0951
X268.7052 Y36.9912
X268.7105 Y36.985
X268.8127 Y36.8749
X268.8153 Y36.8722
X268.9249 Y36.7649
X268.9254 Y36.7643
X269.0356 Y36.6673
X269.0507 Y36.6548
X269.1457 Y36.5786
X269.1907 Y36.5447
X269.2558 Y36.4983
X269.3509 Y36.4347
X269.3659 Y36.4251
X269.4761 Y36.3582
X269.5357 Y36.3246
X269.5862 Y36.298
X269.6963 Y36.2428
X269.7581 Y36.2145
X269.8064 Y36.1933
X269.9166 Y36.1496
X270.0267 Y36.1093
X270.042 Y36.1045
X270.1368 Y36.0755
X270.2469 Y36.0448
X270.3571 Y36.0185
X270.4672 Y35.9971
X270.484 Y35.9944
X270.5773 Y35.98
X270.6874 Y35.9663
X270.7975 Y35.9569
X270.9077 Y35.9515
X271.0178 Y35.95
X285.9945
X286.0496 Y35.9487
X286.1046 Y35.9442
X286.1597 Y35.9365
X286.2147 Y35.9254
X286.2698 Y35.9109
X286.3249 Y35.8927
X286.3471 Y35.8843
X286.391 Y35.8658
X286.435 Y35.8446
X286.4901 Y35.8139
X286.5451 Y35.778
X286.5505 Y35.7743
X286.6028 Y35.7342
X286.6552 Y35.6879
X286.6792 Y35.6642
X286.7253 Y35.6135
X286.7654 Y35.5628
X286.7717 Y35.5541
X286.8083 Y35.4991
X286.8398 Y35.4441
X286.8587 Y35.4065
X286.8755 Y35.3689
X286.8894 Y35.334
X286.9081 Y35.279
X286.9232 Y35.2239
X286.9349 Y35.1689
X286.9432 Y35.1139
X286.9482 Y35.0588
X286.95 Y35.0038
Y34.7837
Y26.1985
X286.9483 Y26.1435
X286.9435 Y26.0885
X286.9353 Y26.0334
X286.9238 Y25.9784
X286.9088 Y25.9234
X286.8902 Y25.8683
X286.8755 Y25.8311
X286.8411 Y25.7583
X286.8098 Y25.7032
X286.7733 Y25.6482
X286.7654 Y25.6372
X286.7263 Y25.5877
X286.6815 Y25.5381
X286.6552 Y25.5121
X286.6045 Y25.4671
X286.5537 Y25.4281
X286.5451 Y25.422
X286.4901 Y25.3862
X286.435 Y25.3554
X286.394 Y25.3356
X286.353 Y25.318
X286.3249 Y25.3073
X286.2698 Y25.2891
X286.2147 Y25.2746
X286.1597 Y25.2635
X286.1046 Y25.2558
X286.0496 Y25.2513
X285.9945 Y25.25
X263.0889
X262.9788 Y25.2503
X262.9238 Y25.2531
X262.8687 Y25.2591
X262.8136 Y25.2685
X262.7586 Y25.2812
X262.7035 Y25.2975
X262.6484 Y25.3175
X262.6471 Y25.318
X262.5927 Y25.3418
X262.5383 Y25.3697
X262.4923 Y25.3971
X262.4463 Y25.4281
X262.4282 Y25.4414
X262.3734 Y25.486
X262.3185 Y25.5381
X262.3181 Y25.5386
X262.2689 Y25.5934
X262.2267 Y25.6482
X262.2079 Y25.6755
X262.182 Y25.7169
X262.1589 Y25.7583
X262.1323 Y25.8133
X262.1098 Y25.8683
X262.0978 Y25.9024
X262.0762 Y25.9784
X262.0684 Y26.0142
X262.065 Y26.0321
X262.0634 Y26.0411
X262.0627 Y26.0455
X262.0623 Y26.0478
X262.061 Y26.05
X213.0932
X212.9831 Y26.0502
X212.928 Y26.0527
X212.8729 Y26.0585
X212.8179 Y26.0676
X212.7628 Y26.0801
X212.7324 Y26.0885
X212.6925 Y26.1011
X212.6527 Y26.1158
X212.5976 Y26.1394
X212.5426 Y26.1674
X212.4899 Y26.1985
X212.4324 Y26.2382
X212.3905 Y26.2713
X212.3485 Y26.3086
X212.3223 Y26.3342
X212.2833 Y26.3765
X212.2486 Y26.4187
X212.2122 Y26.4691
X212.1751 Y26.5287
X212.146 Y26.5838
X212.1214 Y26.6388
X212.1021 Y26.6898
X212.0838 Y26.7489
X212.0705 Y26.8039
X212.0605 Y26.8589
X212.0539 Y26.914
X212.0505 Y26.969
X212.05 Y27.0791
Y85.0476
X212.0482 Y85.05
X128.9523
X128.95 Y85.0476
Y27.0791
X128.9495 Y26.969
X128.9461 Y26.914
X128.9395 Y26.8589
X128.9295 Y26.8039
X128.9162 Y26.7489
X128.8993 Y26.6938
X128.8786 Y26.6388
X128.8492 Y26.5742
X128.8249 Y26.5287
X128.7909 Y26.4737
X128.7514 Y26.4187
X128.7391 Y26.4032
X128.6983 Y26.3559
X128.6515 Y26.3086
X128.629 Y26.288
X128.5739 Y26.243
X128.5189 Y26.2042
X128.5101 Y26.1985
X128.4594 Y26.1685
X128.4087 Y26.1424
X128.3537 Y26.1183
X128.2986 Y26.0982
X128.2676 Y26.0885
X128.1885 Y26.0689
X128.1334 Y26.0594
X128.0784 Y26.0532
X127.9682 Y26.05
X23.939
X23.9377 Y26.0478
X23.9374 Y26.0455
X23.9366 Y26.0411
X23.935 Y26.0321
X23.9317 Y26.0142
X23.9238 Y25.9784
X23.9022 Y25.9024
X23.8902 Y25.8683
X23.8677 Y25.8133
X23.8411 Y25.7583
X23.818 Y25.7169
X23.7921 Y25.6755
X23.7733 Y25.6482
X23.7311 Y25.5934
X23.6819 Y25.5386
X23.6815 Y25.5381
X23.6266 Y25.486
X23.5718 Y25.4414
X23.5537 Y25.4281
X23.5077 Y25.3971
X23.4617 Y25.3697
X23.4073 Y25.3418
X23.3529 Y25.318
X23.3516 Y25.3175
X23.2965 Y25.2975
X23.2414 Y25.2812
X23.1864 Y25.2685
X23.1313 Y25.2591
X23.0763 Y25.2531
X23.0212 Y25.2503
X22.9111 Y25.25
X0.0055
X-0.0495 Y25.2513
X-0.1046 Y25.2558
X-0.1597 Y25.2635
X-0.2147 Y25.2746
X-0.2698 Y25.2891
X-0.3248 Y25.3073
X-0.3529 Y25.318
X-0.394 Y25.3356
X-0.435 Y25.3554
X-0.49 Y25.3862
X-0.5451 Y25.422
X-0.5537 Y25.4281
X-0.6045 Y25.4671
X-0.6552 Y25.5121
X-0.6815 Y25.5381
X-0.7263 Y25.5877
X-0.7653 Y25.6372
X-0.7733 Y25.6482
X-0.8098 Y25.7032
X-0.8411 Y25.7583
X-0.8755 Y25.8311
X-0.8902 Y25.8683
X-0.9088 Y25.9234
X-0.9238 Y25.9784
X-0.9353 Y26.0334
X-0.9434 Y26.0885
X-0.9483 Y26.1435
X-0.95 Y26.1985
Y62.9078
Y63.1014 Z-2.0001
Y63.2949 Z-2.0004
Y63.4885 Z-2.0008
Y63.6821 Z-2.0015
Y63.8757 Z-2.0023
Y64.0692 Z-2.0033
Y64.2628 Z-2.0045
Y64.4564 Z-2.0058
Y64.65 Z-2.0073
Y64.8435 Z-2.009
Y65.0371 Z-2.0109
Y65.2307 Z-2.0129
Y65.4243 Z-2.0151
Y65.6178 Z-2.0174
Y65.8114 Z-2.0199
Y66.005 Z-2.0225
Y66.1986 Z-2.0253
Y66.3921 Z-2.0283
Y66.5857 Z-2.0314
Y66.7793 Z-2.0347
Y66.9729 Z-2.0381
Y67.1664 Z-2.0416
Y67.36 Z-2.0453
Y67.5536 Z-2.0491
Y67.7472 Z-2.0531
Y67.9407 Z-2.0572
Y68.1343 Z-2.0614
Y68.3279 Z-2.0658
Y68.5215 Z-2.0702
Y68.715 Z-2.0749
Y68.9086 Z-2.0796
Y69.1022 Z-2.0845
Y69.2958 Z-2.0894
Y69.3925 Z-2.092
Y69.4893 Z-2.0945
Y69.5861 Z-2.0971
Y69.6829 Z-2.0997
Y69.7797 Z-2.1024
Y69.8765 Z-2.1051
Y69.9733 Z-2.1078
Y70.0701 Z-2.1105
Y70.1668 Z-2.1133
Y70.2636 Z-2.1161
Y70.3604 Z-2.1189
Y70.4572 Z-2.1217
Y70.554 Z-2.1246
Y70.6508 Z-2.1275
Y70.7476 Z-2.1304
Y70.8444 Z-2.1334
Y70.9411 Z-2.1363
Y71.0379 Z-2.1393
Y71.1347 Z-2.1423
Y71.2315 Z-2.1454
Y71.3283 Z-2.1485
Y71.4251 Z-2.1516
Y71.5219 Z-2.1547
Y71.6187 Z-2.1578
Y71.7154 Z-2.161
Y71.8122 Z-2.1642
Y71.909 Z-2.1674
Y72.0058 Z-2.1706
Y72.1026 Z-2.1739
Y72.1994 Z-2.1772
Y72.2962 Z-2.1805
Y72.393 Z-2.1838
Y72.4897 Z-2.1871
Y72.6833 Z-2.1939
Y72.7801 Z-2.1972
Y72.8769 Z-2.2006
Y72.9737 Z-2.204
Y73.0705 Z-2.2074
Y73.1673 Z-2.2108
Y73.264 Z-2.2141
Y73.3608 Z-2.2175
Y73.4576 Z-2.2209
Y73.5544 Z-2.2243
Y73.6512 Z-2.2277
Y73.748 Z-2.231
Y73.8448 Z-2.2344
Y74.0383 Z-2.2412
Y74.3287 Z-2.2513
Y74.6191 Z-2.2614
Y74.9094 Z-2.2716
Y75.1998 Z-2.2817
Y75.4902 Z-2.2919
Y75.7805 Z-2.302
Y76.0709 Z-2.3121
Y76.3612 Z-2.3223
Y76.6516 Z-2.3324
Y76.942 Z-2.3426
Y77.4259 Z-2.3595
Y77.9098 Z-2.3764
Y78.3938 Z-2.3933
Y79.0713 Z-2.4169
Y79.9424 Z-2.4473
Y81.3942 Z-2.498
Y88.3629 Z-2.7413
Y88.6532 Z-2.7515
Y88.9436 Z-2.7616
Y89.0404 Z-2.765
Y89.1372 Z-2.7684
Y89.234 Z-2.7717
Y89.3307 Z-2.7751
Y89.4275 Z-2.7785
Y89.5243 Z-2.7819
Y89.6211 Z-2.7853
Y89.7179 Z-2.7886
Y89.8147 Z-2.792
Y89.9115 Z-2.7954
Y90.0083 Z-2.7988
Y90.105 Z-2.8022
Y90.2018 Z-2.8055
Y90.2986 Z-2.8089
Y90.3954 Z-2.8123
Y90.4922 Z-2.8156
Y90.589 Z-2.819
Y90.6858 Z-2.8223
Y90.7826 Z-2.8255
Y90.8793 Z-2.8288
Y90.9761 Z-2.832
Y91.0729 Z-2.8353
Y91.1697 Z-2.8385
Y91.2665 Z-2.8416
Y91.3633 Z-2.8448
Y91.4601 Z-2.8479
Y91.5569 Z-2.851
Y91.6536 Z-2.8541
Y91.7504 Z-2.8571
Y91.8472 Z-2.8601
Y91.944 Z-2.8631
Y92.0408 Z-2.8661
Y92.1376 Z-2.8691
Y92.2344 Z-2.872
Y92.3311 Z-2.8749
Y92.4279 Z-2.8778
Y92.5247 Z-2.8806
Y92.6215 Z-2.8834
Y92.7183 Z-2.8862
Y92.8151 Z-2.889
Y92.9119 Z-2.8917
Y93.0087 Z-2.8945
Y93.1054 Z-2.8971
Y93.2022 Z-2.8998
Y93.299 Z-2.9024
Y93.3958 Z-2.905
Y93.4926 Z-2.9076
Y93.5894 Z-2.9101
Y93.6862 Z-2.9126
Y93.8797 Z-2.9176
Y94.0733 Z-2.9224
Y94.2669 Z-2.9271
Y94.4605 Z-2.9316
Y94.654 Z-2.9361
Y94.8476 Z-2.9404
Y95.0412 Z-2.9445
Y95.2348 Z-2.9486
Y95.4283 Z-2.9525
Y95.6219 Z-2.9562
Y95.8155 Z-2.9599
Y96.0091 Z-2.9634
Y96.2026 Z-2.9667
Y96.3962 Z-2.9699
Y96.5898 Z-2.9729
Y96.7834 Z-2.9758
Y96.9769 Z-2.9786
Y97.1705 Z-2.9812
Y97.3641 Z-2.9836
Y97.5577 Z-2.9859
Y97.7512 Z-2.988
Y97.9448 Z-2.9899
Y98.1384 Z-2.9917
Y98.332 Z-2.9933
Y98.5255 Z-2.9948
Y98.7191 Z-2.996
Y98.9127 Z-2.9971
Y99.1063 Z-2.9981
Y99.2998 Z-2.9988
Y99.4934 Z-2.9994
Y99.687 Z-2.9998
Y99.8806 Z-3
Y99.9944
Y128.9999
X-0.9484 Y129.055
X-0.9436 Y129.11
X-0.9356 Y129.165
X-0.9242 Y129.2201
X-0.9093 Y129.2751
X-0.8908 Y129.3301
X-0.8755 Y129.3689
X-0.8418 Y129.4402
X-0.8107 Y129.4952
X-0.7744 Y129.5503
X-0.7653 Y129.5628
X-0.727 Y129.6116
X-0.683 Y129.6603
X-0.6552 Y129.6879
X-0.6055 Y129.732
X-0.5558 Y129.7704
X-0.5451 Y129.778
X-0.49 Y129.8139
X-0.435 Y129.8446
X-0.3959 Y129.8636
X-0.3567 Y129.8805
X-0.3248 Y129.8927
X-0.2698 Y129.9109
X-0.2147 Y129.9254
X-0.1597 Y129.9365
X-0.1046 Y129.9442
X-0.0495 Y129.9487
X0.0055 Y129.95
X285.9945
X286.0496 Y129.9487
X286.1046 Y129.9442
X286.1597 Y129.9365
X286.2147 Y129.9254
X286.2698 Y129.9109
X286.3249 Y129.8927
X286.3568 Y129.8805
X286.3959 Y129.8636
X286.435 Y129.8446
X286.4901 Y129.8139
X286.5451 Y129.778
X286.5558 Y129.7704
X286.6055 Y129.732
X286.6552 Y129.6879
X286.683 Y129.6603
X286.727 Y129.6116
X286.7654 Y129.5628
X286.7744 Y129.5503
X286.8107 Y129.4952
X286.8419 Y129.4402
X286.8755 Y129.3689
X286.8908 Y129.3301
X286.9093 Y129.2751
X286.9242 Y129.2201
X286.9356 Y129.165
X286.9436 Y129.11
X286.9484 Y129.055
X286.95 Y128.9999
Y76.0583
X286.9486 Y75.9483
X286.944 Y75.8932
X286.9361 Y75.8382
X286.9249 Y75.7832
X286.9103 Y75.7281
X286.8944 Y75.6796
X286.8755 Y75.6311
X286.8699 Y75.6181
X286.8436 Y75.563
X286.8127 Y75.508
X286.7902 Y75.4726
X286.7654 Y75.4372
X286.7349 Y75.3979
X286.6975 Y75.355
X286.6552 Y75.3121
X286.6288 Y75.2879
X286.5869 Y75.253
X286.5451 Y75.2219
X286.476 Y75.1778
X286.435 Y75.1554
X286.3799 Y75.1292
X286.3249 Y75.1072
X286.2698 Y75.0891
X286.2147 Y75.0746
X286.1828 Y75.0677
X286.1046 Y75.0558
X286.0496 Y75.0513
X285.9945 Y75.05
X271.0178
X270.9077 Y75.0485
X270.7975 Y75.0431
X270.6874 Y75.0336
X270.5773 Y75.02
X270.4672 Y75.0029
X270.3571 Y74.9815
X270.2568 Y74.9577
X270.2469 Y74.9551
X270.1368 Y74.9245
X270.0267 Y74.8907
X269.9166 Y74.8505
X269.9091 Y74.8476
X269.8064 Y74.8067
X269.6963 Y74.7572
X269.6557 Y74.7375
X269.5862 Y74.702
X269.4761 Y74.6418
X269.4519 Y74.6275
X269.3659 Y74.5749
X269.2784 Y74.5174
X269.2558 Y74.5017
X269.1457 Y74.4214
X269.1278 Y74.4073
X269.0356 Y74.3327
X268.9941 Y74.2973
X268.9254 Y74.2357
X268.8748 Y74.1872
X268.8153 Y74.1278
X268.7668 Y74.0771
X268.7052 Y74.0087
X268.6696 Y73.9671
X268.5951 Y73.8753
X268.5807 Y73.857
X268.5002 Y73.7469
X268.485 Y73.725
X268.4269 Y73.6369
X268.3748 Y73.552
X268.3599 Y73.5268
X268.2996 Y73.4167
X268.2647 Y73.3487
X268.2442 Y73.3067
X268.1946 Y73.1966
X268.1546 Y73.0964
X268.1508 Y73.0865
X268.1104 Y72.9765
X268.0764 Y72.8664
X268.0457 Y72.7564
X268.0445 Y72.7516
X268.0193 Y72.6463
X267.9977 Y72.5362
X267.9804 Y72.4262
X267.9667 Y72.3161
X267.9571 Y72.206
X267.9516 Y72.096
X267.95 Y71.9859
Y39.0762
X267.9504 Y38.9662
X267.9536 Y38.8561
X267.9608 Y38.746
X267.9721 Y38.636
X267.9876 Y38.5259
X268.0066 Y38.4158
X268.0302 Y38.3058
X268.0445 Y38.2484
X268.0587 Y38.1957
X268.0907 Y38.0856
X268.1272 Y37.9756
X268.1546 Y37.9035
X268.1695 Y37.8655
X268.2157 Y37.7554
X268.2647 Y37.6513
X268.2677 Y37.6454
X268.3248 Y37.5353
X268.3748 Y37.448
X268.3883 Y37.4252
X268.4582 Y37.3152
X268.485 Y37.275
X268.5341 Y37.2051
X268.5951 Y37.1247
X268.6185 Y37.0951
X268.7052 Y36.9912
X268.7105 Y36.985
X268.8127 Y36.8749
X268.8153 Y36.8722
X268.9249 Y36.7649
X268.9254 Y36.7643
X269.0356 Y36.6673
X269.0507 Y36.6548
X269.1457 Y36.5786
X269.1907 Y36.5447
X269.2558 Y36.4983
X269.3509 Y36.4347
X269.3659 Y36.4251
X269.4761 Y36.3582
X269.5357 Y36.3246
X269.5862 Y36.298
X269.6963 Y36.2428
X269.7581 Y36.2145
X269.8064 Y36.1933
X269.9166 Y36.1496
X270.0267 Y36.1093
X270.042 Y36.1045
X270.1368 Y36.0755
X270.2469 Y36.0448
X270.3571 Y36.0185
X270.4672 Y35.9971
X270.484 Y35.9944
X270.5773 Y35.98
X270.6874 Y35.9663
X270.7975 Y35.9569
X270.9077 Y35.9515
X271.0178 Y35.95
X285.9945
X286.0496 Y35.9487
X286.1046 Y35.9442
X286.1597 Y35.9365
X286.2147 Y35.9254
X286.2698 Y35.9109
X286.3249 Y35.8927
X286.3471 Y35.8843
X286.391 Y35.8658
X286.435 Y35.8446
X286.4901 Y35.8139
X286.5451 Y35.778
X286.5505 Y35.7743
X286.6028 Y35.7342
X286.6552 Y35.6879
X286.6792 Y35.6642
X286.7253 Y35.6135
X286.7654 Y35.5628
X286.7717 Y35.5541
X286.8083 Y35.4991
X286.8398 Y35.4441
X286.8587 Y35.4065
X286.8755 Y35.3689
X286.8894 Y35.334
X286.9081 Y35.279
X286.9232 Y35.2239
X286.9349 Y35.1689
X286.9432 Y35.1139
X286.9482 Y35.0588
X286.95 Y35.0038
Y34.7837
Y26.1985
X286.9483 Y26.1435
X286.9435 Y26.0885
X286.9353 Y26.0334
X286.9238 Y25.9784
X286.9088 Y25.9234
X286.8902 Y25.8683
X286.8755 Y25.8311
X286.8411 Y25.7583
X286.8098 Y25.7032
X286.7733 Y25.6482
X286.7654 Y25.6372
X286.7263 Y25.5877
X286.6815 Y25.5381
X286.6552 Y25.5121
X286.6045 Y25.4671
X286.5537 Y25.4281
X286.5451 Y25.422
X286.4901 Y25.3862
X286.435 Y25.3554
X286.394 Y25.3356
X286.353 Y25.318
X286.3249 Y25.3073
X286.2698 Y25.2891
X286.2147 Y25.2746
X286.1597 Y25.2635
X286.1046 Y25.2558
X286.0496 Y25.2513
X285.9945 Y25.25
X263.0889
X262.9788 Y25.2503
X262.9238 Y25.2531
X262.8687 Y25.2591
X262.8136 Y25.2685
X262.7586 Y25.2812
X262.7035 Y25.2975
X262.6484 Y25.3175
X262.6471 Y25.318
X262.5927 Y25.3418
X262.5383 Y25.3697
X262.4923 Y25.3971
X262.4463 Y25.4281
X262.4282 Y25.4414
X262.3734 Y25.486
X262.3185 Y25.5381
X262.3181 Y25.5386
X262.2689 Y25.5934
X262.2267 Y25.6482
X262.2079 Y25.6755
X262.182 Y25.7169
X262.1589 Y25.7583
X262.1323 Y25.8133
X262.1098 Y25.8683
X262.0978 Y25.9024
X262.0762 Y25.9784
X262.0684 Y26.0142
X262.065 Y26.0321
X262.0634 Y26.0411
X262.0627 Y26.0455
X262.0623 Y26.0478
X262.061 Y26.05
X213.0932
X212.9831 Y26.0502
X212.928 Y26.0527
X212.8729 Y26.0585
X212.8179 Y26.0676
X212.7628 Y26.0801
X212.7324 Y26.0885
X212.6925 Y26.1011
X212.6527 Y26.1158
X212.5976 Y26.1394
X212.5426 Y26.1674
X212.4899 Y26.1985
X212.4324 Y26.2382
X212.3905 Y26.2713
X212.3485 Y26.3086
X212.3223 Y26.3342
X212.2833 Y26.3765
X212.2486 Y26.4187
X212.2122 Y26.4691
X212.1751 Y26.5287
X212.146 Y26.5838
X212.1214 Y26.6388
X212.1021 Y26.6898
X212.0838 Y26.7489
X212.0705 Y26.8039
X212.0605 Y26.8589
X212.0539 Y26.914
X212.0505 Y26.969
X212.05 Y27.0791
Y85.0476
X212.0482 Y85.05
X128.9523
X128.95 Y85.0476
Y27.0791
X128.9495 Y26.969
X128.9461 Y26.914
X128.9395 Y26.8589
X128.9295 Y26.8039
X128.9162 Y26.7489
X128.8993 Y26.6938
X128.8786 Y26.6388
X128.8492 Y26.5742
X128.8249 Y26.5287
X128.7909 Y26.4737
X128.7514 Y26.4187
X128.7391 Y26.4032
X128.6983 Y26.3559
X128.6515 Y26.3086
X128.629 Y26.288
X128.5739 Y26.243
X128.5189 Y26.2042
X128.5101 Y26.1985
X128.4594 Y26.1685
X128.4087 Y26.1424
X128.3537 Y26.1183
X128.2986 Y26.0982
X128.2676 Y26.0885
X128.1885 Y26.0689
X128.1334 Y26.0594
X128.0784 Y26.0532
X127.9682 Y26.05
X23.939
X23.9377 Y26.0478
X23.9374 Y26.0455
X23.9366 Y26.0411
X23.935 Y26.0321
X23.9317 Y26.0142
X23.9238 Y25.9784
X23.9022 Y25.9024
X23.8902 Y25.8683
X23.8677 Y25.8133
X23.8411 Y25.7583
X23.818 Y25.7169
X23.7921 Y25.6755
X23.7733 Y25.6482
X23.7311 Y25.5934
X23.6819 Y25.5386
X23.6815 Y25.5381
X23.6266 Y25.486
X23.5718 Y25.4414
X23.5537 Y25.4281
X23.5077 Y25.3971
X23.4617 Y25.3697
X23.4073 Y25.3418
X23.3529 Y25.318
X23.3516 Y25.3175
X23.2965 Y25.2975
X23.2414 Y25.2812
X23.1864 Y25.2685
X23.1313 Y25.2591
X23.0763 Y25.2531
X23.0212 Y25.2503
X22.9111 Y25.25
X0.0055
X-0.0495 Y25.2513
X-0.1046 Y25.2558
X-0.1597 Y25.2635
X-0.2147 Y25.2746
X-0.2698 Y25.2891
X-0.3248 Y25.3073
X-0.3529 Y25.318
X-0.394 Y25.3356
X-0.435 Y25.3554
X-0.49 Y25.3862
X-0.5451 Y25.422
X-0.5537 Y25.4281
X-0.6045 Y25.4671
X-0.6552 Y25.5121
X-0.6815 Y25.5381
X-0.7263 Y25.5877
X-0.7653 Y25.6372
X-0.7733 Y25.6482
X-0.8098 Y25.7032
X-0.8411 Y25.7583
X-0.8755 Y25.8311
X-0.8902 Y25.8683
X-0.9088 Y25.9234
X-0.9238 Y25.9784
X-0.9353 Y26.0334
X-0.9434 Y26.0885
X-0.9483 Y26.1435
X-0.95 Y26.1985
Y99.9944
Y100.1879 Z-3.0001
Y100.3815 Z-3.0004
Y100.5751 Z-3.0008
Y100.7687 Z-3.0015
Y100.9622 Z-3.0023
Y101.1558 Z-3.0033
Y101.3494 Z-3.0045
Y101.543 Z-3.0058
Y101.7365 Z-3.0073
Y101.9301 Z-3.009
Y102.1237 Z-3.0109
Y102.3173 Z-3.0129
Y102.5108 Z-3.0151
Y102.7044 Z-3.0174
Y102.898 Z-3.0199
Y103.0916 Z-3.0225
Y103.2851 Z-3.0253
Y103.4787 Z-3.0283
Y103.6723 Z-3.0314
Y103.8659 Z-3.0347
Y104.0594 Z-3.0381
Y104.253 Z-3.0416
Y104.4466 Z-3.0453
Y104.6402 Z-3.0491
Y104.8337 Z-3.0531
Y105.0273 Z-3.0572
Y105.2209 Z-3.0614
Y105.4145 Z-3.0658
Y105.608 Z-3.0702
Y105.8016 Z-3.0749
Y105.9952 Z-3.0796
Y106.1888 Z-3.0845
Y106.3823 Z-3.0894
Y106.4791 Z-3.092
Y106.5759 Z-3.0945
Y106.6727 Z-3.0971
Y106.7695 Z-3.0997
Y106.8663 Z-3.1024
Y106.9631 Z-3.1051
Y107.0598 Z-3.1078
Y107.1566 Z-3.1105
Y107.2534 Z-3.1133
Y107.3502 Z-3.1161
Y107.447 Z-3.1189
Y107.5438 Z-3.1217
Y107.6406 Z-3.1246
Y107.7374 Z-3.1275
Y107.8341 Z-3.1304
Y107.9309 Z-3.1334
Y108.0277 Z-3.1363
Y108.1245 Z-3.1393
Y108.2213 Z-3.1423
Y108.3181 Z-3.1454
Y108.4149 Z-3.1485
Y108.5117 Z-3.1516
Y108.6084 Z-3.1547
Y108.7052 Z-3.1578
Y108.802 Z-3.161
Y108.8988 Z-3.1642
Y108.9956 Z-3.1674
Y109.0924 Z-3.1706
Y109.1892 Z-3.1739
Y109.2859 Z-3.1772
Y109.3827 Z-3.1805
Y109.4795 Z-3.1838
Y109.5763 Z-3.1871
Y109.7699 Z-3.1939
Y109.8667 Z-3.1972
Y109.9635 Z-3.2006
Y110.0602 Z-3.204
Y110.157 Z-3.2074
Y110.2538 Z-3.2108
Y110.3506 Z-3.2141
Y110.4474 Z-3.2175
Y110.5442 Z-3.2209
Y110.641 Z-3.2243
Y110.7378 Z-3.2277
Y110.8345 Z-3.231
Y110.9313 Z-3.2344
Y111.1249 Z-3.2412
Y111.4153 Z-3.2513
Y111.7056 Z-3.2614
Y111.996 Z-3.2716
Y112.2864 Z-3.2817
Y112.5767 Z-3.2919
Y112.8671 Z-3.302
Y113.1574 Z-3.3121
Y113.4478 Z-3.3223
Y113.7382 Z-3.3324
Y114.0285 Z-3.3426
Y114.5125 Z-3.3595
Y114.9964 Z-3.3764
Y115.4803 Z-3.3933
Y116.1578 Z-3.4169
Y117.0289 Z-3.4473
Y118.4807 Z-3.498
Y125.4494 Z-3.7413
Y125.7398 Z-3.7515
Y126.0302 Z-3.7616
Y126.1269 Z-3.765
Y126.2237 Z-3.7684
Y126.3205 Z-3.7717
Y126.4173 Z-3.7751
Y126.5141 Z-3.7785
Y126.6109 Z-3.7819
Y126.7077 Z-3.7853
Y126.8045 Z-3.7886
Y126.9012 Z-3.792
Y126.998 Z-3.7954
Y127.0948 Z-3.7988
Y127.1916 Z-3.8022
Y127.2884 Z-3.8055
Y127.3852 Z-3.8089
Y127.482 Z-3.8123
Y127.5788 Z-3.8156
Y127.6755 Z-3.819
Y127.7723 Z-3.8223
Y127.8691 Z-3.8255
Y127.9659 Z-3.8288
Y128.0627 Z-3.832
Y128.1595 Z-3.8353
Y128.2563 Z-3.8385
Y128.3531 Z-3.8416
Y128.4498 Z-3.8448
Y128.5466 Z-3.8479
Y128.6434 Z-3.851
Y128.7402 Z-3.8541
Y128.837 Z-3.8571
Y128.9338 Z-3.8601
X-0.9495 Y129.0306 Z-3.8631
X-0.9467 Y129.0789 Z-3.8646
X-0.9415 Y129.127 Z-3.8661
X-0.9338 Y129.1748 Z-3.8676
X-0.9237 Y129.2221 Z-3.8691
X-0.9112 Y129.2688 Z-3.8705
X-0.8963 Y129.3149 Z-3.872
X-0.8791 Y129.3601 Z-3.8735
X-0.8596 Y129.4044 Z-3.8749
X-0.8379 Y129.4477 Z-3.8763
X-0.814 Y129.4898 Z-3.8778
X-0.788 Y129.5306 Z-3.8792
X-0.76 Y129.5701 Z-3.8806
X-0.7299 Y129.608 Z-3.882
X-0.698 Y129.6444 Z-3.8834
X-0.6643 Y129.6791 Z-3.8848
X-0.6289 Y129.7121 Z-3.8862
X-0.5918 Y129.7432 Z-3.8876
X-0.5532 Y129.7723 Z-3.889
X-0.5131 Y129.7995 Z-3.8904
X-0.4717 Y129.8246 Z-3.8917
X-0.4291 Y129.8475 Z-3.8931
X-0.3854 Y129.8683 Z-3.8945
X-0.3407 Y129.8868 Z-3.8958
X-0.2951 Y129.903 Z-3.8971
X-0.2487 Y129.9169 Z-3.8985
X-0.2017 Y129.9283 Z-3.8998
X-0.1542 Y129.9374 Z-3.9011
X-0.1062 Y129.944 Z-3.9024
X-0.058 Y129.9482 Z-3.9037
X-0.0096 Y129.9499 Z-3.905
X0.0871 Y129.95 Z-3.9076
X0.1839 Z-3.9101
X0.2807 Z-3.9126
X0.4743 Z-3.9176
X0.6679 Z-3.9224
X0.8614 Z-3.9271
X1.055 Z-3.9316
X1.2486 Z-3.9361
X1.4422 Z-3.9404
X1.6357 Z-3.9445
X1.8293 Z-3.9486
X2.0229 Z-3.9525
X2.2165 Z-3.9562
X2.41 Z-3.9599
X2.6036 Z-3.9634
X2.7972 Z-3.9667
X2.9908 Z-3.9699
X3.1843 Z-3.9729
X3.3779 Z-3.9758
X3.5715 Z-3.9786
X3.7651 Z-3.9812
X3.9586 Z-3.9836
X4.1522 Z-3.9859
X4.3458 Z-3.988
X4.5394 Z-3.9899
X4.7329 Z-3.9917
X4.9265 Z-3.9933
X5.1201 Z-3.9948
X5.3137 Z-3.996
X5.5072 Z-3.9971
X5.7008 Z-3.9981
X5.8944 Z-3.9988
X6.088 Z-3.9994
X6.2815 Z-3.9998
X6.4751 Z-4
X6.5889
X285.9945
X286.0496 Y129.9487
X286.1046 Y129.9442
X286.1597 Y129.9365
X286.2147 Y129.9254
X286.2698 Y129.9109
X286.3249 Y129.8927
X286.3568 Y129.8805
X286.3959 Y129.8636
X286.435 Y129.8446
X286.4901 Y129.8139
X286.5451 Y129.778
X286.5558 Y129.7704
X286.6055 Y129.732
X286.6552 Y129.6879
X286.683 Y129.6603
X286.727 Y129.6116
X286.7654 Y129.5628
X286.7744 Y129.5503
X286.8107 Y129.4952
X286.8419 Y129.4402
X286.8755 Y129.3689
X286.8908 Y129.3301
X286.9093 Y129.2751
X286.9242 Y129.2201
X286.9356 Y129.165
X286.9436 Y129.11
X286.9484 Y129.055
X286.95 Y128.9999
Y76.0583
X286.9486 Y75.9483
X286.944 Y75.8932
X286.9361 Y75.8382
X286.9249 Y75.7832
X286.9103 Y75.7281
X286.8944 Y75.6796
X286.8755 Y75.6311
X286.8699 Y75.6181
X286.8436 Y75.563
X286.8127 Y75.508
X286.7902 Y75.4726
X286.7654 Y75.4372
X286.7349 Y75.3979
X286.6975 Y75.355
X286.6552 Y75.3121
X286.6288 Y75.2879
X286.5869 Y75.253
X286.5451 Y75.2219
X286.476 Y75.1778
X286.435 Y75.1554
X286.3799 Y75.1292
X286.3249 Y75.1072
X286.2698 Y75.0891
X286.2147 Y75.0746
X286.1828 Y75.0677
X286.1046 Y75.0558
X286.0496 Y75.0513
X285.9945 Y75.05
X271.0178
X270.9077 Y75.0485
X270.7975 Y75.0431
X270.6874 Y75.0336
X270.5773 Y75.02
X270.4672 Y75.0029
X270.3571 Y74.9815
X270.2568 Y74.9577
X270.2469 Y74.9551
X270.1368 Y74.9245
X270.0267 Y74.8907
X269.9166 Y74.8505
X269.9091 Y74.8476
X269.8064 Y74.8067
X269.6963 Y74.7572
X269.6557 Y74.7375
X269.5862 Y74.702
X269.4761 Y74.6418
X269.4519 Y74.6275
X269.3659 Y74.5749
X269.2784 Y74.5174
X269.2558 Y74.5017
X269.1457 Y74.4214
X269.1278 Y74.4073
X269.0356 Y74.3327
X268.9941 Y74.2973
X268.9254 Y74.2357
X268.8748 Y74.1872
X268.8153 Y74.1278
X268.7668 Y74.0771
X268.7052 Y74.0087
X268.6696 Y73.9671
X268.5951 Y73.8753
X268.5807 Y73.857
X268.5002 Y73.7469
X268.485 Y73.725
X268.4269 Y73.6369
X268.3748 Y73.552
X268.3599 Y73.5268
X268.2996 Y73.4167
X268.2647 Y73.3487
X268.2442 Y73.3067
X268.1946 Y73.1966
X268.1546 Y73.0964
X268.1508 Y73.0865
X268.1104 Y72.9765
X268.0764 Y72.8664
X268.0457 Y72.7564
X268.0445 Y72.7516
X268.0193 Y72.6463
X267.9977 Y72.5362
X267.9804 Y72.4262
X267.9667 Y72.3161
X267.9571 Y72.206
X267.9516 Y72.096
X267.95 Y71.9859
Y39.0762
X267.9504 Y38.9662
X267.9536 Y38.8561
X267.9608 Y38.746
X267.9721 Y38.636
X267.9876 Y38.5259
X268.0066 Y38.4158
X268.0302 Y38.3058
X268.0445 Y38.2484
X268.0587 Y38.1957
X268.0907 Y38.0856
X268.1272 Y37.9756
X268.1546 Y37.9035
X268.1695 Y37.8655
X268.2157 Y37.7554
X268.2647 Y37.6513
X268.2677 Y37.6454
X268.3248 Y37.5353
X268.3748 Y37.448
X268.3883 Y37.4252
X268.4582 Y37.3152
X268.485 Y37.275
X268.5341 Y37.2051
X268.5951 Y37.1247
X268.6185 Y37.0951
X268.7052 Y36.9912
X268.7105 Y36.985
X268.8127 Y36.8749
X268.8153 Y36.8722
X268.9249 Y36.7649
X268.9254 Y36.7643
X269.0356 Y36.6673
X269.0507 Y36.6548
X269.1457 Y36.5786
X269.1907 Y36.5447
X269.2558 Y36.4983
X269.3509 Y36.4347
X269.3659 Y36.4251
X269.4761 Y36.3582
X269.5357 Y36.3246
X269.5862 Y36.298
X269.6963 Y36.2428
X269.7581 Y36.2145
X269.8064 Y36.1933
X269.9166 Y36.1496
X270.0267 Y36.1093
X270.042 Y36.1045
X270.1368 Y36.0755
X270.2469 Y36.0448
X270.3571 Y36.0185
X270.4672 Y35.9971
X270.484 Y35.9944
X270.5773 Y35.98
X270.6874 Y35.9663
X270.7975 Y35.9569
X270.9077 Y35.9515
X271.0178 Y35.95
X285.9945
X286.0496 Y35.9487
X286.1046 Y35.9442
X286.1597 Y35.9365
X286.2147 Y35.9254
X286.2698 Y35.9109
X286.3249 Y35.8927
X286.3471 Y35.8843
X286.391 Y35.8658
X286.435 Y35.8446
X286.4901 Y35.8139
X286.5451 Y35.778
X286.5505 Y35.7743
X286.6028 Y35.7342
X286.6552 Y35.6879
X286.6792 Y35.6642
X286.7253 Y35.6135
X286.7654 Y35.5628
X286.7717 Y35.5541
X286.8083 Y35.4991
X286.8398 Y35.4441
X286.8587 Y35.4065
X286.8755 Y35.3689
X286.8894 Y35.334
X286.9081 Y35.279
X286.9232 Y35.2239
X286.9349 Y35.1689
X286.9432 Y35.1139
X286.9482 Y35.0588
X286.95 Y35.0038
Y34.7837
Y26.1985
X286.9483 Y26.1435
X286.9435 Y26.0885
X286.9353 Y26.0334
X286.9238 Y25.9784
X286.9088 Y25.9234
X286.8902 Y25.8683
X286.8755 Y25.8311
X286.8411 Y25.7583
X286.8098 Y25.7032
X286.7733 Y25.6482
X286.7654 Y25.6372
X286.7263 Y25.5877
X286.6815 Y25.5381
X286.6552 Y25.5121
X286.6045 Y25.4671
X286.5537 Y25.4281
X286.5451 Y25.422
X286.4901 Y25.3862
X286.435 Y25.3554
X286.394 Y25.3356
X286.353 Y25.318
X286.3249 Y25.3073
X286.2698 Y25.2891
X286.2147 Y25.2746
X286.1597 Y25.2635
X286.1046 Y25.2558
X286.0496 Y25.2513
X285.9945 Y25.25
X263.0889
X262.9788 Y25.2503
X262.9238 Y25.2531
X262.8687 Y25.2591
X262.8136 Y25.2685
X262.7586 Y25.2812
X262.7035 Y25.2975
X262.6484 Y25.3175
X262.6471 Y25.318
X262.5927 Y25.3418
X262.5383 Y25.3697
X262.4923 Y25.3971
X262.4463 Y25.4281
X262.4282 Y25.4414
X262.3734 Y25.486
X262.3185 Y25.5381
X262.3181 Y25.5386
X262.2689 Y25.5934
X262.2267 Y25.6482
X262.2079 Y25.6755
X262.182 Y25.7169
X262.1589 Y25.7583
X262.1323 Y25.8133
X262.1098 Y25.8683
X262.0978 Y25.9024
X262.0762 Y25.9784
X262.0684 Y26.0142
X262.065 Y26.0321
X262.0634 Y26.0411
X262.0627 Y26.0455
X262.0623 Y26.0478
X262.061 Y26.05
X213.0932
X212.9831 Y26.0502
X212.928 Y26.0527
X212.8729 Y26.0585
X212.8179 Y26.0676
X212.7628 Y26.0801
X212.7324 Y26.0885
X212.6925 Y26.1011
X212.6527 Y26.1158
X212.5976 Y26.1394
X212.5426 Y26.1674
X212.4899 Y26.1985
X212.4324 Y26.2382
X212.3905 Y26.2713
X212.3485 Y26.3086
X212.3223 Y26.3342
X212.2833 Y26.3765
X212.2486 Y26.4187
X212.2122 Y26.4691
X212.1751 Y26.5287
X212.146 Y26.5838
X212.1214 Y26.6388
X212.1021 Y26.6898
X212.0838 Y26.7489
X212.0705 Y26.8039
X212.0605 Y26.8589
X212.0539 Y26.914
X212.0505 Y26.969
X212.05 Y27.0791
Y85.0476
X212.0482 Y85.05
X128.9523
X128.95 Y85.0476
Y27.0791
X128.9495 Y26.969
X128.9461 Y26.914
X128.9395 Y26.8589
X128.9295 Y26.8039
X128.9162 Y26.7489
X128.8993 Y26.6938
X128.8786 Y26.6388
X128.8492 Y26.5742
X128.8249 Y26.5287
X128.7909 Y26.4737
X128.7514 Y26.4187
X128.7391 Y26.4032
X128.6983 Y26.3559
X128.6515 Y26.3086
X128.629 Y26.288
X128.5739 Y26.243
X128.5189 Y26.2042
X128.5101 Y26.1985
X128.4594 Y26.1685
X128.4087 Y26.1424
X128.3537 Y26.1183
X128.2986 Y26.0982
X128.2676 Y26.0885
X128.1885 Y26.0689
X128.1334 Y26.0594
X128.0784 Y26.0532
X127.9682 Y26.05
X23.939
X23.9377 Y26.0478
X23.9374 Y26.0455
X23.9366 Y26.0411
X23.935 Y26.0321
X23.9317 Y26.0142
X23.9238 Y25.9784
X23.9022 Y25.9024
X23.8902 Y25.8683
X23.8677 Y25.8133
X23.8411 Y25.7583
X23.818 Y25.7169
X23.7921 Y25.6755
X23.7733 Y25.6482
X23.7311 Y25.5934
X23.6819 Y25.5386
X23.6815 Y25.5381
X23.6266 Y25.486
X23.5718 Y25.4414
X23.5537 Y25.4281
X23.5077 Y25.3971
X23.4617 Y25.3697
X23.4073 Y25.3418
X23.3529 Y25.318
X23.3516 Y25.3175
X23.2965 Y25.2975
X23.2414 Y25.2812
X23.1864 Y25.2685
X23.1313 Y25.2591
X23.0763 Y25.2531
X23.0212 Y25.2503
X22.9111 Y25.25
X0.0055
X-0.0495 Y25.2513
X-0.1046 Y25.2558
X-0.1597 Y25.2635
X-0.2147 Y25.2746
X-0.2698 Y25.2891
X-0.3248 Y25.3073
X-0.3529 Y25.318
X-0.394 Y25.3356
X-0.435 Y25.3554
X-0.49 Y25.3862
X-0.5451 Y25.422
X-0.5537 Y25.4281
X-0.6045 Y25.4671
X-0.6552 Y25.5121
X-0.6815 Y25.5381
X-0.7263 Y25.5877
X-0.7653 Y25.6372
X-0.7733 Y25.6482
X-0.8098 Y25.7032
X-0.8411 Y25.7583
X-0.8755 Y25.8311
X-0.8902 Y25.8683
X-0.9088 Y25.9234
X-0.9238 Y25.9784
X-0.9353 Y26.0334
X-0.9434 Y26.0885
X-0.9483 Y26.1435
X-0.95 Y26.1985
Y99.9944
Y128.9999
X-0.9484 Y129.055
X-0.9436 Y129.11
X-0.9356 Y129.165
X-0.9242 Y129.2201
X-0.9093 Y129.2751
X-0.8908 Y129.3301
X-0.8755 Y129.3689
X-0.8418 Y129.4402
X-0.8107 Y129.4952
X-0.7744 Y129.5503
X-0.7653 Y129.5628
X-0.727 Y129.6116
X-0.683 Y129.6603
X-0.6552 Y129.6879
X-0.6055 Y129.732
X-0.5558 Y129.7704
X-0.5451 Y129.778
X-0.49 Y129.8139
X-0.435 Y129.8446
X-0.3959 Y129.8636
X-0.3567 Y129.8805
X-0.3248 Y129.8927
X-0.2698 Y129.9109
X-0.2147 Y129.9254
X-0.1597 Y129.9365
X-0.1046 Y129.9442
X-0.0495 Y129.9487
X0.0055 Y129.95
X6.5889
X6.7825 Z-4.0001
X6.9761 Z-4.0004
X7.1696 Z-4.0008
X7.3632 Z-4.0015
X7.5568 Z-4.0023
X7.7504 Z-4.0033
X7.9439 Z-4.0045
X8.1375 Z-4.0058
X8.3311 Z-4.0073
X8.5247 Z-4.009
X8.7182 Z-4.0109
X8.9118 Z-4.0129
X9.1054 Z-4.0151
X9.299 Z-4.0174
X9.4925 Z-4.0199
X9.6861 Z-4.0225
X9.8797 Z-4.0253
X10.0733 Z-4.0283
X10.2668 Z-4.0314
X10.4604 Z-4.0347
X10.654 Z-4.0381
X10.8476 Z-4.0416
X11.0411 Z-4.0453
X11.2347 Z-4.0491
X11.4283 Z-4.0531
X11.6219 Z-4.0572
X11.8154 Z-4.0614
X12.009 Z-4.0658
X12.2026 Z-4.0702
X12.3962 Z-4.0749
X12.5897 Z-4.0796
X12.7833 Z-4.0845
X12.9769 Z-4.0894
X13.0737 Z-4.092
X13.1705 Z-4.0945
X13.2672 Z-4.0971
X13.364 Z-4.0997
X13.4608 Z-4.1024
X13.5576 Z-4.1051
X13.6544 Z-4.1078
X13.7512 Z-4.1105
X13.848 Z-4.1133
X13.9448 Z-4.1161
X14.0415 Z-4.1189
X14.1383 Z-4.1217
X14.2351 Z-4.1246
X14.3319 Z-4.1275
X14.4287 Z-4.1304
X14.5255 Z-4.1334
X14.6223 Z-4.1363
X14.719 Z-4.1393
X14.8158 Z-4.1423
X14.9126 Z-4.1454
X15.0094 Z-4.1485
X15.1062 Z-4.1516
X15.203 Z-4.1547
X15.2998 Z-4.1578
X15.3966 Z-4.161
X15.4933 Z-4.1642
X15.5901 Z-4.1674
X15.6869 Z-4.1706
X15.7837 Z-4.1739
X15.8805 Z-4.1772
X15.9773 Z-4.1805
X16.0741 Z-4.1838
X16.1709 Z-4.1871
X16.3644 Z-4.1939
X16.4612 Z-4.1972
X16.558 Z-4.2006
X16.6548 Z-4.204
X16.7516 Z-4.2074
X16.8484 Z-4.2108
X16.9452 Z-4.2141
X17.0419 Z-4.2175
X17.1387 Z-4.2209
X17.2355 Z-4.2243
X17.3323 Z-4.2277
X17.4291 Z-4.231
X17.5259 Z-4.2344
X17.7195 Z-4.2412
X18.0098 Z-4.2513
X18.3002 Z-4.2614
X18.5905 Z-4.2716
X18.8809 Z-4.2817
X19.1713 Z-4.2919
X19.4616 Z-4.302
X19.752 Z-4.3121
X20.0424 Z-4.3223
X20.3327 Z-4.3324
X20.6231 Z-4.3426
X21.107 Z-4.3595
X21.591 Z-4.3764
X22.0749 Z-4.3933
X22.7524 Z-4.4169
X23.6235 Z-4.4473
X25.0753 Z-4.498
X32.044 Z-4.7413
X32.3343 Z-4.7515
X32.6247 Z-4.7616
X32.7215 Z-4.765
X32.8183 Z-4.7684
X32.9151 Z-4.7717
X33.0119 Z-4.7751
X33.1086 Z-4.7785
X33.2054 Z-4.7819
X33.3022 Z-4.7853
X33.399 Z-4.7886
X33.4958 Z-4.792
X33.5926 Z-4.7954
X33.6894 Z-4.7988
X33.7862 Z-4.8022
X33.8829 Z-4.8055
X33.9797 Z-4.8089
X34.0765 Z-4.8123
X34.1733 Z-4.8156
X34.2701 Z-4.819
X34.3669 Z-4.8223
X34.4637 Z-4.8255
X34.5605 Z-4.8288
X34.6572 Z-4.832
X34.754 Z-4.8353
X34.8508 Z-4.8385
X34.9476 Z-4.8416
X35.0444 Z-4.8448
X35.1412 Z-4.8479
X35.238 Z-4.851
X35.3348 Z-4.8541
X35.4315 Z-4.8571
X35.5283 Z-4.8601
X35.6251 Z-4.8631
X35.7219 Z-4.8661
X35.8187 Z-4.8691
X35.9155 Z-4.872
X36.0123 Z-4.8749
X36.1091 Z-4.8778
X36.2058 Z-4.8806
X36.3026 Z-4.8834
X36.3994 Z-4.8862
X36.4962 Z-4.889
X36.593 Z-4.8917
X36.6898 Z-4.8945
X36.7866 Z-4.8971
X36.8834 Z-4.8998
X36.9801 Z-4.9024
X37.0769 Z-4.905
X37.1737 Z-4.9076
X37.2705 Z-4.9101
X37.3673 Z-4.9126
X37.5609 Z-4.9176
X37.7544 Z-4.9224
X37.948 Z-4.9271
X38.1416 Z-4.9316
X38.3352 Z-4.9361
X38.5287 Z-4.9404
X38.7223 Z-4.9445
X38.9159 Z-4.9486
X39.1095 Z-4.9525
X39.303 Z-4.9562
X39.4966 Z-4.9599
X39.6902 Z-4.9634
X39.8838 Z-4.9667
X40.0773 Z-4.9699
X40.2709 Z-4.9729
X40.4645 Z-4.9758
X40.6581 Z-4.9786
X40.8516 Z-4.9812
X41.0452 Z-4.9836
X41.2388 Z-4.9859
X41.4324 Z-4.988
X41.6259 Z-4.9899
X41.8195 Z-4.9917
X42.0131 Z-4.9933
X42.2067 Z-4.9948
X42.4002 Z-4.996
X42.5938 Z-4.9971
X42.7874 Z-4.9981
X42.981 Z-4.9988
X43.1745 Z-4.9994
X43.3681 Z-4.9998
X43.5617 Z-5
X43.6755
X285.9945
X286.0496 Y129.9487
X286.1046 Y129.9442
X286.1597 Y129.9365
X286.2147 Y129.9254
X286.2698 Y129.9109
X286.3249 Y129.8927
X286.3568 Y129.8805
X286.3959 Y129.8636
X286.435 Y129.8446
X286.4901 Y129.8139
X286.5451 Y129.778
X286.5558 Y129.7704
X286.6055 Y129.732
X286.6552 Y129.6879
X286.683 Y129.6603
X286.727 Y129.6116
X286.7654 Y129.5628
X286.7744 Y129.5503
X286.8107 Y129.4952
X286.8419 Y129.4402
X286.8755 Y129.3689
X286.8908 Y129.3301
X286.9093 Y129.2751
X286.9242 Y129.2201
X286.9356 Y129.165
X286.9436 Y129.11
X286.9484 Y129.055
X286.95 Y128.9999
Y76.0583
X286.9486 Y75.9483
X286.944 Y75.8932
X286.9361 Y75.8382
X286.9249 Y75.7832
X286.9103 Y75.7281
X286.8944 Y75.6796
X286.8755 Y75.6311
X286.8699 Y75.6181
X286.8436 Y75.563
X286.8127 Y75.508
X286.7902 Y75.4726
X286.7654 Y75.4372
X286.7349 Y75.3979
X286.6975 Y75.355
X286.6552 Y75.3121
X286.6288 Y75.2879
X286.5869 Y75.253
X286.5451 Y75.2219
X286.476 Y75.1778
X286.435 Y75.1554
X286.3799 Y75.1292
X286.3249 Y75.1072
X286.2698 Y75.0891
X286.2147 Y75.0746
X286.1828 Y75.0677
X286.1046 Y75.0558
X286.0496 Y75.0513
X285.9945 Y75.05
X271.0178
X270.9077 Y75.0485
X270.7975 Y75.0431
X270.6874 Y75.0336
X270.5773 Y75.02
X270.4672 Y75.0029
X270.3571 Y74.9815
X270.2568 Y74.9577
X270.2469 Y74.9551
X270.1368 Y74.9245
X270.0267 Y74.8907
X269.9166 Y74.8505
X269.9091 Y74.8476
X269.8064 Y74.8067
X269.6963 Y74.7572
X269.6557 Y74.7375
X269.5862 Y74.702
X269.4761 Y74.6418
X269.4519 Y74.6275
X269.3659 Y74.5749
X269.2784 Y74.5174
X269.2558 Y74.5017
X269.1457 Y74.4214
X269.1278 Y74.4073
X269.0356 Y74.3327
X268.9941 Y74.2973
X268.9254 Y74.2357
X268.8748 Y74.1872
X268.8153 Y74.1278
X268.7668 Y74.0771
X268.7052 Y74.0087
X268.6696 Y73.9671
X268.5951 Y73.8753
X268.5807 Y73.857
X268.5002 Y73.7469
X268.485 Y73.725
X268.4269 Y73.6369
X268.3748 Y73.552
X268.3599 Y73.5268
X268.2996 Y73.4167
X268.2647 Y73.3487
X268.2442 Y73.3067
X268.1946 Y73.1966
X268.1546 Y73.0964
X268.1508 Y73.0865
X268.1104 Y72.9765
X268.0764 Y72.8664
X268.0457 Y72.7564
X268.0445 Y72.7516
X268.0193 Y72.6463
X267.9977 Y72.5362
X267.9804 Y72.4262
X267.9667 Y72.3161
X267.9571 Y72.206
X267.9516 Y72.096
X267.95 Y71.9859
Y39.0762
X267.9504 Y38.9662
X267.9536 Y38.8561
X267.9608 Y38.746
X267.9721 Y38.636
X267.9876 Y38.5259
X268.0066 Y38.4158
X268.0302 Y38.3058
X268.0445 Y38.2484
X268.0587 Y38.1957
X268.0907 Y38.0856
X268.1272 Y37.9756
X268.1546 Y37.9035
X268.1695 Y37.8655
X268.2157 Y37.7554
X268.2647 Y37.6513
X268.2677 Y37.6454
X268.3248 Y37.5353
X268.3748 Y37.448
X268.3883 Y37.4252
X268.4582 Y37.3152
X268.485 Y37.275
X268.5341 Y37.2051
X268.5951 Y37.1247
X268.6185 Y37.0951
X268.7052 Y36.9912
X268.7105 Y36.985
X268.8127 Y36.8749
X268.8153 Y36.8722
X268.9249 Y36.7649
X268.9254 Y36.7643
X269.0356 Y36.6673
X269.0507 Y36.6548
X269.1457 Y36.5786
X269.1907 Y36.5447
X269.2558 Y36.4983
X269.3509 Y36.4347
X269.3659 Y36.4251
X269.4761 Y36.3582
X269.5357 Y36.3246
X269.5862 Y36.298
X269.6963 Y36.2428
X269.7581 Y36.2145
X269.8064 Y36.1933
X269.9166 Y36.1496
X270.0267 Y36.1093
X270.042 Y36.1045
X270.1368 Y36.0755
X270.2469 Y36.0448
X270.3571 Y36.0185
X270.4672 Y35.9971
X270.484 Y35.9944
X270.5773 Y35.98
X270.6874 Y35.9663
X270.7975 Y35.9569
X270.9077 Y35.9515
X271.0178 Y35.95
X285.9945
X286.0496 Y35.9487
X286.1046 Y35.9442
X286.1597 Y35.9365
X286.2147 Y35.9254
X286.2698 Y35.9109
X286.3249 Y35.8927
X286.3471 Y35.8843
X286.391 Y35.8658
X286.435 Y35.8446
X286.4901 Y35.8139
X286.5451 Y35.778
X286.5505 Y35.7743
X286.6028 Y35.7342
X286.6552 Y35.6879
X286.6792 Y35.6642
X286.7253 Y35.6135
X286.7654 Y35.5628
X286.7717 Y35.5541
X286.8083 Y35.4991
X286.8398 Y35.4441
X286.8587 Y35.4065
X286.8755 Y35.3689
X286.8894 Y35.334
X286.9081 Y35.279
X286.9232 Y35.2239
X286.9349 Y35.1689
X286.9432 Y35.1139
X286.9482 Y35.0588
X286.95 Y35.0038
Y34.7837
Y26.1985
X286.9483 Y26.1435
X286.9435 Y26.0885
X286.9353 Y26.0334
X286.9238 Y25.9784
X286.9088 Y25.9234
X286.8902 Y25.8683
X286.8755 Y25.8311
X286.8411 Y25.7583
X286.8098 Y25.7032
X286.7733 Y25.6482
X286.7654 Y25.6372
X286.7263 Y25.5877
X286.6815 Y25.5381
X286.6552 Y25.5121
X286.6045 Y25.4671
X286.5537 Y25.4281
X286.5451 Y25.422
X286.4901 Y25.3862
X286.435 Y25.3554
X286.394 Y25.3356
X286.353 Y25.318
X286.3249 Y25.3073
X286.2698 Y25.2891
X286.2147 Y25.2746
X286.1597 Y25.2635
X286.1046 Y25.2558
X286.0496 Y25.2513
X285.9945 Y25.25
X263.0889
X262.9788 Y25.2503
X262.9238 Y25.2531
X262.8687 Y25.2591
X262.8136 Y25.2685
X262.7586 Y25.2812
X262.7035 Y25.2975
X262.6484 Y25.3175
X262.6471 Y25.318
X262.5927 Y25.3418
X262.5383 Y25.3697
X262.4923 Y25.3971
X262.4463 Y25.4281
X262.4282 Y25.4414
X262.3734 Y25.486
X262.3185 Y25.5381
X262.3181 Y25.5386
X262.2689 Y25.5934
X262.2267 Y25.6482
X262.2079 Y25.6755
X262.182 Y25.7169
X262.1589 Y25.7583
X262.1323 Y25.8133
X262.1098 Y25.8683
X262.0978 Y25.9024
X262.0762 Y25.9784
X262.0684 Y26.0142
X262.065 Y26.0321
X262.0634 Y26.0411
X262.0627 Y26.0455
X262.0623 Y26.0478
X262.061 Y26.05
X213.0932
X212.9831 Y26.0502
X212.928 Y26.0527
X212.8729 Y26.0585
X212.8179 Y26.0676
X212.7628 Y26.0801
X212.7324 Y26.0885
X212.6925 Y26.1011
X212.6527 Y26.1158
X212.5976 Y26.1394
X212.5426 Y26.1674
X212.4899 Y26.1985
X212.4324 Y26.2382
X212.3905 Y26.2713
X212.3485 Y26.3086
X212.3223 Y26.3342
X212.2833 Y26.3765
X212.2486 Y26.4187
X212.2122 Y26.4691
X212.1751 Y26.5287
X212.146 Y26.5838
X212.1214 Y26.6388
X212.1021 Y26.6898
X212.0838 Y26.7489
X212.0705 Y26.8039
X212.0605 Y26.8589
X212.0539 Y26.914
X212.0505 Y26.969
X212.05 Y27.0791
Y85.0476
X212.0482 Y85.05
X128.9523
X128.95 Y85.0476
Y27.0791
X128.9495 Y26.969
X128.9461 Y26.914
X128.9395 Y26.8589
X128.9295 Y26.8039
X128.9162 Y26.7489
X128.8993 Y26.6938
X128.8786 Y26.6388
X128.8492 Y26.5742
X128.8249 Y26.5287
X128.7909 Y26.4737
X128.7514 Y26.4187
X128.7391 Y26.4032
X128.6983 Y26.3559
X128.6515 Y26.3086
X128.629 Y26.288
X128.5739 Y26.243
X128.5189 Y26.2042
X128.5101 Y26.1985
X128.4594 Y26.1685
X128.4087 Y26.1424
X128.3537 Y26.1183
X128.2986 Y26.0982
X128.2676 Y26.0885
X128.1885 Y26.0689
X128.1334 Y26.0594
X128.0784 Y26.0532
X127.9682 Y26.05
X23.939
X23.9377 Y26.0478
X23.9374 Y26.0455
X23.9366 Y26.0411
X23.935 Y26.0321
X23.9317 Y26.0142
X23.9238 Y25.9784
X23.9022 Y25.9024
X23.8902 Y25.8683
X23.8677 Y25.8133
X23.8411 Y25.7583
X23.818 Y25.7169
X23.7921 Y25.6755
X23.7733 Y25.6482
X23.7311 Y25.5934
X23.6819 Y25.5386
X23.6815 Y25.5381
X23.6266 Y25.486
X23.5718 Y25.4414
X23.5537 Y25.4281
X23.5077 Y25.3971
X23.4617 Y25.3697
X23.4073 Y25.3418
X23.3529 Y25.318
X23.3516 Y25.3175
X23.2965 Y25.2975
X23.2414 Y25.2812
X23.1864 Y25.2685
X23.1313 Y25.2591
X23.0763 Y25.2531
X23.0212 Y25.2503
X22.9111 Y25.25
X0.0055
X-0.0495 Y25.2513
X-0.1046 Y25.2558
X-0.1597 Y25.2635
X-0.2147 Y25.2746
X-0.2698 Y25.2891
X-0.3248 Y25.3073
X-0.3529 Y25.318
X-0.394 Y25.3356
X-0.435 Y25.3554
X-0.49 Y25.3862
X-0.5451 Y25.422
X-0.5537 Y25.4281
X-0.6045 Y25.4671
X-0.6552 Y25.5121
X-0.6815 Y25.5381
X-0.7263 Y25.5877
X-0.7653 Y25.6372
X-0.7733 Y25.6482
X-0.8098 Y25.7032
X-0.8411 Y25.7583
X-0.8755 Y25.8311
X-0.8902 Y25.8683
X-0.9088 Y25.9234
X-0.9238 Y25.9784
X-0.9353 Y26.0334
X-0.9434 Y26.0885
X-0.9483 Y26.1435
X-0.95 Y26.1985
Y128.9999
X-0.9484 Y129.055
X-0.9436 Y129.11
X-0.9356 Y129.165
X-0.9242 Y129.2201
X-0.9093 Y129.2751
X-0.8908 Y129.3301
X-0.8755 Y129.3689
X-0.8418 Y129.4402
X-0.8107 Y129.4952
X-0.7744 Y129.5503
X-0.7653 Y129.5628
X-0.727 Y129.6116
X-0.683 Y129.6603
X-0.6552 Y129.6879
X-0.6055 Y129.732
X-0.5558 Y129.7704
X-0.5451 Y129.778
X-0.49 Y129.8139
X-0.435 Y129.8446
X-0.3959 Y129.8636
X-0.3567 Y129.8805
X-0.3248 Y129.8927
X-0.2698 Y129.9109
X-0.2147 Y129.9254
X-0.1597 Y129.9365
X-0.1046 Y129.9442
X-0.0495 Y129.9487
X0.0055 Y129.95
X43.6755
X43.8691 Z-5.0001
X44.0626 Z-5.0004
X44.2562 Z-5.0008
X44.4498 Z-5.0015
X44.6434 Z-5.0023
X44.8369 Z-5.0033
X45.0305 Z-5.0045
X45.2241 Z-5.0058
X45.4176 Z-5.0073
X45.6112 Z-5.009
X45.8048 Z-5.0109
X45.9984 Z-5.0129
X46.1919 Z-5.0151
X46.3855 Z-5.0174
X46.5791 Z-5.0199
X46.7727 Z-5.0225
X46.9662 Z-5.0253
X47.1598 Z-5.0283
X47.3534 Z-5.0314
X47.547 Z-5.0347
X47.7405 Z-5.0381
X47.9341 Z-5.0416
X48.1277 Z-5.0453
X48.3213 Z-5.0491
X48.5148 Z-5.0531
X48.7084 Z-5.0572
X48.902 Z-5.0614
X49.0956 Z-5.0658
X49.2891 Z-5.0702
X49.4827 Z-5.0749
X49.6763 Z-5.0796
X49.8699 Z-5.0845
X50.0634 Z-5.0894
X50.1602 Z-5.092
X50.257 Z-5.0945
X50.3538 Z-5.0971
X50.4506 Z-5.0997
X50.5474 Z-5.1024
X50.6442 Z-5.1051
X50.741 Z-5.1078
X50.8377 Z-5.1105
X50.9345 Z-5.1133
X51.0313 Z-5.1161
X51.1281 Z-5.1189
X51.2249 Z-5.1217
X51.3217 Z-5.1246
X51.4185 Z-5.1275
X51.5153 Z-5.1304
X51.612 Z-5.1334
X51.7088 Z-5.1363
X51.8056 Z-5.1393
X51.9024 Z-5.1423
X51.9992 Z-5.1454
X52.096 Z-5.1485
X52.1928 Z-5.1516
X52.2896 Z-5.1547
X52.3863 Z-5.1578
X52.4831 Z-5.161
X52.5799 Z-5.1642
X52.6767 Z-5.1674
X52.7735 Z-5.1706
X52.8703 Z-5.1739
X52.9671 Z-5.1772
X53.0639 Z-5.1805
X53.1606 Z-5.1838
X53.2574 Z-5.1871
X53.451 Z-5.1939
X53.5478 Z-5.1972
X53.6446 Z-5.2006
X53.7414 Z-5.204
X53.8381 Z-5.2074
X53.9349 Z-5.2108
X54.0317 Z-5.2141
X54.1285 Z-5.2175
X54.2253 Z-5.2209
X54.3221 Z-5.2243
X54.4189 Z-5.2277
X54.5157 Z-5.231
X54.6124 Z-5.2344
X54.806 Z-5.2412
X55.0964 Z-5.2513
X55.3867 Z-5.2614
X55.6771 Z-5.2716
X55.9675 Z-5.2817
X56.2578 Z-5.2919
X56.5482 Z-5.302
X56.8386 Z-5.3121
X57.1289 Z-5.3223
X57.4193 Z-5.3324
X57.7096 Z-5.3426
X58.1936 Z-5.3595
X58.6775 Z-5.3764
X59.1615 Z-5.3933
X59.839 Z-5.4169
X60.71 Z-5.4473
X62.1619 Z-5.498
X69.1305 Z-5.7413
X69.4209 Z-5.7515
X69.7113 Z-5.7616
X69.8081 Z-5.765
X69.9048 Z-5.7684
X70.0016 Z-5.7717
X70.0984 Z-5.7751
X70.1952 Z-5.7785
X70.292 Z-5.7819
X70.3888 Z-5.7853
X70.4856 Z-5.7886
X70.5824 Z-5.792
X70.6791 Z-5.7954
X70.7759 Z-5.7988
X70.8727 Z-5.8022
X70.9695 Z-5.8055
X71.0663 Z-5.8089
X71.1631 Z-5.8123
X71.2599 Z-5.8156
X71.3567 Z-5.819
X71.4534 Z-5.8223
X71.5502 Z-5.8255
X71.647 Z-5.8288
X71.7438 Z-5.832
X71.8406 Z-5.8353
X71.9374 Z-5.8385
X72.0342 Z-5.8416
X72.131 Z-5.8448
X72.2277 Z-5.8479
X72.3245 Z-5.851
X72.4213 Z-5.8541
X72.5181 Z-5.8571
X72.6149 Z-5.8601
X72.7117 Z-5.8631
X72.8085 Z-5.8661
X72.9053 Z-5.8691
X73.002 Z-5.872
X73.0988 Z-5.8749
X73.1956 Z-5.8778
X73.2924 Z-5.8806
X73.3892 Z-5.8834
X73.486 Z-5.8862
X73.5828 Z-5.889
X73.6796 Z-5.8917
X73.7763 Z-5.8945
X73.8731 Z-5.8971
X73.9699 Z-5.8998
X74.0667 Z-5.9024
X74.1635 Z-5.905
X74.2603 Z-5.9076
X74.3571 Z-5.9101
X74.4538 Z-5.9126
X74.6474 Z-5.9176
X74.841 Z-5.9224
X75.0346 Z-5.9271
X75.2281 Z-5.9316
X75.4217 Z-5.9361
X75.6153 Z-5.9404
X75.8089 Z-5.9445
X76.0024 Z-5.9486
X76.196 Z-5.9525
X76.3896 Z-5.9562
X76.5832 Z-5.9599
X76.7767 Z-5.9634
X76.9703 Z-5.9667
X77.1639 Z-5.9699
X77.3575 Z-5.9729
X77.551 Z-5.9758
X77.7446 Z-5.9786
X77.9382 Z-5.9812
X78.1318 Z-5.9836
X78.3253 Z-5.9859
X78.5189 Z-5.988
X78.7125 Z-5.9899
X78.9061 Z-5.9917
X79.0996 Z-5.9933
X79.2932 Z-5.9948
X79.4868 Z-5.996
X79.6804 Z-5.9971
X79.8739 Z-5.9981
X80.0675 Z-5.9988
X80.2611 Z-5.9994
X80.4547 Z-5.9998
X80.6482 Z-6
X80.762
X285.9945
X286.0496 Y129.9487
X286.1046 Y129.9442
X286.1597 Y129.9365
X286.2147 Y129.9254
X286.2698 Y129.9109
X286.3249 Y129.8927
X286.3568 Y129.8805
X286.3959 Y129.8636
X286.435 Y129.8446
X286.4901 Y129.8139
X286.5451 Y129.778
X286.5558 Y129.7704
X286.6055 Y129.732
X286.6552 Y129.6879
X286.683 Y129.6603
X286.727 Y129.6116
X286.7654 Y129.5628
X286.7744 Y129.5503
X286.8107 Y129.4952
X286.8419 Y129.4402
X286.8755 Y129.3689
X286.8908 Y129.3301
X286.9093 Y129.2751
X286.9242 Y129.2201
X286.9356 Y129.165
X286.9436 Y129.11
X286.9484 Y129.055
X286.95 Y128.9999
Y76.0583
X286.9486 Y75.9483
X286.944 Y75.8932
X286.9361 Y75.8382
X286.9249 Y75.7832
X286.9103 Y75.7281
X286.8944 Y75.6796
X286.8755 Y75.6311
X286.8699 Y75.6181
X286.8436 Y75.563
X286.8127 Y75.508
X286.7902 Y75.4726
X286.7654 Y75.4372
X286.7349 Y75.3979
X286.6975 Y75.355
X286.6552 Y75.3121
X286.6288 Y75.2879
X286.5869 Y75.253
X286.5451 Y75.2219
X286.476 Y75.1778
X286.435 Y75.1554
X286.3799 Y75.1292
X286.3249 Y75.1072
X286.2698 Y75.0891
X286.2147 Y75.0746
X286.1828 Y75.0677
X286.1046 Y75.0558
X286.0496 Y75.0513
X285.9945 Y75.05
X271.0178
X270.9077 Y75.0485
X270.7975 Y75.0431
X270.6874 Y75.0336
X270.5773 Y75.02
X270.4672 Y75.0029
X270.3571 Y74.9815
X270.2568 Y74.9577
X270.2469 Y74.9551
X270.1368 Y74.9245
X270.0267 Y74.8907
X269.9166 Y74.8505
X269.9091 Y74.8476
X269.8064 Y74.8067
X269.6963 Y74.7572
X269.6557 Y74.7375
X269.5862 Y74.702
X269.4761 Y74.6418
X269.4519 Y74.6275
X269.3659 Y74.5749
X269.2784 Y74.5174
X269.2558 Y74.5017
X269.1457 Y74.4214
X269.1278 Y74.4073
X269.0356 Y74.3327
X268.9941 Y74.2973
X268.9254 Y74.2357
X268.8748 Y74.1872
X268.8153 Y74.1278
X268.7668 Y74.0771
X268.7052 Y74.0087
X268.6696 Y73.9671
X268.5951 Y73.8753
X268.5807 Y73.857
X268.5002 Y73.7469
X268.485 Y73.725
X268.4269 Y73.6369
X268.3748 Y73.552
X268.3599 Y73.5268
X268.2996 Y73.4167
X268.2647 Y73.3487
X268.2442 Y73.3067
X268.1946 Y73.1966
X268.1546 Y73.0964
X268.1508 Y73.0865
X268.1104 Y72.9765
X268.0764 Y72.8664
X268.0457 Y72.7564
X268.0445 Y72.7516
X268.0193 Y72.6463
X267.9977 Y72.5362
X267.9804 Y72.4262
X267.9667 Y72.3161
X267.9571 Y72.206
X267.9516 Y72.096
X267.95 Y71.9859
Y39.0762
X267.9504 Y38.9662
X267.9536 Y38.8561
X267.9608 Y38.746
X267.9721 Y38.636
X267.9876 Y38.5259
X268.0066 Y38.4158
X268.0302 Y38.3058
X268.0445 Y38.2484
X268.0587 Y38.1957
X268.0907 Y38.0856
X268.1272 Y37.9756
X268.1546 Y37.9035
X268.1695 Y37.8655
X268.2157 Y37.7554
X268.2647 Y37.6513
X268.2677 Y37.6454
X268.3248 Y37.5353
X268.3748 Y37.448
X268.3883 Y37.4252
X268.4582 Y37.3152
X268.485 Y37.275
X268.5341 Y37.2051
X268.5951 Y37.1247
X268.6185 Y37.0951
X268.7052 Y36.9912
X268.7105 Y36.985
X268.8127 Y36.8749
X268.8153 Y36.8722
X268.9249 Y36.7649
X268.9254 Y36.7643
X269.0356 Y36.6673
X269.0507 Y36.6548
X269.1457 Y36.5786
X269.1907 Y36.5447
X269.2558 Y36.4983
X269.3509 Y36.4347
X269.3659 Y36.4251
X269.4761 Y36.3582
X269.5357 Y36.3246
X269.5862 Y36.298
X269.6963 Y36.2428
X269.7581 Y36.2145
X269.8064 Y36.1933
X269.9166 Y36.1496
X270.0267 Y36.1093
X270.042 Y36.1045
X270.1368 Y36.0755
X270.2469 Y36.0448
X270.3571 Y36.0185
X270.4672 Y35.9971
X270.484 Y35.9944
X270.5773 Y35.98
X270.6874 Y35.9663
X270.7975 Y35.9569
X270.9077 Y35.9515
X271.0178 Y35.95
X285.9945
X286.0496 Y35.9487
X286.1046 Y35.9442
X286.1597 Y35.9365
X286.2147 Y35.9254
X286.2698 Y35.9109
X286.3249 Y35.8927
X286.3471 Y35.8843
X286.391 Y35.8658
X286.435 Y35.8446
X286.4901 Y35.8139
X286.5451 Y35.778
X286.5505 Y35.7743
X286.6028 Y35.7342
X286.6552 Y35.6879
X286.6792 Y35.6642
X286.7253 Y35.6135
X286.7654 Y35.5628
X286.7717 Y35.5541
X286.8083 Y35.4991
X286.8398 Y35.4441
X286.8587 Y35.4065
X286.8755 Y35.3689
X286.8894 Y35.334
X286.9081 Y35.279
X286.9232 Y35.2239
X286.9349 Y35.1689
X286.9432 Y35.1139
X286.9482 Y35.0588
X286.95 Y35.0038
Y34.7837
Y26.1985
X286.9483 Y26.1435
X286.9435 Y26.0885
X286.9353 Y26.0334
X286.9238 Y25.9784
X286.9088 Y25.9234
X286.8902 Y25.8683
X286.8755 Y25.8311
X286.8411 Y25.7583
X286.8098 Y25.7032
X286.7733 Y25.6482
X286.7654 Y25.6372
X286.7263 Y25.5877
X286.6815 Y25.5381
X286.6552 Y25.5121
X286.6045 Y25.4671
X286.5537 Y25.4281
X286.5451 Y25.422
X286.4901 Y25.3862
X286.435 Y25.3554
X286.394 Y25.3356
X286.353 Y25.318
X286.3249 Y25.3073
X286.2698 Y25.2891
X286.2147 Y25.2746
X286.1597 Y25.2635
X286.1046 Y25.2558
X286.0496 Y25.2513
X285.9945 Y25.25
X263.0889
X262.9788 Y25.2503
X262.9238 Y25.2531
X262.8687 Y25.2591
X262.8136 Y25.2685
X262.7586 Y25.2812
X262.7035 Y25.2975
X262.6484 Y25.3175
X262.6471 Y25.318
X262.5927 Y25.3418
X262.5383 Y25.3697
X262.4923 Y25.3971
X262.4463 Y25.4281
X262.4282 Y25.4414
X262.3734 Y25.486
X262.3185 Y25.5381
X262.3181 Y25.5386
X262.2689 Y25.5934
X262.2267 Y25.6482
X262.2079 Y25.6755
X262.182 Y25.7169
X262.1589 Y25.7583
X262.1323 Y25.8133
X262.1098 Y25.8683
X262.0978 Y25.9024
X262.0762 Y25.9784
X262.0684 Y26.0142
X262.065 Y26.0321
X262.0634 Y26.0411
X262.0627 Y26.0455
X262.0623 Y26.0478
X262.061 Y26.05
X213.0932
X212.9831 Y26.0502
X212.928 Y26.0527
X212.8729 Y26.0585
X212.8179 Y26.0676
X212.7628 Y26.0801
X212.7324 Y26.0885
X212.6925 Y26.1011
X212.6527 Y26.1158
X212.5976 Y26.1394
X212.5426 Y26.1674
X212.4899 Y26.1985
X212.4324 Y26.2382
X212.3905 Y26.2713
X212.3485 Y26.3086
X212.3223 Y26.3342
X212.2833 Y26.3765
X212.2486 Y26.4187
X212.2122 Y26.4691
X212.1751 Y26.5287
X212.146 Y26.5838
X212.1214 Y26.6388
X212.1021 Y26.6898
X212.0838 Y26.7489
X212.0705 Y26.8039
X212.0605 Y26.8589
X212.0539 Y26.914
X212.0505 Y26.969
X212.05 Y27.0791
Y85.0476
X212.0482 Y85.05
X128.9523
X128.95 Y85.0476
Y27.0791
X128.9495 Y26.969
X128.9461 Y26.914
X128.9395 Y26.8589
X128.9295 Y26.8039
X128.9162 Y26.7489
X128.8993 Y26.6938
X128.8786 Y26.6388
X128.8492 Y26.5742
X128.8249 Y26.5287
X128.7909 Y26.4737
X128.7514 Y26.4187
X128.7391 Y26.4032
X128.6983 Y26.3559
X128.6515 Y26.3086
X128.629 Y26.288
X128.5739 Y26.243
X128.5189 Y26.2042
X128.5101 Y26.1985
X128.4594 Y26.1685
X128.4087 Y26.1424
X128.3537 Y26.1183
X128.2986 Y26.0982
X128.2676 Y26.0885
X128.1885 Y26.0689
X128.1334 Y26.0594
X128.0784 Y26.0532
X127.9682 Y26.05
X23.939
X23.9377 Y26.0478
X23.9374 Y26.0455
X23.9366 Y26.0411
X23.935 Y26.0321
X23.9317 Y26.0142
X23.9238 Y25.9784
X23.9022 Y25.9024
X23.8902 Y25.8683
X23.8677 Y25.8133
X23.8411 Y25.7583
X23.818 Y25.7169
X23.7921 Y25.6755
X23.7733 Y25.6482
X23.7311 Y25.5934
X23.6819 Y25.5386
X23.6815 Y25.5381
X23.6266 Y25.486
X23.5718 Y25.4414
X23.5537 Y25.4281
X23.5077 Y25.3971
X23.4617 Y25.3697
X23.4073 Y25.3418
X23.3529 Y25.318
X23.3516 Y25.3175
X23.2965 Y25.2975
X23.2414 Y25.2812
X23.1864 Y25.2685
X23.1313 Y25.2591
X23.0763 Y25.2531
X23.0212 Y25.2503
X22.9111 Y25.25
X0.0055
X-0.0495 Y25.2513
X-0.1046 Y25.2558
X-0.1597 Y25.2635
X-0.2147 Y25.2746
X-0.2698 Y25.2891
X-0.3248 Y25.3073
X-0.3529 Y25.318
X-0.394 Y25.3356
X-0.435 Y25.3554
X-0.49 Y25.3862
X-0.5451 Y25.422
X-0.5537 Y25.4281
X-0.6045 Y25.4671
X-0.6552 Y25.5121
X-0.6815 Y25.5381
X-0.7263 Y25.5877
X-0.7653 Y25.6372
X-0.7733 Y25.6482
X-0.8098 Y25.7032
X-0.8411 Y25.7583
X-0.8755 Y25.8311
X-0.8902 Y25.8683
X-0.9088 Y25.9234
X-0.9238 Y25.9784
X-0.9353 Y26.0334
X-0.9434 Y26.0885
X-0.9483 Y26.1435
X-0.95 Y26.1985
Y128.9999
X-0.9484 Y129.055
X-0.9436 Y129.11
X-0.9356 Y129.165
X-0.9242 Y129.2201
X-0.9093 Y129.2751
X-0.8908 Y129.3301
X-0.8755 Y129.3689
X-0.8418 Y129.4402
X-0.8107 Y129.4952
X-0.7744 Y129.5503
X-0.7653 Y129.5628
X-0.727 Y129.6116
X-0.683 Y129.6603
X-0.6552 Y129.6879
X-0.6055 Y129.732
X-0.5558 Y129.7704
X-0.5451 Y129.778
X-0.49 Y129.8139
X-0.435 Y129.8446
X-0.3959 Y129.8636
X-0.3567 Y129.8805
X-0.3248 Y129.8927
X-0.2698 Y129.9109
X-0.2147 Y129.9254
X-0.1597 Y129.9365
X-0.1046 Y129.9442
X-0.0495 Y129.9487
X0.0055 Y129.95
X43.6755
X80.762
X80.8112 Y129.9565
X80.857 Y129.9755
X80.8964 Y130.0056
X80.9266 Y130.045
X80.9456 Y130.0908
X80.952 Y130.14
X80.9523 Y130.1505
X81.6582 Y142.9077
G3 X79.9045 Y143.2536 I-0.9011 J0.0499
G1 X79.9023 Y143.2473 Z-6.0001 F1200
G3 X79.9656 Y143.3913 Z-6.1926 I0.8547 J-0.2898
X80.053 Y143.5221 Z-6.385 I0.7914 J-0.4338
X80.1617 Y143.6358 Z-6.5774 I0.704 J-0.5646
X80.2886 Y143.7289 Z-6.7699 I0.5953 J-0.6783
X80.4296 Y143.7985 Z-6.9623 I0.4685 J-0.7714
X79.8546 Y142.9641 Z-6.9999 I0.3274 J-0.841
G1 X79.8545 Y142.9575 Z-7
Y142.8575 F3200
G3 X80.762 Y141.95 I0.9075
G1 X127.9682
X128.0784 Y141.9468
X128.1334 Y141.9406
X128.1885 Y141.9311
X128.2435 Y141.9183
X128.2986 Y141.9019
X128.3637 Y141.8776
X128.4087 Y141.8576
X128.4638 Y141.8291
X128.5189 Y141.7958
X128.5598 Y141.7676
X128.5944 Y141.7411
X128.629 Y141.712
X128.6857 Y141.6575
X128.7391 Y141.5969
X128.7764 Y141.5474
X128.8124 Y141.4924
X128.8433 Y141.4374
X128.8492 Y141.4258
X128.8722 Y141.3766
X128.8918 Y141.3273
X128.9101 Y141.2723
X128.9248 Y141.2172
X128.9361 Y141.1622
X128.9439 Y141.1072
X128.9486 Y141.0521
X128.95 Y140.9971
Y129.9513
X128.9523 Y129.95
X157.0477
X157.05 Y129.9513
Y140.9971
X157.0514 Y141.0521
X157.0561 Y141.1072
X157.0639 Y141.1622
X157.0752 Y141.2172
X157.0899 Y141.2723
X157.1082 Y141.3273
X157.1278 Y141.3766
X157.1508 Y141.4258
X157.1567 Y141.4374
X157.1876 Y141.4924
X157.2236 Y141.5474
X157.2609 Y141.5969
X157.3143 Y141.6575
X157.371 Y141.712
X157.4056 Y141.7411
X157.4402 Y141.7676
X157.4812 Y141.7958
X157.5362 Y141.8291
X157.5913 Y141.8576
X157.6363 Y141.8776
X157.7014 Y141.9019
X157.7565 Y141.9183
X157.8115 Y141.9311
X157.8666 Y141.9406
X157.9216 Y141.9468
X158.0318 Y141.95
X285.9945
X286.0496 Y141.9487
X286.1046 Y141.9442
X286.1597 Y141.9365
X286.2147 Y141.9254
X286.2698 Y141.9109
X286.3249 Y141.8927
X286.3637 Y141.8776
X286.435 Y141.8446
X286.4901 Y141.8139
X286.5451 Y141.7781
X286.5598 Y141.7676
X286.6075 Y141.7304
X286.6552 Y141.6879
X286.6857 Y141.6575
X286.7282 Y141.6102
X286.7654 Y141.5628
X286.7764 Y141.5474
X286.8124 Y141.4924
X286.8434 Y141.4374
X286.8755 Y141.3689
X286.8918 Y141.3273
X286.9102 Y141.2723
X286.9248 Y141.2172
X286.9361 Y141.1622
X286.9439 Y141.1072
X286.9486 Y141.0521
X286.95 Y140.9971
Y76.0583
X286.9486 Y75.9483
X286.944 Y75.8932
X286.9361 Y75.8382
X286.9249 Y75.7832
X286.9103 Y75.7281
X286.8944 Y75.6796
X286.8755 Y75.6311
X286.8699 Y75.6181
X286.8436 Y75.563
X286.8127 Y75.508
X286.7902 Y75.4726
X286.7654 Y75.4372
X286.7349 Y75.3979
X286.6975 Y75.355
X286.6552 Y75.3121
X286.6288 Y75.2879
X286.5869 Y75.253
X286.5451 Y75.2219
X286.476 Y75.1778
X286.435 Y75.1554
X286.3799 Y75.1292
X286.3249 Y75.1072
X286.2698 Y75.0891
X286.2147 Y75.0746
X286.1828 Y75.0677
X286.1046 Y75.0558
X286.0496 Y75.0513
X285.9945 Y75.05
X271.0178
X270.9077 Y75.0485
X270.7975 Y75.0431
X270.6874 Y75.0336
X270.5773 Y75.02
X270.4672 Y75.0029
X270.3571 Y74.9815
X270.2568 Y74.9577
X270.2469 Y74.9551
X270.1368 Y74.9245
X270.0267 Y74.8907
X269.9166 Y74.8505
X269.9091 Y74.8476
X269.8064 Y74.8067
X269.6963 Y74.7572
X269.6557 Y74.7375
X269.5862 Y74.702
X269.4761 Y74.6418
X269.4519 Y74.6275
X269.3659 Y74.5749
X269.2784 Y74.5174
X269.2558 Y74.5017
X269.1457 Y74.4214
X269.1278 Y74.4073
X269.0356 Y74.3327
X268.9941 Y74.2973
X268.9254 Y74.2357
X268.8748 Y74.1872
X268.8153 Y74.1278
X268.7668 Y74.0771
X268.7052 Y74.0087
X268.6696 Y73.9671
X268.5951 Y73.8753
X268.5807 Y73.857
X268.5002 Y73.7469
X268.485 Y73.725
X268.4269 Y73.6369
X268.3748 Y73.552
X268.3599 Y73.5268
X268.2996 Y73.4167
X268.2647 Y73.3487
X268.2442 Y73.3067
X268.1946 Y73.1966
X268.1546 Y73.0964
X268.1508 Y73.0865
X268.1104 Y72.9765
X268.0764 Y72.8664
X268.0457 Y72.7564
X268.0445 Y72.7516
X268.0193 Y72.6463
X267.9977 Y72.5362
X267.9804 Y72.4262
X267.9667 Y72.3161
X267.9571 Y72.206
X267.9516 Y72.096
X267.95 Y71.9859
Y39.0762
X267.9504 Y38.9662
X267.9536 Y38.8561
X267.9608 Y38.746
X267.9721 Y38.636
X267.9876 Y38.5259
X268.0066 Y38.4158
X268.0302 Y38.3058
X268.0445 Y38.2484
X268.0587 Y38.1957
X268.0907 Y38.0856
X268.1272 Y37.9756
X268.1546 Y37.9035
X268.1695 Y37.8655
X268.2157 Y37.7554
X268.2647 Y37.6513
X268.2677 Y37.6454
X268.3248 Y37.5353
X268.3748 Y37.448
X268.3883 Y37.4252
X268.4582 Y37.3152
X268.485 Y37.275
X268.5341 Y37.2051
X268.5951 Y37.1247
X268.6185 Y37.0951
X268.7052 Y36.9912
X268.7105 Y36.985
X268.8127 Y36.8749
X268.8153 Y36.8722
X268.9249 Y36.7649
X268.9254 Y36.7643
X269.0356 Y36.6673
X269.0507 Y36.6548
X269.1457 Y36.5786
X269.1907 Y36.5447
X269.2558 Y36.4983
X269.3509 Y36.4347
X269.3659 Y36.4251
X269.4761 Y36.3582
X269.5357 Y36.3246
X269.5862 Y36.298
X269.6963 Y36.2428
X269.7581 Y36.2145
X269.8064 Y36.1933
X269.9166 Y36.1496
X270.0267 Y36.1093
X270.042 Y36.1045
X270.1368 Y36.0755
X270.2469 Y36.0448
X270.3571 Y36.0185
X270.4672 Y35.9971
X270.484 Y35.9944
X270.5773 Y35.98
X270.6874 Y35.9663
X270.7975 Y35.9569
X270.9077 Y35.9515
X271.0178 Y35.95
X285.9945
X286.0496 Y35.9487
X286.1046 Y35.9442
X286.1597 Y35.9365
X286.2147 Y35.9254
X286.2698 Y35.9109
X286.3249 Y35.8927
X286.3471 Y35.8843
X286.391 Y35.8658
X286.435 Y35.8446
X286.4901 Y35.8139
X286.5451 Y35.778
X286.5505 Y35.7743
X286.6028 Y35.7342
X286.6552 Y35.6879
X286.6792 Y35.6642
X286.7253 Y35.6135
X286.7654 Y35.5628
X286.7717 Y35.5541
X286.8083 Y35.4991
X286.8398 Y35.4441
X286.8587 Y35.4065
X286.8755 Y35.3689
X286.8894 Y35.334
X286.9081 Y35.279
X286.9232 Y35.2239
X286.9349 Y35.1689
X286.9432 Y35.1139
X286.9482 Y35.0588
X286.95 Y35.0038
Y34.7837
Y26.1985
X286.9483 Y26.1435
X286.9435 Y26.0885
X286.9353 Y26.0334
X286.9238 Y25.9784
X286.9088 Y25.9234
X286.8902 Y25.8683
X286.8755 Y25.8311
X286.8411 Y25.7583
X286.8098 Y25.7032
X286.7733 Y25.6482
X286.7654 Y25.6372
X286.7263 Y25.5877
X286.6815 Y25.5381
X286.6552 Y25.5121
X286.6045 Y25.4671
X286.5537 Y25.4281
X286.5451 Y25.422
X286.4901 Y25.3862
X286.435 Y25.3554
X286.394 Y25.3356
X286.353 Y25.318
X286.3249 Y25.3073
X286.2698 Y25.2891
X286.2147 Y25.2746
X286.1597 Y25.2635
X286.1046 Y25.2558
X286.0496 Y25.2513
X285.9945 Y25.25
X263.0889
X262.9788 Y25.2503
X262.9238 Y25.2531
X262.8687 Y25.2591
X262.8136 Y25.2685
X262.7586 Y25.2812
X262.7035 Y25.2975
X262.6484 Y25.3175
X262.6471 Y25.318
X262.5927 Y25.3418
X262.5383 Y25.3697
X262.4923 Y25.3971
X262.4463 Y25.4281
X262.4282 Y25.4414
X262.3734 Y25.486
X262.3185 Y25.5381
X262.3181 Y25.5386
X262.2689 Y25.5934
X262.2267 Y25.6482
X262.2079 Y25.6755
X262.182 Y25.7169
X262.1589 Y25.7583
X262.1323 Y25.8133
X262.1098 Y25.8683
X262.0978 Y25.9024
X262.0762 Y25.9784
X262.0684 Y26.0142
X262.065 Y26.0321
X262.0634 Y26.0411
X262.0627 Y26.0455
X262.0623 Y26.0478
X262.061 Y26.05
X213.0932
X212.9831 Y26.0502
X212.928 Y26.0527
X212.8729 Y26.0585
X212.8179 Y26.0676
X212.7628 Y26.0801
X212.7324 Y26.0885
X212.6925 Y26.1011
X212.6527 Y26.1158
X212.5976 Y26.1394
X212.5426 Y26.1674
X212.4899 Y26.1985
X212.4324 Y26.2382
X212.3905 Y26.2713
X212.3485 Y26.3086
X212.3223 Y26.3342
X212.2833 Y26.3765
X212.2486 Y26.4187
X212.2122 Y26.4691
X212.1751 Y26.5287
X212.146 Y26.5838
X212.1214 Y26.6388
X212.1021 Y26.6898
X212.0838 Y26.7489
X212.0705 Y26.8039
X212.0605 Y26.8589
X212.0539 Y26.914
X212.0505 Y26.969
X212.05 Y27.0791
Y85.0476
X212.0482 Y85.05
X128.9523
X128.95 Y85.0476
Y27.0791
X128.9495 Y26.969
X128.9461 Y26.914
X128.9395 Y26.8589
X128.9295 Y26.8039
X128.9162 Y26.7489
X128.8993 Y26.6938
X128.8786 Y26.6388
X128.8492 Y26.5742
X128.8249 Y26.5287
X128.7909 Y26.4737
X128.7514 Y26.4187
X128.7391 Y26.4032
X128.6983 Y26.3559
X128.6515 Y26.3086
X128.629 Y26.288
X128.5739 Y26.243
X128.5189 Y26.2042
X128.5101 Y26.1985
X128.4594 Y26.1685
X128.4087 Y26.1424
X128.3537 Y26.1183
X128.2986 Y26.0982
X128.2676 Y26.0885
X128.1885 Y26.0689
X128.1334 Y26.0594
X128.0784 Y26.0532
X127.9682 Y26.05
X23.939
X23.9377 Y26.0478
X23.9374 Y26.0455
X23.9366 Y26.0411
X23.935 Y26.0321
X23.9317 Y26.0142
X23.9238 Y25.9784
X23.9022 Y25.9024
X23.8902 Y25.8683
X23.8677 Y25.8133
X23.8411 Y25.7583
X23.818 Y25.7169
X23.7921 Y25.6755
X23.7733 Y25.6482
X23.7311 Y25.5934
X23.6819 Y25.5386
X23.6815 Y25.5381
X23.6266 Y25.486
X23.5718 Y25.4414
X23.5537 Y25.4281
X23.5077 Y25.3971
X23.4617 Y25.3697
X23.4073 Y25.3418
X23.3529 Y25.318
X23.3516 Y25.3175
X23.2965 Y25.2975
X23.2414 Y25.2812
X23.1864 Y25.2685
X23.1313 Y25.2591
X23.0763 Y25.2531
X23.0212 Y25.2503
X22.9111 Y25.25
X0.0055
X-0.0495 Y25.2513
X-0.1046 Y25.2558
X-0.1597 Y25.2635
X-0.2147 Y25.2746
X-0.2698 Y25.2891
X-0.3248 Y25.3073
X-0.3529 Y25.318
X-0.394 Y25.3356
X-0.435 Y25.3554
X-0.49 Y25.3862
X-0.5451 Y25.422
X-0.5537 Y25.4281
X-0.6045 Y25.4671
X-0.6552 Y25.5121
X-0.6815 Y25.5381
X-0.7263 Y25.5877
X-0.7653 Y25.6372
X-0.7733 Y25.6482
X-0.8098 Y25.7032
X-0.8411 Y25.7583
X-0.8755 Y25.8311
X-0.8902 Y25.8683
X-0.9088 Y25.9234
X-0.9238 Y25.9784
X-0.9353 Y26.0334
X-0.9434 Y26.0885
X-0.9483 Y26.1435
X-0.95 Y26.1985
Y140.9971
X-0.9486 Y141.0521
X-0.9439 Y141.1072
X-0.9361 Y141.1622
X-0.9248 Y141.2172
X-0.9101 Y141.2723
X-0.8918 Y141.3273
X-0.8755 Y141.3689
X-0.8433 Y141.4374
X-0.8124 Y141.4924
X-0.7764 Y141.5474
X-0.7653 Y141.5628
X-0.7282 Y141.6102
X-0.6857 Y141.6575
X-0.6552 Y141.6879
X-0.6075 Y141.7304
X-0.5598 Y141.7676
X-0.5451 Y141.7781
X-0.49 Y141.8139
X-0.435 Y141.8446
X-0.3637 Y141.8776
X-0.3248 Y141.8927
X-0.2698 Y141.9109
X-0.2147 Y141.9254
X-0.1597 Y141.9365
X-0.1046 Y141.9442
X-0.0495 Y141.9487
X0.0055 Y141.95
X80.762
X80.9556 Z-7.0001
X81.1492 Z-7.0004
X81.3428 Z-7.0008
X81.5363 Z-7.0015
X81.7299 Z-7.0023
X81.9235 Z-7.0033
X82.1171 Z-7.0045
X82.3106 Z-7.0058
X82.5042 Z-7.0073
X82.6978 Z-7.009
X82.8914 Z-7.0109
X83.0849 Z-7.0129
X83.2785 Z-7.0151
X83.4721 Z-7.0174
X83.6657 Z-7.0199
X83.8592 Z-7.0225
X84.0528 Z-7.0253
X84.2464 Z-7.0283
X84.44 Z-7.0314
X84.6335 Z-7.0347
X84.8271 Z-7.0381
X85.0207 Z-7.0416
X85.2143 Z-7.0453
X85.4078 Z-7.0491
X85.6014 Z-7.0531
X85.795 Z-7.0572
X85.9886 Z-7.0614
X86.1821 Z-7.0658
X86.3757 Z-7.0702
X86.5693 Z-7.0749
X86.7629 Z-7.0796
X86.9564 Z-7.0845
X87.15 Z-7.0894
X87.2468 Z-7.092
X87.3436 Z-7.0945
X87.4404 Z-7.0971
X87.5372 Z-7.0997
X87.6339 Z-7.1024
X87.7307 Z-7.1051
X87.8275 Z-7.1078
X87.9243 Z-7.1105
X88.0211 Z-7.1133
X88.1179 Z-7.1161
X88.2147 Z-7.1189
X88.3115 Z-7.1217
X88.4082 Z-7.1246
X88.505 Z-7.1275
X88.6018 Z-7.1304
X88.6986 Z-7.1334
X88.7954 Z-7.1363
X88.8922 Z-7.1393
X88.989 Z-7.1423
X89.0858 Z-7.1454
X89.1825 Z-7.1485
X89.2793 Z-7.1516
X89.3761 Z-7.1547
X89.4729 Z-7.1578
X89.5697 Z-7.161
X89.6665 Z-7.1642
X89.7633 Z-7.1674
X89.8601 Z-7.1706
X89.9568 Z-7.1739
X90.0536 Z-7.1772
X90.1504 Z-7.1805
X90.2472 Z-7.1838
X90.344 Z-7.1871
X90.5376 Z-7.1939
X90.6344 Z-7.1972
X90.7311 Z-7.2006
X90.8279 Z-7.204
X90.9247 Z-7.2074
X91.0215 Z-7.2108
X91.1183 Z-7.2141
X91.2151 Z-7.2175
X91.3119 Z-7.2209
X91.4086 Z-7.2243
X91.5054 Z-7.2277
X91.6022 Z-7.231
X91.699 Z-7.2344
X91.8926 Z-7.2412
X92.1829 Z-7.2513
X92.4733 Z-7.2614
X92.7637 Z-7.2716
X93.054 Z-7.2817
X93.3444 Z-7.2919
X93.6348 Z-7.302
X93.9251 Z-7.3121
X94.2155 Z-7.3223
X94.5058 Z-7.3324
X94.7962 Z-7.3426
X95.2801 Z-7.3595
X95.7641 Z-7.3764
X96.248 Z-7.3933
X96.9255 Z-7.4169
X97.7966 Z-7.4473
X99.2484 Z-7.498
X106.2171 Z-7.7413
X106.5075 Z-7.7515
X106.7978 Z-7.7616
X106.8946 Z-7.765
X106.9914 Z-7.7684
X107.0882 Z-7.7717
X107.185 Z-7.7751
X107.2818 Z-7.7785
X107.3786 Z-7.7819
X107.4753 Z-7.7853
X107.5721 Z-7.7886
X107.6689 Z-7.792
X107.7657 Z-7.7954
X107.8625 Z-7.7988
X107.9593 Z-7.8022
X108.0561 Z-7.8055
X108.1529 Z-7.8089
X108.2496 Z-7.8123
X108.3464 Z-7.8156
X108.4432 Z-7.819
X108.54 Z-7.8223
X108.6368 Z-7.8255
X108.7336 Z-7.8288
X108.8304 Z-7.832
X108.9272 Z-7.8353
X109.0239 Z-7.8385
X109.1207 Z-7.8416
X109.2175 Z-7.8448
X109.3143 Z-7.8479
X109.4111 Z-7.851
X109.5079 Z-7.8541
X109.6047 Z-7.8571
X109.7015 Z-7.8601
X109.7982 Z-7.8631
X109.895 Z-7.8661
X109.9918 Z-7.8691
X110.0886 Z-7.872
X110.1854 Z-7.8749
X110.2822 Z-7.8778
X110.379 Z-7.8806
X110.4758 Z-7.8834
X110.5725 Z-7.8862
X110.6693 Z-7.889
X110.7661 Z-7.8917
X110.8629 Z-7.8945
X110.9597 Z-7.8971
X111.0565 Z-7.8998
X111.1533 Z-7.9024
X111.2501 Z-7.905
X111.3468 Z-7.9076
X111.4436 Z-7.9101
X111.5404 Z-7.9126
X111.734 Z-7.9176
X111.9276 Z-7.9224
X112.1211 Z-7.9271
X112.3147 Z-7.9316
X112.5083 Z-7.9361
X112.7019 Z-7.9404
X112.8954 Z-7.9445
X113.089 Z-7.9486
X113.2826 Z-7.9525
X113.4762 Z-7.9562
X113.6697 Z-7.9599
X113.8633 Z-7.9634
X114.0569 Z-7.9667
X114.2505 Z-7.9699
X114.444 Z-7.9729
X114.6376 Z-7.9758
X114.8312 Z-7.9786
X115.0248 Z-7.9812
X115.2183 Z-7.9836
X115.4119 Z-7.9859
X115.6055 Z-7.988
X115.7991 Z-7.9899
X115.9926 Z-7.9917
X116.1862 Z-7.9933
X116.3798 Z-7.9948
X116.5734 Z-7.996
X116.7669 Z-7.9971
X116.9605 Z-7.9981
X117.1541 Z-7.9988
X117.3477 Z-7.9994
X117.5412 Z-7.9998
X117.7348 Z-8
X117.8486
X127.9682
X128.0784 Y141.9468
X128.1334 Y141.9406
X128.1885 Y141.9311
X128.2435 Y141.9183
X128.2986 Y141.9019
X128.3637 Y141.8776
X128.4087 Y141.8576
X128.4638 Y141.8291
X128.5189 Y141.7958
X128.5598 Y141.7676
X128.5944 Y141.7411
X128.629 Y141.712
X128.6857 Y141.6575
X128.7391 Y141.5969
X128.7764 Y141.5474
X128.8124 Y141.4924
X128.8433 Y141.4374
X128.8492 Y141.4258
X128.8722 Y141.3766
X128.8918 Y141.3273
X128.9101 Y141.2723
X128.9248 Y141.2172
X128.9361 Y141.1622
X128.9439 Y141.1072
X128.9486 Y141.0521
X128.95 Y140.9971
Y129.9513
X128.9523 Y129.95
X157.0477
X157.05 Y129.9513
Y140.9971
X157.0514 Y141.0521
X157.0561 Y141.1072
X157.0639 Y141.1622
X157.0752 Y141.2172
X157.0899 Y141.2723
X157.1082 Y141.3273
X157.1278 Y141.3766
X157.1508 Y141.4258
X157.1567 Y141.4374
X157.1876 Y141.4924
X157.2236 Y141.5474
X157.2609 Y141.5969
X157.3143 Y141.6575
X157.371 Y141.712
X157.4056 Y141.7411
X157.4402 Y141.7676
X157.4812 Y141.7958
X157.5362 Y141.8291
X157.5913 Y141.8576
X157.6363 Y141.8776
X157.7014 Y141.9019
X157.7565 Y141.9183
X157.8115 Y141.9311
X157.8666 Y141.9406
X157.9216 Y141.9468
X158.0318 Y141.95
X285.9945
X286.0496 Y141.9487
X286.1046 Y141.9442
X286.1597 Y141.9365
X286.2147 Y141.9254
X286.2698 Y141.9109
X286.3249 Y141.8927
X286.3637 Y141.8776
X286.435 Y141.8446
X286.4901 Y141.8139
X286.5451 Y141.7781
X286.5598 Y141.7676
X286.6075 Y141.7304
X286.6552 Y141.6879
X286.6857 Y141.6575
X286.7282 Y141.6102
X286.7654 Y141.5628
X286.7764 Y141.5474
X286.8124 Y141.4924
X286.8434 Y141.4374
X286.8755 Y141.3689
X286.8918 Y141.3273
X286.9102 Y141.2723
X286.9248 Y141.2172
X286.9361 Y141.1622
X286.9439 Y141.1072
X286.9486 Y141.0521
X286.95 Y140.9971
Y76.0583
X286.9486 Y75.9483
X286.944 Y75.8932
X286.9361 Y75.8382
X286.9249 Y75.7832
X286.9103 Y75.7281
X286.8944 Y75.6796
X286.8755 Y75.6311
X286.8699 Y75.6181
X286.8436 Y75.563
X286.8127 Y75.508
X286.7902 Y75.4726
X286.7654 Y75.4372
X286.7349 Y75.3979
X286.6975 Y75.355
X286.6552 Y75.3121
X286.6288 Y75.2879
X286.5869 Y75.253
X286.5451 Y75.2219
X286.476 Y75.1778
X286.435 Y75.1554
X286.3799 Y75.1292
X286.3249 Y75.1072
X286.2698 Y75.0891
X286.2147 Y75.0746
X286.1828 Y75.0677
X286.1046 Y75.0558
X286.0496 Y75.0513
X285.9945 Y75.05
X271.0178
X270.9077 Y75.0485
X270.7975 Y75.0431
X270.6874 Y75.0336
X270.5773 Y75.02
X270.4672 Y75.0029
X270.3571 Y74.9815
X270.2568 Y74.9577
X270.2469 Y74.9551
X270.1368 Y74.9245
X270.0267 Y74.8907
X269.9166 Y74.8505
X269.9091 Y74.8476
X269.8064 Y74.8067
X269.6963 Y74.7572
X269.6557 Y74.7375
X269.5862 Y74.702
X269.4761 Y74.6418
X269.4519 Y74.6275
X269.3659 Y74.5749
X269.2784 Y74.5174
X269.2558 Y74.5017
X269.1457 Y74.4214
X269.1278 Y74.4073
X269.0356 Y74.3327
X268.9941 Y74.2973
X268.9254 Y74.2357
X268.8748 Y74.1872
X268.8153 Y74.1278
X268.7668 Y74.0771
X268.7052 Y74.0087
X268.6696 Y73.9671
X268.5951 Y73.8753
X268.5807 Y73.857
X268.5002 Y73.7469
X268.485 Y73.725
X268.4269 Y73.6369
X268.3748 Y73.552
X268.3599 Y73.5268
X268.2996 Y73.4167
X268.2647 Y73.3487
X268.2442 Y73.3067
X268.1946 Y73.1966
X268.1546 Y73.0964
X268.1508 Y73.0865
X268.1104 Y72.9765
X268.0764 Y72.8664
X268.0457 Y72.7564
X268.0445 Y72.7516
X268.0193 Y72.6463
X267.9977 Y72.5362
X267.9804 Y72.4262
X267.9667 Y72.3161
X267.9571 Y72.206
X267.9516 Y72.096
X267.95 Y71.9859
Y39.0762
X267.9504 Y38.9662
X267.9536 Y38.8561
X267.9608 Y38.746
X267.9721 Y38.636
X267.9876 Y38.5259
X268.0066 Y38.4158
X268.0302 Y38.3058
X268.0445 Y38.2484
X268.0587 Y38.1957
X268.0907 Y38.0856
X268.1272 Y37.9756
X268.1546 Y37.9035
X268.1695 Y37.8655
X268.2157 Y37.7554
X268.2647 Y37.6513
X268.2677 Y37.6454
X268.3248 Y37.5353
X268.3748 Y37.448
X268.3883 Y37.4252
X268.4582 Y37.3152
X268.485 Y37.275
X268.5341 Y37.2051
X268.5951 Y37.1247
X268.6185 Y37.0951
X268.7052 Y36.9912
X268.7105 Y36.985
X268.8127 Y36.8749
X268.8153 Y36.8722
X268.9249 Y36.7649
X268.9254 Y36.7643
X269.0356 Y36.6673
X269.0507 Y36.6548
X269.1457 Y36.5786
X269.1907 Y36.5447
X269.2558 Y36.4983
X269.3509 Y36.4347
X269.3659 Y36.4251
X269.4761 Y36.3582
X269.5357 Y36.3246
X269.5862 Y36.298
X269.6963 Y36.2428
X269.7581 Y36.2145
X269.8064 Y36.1933
X269.9166 Y36.1496
X270.0267 Y36.1093
X270.042 Y36.1045
X270.1368 Y36.0755
X270.2469 Y36.0448
X270.3571 Y36.0185
X270.4672 Y35.9971
X270.484 Y35.9944
X270.5773 Y35.98
X270.6874 Y35.9663
X270.7975 Y35.9569
X270.9077 Y35.9515
X271.0178 Y35.95
X285.9945
X286.0496 Y35.9487
X286.1046 Y35.9442
X286.1597 Y35.9365
X286.2147 Y35.9254
X286.2698 Y35.9109
X286.3249 Y35.8927
X286.3471 Y35.8843
X286.391 Y35.8658
X286.435 Y35.8446
X286.4901 Y35.8139
X286.5451 Y35.778
X286.5505 Y35.7743
X286.6028 Y35.7342
X286.6552 Y35.6879
X286.6792 Y35.6642
X286.7253 Y35.6135
X286.7654 Y35.5628
X286.7717 Y35.5541
X286.8083 Y35.4991
X286.8398 Y35.4441
X286.8587 Y35.4065
X286.8755 Y35.3689
X286.8894 Y35.334
X286.9081 Y35.279
X286.9232 Y35.2239
X286.9349 Y35.1689
X286.9432 Y35.1139
X286.9482 Y35.0588
X286.95 Y35.0038
Y34.7837
Y6.0565
X286.9485 Y5.9464
X286.9438 Y5.8914
X286.9358 Y5.8364
X286.9245 Y5.7813
X286.9097 Y5.7263
X286.894 Y5.6787
X286.8755 Y5.6311
X286.869 Y5.6162
X286.8426 Y5.5612
X286.8116 Y5.5062
X286.7896 Y5.4717
X286.7654 Y5.4372
X286.7334 Y5.3961
X286.6967 Y5.3541
X286.6552 Y5.3121
X286.6267 Y5.2861
X286.5859 Y5.2522
X286.5451 Y5.2219
X286.5089 Y5.1978
X286.4728 Y5.176
X286.435 Y5.1554
X286.3799 Y5.1293
X286.3249 Y5.1073
X286.2698 Y5.0891
X286.2147 Y5.0746
X286.1733 Y5.0659
X286.1046 Y5.0558
X286.0496 Y5.0513
X285.9945 Y5.05
X263.0889
X262.9788 Y5.0502
X262.9238 Y5.053
X262.8687 Y5.0591
X262.8267 Y5.0659
X262.7586 Y5.0812
X262.7035 Y5.0974
X262.6484 Y5.1174
X262.5934 Y5.1414
X262.5383 Y5.1697
X262.5272 Y5.176
X262.4777 Y5.2064
X262.4282 Y5.2413
X262.3733 Y5.2861
X262.3181 Y5.3386
X262.2666 Y5.3961
X262.2357 Y5.4358
X262.2079 Y5.4754
X262.1884 Y5.5062
X262.1574 Y5.5612
X262.131 Y5.6162
X262.1132 Y5.6593
X262.0978 Y5.7023
X262.0903 Y5.7263
X262.0755 Y5.7813
X262.0642 Y5.8364
X262.0562 Y5.8914
X262.0515 Y5.9464
X262.05 Y6.0565
Y26.0478
X262.0481 Y26.05
X213.0932
X212.9831 Y26.0502
X212.928 Y26.0527
X212.8729 Y26.0585
X212.8179 Y26.0676
X212.7628 Y26.0801
X212.7324 Y26.0885
X212.6925 Y26.1011
X212.6527 Y26.1158
X212.5976 Y26.1394
X212.5426 Y26.1674
X212.4899 Y26.1985
X212.4324 Y26.2382
X212.3905 Y26.2713
X212.3485 Y26.3086
X212.3223 Y26.3342
X212.2833 Y26.3765
X212.2486 Y26.4187
X212.2122 Y26.4691
X212.1751 Y26.5287
X212.146 Y26.5838
X212.1214 Y26.6388
X212.1021 Y26.6898
X212.0838 Y26.7489
X212.0705 Y26.8039
X212.0605 Y26.8589
X212.0539 Y26.914
X212.0505 Y26.969
X212.05 Y27.0791
Y85.0476
X212.0482 Y85.05
X128.9523
X128.95 Y85.0476
Y27.0791
X128.9495 Y26.969
X128.9461 Y26.914
X128.9395 Y26.8589
X128.9295 Y26.8039
X128.9162 Y26.7489
X128.8993 Y26.6938
X128.8786 Y26.6388
X128.8492 Y26.5742
X128.8249 Y26.5287
X128.7909 Y26.4737
X128.7514 Y26.4187
X128.7391 Y26.4032
X128.6983 Y26.3559
X128.6515 Y26.3086
X128.629 Y26.288
X128.5739 Y26.243
X128.5189 Y26.2042
X128.5101 Y26.1985
X128.4594 Y26.1685
X128.4087 Y26.1424
X128.3537 Y26.1183
X128.2986 Y26.0982
X128.2676 Y26.0885
X128.1885 Y26.0689
X128.1334 Y26.0594
X128.0784 Y26.0532
X127.9682 Y26.05
X23.9519
X23.95 Y26.0478
Y6.0565
X23.9485 Y5.9464
X23.9438 Y5.8914
X23.9358 Y5.8364
X23.9245 Y5.7813
X23.9097 Y5.7263
X23.9022 Y5.7024
X23.8868 Y5.6593
X23.869 Y5.6162
X23.8426 Y5.5612
X23.8116 Y5.5062
X23.7921 Y5.4754
X23.7643 Y5.4358
X23.7334 Y5.3961
X23.6819 Y5.3386
X23.6267 Y5.2861
X23.5718 Y5.2413
X23.5223 Y5.2064
X23.4728 Y5.176
X23.4617 Y5.1697
X23.4066 Y5.1414
X23.3516 Y5.1174
X23.2965 Y5.0974
X23.2414 Y5.0812
X23.1733 Y5.0659
X23.1313 Y5.0591
X23.0763 Y5.0531
X23.0212 Y5.0502
X22.9111 Y5.05
X0.0055
X-0.0495 Y5.0513
X-0.1046 Y5.0558
X-0.1733 Y5.0659
X-0.2147 Y5.0746
X-0.2698 Y5.0891
X-0.3248 Y5.1073
X-0.3799 Y5.1293
X-0.435 Y5.1554
X-0.4728 Y5.176
X-0.5089 Y5.1978
X-0.5451 Y5.2219
X-0.5859 Y5.2522
X-0.6267 Y5.2861
X-0.6552 Y5.3121
X-0.6967 Y5.3541
X-0.7334 Y5.3961
X-0.7653 Y5.4372
X-0.7896 Y5.4717
X-0.8116 Y5.5062
X-0.8426 Y5.5612
X-0.869 Y5.6162
X-0.8755 Y5.6311
X-0.894 Y5.6787
X-0.9097 Y5.7263
X-0.9245 Y5.7813
X-0.9358 Y5.8364
X-0.9438 Y5.8914
X-0.9485 Y5.9464
X-0.95 Y6.0565
Y140.9971
X-0.9486 Y141.0521
X-0.9439 Y141.1072
X-0.9361 Y141.1622
X-0.9248 Y141.2172
X-0.9101 Y141.2723
X-0.8918 Y141.3273
X-0.8755 Y141.3689
X-0.8433 Y141.4374
X-0.8124 Y141.4924
X-0.7764 Y141.5474
X-0.7653 Y141.5628
X-0.7282 Y141.6102
X-0.6857 Y141.6575
X-0.6552 Y141.6879
X-0.6075 Y141.7304
X-0.5598 Y141.7676
X-0.5451 Y141.7781
X-0.49 Y141.8139
X-0.435 Y141.8446
X-0.3637 Y141.8776
X-0.3248 Y141.8927
X-0.2698 Y141.9109
X-0.2147 Y141.9254
X-0.1597 Y141.9365
X-0.1046 Y141.9442
X-0.0495 Y141.9487
X0.0055 Y141.95
X80.762
X117.8486
X118.0422 Z-8.0001
X118.2358 Z-8.0004
X118.4293 Z-8.0008
X118.6229 Z-8.0015
X118.8165 Z-8.0023
X119.0101 Z-8.0033
X119.2036 Z-8.0045
X119.3972 Z-8.0058
X119.5908 Z-8.0073
X119.7844 Z-8.009
X119.9779 Z-8.0109
X120.1715 Z-8.0129
X120.3651 Z-8.0151
X120.5587 Z-8.0174
X120.7522 Z-8.0199
X120.9458 Z-8.0225
X121.1394 Z-8.0253
X121.3329 Z-8.0283
X121.5265 Z-8.0314
X121.7201 Z-8.0347
X121.9137 Z-8.0381
X122.1072 Z-8.0416
X122.3008 Z-8.0453
X122.4944 Z-8.0491
X122.688 Z-8.0531
X122.8815 Z-8.0572
X123.0751 Z-8.0614
X123.2687 Z-8.0658
X123.4623 Z-8.0702
X123.6558 Z-8.0749
X123.8494 Z-8.0796
X124.043 Z-8.0845
X124.2366 Z-8.0894
X124.3334 Z-8.092
X124.4301 Z-8.0945
X124.5269 Z-8.0971
X124.6237 Z-8.0997
X124.7205 Z-8.1024
X124.8173 Z-8.1051
X124.9141 Z-8.1078
X125.0109 Z-8.1105
X125.1077 Z-8.1133
X125.2044 Z-8.1161
X125.3012 Z-8.1189
X125.398 Z-8.1217
X125.4948 Z-8.1246
X125.5916 Z-8.1275
X125.6884 Z-8.1304
X125.7852 Z-8.1334
X125.882 Z-8.1363
X125.9787 Z-8.1393
X126.0755 Z-8.1424
X126.1723 Z-8.1454
X126.2691 Z-8.1485
X126.3659 Z-8.1516
X126.4627 Z-8.1547
X126.5595 Z-8.1578
X126.6563 Z-8.161
X126.753 Z-8.1642
X126.8498 Z-8.1674
X126.9466 Z-8.1706
X127.0434 Z-8.1739
X127.1402 Z-8.1772
X127.237 Z-8.1805
X127.3338 Z-8.1838
X127.4305 Z-8.1871
X127.6241 Z-8.1939
X127.7209 Z-8.1972
X127.8177 Z-8.2006
X127.9145 Z-8.204
X128.0113 Y141.9499 Z-8.2074
X128.0597 Y141.9481 Z-8.2091
X128.1079 Y141.9439 Z-8.2108
X128.1558 Y141.9371 Z-8.2124
X128.2033 Y141.928 Z-8.2141
X128.2503 Y141.9164 Z-8.2158
X128.2967 Y141.9025 Z-8.2175
X128.3422 Y141.8862 Z-8.2192
X128.3869 Y141.8676 Z-8.2209
X128.4306 Y141.8468 Z-8.2226
X128.4732 Y141.8238 Z-8.2243
X128.5145 Y141.7986 Z-8.2259
X128.5545 Y141.7714 Z-8.2276
X128.5931 Y141.7421 Z-8.2293
X128.6301 Y141.711 Z-8.231
X128.6655 Y141.6779 Z-8.2327
X128.6992 Y141.6432 Z-8.2344
X128.731 Y141.6067 Z-8.2361
X128.761 Y141.5687 Z-8.2378
X128.7889 Y141.5292 Z-8.2394
X128.8149 Y141.4884 Z-8.2411
X128.8387 Y141.4462 Z-8.2428
X128.8603 Y141.4029 Z-8.2445
X128.8797 Y141.3586 Z-8.2462
X128.8969 Y141.3133 Z-8.2479
X128.9116 Y141.2672 Z-8.2496
X128.9241 Y141.2205 Z-8.2512
X128.9341 Y141.1731 Z-8.2529
X128.9417 Y141.1253 Z-8.2546
X128.9469 Y141.0772 Z-8.2563
X128.9496 Y141.0289 Z-8.258
X128.95 Y140.9321 Z-8.2614
Y140.6418 Z-8.2715
Y140.3514 Z-8.2816
Y140.061 Z-8.2918
Y139.7707 Z-8.3019
Y139.4803 Z-8.3121
Y139.1899 Z-8.3222
Y138.8996 Z-8.3323
Y138.6092 Z-8.3425
Y138.1253 Z-8.3594
Y137.6413 Z-8.3763
Y137.1574 Z-8.3932
Y136.4799 Z-8.4168
Y135.6088 Z-8.4473
Y134.157 Z-8.4979
Y129.9951 Z-8.6433
Y129.9686 Z-8.6439
Y129.9546 Z-8.6442
X128.9503 Y129.95 Z-8.6443
X128.9689 Z-8.6446
X129.0179 Z-8.646
X129.0994 Z-8.6487
X129.5833 Z-8.6656
X129.8737 Z-8.6757
X130.164 Z-8.6859
X130.4544 Z-8.696
X130.7448 Z-8.7062
X131.0351 Z-8.7163
X131.3255 Z-8.7264
X131.6158 Z-8.7366
X131.9062 Z-8.7467
X132.1966 Z-8.7568
X132.4869 Z-8.767
X132.5837 Z-8.7704
X132.6805 Z-8.7737
X132.7773 Z-8.7771
X132.8741 Z-8.7805
X132.9709 Z-8.7839
X133.0677 Z-8.7873
X133.1644 Z-8.7906
X133.2612 Z-8.794
X133.358 Z-8.7974
X133.4548 Z-8.8008
X133.5516 Z-8.8041
X133.6484 Z-8.8075
X133.8419 Z-8.8143
X133.9387 Z-8.8176
X134.0355 Z-8.8209
X134.1323 Z-8.8242
X134.2291 Z-8.8275
X134.3259 Z-8.8307
X134.4227 Z-8.8339
X134.5195 Z-8.8371
X134.6162 Z-8.8403
X134.713 Z-8.8435
X134.8098 Z-8.8466
X134.9066 Z-8.8497
X135.0034 Z-8.8528
X135.1002 Z-8.8559
X135.197 Z-8.8589
X135.2938 Z-8.8619
X135.3905 Z-8.8649
X135.4873 Z-8.8679
X135.5841 Z-8.8708
X135.6809 Z-8.8737
X135.7777 Z-8.8766
X135.8745 Z-8.8794
X135.9713 Z-8.8823
X136.0681 Z-8.8851
X136.1648 Z-8.8879
X136.2616 Z-8.8906
X136.3584 Z-8.8933
X136.4552 Z-8.896
X136.552 Z-8.8987
X136.6488 Z-8.9013
X136.7456 Z-8.9039
X136.8424 Z-8.9065
X136.9391 Z-8.9091
X137.0359 Z-8.9116
X137.2295 Z-8.9166
X137.4231 Z-8.9214
X137.6167 Z-8.9261
X137.8102 Z-8.9307
X138.0038 Z-8.9352
X138.1974 Z-8.9395
X138.391 Z-8.9437
X138.5845 Z-8.9478
X138.7781 Z-8.9517
X138.9717 Z-8.9555
X139.1653 Z-8.9591
X139.3588 Z-8.9627
X139.5524 Z-8.966
X139.746 Z-8.9692
X139.9395 Z-8.9723
X140.1331 Z-8.9752
X140.3267 Z-8.978
X140.5203 Z-8.9806
X140.7139 Z-8.9831
X140.9074 Z-8.9854
X141.101 Z-8.9875
X141.2946 Z-8.9895
X141.4881 Z-8.9913
X141.6817 Z-8.993
X141.8753 Z-8.9945
X142.0689 Z-8.9958
X142.2625 Z-8.9969
X142.456 Z-8.9979
X142.6496 Z-8.9987
X142.8432 Z-8.9993
X143.0367 Z-8.9997
X143.2303 Z-8.9999
X143.384 Z-9
X157.0477
X157.05 Y129.9513
Y140.9971
X157.0514 Y141.0521
X157.0561 Y141.1072
X157.0639 Y141.1622
X157.0752 Y141.2172
X157.0899 Y141.2723
X157.1082 Y141.3273
X157.1278 Y141.3766
X157.1508 Y141.4258
X157.1567 Y141.4374
X157.1876 Y141.4924
X157.2236 Y141.5474
X157.2609 Y141.5969
X157.3143 Y141.6575
X157.371 Y141.712
X157.4056 Y141.7411
X157.4402 Y141.7676
X157.4812 Y141.7958
X157.5362 Y141.8291
X157.5913 Y141.8576
X157.6363 Y141.8776
X157.7014 Y141.9019
X157.7565 Y141.9183
X157.8115 Y141.9311
X157.8666 Y141.9406
X157.9216 Y141.9468
X158.0318 Y141.95
X285.9945
X286.0496 Y141.9487
X286.1046 Y141.9442
X286.1597 Y141.9365
X286.2147 Y141.9254
X286.2698 Y141.9109
X286.3249 Y141.8927
X286.3637 Y141.8776
X286.435 Y141.8446
X286.4901 Y141.8139
X286.5451 Y141.7781
X286.5598 Y141.7676
X286.6075 Y141.7304
X286.6552 Y141.6879
X286.6857 Y141.6575
X286.7282 Y141.6102
X286.7654 Y141.5628
X286.7764 Y141.5474
X286.8124 Y141.4924
X286.8434 Y141.4374
X286.8755 Y141.3689
X286.8918 Y141.3273
X286.9102 Y141.2723
X286.9248 Y141.2172
X286.9361 Y141.1622
X286.9439 Y141.1072
X286.9486 Y141.0521
X286.95 Y140.9971
Y76.0583
X286.9486 Y75.9483
X286.944 Y75.8932
X286.9361 Y75.8382
X286.9249 Y75.7832
X286.9103 Y75.7281
X286.8944 Y75.6796
X286.8755 Y75.6311
X286.8699 Y75.6181
X286.8436 Y75.563
X286.8127 Y75.508
X286.7902 Y75.4726
X286.7654 Y75.4372
X286.7349 Y75.3979
X286.6975 Y75.355
X286.6552 Y75.3121
X286.6288 Y75.2879
X286.5869 Y75.253
X286.5451 Y75.2219
X286.476 Y75.1778
X286.435 Y75.1554
X286.3799 Y75.1292
X286.3249 Y75.1072
X286.2698 Y75.0891
X286.2147 Y75.0746
X286.1828 Y75.0677
X286.1046 Y75.0558
X286.0496 Y75.0513
X285.9945 Y75.05
X271.0178
X270.9077 Y75.0485
X270.7975 Y75.0431
X270.6874 Y75.0336
X270.5773 Y75.02
X270.4672 Y75.0029
X270.3571 Y74.9815
X270.2568 Y74.9577
X270.2469 Y74.9551
X270.1368 Y74.9245
X270.0267 Y74.8907
X269.9166 Y74.8505
X269.9091 Y74.8476
X269.8064 Y74.8067
X269.6963 Y74.7572
X269.6557 Y74.7375
X269.5862 Y74.702
X269.4761 Y74.6418
X269.4519 Y74.6275
X269.3659 Y74.5749
X269.2784 Y74.5174
X269.2558 Y74.5017
X269.1457 Y74.4214
X269.1278 Y74.4073
X269.0356 Y74.3327
X268.9941 Y74.2973
X268.9254 Y74.2357
X268.8748 Y74.1872
X268.8153 Y74.1278
X268.7668 Y74.0771
X268.7052 Y74.0087
X268.6696 Y73.9671
X268.5951 Y73.8753
X268.5807 Y73.857
X268.5002 Y73.7469
X268.485 Y73.725
X268.4269 Y73.6369
X268.3748 Y73.552
X268.3599 Y73.5268
X268.2996 Y73.4167
X268.2647 Y73.3487
X268.2442 Y73.3067
X268.1946 Y73.1966
X268.1546 Y73.0964
X268.1508 Y73.0865
X268.1104 Y72.9765
X268.0764 Y72.8664
X268.0457 Y72.7564
X268.0445 Y72.7516
X268.0193 Y72.6463
X267.9977 Y72.5362
X267.9804 Y72.4262
X267.9667 Y72.3161
X267.9571 Y72.206
X267.9516 Y72.096
X267.95 Y71.9859
Y39.0762
X267.9504 Y38.9662
X267.9536 Y38.8561
X267.9608 Y38.746
X267.9721 Y38.636
X267.9876 Y38.5259
X268.0066 Y38.4158
X268.0302 Y38.3058
X268.0445 Y38.2484
X268.0587 Y38.1957
X268.0907 Y38.0856
X268.1272 Y37.9756
X268.1546 Y37.9035
X268.1695 Y37.8655
X268.2157 Y37.7554
X268.2647 Y37.6513
X268.2677 Y37.6454
X268.3248 Y37.5353
X268.3748 Y37.448
X268.3883 Y37.4252
X268.4582 Y37.3152
X268.485 Y37.275
X268.5341 Y37.2051
X268.5951 Y37.1247
X268.6185 Y37.0951
X268.7052 Y36.9912
X268.7105 Y36.985
X268.8127 Y36.8749
X268.8153 Y36.8722
X268.9249 Y36.7649
X268.9254 Y36.7643
X269.0356 Y36.6673
X269.0507 Y36.6548
X269.1457 Y36.5786
X269.1907 Y36.5447
X269.2558 Y36.4983
X269.3509 Y36.4347
X269.3659 Y36.4251
X269.4761 Y36.3582
X269.5357 Y36.3246
X269.5862 Y36.298
X269.6963 Y36.2428
X269.7581 Y36.2145
X269.8064 Y36.1933
X269.9166 Y36.1496
X270.0267 Y36.1093
X270.042 Y36.1045
X270.1368 Y36.0755
X270.2469 Y36.0448
X270.3571 Y36.0185
X270.4672 Y35.9971
X270.484 Y35.9944
X270.5773 Y35.98
X270.6874 Y35.9663
X270.7975 Y35.9569
X270.9077 Y35.9515
X271.0178 Y35.95
X285.9945
X286.0496 Y35.9487
X286.1046 Y35.9442
X286.1597 Y35.9365
X286.2147 Y35.9254
X286.2698 Y35.9109
X286.3249 Y35.8927
X286.3471 Y35.8843
X286.391 Y35.8658
X286.435 Y35.8446
X286.4901 Y35.8139
X286.5451 Y35.778
X286.5505 Y35.7743
X286.6028 Y35.7342
X286.6552 Y35.6879
X286.6792 Y35.6642
X286.7253 Y35.6135
X286.7654 Y35.5628
X286.7717 Y35.5541
X286.8083 Y35.4991
X286.8398 Y35.4441
X286.8587 Y35.4065
X286.8755 Y35.3689
X286.8894 Y35.334
X286.9081 Y35.279
X286.9232 Y35.2239
X286.9349 Y35.1689
X286.9432 Y35.1139
X286.9482 Y35.0588
X286.95 Y35.0038
Y34.7837
Y0.0029
X286.9486 Y-0.0521
X286.9439 Y-0.1072
X286.9361 Y-0.1622
X286.9248 Y-0.2172
X286.9102 Y-0.2723
X286.8918 Y-0.3273
X286.8755 Y-0.3689
X286.8434 Y-0.4374
X286.8124 Y-0.4924
X286.7764 Y-0.5474
X286.7654 Y-0.5628
X286.7282 Y-0.6102
X286.6857 Y-0.6575
X286.6552 Y-0.6879
X286.6075 Y-0.7304
X286.5598 Y-0.7676
X286.5451 Y-0.7781
X286.4901 Y-0.8139
X286.435 Y-0.8446
X286.3637 Y-0.8776
X286.3249 Y-0.8927
X286.2698 Y-0.9109
X286.2147 Y-0.9254
X286.1597 Y-0.9365
X286.1046 Y-0.9442
X286.0496 Y-0.9487
X285.9945 Y-0.95
X263.0889
X262.9788 Y-0.9498
X262.9238 Y-0.9469
X262.8687 Y-0.9409
X262.8136 Y-0.9315
X262.7586 Y-0.9188
X262.7035 Y-0.9025
X262.6484 Y-0.8826
X262.6363 Y-0.8776
X262.5873 Y-0.8557
X262.5383 Y-0.8303
X262.4893 Y-0.801
X262.4402 Y-0.7676
X262.4282 Y-0.7587
X262.3731 Y-0.7138
X262.3181 Y-0.6614
X262.3143 Y-0.6575
X262.2655 Y-0.6025
X262.2236 Y-0.5474
X262.2079 Y-0.5246
X262.1808 Y-0.481
X262.1567 Y-0.4374
X262.1303 Y-0.3823
X262.1082 Y-0.3273
X262.0978 Y-0.2977
X262.0855 Y-0.2574
X262.0752 Y-0.2172
X262.0639 Y-0.1622
X262.0561 Y-0.1072
X262.0514 Y-0.0521
X262.05 Y0.0029
Y26.0478
X262.0481 Y26.05
X213.0932
X212.9831 Y26.0502
X212.928 Y26.0527
X212.8729 Y26.0585
X212.8179 Y26.0676
X212.7628 Y26.0801
X212.7324 Y26.0885
X212.6925 Y26.1011
X212.6527 Y26.1158
X212.5976 Y26.1394
X212.5426 Y26.1674
X212.4899 Y26.1985
X212.4324 Y26.2382
X212.3905 Y26.2713
X212.3485 Y26.3086
X212.3223 Y26.3342
X212.2833 Y26.3765
X212.2486 Y26.4187
X212.2122 Y26.4691
X212.1751 Y26.5287
X212.146 Y26.5838
X212.1214 Y26.6388
X212.1021 Y26.6898
X212.0838 Y26.7489
X212.0705 Y26.8039
X212.0605 Y26.8589
X212.0539 Y26.914
X212.0505 Y26.969
X212.05 Y27.0791
Y85.0476
X212.0482 Y85.05
X128.9523
X128.95 Y85.0476
Y27.0791
X128.9495 Y26.969
X128.9461 Y26.914
X128.9395 Y26.8589
X128.9295 Y26.8039
X128.9162 Y26.7489
X128.8993 Y26.6938
X128.8786 Y26.6388
X128.8492 Y26.5742
