%
(Made in : Autodesk CAM Post Processor)
(G Code optimized for OpenBuilds OX CNC 1000 x 750 with GRBL V0.9j controller)

(Program Name : 1001)
(1 Operation :)
(1 : Adaptive1)
(  Tool : Flat End Mill 3 Flutes, Diam = 3.175mm, Len = 20mm)
(  Spindle : RPM = 30000, set router dial to 6)
(  Machining time : 24 min 8 sec)

G90 G94
G17
G21

(Operation 1 of 1 : Adaptive1)

G53 G0 Z5
G54
S30000 M3
G4 P1.0
X-0.3115 Y-3.6663
Z6
Z5
Z-1.365
G1 Z-1.6825 F3500
X-0.3095 Y-3.6586 Z-1.7532
X-0.3037 Y-3.6358 Z-1.8203
X-0.2943 Y-3.5992 Z-1.8805
X-0.2818 Y-3.5505 Z-1.9307
X-0.2669 Y-3.4922 Z-1.9686
X-0.2502 Y-3.4272 Z-1.992
X-0.2327 Y-3.3587 Z-2
G3 X0.0159 Y-1.6303 I-7.8522 J2.0113
G1 Y-1.4803
X-0.1317 Y-0.7573
X-0.2114 Y-0.0238
X-0.254 Y0.7127
X-0.2765 Y1.4502
X-0.2884 Y2.1879
X-0.2947 Y2.9257
X-0.298 Y3.6635
X-0.3006 Y5.1392
X-0.3016 Y11.0417
Y48.6702
Y88.5123
X-0.2681 Y88.6936
X-0.1176 Y89.0304
X0.1271 Y89.3066
X0.7178 Y89.7486
X1.4108 Y90.0018
X2.1353 Y90.1413
X2.8693 Y90.2166
X3.606 Y90.2567
X4.3435 Y90.2779
X5.0813 Y90.2892
X5.8191 Y90.2951
X6.5569 Y90.2982
X8.0325 Y90.3007
X9.5081 Y90.3014
X59.6796 Y90.3016
X109.851
X160.0224
X210.1938
X260.3653
X310.5367
X360.7081
X404.6081
X404.9582 Y90.1853
X405.2481 Y89.9572
X405.714 Y89.3851
X405.9824 Y88.6978
X406.1308 Y87.9751
X406.2109 Y87.2416
X406.2537 Y86.505
X406.2764 Y85.7676
X406.2883 Y85.0299
X406.2946 Y84.2921
X406.2979 Y83.5543
X406.3006 Y82.0786
X406.3016 Y76.1761
Y34.1207
Y1.4723
X406.2636 Y1.2918
X406.1078 Y0.9574
X405.8606 Y0.6836
X405.2668 Y0.2457
X404.5729 Y-0.005
X403.8481 Y-0.143
X403.114 Y-0.2175
X402.3773 Y-0.2572
X401.6398 Y-0.2782
X400.902 Y-0.2893
X400.1642 Y-0.2951
X399.4265 Y-0.2982
X397.9508 Y-0.3007
X391.3105 Y-0.3016
X389.097
X338.9256
X288.7542
X238.5827
X188.4113
X138.2399
X88.0685
X37.897
X2.8508
X2.6686 Y-0.2732
X2.3261 Y-0.1361
X2.0405 Y0.0974
X1.5769 Y0.6714
X1.305 Y1.3573
X1.1519 Y2.079
X1.0676 Y2.812
X1.0217 Y3.5484
X0.997 Y4.2858
X0.9837 Y5.0235
X0.9766 Y5.7613
X0.9728 Y6.4991
X0.9696 Y7.9747
X0.9684 Y12.4016
Y14.6151
Y64.7865
Y86.9209
X1.0435 Y87.2821
X1.216 Y87.6082
X1.4566 Y87.8878
X2.0299 Y88.3523
X2.7094 Y88.6397
X3.4275 Y88.8094
X4.1588 Y88.907
X4.8946 Y88.9622
X5.6317 Y88.9932
X6.3693 Y89.0104
X7.1071 Y89.02
X7.8449 Y89.0252
X8.5827 Y89.0281
X10.0583 Y89.0306
X15.9608 Y89.0316
X28.5037
X78.6751
X128.8466
X179.018
X229.1894
X279.3608
X329.5323
X379.7037
X402.9449
X403.3054 Y88.9535
X403.6293 Y88.7769
X404.1823 Y88.2884
X404.5355 Y87.6406
X404.7478 Y86.9341
X404.8715 Y86.2067
X404.942 Y85.4722
X404.9818 Y84.7355
X405.0041 Y83.998
X405.0164 Y83.2603
X405.0233 Y82.5225
X405.027 Y81.7847
X405.0302 Y80.3091
X405.0316 Y76.62
Y62.6015
Y12.4301
Y3.2074
X404.9934 Y2.8405
X404.8532 Y2.4993
X404.6334 Y2.203
X404.0867 Y1.7075
X403.4173 Y1.3973
X402.7029 Y1.2126
X401.9729 Y1.1058
X401.2376 Y1.0451
X400.5005 Y1.011
X399.763 Y0.9919
X399.0252 Y0.9814
X398.2874 Y0.9755
X397.5496 Y0.9723
X396.074 Y0.9695
X390.9093 Y0.9684
X365.0858
X314.9143
X264.7429
X214.5715
X164.4001
X114.2286
X64.0572
X13.8858
X4.2942
X3.9387 Y1.0671
X3.6215 Y1.2554
X3.0802 Y1.7568
X2.7333 Y2.408
X2.5235 Y3.1153
X2.4005 Y3.8428
X2.3298 Y4.5772
X2.2896 Y5.3139
X2.267 Y6.0514
X2.2543 Y6.7891
X2.2472 Y7.5269
X2.2433 Y8.2647
X2.2399 Y9.7403
X2.2384 Y13.4294
Y40.7286
Y85.3664
X2.2801 Y85.7329
X2.4063 Y86.0795
X2.6097 Y86.3873
X3.1268 Y86.9136
X3.7808 Y87.2551
X4.4882 Y87.4649
X5.2153 Y87.5899
X5.9495 Y87.6631
X6.6861 Y87.7054
X7.4235 Y87.7297
X8.1612 Y87.7436
X8.899 Y87.7514
X9.6368 Y87.7559
X10.3746 Y87.7584
X11.8502 Y87.7606
X18.4906 Y87.7616
X56.8569
X107.0284
X157.1998
X207.3712
X257.5426
X307.7141
X357.8855
X401.4166
X401.7832 Y87.7208
X402.1264 Y87.5855
X402.4293 Y87.3749
X402.945 Y86.8472
X403.2767 Y86.1882
X403.4789 Y85.4786
X403.5987 Y84.7506
X403.6684 Y84.0161
X403.7086 Y83.2793
X403.7316 Y82.5419
X403.7447 Y81.8042
X403.7521 Y81.0664
X403.7563 Y80.3286
X403.7586 Y79.5908
X403.7611 Y77.3773
X403.7616 Y31.6328
Y4.3336
X403.6497 Y3.9821
X403.4581 Y3.6669
X402.9578 Y3.1246
X402.3109 Y2.7698
X401.6064 Y2.5506
X400.8803 Y2.4194
X400.1465 Y2.3425
X399.4101 Y2.2979
X398.6727 Y2.2722
X397.935 Y2.2576
X397.1973 Y2.2492
X396.4595 Y2.2445
X395.7216 Y2.2418
X394.246 Y2.2395
X388.3435 Y2.2384
X381.7032
X331.5317
X281.3603
X231.1889
X181.0175
X130.846
X80.6746
X30.5032
X5.7864
X5.4232 Y2.303
X5.0879 Y2.457
X4.7944 Y2.6805
X4.2957 Y3.2242
X3.9767 Y3.8895
X3.7822 Y4.6012
X3.6667 Y5.3299
X3.5993 Y6.0646
X3.5603 Y6.8014
X3.5379 Y7.5389
X3.5251 Y8.2766
X3.5179 Y9.0144
X3.5137 Y9.7522
X3.5114 Y10.49
X3.5089 Y12.7034
X3.5084 Y26.7219
Y76.8933
Y84.2715
X3.6037 Y84.6279
X3.7783 Y84.9529
X4.2503 Y85.5199
X4.8831 Y85.8994
X5.5812 Y86.1381
X6.3046 Y86.2833
X7.0373 Y86.3699
X7.7734 Y86.421
X8.5106 Y86.4508
X9.2482 Y86.4681
X9.9859 Y86.4781
X10.7237 Y86.4839
X11.4615 Y86.4872
X12.9372 Y86.4902
X16.6262 Y86.4915
X45.401 Y86.4916
X95.5724
X145.7439
X195.9153
X246.0867
X296.2581
X346.4296
X396.601
X400.2901
X400.646 Y86.3945
X400.9698 Y86.2177
X401.5335 Y85.7417
X401.9092 Y85.1068
X402.1448 Y84.4076
X402.2878 Y83.6837
X402.3728 Y82.9508
X402.4228 Y82.2147
X402.4519 Y81.4775
X402.4688 Y80.7398
X402.4785 Y80.0021
X402.4841 Y79.2643
X402.4873 Y78.5265
X402.4902 Y77.0509
X402.4916 Y72.624
Y40.8979
Y5.8517
X402.4315 Y5.4877
X402.2849 Y5.1492
X402.0686 Y4.8504
X401.5354 Y4.3403
X400.8765 Y4.0085
X400.1676 Y3.8039
X399.4401 Y3.6812
X398.7058 Y3.6087
X397.9692 Y3.5663
X397.2318 Y3.5417
X396.4941 Y3.5275
X395.7564 Y3.5193
X395.0186 Y3.5146
X394.2808 Y3.5119
X392.8051 Y3.5095
X388.3782 Y3.5084
X338.2068
X288.0354
X237.864
X187.6925
X137.5211
X87.3497
X37.1782
X6.9278
X6.5768 Y3.6219
X6.2599 Y3.8108
X5.7102 Y4.3029
X5.3452 Y4.9441
X5.1165 Y5.6456
X4.9775 Y6.3702
X4.8948 Y7.1034
X4.846 Y7.8396
X4.8175 Y8.5768
X4.8009 Y9.3144
X4.7914 Y10.0522
X4.7858 Y10.79
X4.7826 Y11.5278
X4.7798 Y13.0034
X4.7784 Y17.4303
Y22.595
Y72.7665
Y83.0959
X4.8989 Y83.4445
X5.0932 Y83.7581
X5.5959 Y84.2982
X6.24 Y84.6581
X6.9423 Y84.8843
X7.6671 Y85.022
X8.4003 Y85.1044
X9.1365 Y85.1531
X9.8738 Y85.1817
X10.6114 Y85.1984
X11.3491 Y85.2082
X12.0869 Y85.2139
X12.8247 Y85.2171
X14.3004 Y85.2201
X17.9894 Y85.2215
X43.813 Y85.2216
X93.9844
X144.1558
X194.3273
X244.4987
X294.6701
X344.8416
X395.013
X398.702
X399.0695 Y85.1895
X399.4221 Y85.0809
X399.74 Y84.8936
X400.2881 Y84.3997
X400.653 Y83.7585
X400.882 Y83.0571
X401.0211 Y82.3325
X401.1041 Y81.5994
X401.1531 Y80.8632
X401.1818 Y80.126
X401.1985 Y79.3883
X401.2083 Y78.6506
X401.2139 Y77.9128
X401.2172 Y77.175
X401.2202 Y75.6993
X401.2215 Y72.0103
X401.2216 Y39.5464
Y7.0825
X401.1414 Y6.7225
X400.9811 Y6.3902
X400.7567 Y6.0974
X400.2117 Y5.6
X399.5491 Y5.2754
X398.8394 Y5.074
X398.1116 Y4.9524
X397.3773 Y4.8801
X396.6408 Y4.8376
X395.9034 Y4.8128
X395.1657 Y4.7983
X394.4279 Y4.7899
X393.6901 Y4.785
X392.9523 Y4.7822
X391.4767 Y4.7796
X386.312 Y4.7784
X384.0985
X333.9271
X283.7557
X233.5843
X183.4128
X133.2414
X83.07
X32.8986
X8.5507
X8.1836 Y4.8149
X7.8327 Y4.9288
X7.5174 Y5.1203
X6.9741 Y5.6196
X6.6128 Y6.2628
X6.386 Y6.9649
X6.2481 Y7.6897
X6.1657 Y8.4229
X6.1169 Y9.1591
X6.0883 Y9.8964
X6.0716 Y10.634
X6.0618 Y11.3718
X6.0562 Y12.1096
X6.0529 Y12.8474
X6.0499 Y14.323
X6.0485 Y18.0121
X6.0484 Y29.8171
Y79.9885
Y81.4642
X6.0886 Y81.8309
X6.2078 Y82.18
X6.4031 Y82.493
X6.9071 Y83.0318
X7.5522 Y83.39
X8.2549 Y83.6149
X8.9799 Y83.7519
X9.7131 Y83.834
X10.4493 Y83.8826
X11.1866 Y83.9113
X11.9242 Y83.9281
X12.6619 Y83.9379
X13.3997 Y83.9436
X14.1375 Y83.947
X15.6132 Y83.9501
X19.3022 Y83.9515
X53.9795 Y83.9516
X104.151
X154.3224
X204.4938
X254.6653
X304.8367
X355.0081
X397.8014
X398.1507 Y83.833
X398.4655 Y83.6406
X399.0103 Y83.143
X399.3747 Y82.5015
X399.6048 Y81.8005
X399.7455 Y81.0762
X399.83 Y80.3433
X399.8802 Y79.6072
X399.9098 Y78.8699
X399.9272 Y78.1323
X399.9374 Y77.3946
X399.9434 Y76.6568
X399.9468 Y75.919
X399.95 Y74.4434
X399.9515 Y70.7543
X399.9516 Y27.2232
Y8.7778
X399.9485 Y8.4089
X399.876 Y8.0472
X399.7257 Y7.7103
X399.5079 Y7.4126
X398.9734 Y6.904
X398.3157 Y6.5695
X397.6082 Y6.3604
X396.8814 Y6.2333
X396.1475 Y6.1572
X395.4111 Y6.1122
X394.6737 Y6.0857
X393.9361 Y6.0701
X393.1983 Y6.061
X392.4605 Y6.0557
X391.7227 Y6.0526
X390.2471 Y6.0498
X385.8202 Y6.0484
X369.5883
X319.4168
X269.2454
X219.074
X168.9026
X118.7311
X68.5597
X18.3883
X9.5345
X9.1809 Y6.1535
X8.8593 Y6.3343
X8.2987 Y6.8139
X7.9211 Y7.4478
X7.6818 Y8.1458
X7.5349 Y8.8688
X7.4465 Y9.6013
X7.3938 Y10.3372
X7.3626 Y11.0744
X7.3443 Y11.812
X7.3335 Y12.5497
X7.3272 Y13.2875
X7.3235 Y14.0253
X7.3201 Y15.5009
X7.3186 Y18.4522
X7.3184 Y46.4892
Y80.4287
X7.4164 Y80.7843
X7.5909 Y81.1094
X8.0604 Y81.6785
X8.69 Y82.0632
X9.3861 Y82.3078
X10.1084 Y82.4583
X10.8406 Y82.5492
X11.5764 Y82.6035
X12.3135 Y82.6357
X13.0511 Y82.6546
X13.7888 Y82.6658
X14.5266 Y82.6724
X15.2644 Y82.6762
X16.74 Y82.6798
X19.6913 Y82.6814
X22.6425 Y82.6816
X72.8139
X122.9854
X173.1568
X223.3282
X273.4997
X323.6711
X373.8425
X395.977
X396.3459 Y82.6774
X396.7071 Y82.6026
X397.0413 Y82.4463
X397.336 Y82.2245
X397.8405 Y81.6861
X398.1703 Y81.0261
X398.3755 Y80.3174
X398.5001 Y79.5902
X398.5746 Y78.8561
X398.6187 Y78.1196
X398.6448 Y77.3823
X398.6601 Y76.6446
X398.669 Y75.9069
X398.6743 Y75.1691
X398.6773 Y74.4313
X398.6802 Y72.9556
X398.6816 Y68.5287
Y55.9859
X398.6812 Y9.5035
X398.5635 Y9.1539
X398.3742 Y8.8373
X397.8848 Y8.2851
X397.247 Y7.9141
X396.5478 Y7.6786
X395.8244 Y7.5337
X395.0918 Y7.4462
X394.3558 Y7.3939
X393.6187 Y7.3628
X392.881 Y7.3445
X392.1433 Y7.3337
X391.4055 Y7.3273
X390.6677 Y7.3236
X389.1921 Y7.3202
X386.2408 Y7.3186
X345.661 Y7.3184
X295.4896
X245.3181
X195.1467
X144.9753
X94.8039
X44.6324
X11.0619
X10.6958 Y7.364
X10.3492 Y7.4904
X10.0385 Y7.6892
X9.5038 Y8.1976
X9.148 Y8.844
X8.9244 Y9.5472
X8.7881 Y10.2723
X8.7064 Y11.0055
X8.6578 Y11.7418
X8.6291 Y12.479
X8.6123 Y13.2166
X8.6023 Y13.9544
X8.5965 Y14.6922
X8.5931 Y15.43
X8.59 Y16.9056
X8.5885 Y20.5947
X8.5884 Y22.8081
Y72.9796
Y78.8821
X8.6257 Y79.2491
X8.7389 Y79.6002
X8.9279 Y79.917
X9.4229 Y80.4641
X10.0634 Y80.8304
X10.764 Y81.0616
X11.4882 Y81.2031
X12.221 Y81.2882
X12.9571 Y81.3389
X13.6943 Y81.3688
X14.4319 Y81.3865
X15.1697 Y81.3969
X15.9075 Y81.403
X16.6453 Y81.4066
X18.1209 Y81.4099
X21.81 Y81.4115
X52.0604 Y81.4116
X102.2318
X152.4032
X202.5747
X252.7461
X302.9175
X353.089
X395.1444
X395.5003 Y81.3143
X395.8263 Y81.1417
X396.3991 Y80.6767
X396.7864 Y80.0487
X397.033 Y79.3533
X397.185 Y78.6313
X397.2769 Y77.8993
X397.332 Y77.1635
X397.3647 Y76.4264
X397.384 Y75.6888
X397.3954 Y74.9511
X397.4021 Y74.2133
X397.406 Y73.4755
X397.4097 Y71.9999
X397.4114 Y69.0486
X397.4116 Y24.0419
Y10.7612
X397.2951 Y10.4112
X397.1046 Y10.0953
X396.6103 Y9.5475
X395.9709 Y9.1793
X395.271 Y8.9458
X394.5473 Y8.8022
X393.8146 Y8.7154
X393.0786 Y8.6635
X392.3415 Y8.6327
X391.6039 Y8.6145
X390.8661 Y8.6037
X390.1284 Y8.5974
X389.3906 Y8.5937
X387.9149 Y8.5902
X384.9637 Y8.5886
X361.3536 Y8.5884
X311.1822
X261.0107
X210.8393
X160.6679
X110.4964
X60.325
X12.367
X12.001 Y8.634
X11.652 Y8.7537
X11.3383 Y8.9478
X10.796 Y9.4481
X10.4337 Y10.0908
X10.2051 Y10.7923
X10.0651 Y11.5168
X9.9808 Y12.2497
X9.9306 Y12.9859
X9.9009 Y13.7231
X9.8834 Y14.4607
X9.873 Y15.1984
X9.867 Y15.9362
X9.8634 Y16.674
X9.8601 Y18.1496
X9.8585 Y21.8387
X9.8584 Y60.2051
Y77.9127
X9.9638 Y78.2662
X10.1441 Y78.5881
X10.6221 Y79.1501
X11.2547 Y79.5297
X11.9519 Y79.7712
X12.6746 Y79.9199
X13.4069 Y80.0098
X14.1427 Y80.0636
X14.8799 Y80.0956
X15.6174 Y80.1145
X16.3552 Y80.1257
X17.093 Y80.1322
X17.8308 Y80.1361
X19.3064 Y80.1397
X22.2576 Y80.1414
X41.4408 Y80.1416
X91.6123
X141.7837
X191.9551
X242.1265
X292.298
X342.4694
X392.6408
X393.3786
X393.7476 Y80.1403
X394.1108 Y80.0762
X394.4497 Y79.9303
X394.7503 Y79.7166
X395.2677 Y79.1905
X395.6077 Y78.5357
X395.8204 Y77.8292
X395.9502 Y77.1029
X396.0282 Y76.3692
X396.0746 Y75.6329
X396.1021 Y74.8956
X396.1184 Y74.1579
X396.128 Y73.4202
X396.1336 Y72.6824
X396.1369 Y71.9446
X396.14 Y70.4689
X396.1415 Y66.7799
X396.1416 Y32.1026
Y12.1815
X396.0605 Y11.8217
X395.8994 Y11.4898
X395.4494 Y10.9051
X394.8285 Y10.5066
X394.136 Y10.2519
X393.4152 Y10.0945
X392.6836 Y9.9991
X391.948 Y9.9418
X391.2109 Y9.9077
X390.4734 Y9.8875
X389.7357 Y9.8755
X388.9979 Y9.8685
X388.2601 Y9.8643
X387.5223 Y9.8619
X386.0467 Y9.8596
X380.882 Y9.8584
X366.8635
X316.692
X266.5206
X216.3492
X166.1777
X116.0063
X65.8349
X15.6635
X13.45
X13.0911 Y9.9437
X12.76 Y10.1063
X12.1758 Y10.557
X11.7774 Y11.178
X11.5226 Y11.8704
X11.3649 Y12.5912
X11.2693 Y13.3228
X11.2119 Y14.0583
X11.1778 Y14.7954
X11.1575 Y15.5329
X11.1455 Y16.2706
X11.1385 Y17.0084
X11.1343 Y17.7462
X11.1319 Y18.484
X11.1296 Y19.9597
X11.1284 Y25.1244
Y56.8504
Y76.4025
X11.1764 Y76.7683
X11.3055 Y77.1138
X11.5062 Y77.4234
X12.0165 Y77.9563
X12.6634 Y78.3111
X13.3667 Y78.5343
X14.0918 Y78.6705
X14.825 Y78.7524
X15.5612 Y78.8012
X16.2985 Y78.8301
X17.0361 Y78.8472
X17.7738 Y78.8573
X18.5116 Y78.8632
X19.2494 Y78.8667
X20.7251 Y78.8699
X24.4141 Y78.8715
X40.6461 Y78.8716
X90.8175
X140.9889
X191.1604
X241.3318
X291.5032
X341.6747
X391.8461
X392.5839
X392.9408 Y78.7782
X393.2685 Y78.6088
X393.8452 Y78.1486
X394.2364 Y77.523
X394.486 Y76.8287
X394.6402 Y76.1072
X394.7337 Y75.3754
X394.7898 Y74.6397
X394.8232 Y73.9026
X394.843 Y73.1651
X394.8548 Y72.4273
X394.8617 Y71.6896
X394.8658 Y70.9518
X394.8696 Y69.4761
X394.8714 Y66.5249
X394.8716 Y30.3719
Y13.4022
X394.7798 Y13.0449
X394.6093 Y12.7177
X394.1435 Y12.1456
X393.5163 Y11.7569
X392.8213 Y11.5093
X392.0995 Y11.3566
X391.3675 Y11.2642
X390.6317 Y11.2089
X389.8947 Y11.176
X389.1571 Y11.1565
X388.4194 Y11.1449
X387.6816 Y11.1381
X386.9438 Y11.1341
X385.4681 Y11.1304
X382.5169 Y11.1286
X362.5959 Y11.1284
X312.4245
X262.253
X212.0816
X161.9102
X111.7387
X61.5673
X15.085
X14.7163 Y11.1429
X14.3564 Y11.2239
X14.0247 Y11.3852
X13.4417 Y11.8375
X13.044 Y12.4589
X12.79 Y13.1516
X12.6331 Y13.8726
X12.5381 Y14.6043
X12.4812 Y15.3399
X12.4474 Y16.0769
X12.4273 Y16.8145
X12.4154 Y17.5522
X12.4084 Y18.29
X12.4043 Y19.0278
X12.4019 Y19.7656
X12.3996 Y21.2412
X12.3984 Y26.4059
Y64.0345
Y75.1017
X12.4469 Y75.4674
X12.5693 Y75.8154
X12.7656 Y76.1278
X13.2687 Y76.6674
X13.9125 Y77.0278
X14.6143 Y77.2554
X15.3389 Y77.3948
X16.0719 Y77.4789
X16.808 Y77.529
X17.5452 Y77.5588
X18.2828 Y77.5764
X19.0205 Y77.5868
X19.7583 Y77.5929
X20.4961 Y77.5965
X21.9718 Y77.5999
X24.923 Y77.6014
X50.7466 Y77.6016
X100.918
X151.0894
X201.2608
X251.4323
X301.6037
X351.7751
X390.8793
X391.2481 Y77.5933
X391.6096 Y77.5197
X391.9445 Y77.365
X392.5359 Y76.9237
X392.9407 Y76.3069
X393.2 Y75.6162
X393.3605 Y74.896
X393.4579 Y74.1647
X393.5163 Y73.4292
X393.5511 Y72.6922
X393.5717 Y71.9546
X393.584 Y71.2169
X393.5912 Y70.4791
X393.5955 Y69.7413
X393.598 Y69.0035
X393.6004 Y67.5279
X393.6016 Y62.3632
Y17.3565
Y15.143
X393.5988 Y14.7741
X393.5307 Y14.4116
X393.3809 Y14.0744
X393.1641 Y13.776
X392.6341 Y13.2627
X391.9773 Y12.9265
X391.2701 Y12.7161
X390.5435 Y12.5879
X389.8098 Y12.5108
X389.0734 Y12.4649
X388.3361 Y12.4376
X387.5984 Y12.4215
X386.8607 Y12.412
X386.1229 Y12.4064
X385.3851 Y12.4031
X383.9095 Y12.4
X380.2204 Y12.3985
X347.0187 Y12.3984
X296.8473
X246.6758
X196.5044
X146.333
X96.1616
X45.9901
X16.4775
X16.1086 Y12.4002
X15.7438 Y12.455
X15.4012 Y12.5917
X15.0954 Y12.7982
X14.568 Y13.3141
X14.2192 Y13.9643
X14.0004 Y14.6689
X13.8666 Y15.3944
X13.7861 Y16.1278
X13.738 Y16.8641
X13.7095 Y17.6014
X13.6926 Y18.339
X13.6827 Y19.0767
X13.6768 Y19.8145
X13.6733 Y20.5523
X13.6701 Y22.028
X13.6685 Y25.717
X13.6684 Y31.6196
Y73.675
X13.6906 Y74.0433
X13.7818 Y74.4007
X13.9505 Y74.7288
X14.4111 Y75.3051
X15.0366 Y75.6965
X15.7309 Y75.9462
X16.4524 Y76.1004
X17.1843 Y76.1939
X17.9199 Y76.2499
X18.657 Y76.2833
X19.3946 Y76.3031
X20.1323 Y76.3148
X20.8701 Y76.3217
X21.6079 Y76.3258
X23.0835 Y76.3296
X26.0347 Y76.3314
X71.0415 Y76.3316
X121.2129
X171.3843
X221.5558
X271.7272
X321.8986
X372.07
X389.7776
X390.1448 Y76.2967
X390.4971 Y76.1872
X390.816 Y76.0017
X391.3685 Y75.5127
X391.7399 Y74.8752
X391.9743 Y74.1756
X392.118 Y73.4519
X392.2047 Y72.7192
X392.2565 Y71.9832
X392.2872 Y71.246
X392.3054 Y70.5084
X392.3162 Y69.7707
X392.3225 Y69.0329
X392.3263 Y68.2951
X392.3298 Y66.8195
X392.3314 Y63.8682
X392.3316 Y44.685
X392.3314 Y15.9102
X392.2266 Y15.5565
X392.0478 Y15.2339
X391.5737 Y14.6685
X390.9424 Y14.2867
X390.2457 Y14.0436
X389.5233 Y13.8935
X388.7912 Y13.8026
X388.0554 Y13.748
X387.3183 Y13.7155
X386.5807 Y13.6962
X385.843 Y13.6848
X385.1052 Y13.6781
X384.3674 Y13.6741
X382.8918 Y13.6704
X379.9405 Y13.6686
X371.8245 Y13.6684
X321.6531
X271.4817
X221.3103
X171.1388
X120.9674
X70.796
X20.6245
X17.6733
X17.3045 Y13.6761
X16.9429 Y13.7493
X16.6071 Y13.902
X16.3094 Y14.1199
X15.801 Y14.6546
X15.4657 Y15.3118
X15.2555 Y16.0191
X15.1273 Y16.7457
X15.0504 Y17.4795
X15.0045 Y18.2159
X14.9774 Y18.9532
X14.9614 Y19.6908
X14.9519 Y20.4286
X14.9463 Y21.1664
X14.9431 Y21.9042
X14.94 Y23.3798
X14.9385 Y27.0689
X14.9384 Y59.5327
X14.9385 Y72.8134
X15.04 Y73.1681
X15.2173 Y73.4916
X15.6916 Y74.0567
X16.322 Y74.4401
X17.0181 Y74.6846
X17.7404 Y74.8354
X18.4725 Y74.9269
X19.2083 Y74.9816
X19.9454 Y75.0143
X20.6829 Y75.0336
X21.4207 Y75.0451
X22.1584 Y75.0519
X22.8963 Y75.0559
X24.3719 Y75.0596
X27.3231 Y75.0614
X50.9332 Y75.0616
X101.1046
X151.2761
X201.4475
X251.6189
X301.7903
X351.9618
X388.8525
X389.2045 Y74.9512
X389.524 Y74.7668
X390.0805 Y74.2824
X390.456 Y73.6472
X390.6947 Y72.9491
X390.8417 Y72.2261
X390.9307 Y71.4936
X390.984 Y70.7578
X391.0157 Y70.0206
X391.0345 Y69.2831
X391.0456 Y68.5453
X391.0522 Y67.8075
X391.0561 Y67.0697
X391.0597 Y65.5941
X391.0614 Y62.6428
X391.0616 Y17.6361
X391.05 Y17.2674
X390.9705 Y16.9072
X390.8107 Y16.5747
X390.3618 Y15.9891
X389.7415 Y15.5895
X389.0494 Y15.3339
X388.3287 Y15.1759
X387.5972 Y15.08
X386.8616 Y15.0225
X386.1246 Y14.9882
X385.3871 Y14.9679
X384.6493 Y14.9558
X383.9115 Y14.9487
X383.1737 Y14.9444
X382.4359 Y14.942
X380.9603 Y14.9396
X375.7956 Y14.9384
X336.6914
X286.52
X236.3485
X186.1771
X136.0057
X85.8343
X35.6628
X18.6931
X18.3283 Y14.9934
X17.9826 Y15.1222
X17.6727 Y15.3223
X17.1368 Y15.8294
X16.7793 Y16.4748
X16.5534 Y17.1772
X16.4147 Y17.9019
X16.331 Y18.6349
X16.281 Y19.3711
X16.2513 Y20.1083
X16.2337 Y20.8459
X16.2233 Y21.5836
X16.2172 Y22.3214
X16.2136 Y23.0592
X16.2102 Y24.5348
X16.2086 Y27.4861
X16.2084 Y47.4071
Y71.3861
X16.2713 Y71.7496
X16.4158 Y72.089
X16.6282 Y72.3907
X17.1527 Y72.9096
X17.8062 Y73.252
X18.5121 Y73.4666
X19.2382 Y73.5976
X19.9718 Y73.6764
X20.7081 Y73.7234
X21.4454 Y73.7513
X22.1831 Y73.7678
X22.9208 Y73.7776
X23.6586 Y73.7834
X24.3964 Y73.7868
X25.872 Y73.7899
X29.5611 Y73.7915
X41.3662 Y73.7916
X91.5376
X141.709
X191.8804
X242.0519
X292.2233
X342.3947
X387.4014
X387.7644 Y73.7258
X388.1026 Y73.5784
X388.4027 Y73.3638
X388.918 Y72.8358
X389.2578 Y72.1809
X389.4703 Y71.4743
X389.5999 Y70.748
X389.6779 Y70.0143
X389.7243 Y69.2779
X389.7519 Y68.5406
X389.7682 Y67.803
X389.7778 Y67.0653
X389.7835 Y66.3275
X389.7868 Y65.5897
X389.7899 Y64.114
X389.7915 Y60.4249
X389.7916 Y19.1073
X389.79 Y18.3695
X389.67 Y18.0207
X389.4778 Y17.7057
X388.9802 Y17.161
X388.3396 Y16.7949
X387.6393 Y16.5629
X386.9153 Y16.4205
X386.1825 Y16.3346
X385.4465 Y16.2832
X384.7093 Y16.2526
X383.9717 Y16.2345
X383.2339 Y16.2238
X382.4962 Y16.2175
X381.7584 Y16.2138
X380.2827 Y16.2102
X377.3315 Y16.2086
X341.1785 Y16.2084
X291.0071
X240.8357
X190.6643
X140.4928
X90.3214
X40.15
X20.229
X19.8602 Y16.2167
X19.4983 Y16.2886
X19.1617 Y16.4396
X18.8627 Y16.6557
X18.3511 Y17.1873
X18.0126 Y17.8429
X17.8001 Y18.5494
X17.6703 Y19.2757
X17.5922 Y20.0094
X17.5457 Y20.7458
X17.5181 Y21.483
X17.5018 Y22.2207
X17.4922 Y22.9584
X17.4865 Y23.6962
X17.4832 Y24.434
X17.48 Y25.9097
X17.4785 Y29.5987
X17.4784 Y45.0929
Y70.1786
X17.5586 Y70.5386
X17.7169 Y70.8719
X17.9385 Y71.1668
X18.4785 Y71.6695
X19.1378 Y72.0007
X19.8459 Y72.2082
X20.5728 Y72.3347
X21.3066 Y72.4108
X22.0431 Y72.4561
X22.7804 Y72.483
X23.518 Y72.4988
X24.2558 Y72.5082
X24.9936 Y72.5137
X25.7314 Y72.517
X27.207 Y72.52
X30.8961 Y72.5215
X41.9633 Y72.5216
X92.1348
X142.3062
X192.4776
X242.649
X292.8205
X342.9919
X385.7852
X386.154 Y72.5149
X386.5157 Y72.4422
X386.8517 Y72.2899
X387.1496 Y72.0723
X387.658 Y71.5376
X387.9933 Y70.8804
X388.2036 Y70.1732
X388.332 Y69.4466
X388.4091 Y68.7129
X388.4551 Y67.9765
X388.4824 Y67.2392
X388.4985 Y66.5015
X388.508 Y65.7638
X388.5136 Y65.026
X388.5169 Y64.2882
X388.52 Y62.8125
X388.5215 Y59.1235
X388.5216 Y20.0193
X388.4859 Y19.6521
X388.3744 Y19.3004
X388.186 Y18.9832
X387.6933 Y18.4341
X387.0538 Y18.0661
X386.3536 Y17.8333
X385.6298 Y17.6906
X384.897 Y17.6045
X384.161 Y17.553
X383.4238 Y17.5225
X382.6862 Y17.5044
X381.9485 Y17.4937
X381.2107 Y17.4874
X380.4729 Y17.4837
X378.9973 Y17.4802
X376.046 Y17.4786
X335.4662 Y17.4784
X285.2947
X235.1233
X184.9519
X134.7805
X84.609
X34.4376
X21.1569
X20.7947 Y17.5484
X20.4553 Y17.6929
X20.1539 Y17.9056
X20.0929 Y17.9677
X19.9873 Y18.0567
X19.867 Y18.1246
X19.7363 Y18.169
X19.6387 Y18.1922
X19.4711 Y18.2488
X19.4054 Y18.2732
X19.3034 Y18.3189
X19.1357 Y18.4069
X19.0796 Y18.4408
X18.968 Y18.5164
X18.8539 Y18.6083
X18.8003 Y18.6528
X18.6326 Y18.8227
X18.5375 Y18.9435
X18.465 Y19.0445
X18.4253 Y19.111
X18.3293 Y19.2786
X18.257 Y19.4462
X18.1988 Y19.6137
X18.1572 Y19.7813
X18.1285 Y19.9489
X18.122 Y20.1164
X18.1138 Y20.4516
X18.1125 Y20.6191
Y69.716
X18.1147 Y69.8836
X18.1296 Y70.0589
X18.1616 Y70.2187
X18.2328 Y70.491
X18.2365 Y70.5015
X18.4863 Y70.9874
X18.4945 Y71.0013
X18.5375 Y71.0565
X18.6326 Y71.175
X18.866 Y71.3917
X18.968 Y71.4836
X19.0936 Y71.5687
X19.1077 Y71.5766
X19.5968 Y71.7957
X19.9741 Y71.8629
X20.1418 Y71.8867
X20.4772 Y71.8875
X385.3552
X385.8582 Y71.8841
X386.0259 Y71.8712
X386.1936 Y71.8477
X386.3613 Y71.8078
X386.529 Y71.7512
X386.5946 Y71.7268
X386.6967 Y71.6811
X386.8643 Y71.5931
X386.9204 Y71.5592
X387.032 Y71.4836
X387.1461 Y71.3917
X387.1997 Y71.3472
X387.3674 Y71.1773
X387.4626 Y71.0565
X387.5351 Y70.9555
X387.5748 Y70.889
X387.6708 Y70.7214
X387.7431 Y70.5538
X387.8012 Y70.3863
X387.8428 Y70.2187
X387.8715 Y70.0511
X387.8781 Y69.8836
X387.8862 Y69.5484
X387.8875 Y69.3809
Y20.6191
X387.8862 Y20.4516
X387.8781 Y20.1164
X387.8715 Y19.9489
X387.8428 Y19.7813
X387.8012 Y19.6137
X387.7431 Y19.4462
X387.6708 Y19.2786
X387.5748 Y19.111
X387.5351 Y19.0445
X387.4661 Y18.9435
X387.3674 Y18.8212
X387.3261 Y18.7759
X387.1997 Y18.6528
X387.032 Y18.5155
X386.9237 Y18.4408
X386.8643 Y18.4108
X386.4032 Y18.2043
X386.0259 Y18.1371
X385.8582 Y18.1133
X385.5229 Y18.1125
X20.6448
X20.1418 Y18.1159
X19.9741 Y18.1288
X19.8064 Y18.1523
X19.7363 Y18.169
G3 X19.3698 Y17.9503 I-0.0627 J-0.3112
G1 X19.3628 Y17.9035 Z-1.9964
X19.356 Y17.8577 Z-1.9858
X19.3706 Y17.8002 Z-1.96
X19.3837 Y17.749 Z-1.9227
X19.3946 Y17.7061 Z-1.8755
X19.4148 Y17.6766 Z-1.8165
X19.4273 Y17.6584 Z-1.7512
X19.4315 Y17.6522 Z-1.6826
G0 Z5
X71.2752 Y56.3527
Z2.5
G3 X71.4465 Y56.5521 Z2.1783 I1.2249 J-0.8799 F1200
X71.65 Y56.7186 Z1.8566 I1.0535 J-1.0792
X71.8792 Y56.8473 Z1.5349 I0.8501 J-1.2457
X72.1273 Y56.9342 Z1.2132 I0.6208 J-1.3744
X72.3867 Y56.9767 Z0.8914 I0.3727 J-1.4613
X72.6496 Y56.9736 Z0.5697 I0.1133 J-1.5039
X72.9079 Y56.9248 Z0.248 I-0.1496 J-1.5007
X73.1538 Y56.8319 Z-0.0737 I-0.4079 J-1.4519
X73.3799 Y56.6977 Z-0.3954 I-0.6538 J-1.359
X73.5792 Y56.5263 Z-0.7171 I-0.8799 J-1.2249
X73.7457 Y56.3229 Z-1.0388 I-1.0792 J-1.0535
X73.8744 Y56.0937 Z-1.3605 I-1.2457 J-0.8501
X73.9614 Y55.8456 Z-1.6822 I-1.3744 J-0.6208
X74.0081 Y55.4729 Z-2 I-1.4613 J-0.3727
X70.9919 I-1.5081
X74.0081 I1.5081
G1 X74.0274 Y56.2104 F3500
X74.0493 Y56.3
X74.0647 Y56.4493
X74.0521 Y56.5987
X74.0166 Y56.7445
X73.9617 Y56.8841
X73.8902 Y57.0159
X73.8044 Y57.139
X73.7063 Y57.2524
X73.5976 Y57.3558
X73.4797 Y57.4486
X73.3541 Y57.5306
X73.222 Y57.6017
X73.0835 Y57.662
X72.9368 Y57.7124
X72.7828 Y57.7518
X72.6228 Y57.7793
X72.4578 Y57.7941
X72.2891 Y57.7957
X72.1182 Y57.7836
X71.9464 Y57.7573
X71.775 Y57.7169
X71.6054 Y57.6622
X71.4392 Y57.5934
X71.2775 Y57.5108
X71.1217 Y57.4146
X70.9732 Y57.3055
X70.8329 Y57.1841
X70.7022 Y57.0511
X70.582 Y56.9073
X70.4732 Y56.7536
X70.3767 Y56.5912
X70.2934 Y56.4209
X70.2237 Y56.244
X70.1684 Y56.0616
X70.1277 Y55.875
X70.1022 Y55.6853
X70.0919 Y55.4939
X70.097 Y55.3019
X70.1175 Y55.1108
X70.1534 Y54.9217
X70.2044 Y54.7359
X70.2701 Y54.5546
X70.3503 Y54.3791
X70.4443 Y54.2104
X70.5517 Y54.0498
X70.6716 Y53.8982
X70.8034 Y53.7566
X70.9462 Y53.6261
X71.0991 Y53.5074
X71.261 Y53.4013
X71.431 Y53.3085
X71.6079 Y53.2297
X71.7906 Y53.1652
X71.9779 Y53.1157
X72.1686 Y53.0813
X72.3615 Y53.0624
X72.5553 Y53.059
X72.7487 Y53.0711
X72.9406 Y53.0988
X73.1297 Y53.1417
X73.3147 Y53.1997
X73.4944 Y53.2724
X73.6678 Y53.3592
X73.8336 Y53.4597
X73.9909 Y53.5732
X74.1385 Y53.699
X74.2756 Y53.8362
X74.4012 Y53.9839
X74.5146 Y54.1413
X74.619 Y54.3139
X74.7302 Y54.5363
X74.8772 Y54.9008
X74.9844 Y55.244
X75.0483 Y55.5264
X75.085 Y55.7821
X75.0996 Y56.0192
X75.0955 Y56.2424
X75.0744 Y56.4554
X75.0369 Y56.6625
X74.9832 Y56.8649
X74.9136 Y57.0618
X74.8285 Y57.2523
X74.7284 Y57.4352
X74.6135 Y57.6102
X74.484 Y57.7767
X74.3399 Y57.934
X74.1818 Y58.081
X74.0103 Y58.2165
X73.8259 Y58.3394
X73.6293 Y58.4489
X73.4215 Y58.5436
X73.2035 Y58.6225
X72.9769 Y58.6844
X72.7429 Y58.7286
X72.5031 Y58.7541
X72.2591 Y58.7604
X72.0128 Y58.747
X71.7658 Y58.7135
X71.52 Y58.6598
X71.2774 Y58.5859
X71.0397 Y58.4921
X70.8086 Y58.3787
X70.5859 Y58.2462
X70.3732 Y58.0954
X70.1722 Y57.927
X69.9844 Y57.7421
X69.8112 Y57.5418
X69.654 Y57.3273
X69.5139 Y57.0999
X69.3922 Y56.8613
X69.2896 Y56.6128
X69.2071 Y56.3562
X69.1453 Y56.0932
X69.1047 Y55.8254
X69.0857 Y55.5547
X69.0884 Y55.2829
X69.1131 Y55.0118
X69.1594 Y54.7431
X69.2273 Y54.4787
X69.3163 Y54.2203
X69.4258 Y53.9697
X69.5552 Y53.7285
X69.7036 Y53.4982
X69.8701 Y53.2805
X70.0537 Y53.0768
X70.2531 Y52.8883
X70.4671 Y52.7164
X70.6943 Y52.5621
X70.9332 Y52.4266
X71.1823 Y52.3106
X71.44 Y52.2149
X71.7045 Y52.1403
X71.9743 Y52.0871
X72.2475 Y52.0557
X72.5223 Y52.0463
X72.7971 Y52.0591
X73.07 Y52.0938
X73.3392 Y52.1503
X73.6031 Y52.2283
X73.8599 Y52.3272
X74.1079 Y52.4464
X74.3456 Y52.5851
X74.5713 Y52.7425
X74.785 Y52.9184
X74.9913 Y53.1183
X75.2055 Y53.3619
X75.4074 Y53.6327
X75.5937 Y53.9297
X75.7584 Y54.2459
X75.8958 Y54.5711
X76.0037 Y54.8975
X76.0826 Y55.2212
X76.1338 Y55.5412
X76.1586 Y55.8575
X76.158 Y56.1701
X76.1326 Y56.4776
X76.0831 Y56.779
X76.0103 Y57.0729
X75.9146 Y57.3585
X75.7966 Y57.6345
X75.657 Y57.9
X75.4964 Y58.1537
X75.3154 Y58.3944
X75.1148 Y58.6209
X74.8953 Y58.8317
X74.658 Y59.0256
X74.4039 Y59.2012
X74.1343 Y59.3571
X73.8507 Y59.492
X73.5546 Y59.6047
X73.2477 Y59.694
X72.9319 Y59.759
X72.6093 Y59.7988
X72.2821 Y59.8126
X71.9525 Y59.8001
X71.6226 Y59.7608
X71.2947 Y59.6948
X70.971 Y59.602
X70.6539 Y59.4829
X70.3456 Y59.3378
X70.0482 Y59.1675
X69.764 Y58.9729
X69.4951 Y58.755
X69.2433 Y58.5152
X69.0107 Y58.2549
X68.7989 Y57.9757
X68.6095 Y57.6793
X68.444 Y57.3677
X68.3036 Y57.0429
X68.1894 Y56.7069
X68.1024 Y56.3621
X68.0432 Y56.0107
X68.0123 Y55.6549
X68.0101 Y55.2973
X68.0366 Y54.9401
X68.0918 Y54.5858
X68.1753 Y54.2366
X68.2867 Y53.8949
X68.4253 Y53.5629
X68.5902 Y53.2429
X68.7804 Y52.937
X68.9947 Y52.6471
X69.2317 Y52.3752
X69.4898 Y52.1231
X69.7675 Y51.8924
X70.0628 Y51.6847
X70.374 Y51.5013
X70.6991 Y51.3434
X71.0358 Y51.2121
X71.382 Y51.1082
X71.7355 Y51.0324
X72.0941 Y50.9852
X72.4553 Y50.9669
X72.8168 Y50.9777
X73.1764 Y51.0175
X73.5316 Y51.086
X73.8803 Y51.1828
X74.22 Y51.3073
X74.549 Y51.4588
X74.8673 Y51.6377
X75.1795 Y51.8477
X75.4831 Y52.0895
X75.7752 Y52.3632
X76.0516 Y52.6675
X76.3073 Y52.9989
X76.5375 Y53.3526
X76.7386 Y53.7238
X76.9084 Y54.1079
X77.0457 Y54.5014
X77.1501 Y54.9011
X77.2214 Y55.3042
X77.2598 Y55.708
X77.2656 Y56.1102
X77.2393 Y56.5085
X77.1816 Y56.9009
X77.0929 Y57.2853
X76.9742 Y57.66
X76.8261 Y58.0232
X76.6495 Y58.3729
X76.4453 Y58.7074
X76.2146 Y59.025
X75.9585 Y59.3238
X75.6781 Y59.6021
X75.375 Y59.8581
X75.0507 Y60.0902
X74.707 Y60.2967
X74.3456 Y60.4759
X73.9687 Y60.6265
X73.5786 Y60.747
X73.1776 Y60.8365
X72.7683 Y60.8937
X72.3533 Y60.9181
X71.9352 Y60.9091
X71.5169 Y60.8663
X71.1011 Y60.7897
X70.6906 Y60.6793
X70.2883 Y60.5356
X69.8969 Y60.3593
X69.5193 Y60.1512
X69.158 Y59.9124
X68.8157 Y59.6443
X68.4947 Y59.3485
X68.1976 Y59.0268
X67.9263 Y58.6812
X67.6829 Y58.3138
X67.4693 Y57.927
X67.2869 Y57.5233
X67.1371 Y57.1053
X67.0211 Y56.6757
X66.9398 Y56.2374
X66.8939 Y55.7932
X66.8838 Y55.346
X66.9096 Y54.8989
X66.9713 Y54.4547
X67.0685 Y54.0165
X67.2008 Y53.587
X67.3672 Y53.1692
X67.5668 Y52.7658
X67.7982 Y52.3794
X68.0601 Y52.0126
X68.3507 Y51.6679
X68.6683 Y51.3474
X69.0106 Y51.0533
X69.3756 Y50.7876
X69.7608 Y50.5519
X70.1638 Y50.3479
X70.582 Y50.1768
X71.0127 Y50.0398
X71.4531 Y49.9378
X71.9003 Y49.8714
X72.3514 Y49.8412
X72.8036 Y49.8472
X73.2539 Y49.8895
X73.6994 Y49.9679
X74.1378 Y50.0819
X74.5679 Y50.2315
X74.9885 Y50.4168
X75.3977 Y50.638
X75.7934 Y50.8949
X76.1745 Y51.1883
X76.5375 Y51.5174
X76.8781 Y51.8801
X77.1916 Y52.2729
X77.4743 Y52.6921
X77.7229 Y53.1335
X77.9351 Y53.5929
X78.1092 Y54.0665
X78.2441 Y54.5504
X78.3393 Y55.0411
X78.3944 Y55.535
X78.4097 Y56.029
X78.3854 Y56.5202
X78.322 Y57.0056
X78.2203 Y57.4826
X78.081 Y57.9485
X77.9051 Y58.4009
X77.6937 Y58.8374
X77.4479 Y59.2554
X77.169 Y59.6528
X76.8586 Y60.0273
X76.5183 Y60.3764
X76.1499 Y60.6982
X75.7553 Y60.9905
X75.3369 Y61.2512
X74.8969 Y61.4785
X74.438 Y61.6707
X73.9629 Y61.8261
X73.4745 Y61.9435
X72.9759 Y62.0217
X72.4701 Y62.0598
X71.9605 Y62.0572
X71.4504 Y62.0134
X70.9432 Y61.9285
X70.4423 Y61.8026
X69.951 Y61.6363
X69.4728 Y61.4302
X69.0108 Y61.1854
X68.5684 Y60.9034
X68.1487 Y60.5857
X67.7545 Y60.2341
X67.3887 Y59.851
X67.0539 Y59.4386
X66.7526 Y58.9995
X66.4868 Y58.5366
X66.2585 Y58.0527
X66.0694 Y57.5511
X65.9209 Y57.035
X65.8141 Y56.5077
X65.7499 Y55.9728
X65.7288 Y55.4336
X65.7511 Y54.8939
X65.8167 Y54.3571
X65.9252 Y53.8268
X66.0761 Y53.3064
X66.2685 Y52.7994
X66.501 Y52.3092
X66.7724 Y51.8388
X67.0807 Y51.3916
X67.4242 Y50.9703
X67.8005 Y50.5778
X68.2073 Y50.2166
X68.6418 Y49.8891
X69.1014 Y49.5974
X69.5831 Y49.3436
X70.0836 Y49.1291
X70.5999 Y48.9555
X71.1286 Y48.8238
X71.6662 Y48.735
X72.2092 Y48.6896
X72.7543 Y48.6879
X73.2979 Y48.73
X73.8373 Y48.8158
X74.3701 Y48.945
X74.8937 Y49.1175
X75.4057 Y49.3332
X75.9038 Y49.5919
X76.3855 Y49.8934
X76.8471 Y50.2369
X77.2846 Y50.6206
X77.6937 Y51.0422
X78.0703 Y51.4983
X78.4105 Y51.9854
X78.7113 Y52.4994
X78.9699 Y53.0362
X79.1844 Y53.5913
X79.3533 Y54.1607
X79.4756 Y54.74
X79.5507 Y55.3252
X79.5786 Y55.9125
X79.5592 Y56.4981
X79.4932 Y57.0785
X79.3811 Y57.6501
X79.2237 Y58.2097
X79.0223 Y58.7541
X78.778 Y59.2802
X78.4923 Y59.785
X78.1668 Y60.2655
X77.8033 Y60.719
X77.4038 Y61.1426
X76.9706 Y61.5337
X76.5061 Y61.8898
X76.0128 Y62.2085
X75.4939 Y62.4876
X74.9522 Y62.7249
X74.391 Y62.9188
X73.8138 Y63.0676
X73.2242 Y63.17
X72.6259 Y63.225
X72.0228 Y63.2318
X71.4186 Y63.19
X70.8176 Y63.0995
X70.2234 Y62.9606
X69.6403 Y62.7738
X69.0721 Y62.5399
X68.5227 Y62.2603
X67.9959 Y61.9365
X67.4952 Y61.5703
X67.0243 Y61.1641
X66.5863 Y60.7201
X66.1844 Y60.2413
X65.8214 Y59.7306
X65.4998 Y59.1913
X65.2221 Y58.6269
X64.9901 Y58.0408
X64.8056 Y57.4371
X64.6699 Y56.8196
X64.5841 Y56.1923
X64.5489 Y55.5594
X64.5647 Y54.9249
X64.6313 Y54.2931
X64.7486 Y53.6682
X64.9157 Y53.0541
X65.1318 Y52.455
X65.3954 Y51.8748
X65.705 Y51.3173
X66.0584 Y50.7862
X66.4536 Y50.2849
X66.8878 Y49.8168
X67.3584 Y49.3848
X67.8623 Y48.9919
X68.3963 Y48.6406
X68.9569 Y48.3332
X69.5405 Y48.0717
X70.1433 Y47.8579
X70.7614 Y47.6931
X71.3908 Y47.5784
X72.0276 Y47.5147
X72.6678 Y47.5022
X73.3079 Y47.5411
X73.9444 Y47.6316
X74.5739 Y47.7734
X75.1934 Y47.9663
X75.7997 Y48.21
X76.3892 Y48.5039
X76.9578 Y48.847
X77.5015 Y49.2379
X78.0161 Y49.6744
X78.4973 Y50.1542
X78.941 Y50.674
X79.3432 Y51.2301
X79.7005 Y51.8184
X80.0098 Y52.4342
X80.2688 Y53.0728
X80.4754 Y53.7295
X80.6283 Y54.3994
X80.7268 Y55.0778
X80.7704 Y55.7602
X80.7591 Y56.4421
X80.6933 Y57.1193
X80.5735 Y57.7877
X80.4009 Y58.4433
X80.1764 Y59.0821
X79.9015 Y59.7005
X79.5779 Y60.2949
X79.2074 Y60.8615
X78.7923 Y61.3972
X78.3349 Y61.8985
X77.8378 Y62.3624
X77.3038 Y62.7858
X76.7362 Y63.166
X76.1383 Y63.5003
X75.5135 Y63.7864
X74.8658 Y64.0222
X74.1991 Y64.2058
X73.5175 Y64.3358
X72.8253 Y64.4109
X72.127 Y64.4303
X71.4271 Y64.3934
X70.73 Y64.3002
X70.0405 Y64.1508
X69.3631 Y63.946
X68.7022 Y63.6866
X68.0624 Y63.3742
X67.4481 Y63.0103
X66.8633 Y62.5973
X66.3122 Y62.1374
X65.7986 Y61.6337
X65.326 Y61.0892
X64.8979 Y60.5073
X64.517 Y59.8918
X64.1862 Y59.2466
X63.9079 Y58.5758
X63.6839 Y57.8839
X63.5159 Y57.1752
X63.4052 Y56.4544
X63.3527 Y55.7263
X63.3588 Y54.9956
X63.4236 Y54.267
X63.5467 Y53.5454
X63.7275 Y52.8354
X63.9648 Y52.1418
X64.2573 Y51.4691
X64.6029 Y50.8216
X64.9996 Y50.2037
X65.4448 Y49.6194
X65.9356 Y49.0725
X66.469 Y48.5665
X67.0413 Y48.1049
X67.6491 Y47.6906
X68.2883 Y47.3263
X68.9547 Y47.0144
X69.6442 Y46.757
X70.3523 Y46.5557
X71.0743 Y46.4119
X71.8058 Y46.3264
X72.5424 Y46.2999
X73.2795 Y46.3327
X74.0116 Y46.4244
X74.7339 Y46.5745
X75.4421 Y46.7817
X76.1315 Y47.0444
X76.7981 Y47.3607
X77.4378 Y47.7283
X78.0471 Y48.1445
X78.6223 Y48.6065
X79.1605 Y49.1112
X79.6586 Y49.6555
X80.114 Y50.236
X80.5243 Y50.8492
X80.8873 Y51.4916
X81.201 Y52.1594
X81.4636 Y52.8489
X81.6736 Y53.5562
X81.8298 Y54.2773
X81.9311 Y55.0081
X81.9764 Y55.7445
X81.965 Y56.4823
X81.8969 Y57.2169
X81.7725 Y57.9442
X81.5928 Y58.6598
X81.3589 Y59.3595
X81.0723 Y60.0394
X80.7345 Y60.6954
X80.3476 Y61.3236
X79.9139 Y61.9205
X79.4359 Y62.4825
X78.9165 Y63.0065
X78.3587 Y63.4895
X77.7659 Y63.9288
X77.1416 Y64.3219
X76.4893 Y64.6668
X75.813 Y64.9616
X75.1164 Y65.2049
X74.4036 Y65.3954
X73.6785 Y65.5317
X72.9451 Y65.6123
X72.2077 Y65.637
X71.4705 Y65.6065
X70.7376 Y65.5213
X70.013 Y65.3823
X69.3006 Y65.1905
X68.604 Y64.9472
X67.9271 Y64.6538
X67.2732 Y64.312
X66.6457 Y63.9239
X66.0479 Y63.4915
X65.4834 Y63.0165
X64.956 Y62.5005
X64.4681 Y61.9469
X64.0218 Y61.3595
X63.6188 Y60.7414
X63.2612 Y60.0961
X62.9504 Y59.4269
X62.6879 Y58.7374
X62.475 Y58.0309
X62.3126 Y57.3112
X62.2032 Y56.5815
X62.1483 Y55.8458
X62.1468 Y55.108
X62.1981 Y54.3719
X62.3014 Y53.6414
X62.4561 Y52.92
X62.6612 Y52.2112
X62.9155 Y51.5186
X63.2179 Y50.8456
X63.5682 Y50.1963
X63.9655 Y49.5746
X64.4067 Y48.9832
X64.8889 Y48.4248
X65.4093 Y47.9017
X65.9651 Y47.4165
X66.5536 Y46.9715
X67.1719 Y46.5688
X67.8168 Y46.2104
X68.4861 Y45.8999
X69.1764 Y45.6396
X69.8837 Y45.4294
X70.6041 Y45.27
X71.3339 Y45.1616
X72.0695 Y45.1046
X72.8073 Y45.0992
X73.5437 Y45.1453
X74.275 Y45.243
X74.9972 Y45.394
X75.7066 Y45.5969
X76.3998 Y45.8493
X77.0739 Y46.1493
X77.7258 Y46.495
X78.3525 Y46.8843
X78.9514 Y47.3152
X79.5199 Y47.7855
X80.0551 Y48.2934
X80.5533 Y48.8376
X81.0128 Y49.4149
X81.4323 Y50.0218
X81.8103 Y50.6554
X82.1455 Y51.3127
X82.4365 Y51.9907
X82.6821 Y52.6865
X82.8812 Y53.3969
X83.0326 Y54.119
X83.1056 Y54.6501
X83.1095 Y54.6836
X83.1118 Y54.7172
X83.1125 Y54.751
Y56.1431
X83.0756 Y56.88
X83.0273 Y57.5545
X82.9198 Y58.2572
X82.75 Y58.9752
X82.5252 Y59.6779
X82.2501 Y60.3625
X81.928 Y61.0263
X81.5613 Y61.6666
X81.1523 Y62.2806
X80.7029 Y62.8658
X80.2154 Y63.4196
X79.6919 Y63.9395
X79.1334 Y64.4216
X78.5427 Y64.8638
X77.9235 Y65.2649
X77.2787 Y65.6236
X76.6116 Y65.9388
X76.3014 Y66.061
X76.2133 Y66.0894
X76.1223 Y66.1067
X76.0299 Y66.1125
X69.4406
X69.1053 Y66.0957
X68.7215 Y66.0454
X68.2983 Y65.9549
X67.8008 Y65.8059
X67.2209 Y65.58
X66.5979 Y65.2777
X65.9621 Y64.9034
X65.3583 Y64.4794
X64.7872 Y64.0123
X64.2498 Y63.5067
X63.7474 Y62.9663
X63.2814 Y62.3943
X62.8532 Y61.7935
X62.4641 Y61.1666
X62.1154 Y60.5164
X61.9546 Y60.1644
X61.9176 Y60.0653
X61.8951 Y59.962
X61.8875 Y59.8564
Y52.1216
X61.9073 Y51.7258
X61.9479 Y51.416
X62.0338 Y51.0144
X62.1584 Y50.5985
X62.3586 Y50.0844
X62.6359 Y49.5129
X62.9826 Y48.9241
X63.4067 Y48.3203
X63.8753 Y47.7504
X64.3822 Y47.2143
X64.9233 Y46.7127
X65.4953 Y46.2467
X66.0955 Y45.8176
X66.7214 Y45.427
X67.3709 Y45.0768
X68.0418 Y44.7698
X68.7317 Y44.5084
X69.4373 Y44.2926
X70.1552 Y44.1222
X70.8823 Y43.9974
X71.6159 Y43.9182
X72.3529 Y43.8847
X73.0907 Y43.8969
X73.8262 Y43.9551
X74.5565 Y44.0597
X75.2784 Y44.2123
X75.9886 Y44.4122
X76.6847 Y44.6569
X77.3641 Y44.9447
X78.0244 Y45.2737
X78.6635 Y45.6424
X79.2791 Y46.0492
X79.869 Y46.4924
X80.4311 Y46.9703
X80.9626 Y47.4819
X81.4605 Y48.0265
X81.923 Y48.6013
X82.3495 Y49.2034
X82.7389 Y49.8301
X83.0231 Y50.355
X83.0723 Y50.4671
X83.1024 Y50.5858
X83.1125 Y50.7078
Y54.751
G3 X83.0589 Y54.9168 I-0.3173 J-0.0111
G1 X82.8975 Y55.1572
G2 X82.8912 Y55.3896 I0.1806 J0.1212
G3 X83.1125 Y56.1431 I-1.3603 J0.8088
G1 Y60.1647
X83.1011 Y60.3921
X83.064 Y60.6756
X82.9912 Y61.0159
X82.8789 Y61.3907
X82.7034 Y61.8414
X82.4472 Y62.3694
X82.1223 Y62.9214
X81.6981 Y63.5251
X81.2279 Y64.0936
X80.7189 Y64.6277
X80.1757 Y65.1271
X79.6019 Y65.5909
X79.0607 Y65.9755
X78.9282 Y66.0505
X78.7831 Y66.0968
X78.6315 Y66.1125
G3 X78.3873 Y65.6065 I0.0111 J-0.3173
G1 X78.4441 Y65.5295
X82.5392 Y59.988
X82.5399 Y59.9871
G3 X83.1125 Y60.1647 I0.2553 J0.1887
G1 Y62.3431
X83.1025 Y62.5439
X83.0739 Y62.7621
X83.0216 Y63.0066
X82.942 Y63.2721
X82.8124 Y63.6051
X82.6478 Y63.9442
X82.3982 Y64.3682
X82.0787 Y64.823
X81.659 Y65.3287
X81.1437 Y65.8568
X81.0633 Y65.9276
X80.9167 Y66.0283
X80.7502 Y66.0911
X80.5736 Y66.1125
G3 X80.3176 Y65.6236 I0.0111 J-0.3173
G1 X80.3805 Y65.5256
X82.5281 Y62.1826
G3 X83.1125 Y62.3431 I0.2671 J0.1716
G1 Y64.1863
X83.1041 Y64.354
X83.0808 Y64.5317
X83.0348 Y64.7469
X82.9675 Y64.9714
X82.8675 Y65.2284
X82.7165 Y65.5395
X82.5941 Y65.7475
X82.4762 Y65.8988
X82.3233 Y66.0148
X82.1459 Y66.0877
X81.9556 Y66.1125
G3 X81.6849 Y65.649 I0.0111 J-0.3173
G1 X81.752 Y65.5195
X82.5134 Y64.0512
G3 X83.1125 Y64.1863 I0.2819 J0.1461
G1 Y65.619
Y65.6605
Y65.6944
X83.105 Y65.8442
X83.0954 Y65.8794
X83.0859 Y65.9066
X83.0746 Y65.9333
X83.0504 Y65.9575
X83.0189 Y65.971
X82.9846 Y65.9718
X82.9525 Y65.9598
X82.9272 Y65.9367
X82.9122 Y65.9059
X82.9098 Y65.8717
X82.9322 Y65.6867
X82.9424 Y65.6547
X82.9635 Y65.6286
X82.9927 Y65.612
X83.026 Y65.6072
X83.0587 Y65.6148
X83.0863 Y65.6338
X83.1051 Y65.6616
X83.1125 Y65.6944
Y65.7782
X83.1103 Y65.8201
X83.1025 Y65.862
X83.0911 Y65.8976
X83.0746 Y65.9333
X83.0523 Y65.9689
X83.0229 Y66.0046
X82.9984 Y66.0295
X82.9626 Y66.0578
X82.9268 Y66.0788
X82.891 Y66.0941
X82.8552 Y66.1045
X82.8133 Y66.1112
X82.7714 Y66.1125
X76.0299
G3 X75.8532 Y65.5392 I0.0111 J-0.3173
G1 X75.9101 Y65.4974 Z-1.992
X75.9642 Y65.4577 Z-1.9686
X76.0128 Y65.4221 Z-1.9307
X76.0533 Y65.3924 Z-1.8805
X76.0838 Y65.37 Z-1.8203
X76.1027 Y65.3561 Z-1.7531
X76.1092 Y65.3514 Z-1.6825
G0 Z5
X62.2711 Y53.148
Z-1.365
G1 Z-1.6825 F3500
X62.267 Y53.1412 Z-1.7532
X62.255 Y53.121 Z-1.8203
X62.2357 Y53.0885 Z-1.8805
X62.21 Y53.0453 Z-1.9307
X62.1792 Y52.9935 Z-1.9686
X62.1449 Y52.9359 Z-1.992
X62.1088 Y52.8751 Z-2
G3 X61.8875 Y52.1216 I1.3603 J-0.8088
G1 Y49.6081
X61.8952 Y49.4541
X61.9238 Y49.2359
X61.9814 Y48.9667
X62.0636 Y48.6921
X62.1955 Y48.3534
X62.3758 Y47.982
X62.6408 Y47.5318
X62.9685 Y47.0653
X63.4109 Y46.5324
X63.9261 Y46.0043
X64.4784 Y45.515
X65.0612 Y45.0625
X65.6703 Y44.6462
X66.303 Y44.2666
X66.9568 Y43.9247
X67.6297 Y43.6221
X68.3198 Y43.361
X69.0244 Y43.142
X69.7405 Y42.9645
X70.4656 Y42.8282
X71.1973 Y42.7332
X71.9331 Y42.6794
X72.6708 Y42.6669
X73.4081 Y42.6956
X74.1425 Y42.7661
X74.8717 Y42.8787
X75.593 Y43.0341
X76.3036 Y43.2328
X77.0013 Y43.4726
X77.6842 Y43.7519
X78.3504 Y44.069
X78.998 Y44.4225
X79.6253 Y44.811
X80.2304 Y45.2331
X80.8116 Y45.6877
X81.3668 Y46.1735
X81.894 Y46.6898
X82.3906 Y47.2354
X82.8547 Y47.8089
X82.9729 Y47.9732
X83.0494 Y48.1066
X83.0966 Y48.253
X83.1125 Y48.406
Y50.7078
G3 X82.5392 Y50.8845 I-0.3173 J-0.0111
G1 X82.4974 Y50.8275 Z-1.992
X82.4577 Y50.7734 Z-1.9686
X82.4221 Y50.7249 Z-1.9307
X82.3924 Y50.6844 Z-1.8805
X82.37 Y50.6539 Z-1.8203
X82.3561 Y50.6349 Z-1.7532
X82.3514 Y50.6285 Z-1.6825
G0 Z5
X70.467 Y65.7289
Z-1.365
G1 Z-1.6825 F3500
X70.4602 Y65.733 Z-1.7532
X70.44 Y65.745 Z-1.8203
X70.4075 Y65.7643 Z-1.8805
X70.3643 Y65.79 Z-1.9307
X70.3125 Y65.8208 Z-1.9686
X70.2549 Y65.8551 Z-1.992
X70.1941 Y65.8912 Z-2
G3 X69.4406 Y66.1125 I-0.8088 J-1.3603
G1 X66.9253
X66.6455 Y66.0985
X66.427 Y66.0698
X66.1572 Y66.0121
X65.8475 Y65.9194
X65.5057 Y65.7863
X65.1006 Y65.5897
X64.6397 Y65.3183
X64.1498 Y64.9742
X63.597 Y64.5153
X63.0689 Y64.0001
X62.5787 Y63.4486
X62.125 Y62.8668
X62.0175 Y62.7101
X61.9463 Y62.5801
X61.9023 Y62.4385
X61.8875 Y62.2909
G3 X62.394 Y62.047 I0.3173 J0.0111
G1 X62.4704 Y62.1037
X67.1021 Y65.5392
X67.1034 Y65.5402
G3 X66.9253 Y66.1125 I-0.1891 J0.255
G1 X64.9131
X64.7452 Y66.1041
X64.5669 Y66.0807
X64.3517 Y66.0347
X64.0917 Y65.9568
X63.8326 Y65.8559
X63.5109 Y65.6998
X63.1674 Y65.4976
X62.7519 Y65.2057
X62.324 Y64.8505
X62.111 Y64.6427
X61.9898 Y64.4881
X61.9135 Y64.3071
X61.8875 Y64.1124
G3 X62.3721 Y63.8536 I0.3173 J0.0111
G1 X62.4754 Y63.9177
X65.0693 Y65.5253
G3 X64.9131 Y66.1125 I-0.1673 J0.2699
G1 X63.2363
X63.0678 Y66.1041
X62.8902 Y66.0808
X62.7069 Y66.0416
X62.5018 Y65.9801
X62.3149 Y65.9073
X62.3049 Y65.9025
X62.1335 Y65.7873
X62.0005 Y65.6292
X61.9163 Y65.4406
X61.8875 Y65.236
G3 X62.3551 Y64.9674 I0.3173 J0.0111
G1 X62.4795 Y65.0342
X63.3755 Y65.5155
G3 X63.2363 Y66.1125 I-0.1502 J0.2797
G1 X62.2302
X62.1883 Y66.1104
X62.1464 Y66.1028
X62.1044 Y66.089
X62.0625 Y66.0681
X62.0051 Y66.0295
X61.9837 Y66.0106
X61.9624 Y65.9876
X61.9325 Y65.9458
X61.9115 Y65.9039
X61.8975 Y65.862
X61.8948 Y65.8507
X61.8888 Y65.8116
X61.8875 Y65.7726
Y59.8564
G3 X62.4608 Y59.6797 I0.3173 J0.0111
G1 X62.5026 Y59.7367 Z-1.992
X62.5423 Y59.7908 Z-1.9686
X62.5779 Y59.8393 Z-1.9307
X62.6076 Y59.8798 Z-1.8805
X62.63 Y59.9103 Z-1.8203
X62.6439 Y59.9293 Z-1.7532
X62.6486 Y59.9357 Z-1.6825
G0 Z5
X62.2711 Y50.6345
Z-1.365
G1 Z-1.6825 F3500
X62.267 Y50.6277 Z-1.7532
X62.255 Y50.6075 Z-1.8203
X62.2357 Y50.575 Z-1.8805
X62.21 Y50.5318 Z-1.9307
X62.1792 Y50.48 Z-1.9686
X62.1449 Y50.4224 Z-1.992
X62.1088 Y50.3616 Z-2
G3 X61.8875 Y49.6081 I1.3603 J-0.8088
G1 Y47.7648
X61.8962 Y47.5908
X61.9195 Y47.4131
X61.9655 Y47.1979
X62.0382 Y46.9553
X62.1383 Y46.6983
X62.2941 Y46.3773
X62.4844 Y46.0539
X62.7665 Y45.6524
X63.1167 Y45.2305
X63.5809 Y44.7547
X64.1369 Y44.2697
X64.7272 Y43.8271
X65.3445 Y43.423
X65.9844 Y43.0558
X66.644 Y42.7252
X67.321 Y42.4317
X68.013 Y42.1758
X68.7178 Y41.9577
X69.4336 Y41.7787
X70.1579 Y41.6383
X70.8886 Y41.5359
X71.6236 Y41.4714
X72.3609 Y41.4445
X73.0986 Y41.4554
X73.8349 Y41.5042
X74.5675 Y41.5912
X75.2946 Y41.7166
X76.014 Y41.8806
X76.7236 Y42.0826
X77.4214 Y42.3224
X78.1053 Y42.5992
X78.7739 Y42.9112
X79.4257 Y43.2569
X80.0592 Y43.635
X80.6731 Y44.0443
X81.2657 Y44.4838
X81.8356 Y44.9525
X82.381 Y45.4494
X82.9002 Y45.9736
X82.9244 Y46.0008
X83.0268 Y46.1482
X83.0908 Y46.3159
X83.1125 Y46.4941
Y48.406
G3 X82.5392 Y48.5827 I-0.3173 J-0.0111
G1 X82.4974 Y48.5257 Z-1.992
X82.4577 Y48.4716 Z-1.9686
X82.4221 Y48.4231 Z-1.9307
X82.3924 Y48.3826 Z-1.8805
X82.37 Y48.3521 Z-1.8203
X82.3561 Y48.3331 Z-1.7532
X82.3514 Y48.3267 Z-1.6825
G0 Z5
X62.2711 Y48.7913
Z-1.365
G1 Z-1.6825 F3500
X62.267 Y48.7845 Z-1.7532
X62.255 Y48.7643 Z-1.8203
X62.2357 Y48.7318 Z-1.8805
X62.21 Y48.6886 Z-1.9307
X62.1792 Y48.6368 Z-1.9686
X62.1449 Y48.5791 Z-1.992
X62.1088 Y48.5184 Z-2
G3 X61.8875 Y47.7648 I1.3603 J-0.8088
G1 Y46.0892
X61.8952 Y45.9357
X61.9182 Y45.76
X61.9563 Y45.582
X62.0195 Y45.3712
X62.1171 Y45.1204
X62.2379 Y44.8714
X62.4194 Y44.5632
X62.6449 Y44.2422
X62.9649 Y43.8566
X63.3489 Y43.463
X63.8647 Y43.0131
X64.4578 Y42.5742
X65.0807 Y42.1787
X65.7266 Y41.8221
X66.3914 Y41.5021
X67.0722 Y41.2177
X67.7666 Y40.9685
X68.4728 Y40.7548
X69.1888 Y40.5765
X69.9128 Y40.4346
X70.643 Y40.3286
X71.3774 Y40.2578
X72.1143 Y40.2219
X72.8521 Y40.2209
X73.5892 Y40.2547
X74.3238 Y40.3236
X75.0542 Y40.4275
X75.7788 Y40.5665
X76.4959 Y40.7404
X77.2036 Y40.9489
X77.9004 Y41.1916
X78.5844 Y41.4682
X79.254 Y41.778
X79.9081 Y42.1194
X80.5454 Y42.4911
X81.1648 Y42.8919
X81.7651 Y43.3209
X82.345 Y43.7772
X82.8563 Y44.2195
X82.9947 Y44.3789
X83.0825 Y44.5709
X83.1125 Y44.7798
Y46.4941
G3 X82.5392 Y46.6708 I-0.3173 J-0.0111
G1 X82.4974 Y46.6139 Z-1.992
X82.4577 Y46.5598 Z-1.9686
X82.4221 Y46.5112 Z-1.9307
X82.3924 Y46.4707 Z-1.8805
X82.37 Y46.4402 Z-1.8203
X82.3561 Y46.4213 Z-1.7532
X82.3514 Y46.4148 Z-1.6825
G0 Z5
X62.2711 Y47.1157
Z-1.365
G1 Z-1.6825 F3500
X62.267 Y47.1088 Z-1.7532
X62.255 Y47.0886 Z-1.8203
X62.2357 Y47.0561 Z-1.8805
X62.21 Y47.0129 Z-1.9307
X62.1792 Y46.9612 Z-1.9686
X62.1449 Y46.9035 Z-1.992
X62.1088 Y46.8428 Z-2
G3 X61.8875 Y46.0892 I1.3603 J-0.8088
G1 Y44.5811
X61.8977 Y44.378
X61.9172 Y44.2293
X61.9547 Y44.054
X62.0159 Y43.8496
X62.096 Y43.644
X62.2165 Y43.3958
X62.3755 Y43.1259
X62.5812 Y42.8332
X62.8593 Y42.4981
X63.2175 Y42.1311
X63.6645 Y41.7413
X64.2537 Y41.3055
X64.8801 Y40.9157
X65.5308 Y40.5679
X66.2002 Y40.2576
X66.8848 Y39.9825
X67.5821 Y39.7413
X68.2901 Y39.5336
X69.007 Y39.3592
X69.7312 Y39.2182
X70.4612 Y39.1108
X71.1953 Y39.0369
X71.9319 Y38.996
X72.6697 Y38.9875
X73.4071 Y39.0115
X74.1428 Y39.0679
X74.8752 Y39.1566
X75.6031 Y39.2776
X76.3248 Y39.4309
X77.039 Y39.616
X77.7442 Y39.8329
X78.439 Y40.0812
X79.1219 Y40.3605
X79.7916 Y40.6701
X80.4466 Y41.0098
X81.0859 Y41.378
X81.7087 Y41.7737
X82.3138 Y42.1958
X82.8212 Y42.5832
X82.9778 Y42.7461
X83.0781 Y42.9487
X83.1125 Y43.1721
Y44.7798
G3 X82.5392 Y44.9566 I-0.3173 J-0.0111
G1 X82.4974 Y44.8996 Z-1.992
X82.4577 Y44.8455 Z-1.9686
X82.4221 Y44.7969 Z-1.9307
X82.3924 Y44.7564 Z-1.8805
X82.37 Y44.7259 Z-1.8203
X82.3561 Y44.707 Z-1.7532
X82.3514 Y44.7006 Z-1.6825
G0 Z5
X62.2711 Y45.6076
Z-1.365
G1 Z-1.6825 F3500
X62.267 Y45.6007 Z-1.7532
X62.255 Y45.5805 Z-1.8203
X62.2357 Y45.548 Z-1.8805
X62.21 Y45.5048 Z-1.9307
X62.1792 Y45.4531 Z-1.9686
X62.1449 Y45.3954 Z-1.992
X62.1088 Y45.3347 Z-2
G3 X61.8875 Y44.5811 I1.3603 J-0.8088
G1 Y43.073
X61.8956 Y42.9116
X61.9151 Y42.7628
X61.9528 Y42.5874
X62.0065 Y42.4091
X62.0869 Y42.2035
X62.2023 Y41.9663
X62.343 Y41.728
X62.5498 Y41.4345
X62.7917 Y41.1438
X63.1332 Y40.7947
X63.5338 Y40.4461
X64.071 Y40.0497
X64.6979 Y39.6607
X65.3511 Y39.3176
X66.0235 Y39.0139
X66.7109 Y38.7458
X67.4104 Y38.511
X68.1198 Y38.3084
X68.8375 Y38.1373
X69.562 Y37.9976
X70.2918 Y37.8895
X71.0257 Y37.8133
X71.7621 Y37.7682
X72.4998 Y37.7536
X73.2374 Y37.7694
X73.9738 Y37.8154
X74.7077 Y37.8916
X75.4378 Y37.9977
X76.163 Y38.1338
X76.882 Y38.2995
X77.5935 Y38.4948
X78.2963 Y38.7194
X78.9892 Y38.9728
X79.671 Y39.2549
X80.3404 Y39.5652
X80.996 Y39.9036
X81.6369 Y40.2692
X82.2623 Y40.6606
X82.8265 Y41.0463
X82.8375 Y41.0553
X82.9857 Y41.2168
X83.0801 Y41.4145
X83.1125 Y41.6313
Y43.1721
G3 X82.5392 Y43.3488 I-0.3173 J-0.0111
G1 X82.4974 Y43.2918 Z-1.992
X82.4577 Y43.2377 Z-1.9686
X82.4221 Y43.1892 Z-1.9307
X82.3924 Y43.1487 Z-1.8805
X82.37 Y43.1182 Z-1.8203
X82.3561 Y43.0992 Z-1.7532
X82.3514 Y43.0928 Z-1.6825
G0 Z5
X62.2711 Y44.0995
Z-1.365
G1 Z-1.6825 F3500
X62.267 Y44.0926 Z-1.7532
X62.255 Y44.0724 Z-1.8203
X62.2357 Y44.0399 Z-1.8805
X62.21 Y43.9967 Z-1.9307
X62.1792 Y43.945 Z-1.9686
X62.1449 Y43.8873 Z-1.992
X62.1088 Y43.8266 Z-2
G3 X61.8875 Y43.073 I1.3603 J-0.8088
G1 Y41.6403
X61.8951 Y41.4888
X61.9146 Y41.3401
X61.9502 Y41.1749
X62.0019 Y41.0032
X62.0821 Y40.7981
X62.1848 Y40.5873
X62.3251 Y40.3497
X62.5162 Y40.0786
X62.7451 Y39.8036
X63.0614 Y39.4804
X63.4474 Y39.1447
X63.9401 Y38.7813
X64.5671 Y38.3924
X65.2225 Y38.0535
X65.8977 Y37.7561
X66.5878 Y37.495
X67.2895 Y37.267
X68.0006 Y37.0703
X68.7194 Y36.9039
X69.4445 Y36.7674
X70.1745 Y36.6607
X70.9083 Y36.5836
X71.6446 Y36.5363
X72.3822 Y36.5181
X73.1199 Y36.5286
X73.8567 Y36.5676
X74.5915 Y36.6348
X75.3231 Y36.7301
X76.0506 Y36.8533
X76.7728 Y37.0043
X77.4886 Y37.1829
X78.1971 Y37.3889
X78.8971 Y37.622
X79.5876 Y37.882
X80.2675 Y38.1686
X80.9357 Y38.4815
X81.5911 Y38.8203
X82.2327 Y39.1847
X82.7342 Y39.496
X82.8117 Y39.5532
X82.9732 Y39.7168
X83.0768 Y39.9221
X83.1125 Y40.1492
Y41.6313
G3 X82.5392 Y41.808 I-0.3173 J-0.0111
G1 X82.4974 Y41.7511 Z-1.992
X82.4577 Y41.697 Z-1.9686
X82.4221 Y41.6484 Z-1.9307
X82.3924 Y41.6079 Z-1.8805
X82.37 Y41.5774 Z-1.8203
X82.3561 Y41.5585 Z-1.7532
X82.3514 Y41.5521 Z-1.6825
G0 Z5
X62.2711 Y42.6668
Z-1.365
G1 Z-1.6825 F3500
X62.267 Y42.6599 Z-1.7532
X62.255 Y42.6397 Z-1.8203
X62.2357 Y42.6072 Z-1.8805
X62.21 Y42.564 Z-1.9307
X62.1792 Y42.5123 Z-1.9686
X62.1449 Y42.4546 Z-1.992
X62.1088 Y42.3939 Z-2
G3 X61.8875 Y41.6403 I1.3603 J-0.8088
G1 Y40.2244
X61.895 Y40.0746
X61.9174 Y39.9241
X61.9529 Y39.7713
X62.0095 Y39.5936
X62.0917 Y39.393
X62.1956 Y39.188
X62.3468 Y38.9413
X62.524 Y38.6981
X62.771 Y38.4109
X63.0709 Y38.1141
X63.4749 Y37.7739
X63.953 Y37.433
X64.5861 Y37.0542
X65.2476 Y36.7274
X65.9284 Y36.4429
X66.6232 Y36.1947
X67.3288 Y35.9792
X68.0431 Y35.7942
X68.7643 Y35.6384
X69.491 Y35.5112
X70.2221 Y35.412
X70.9565 Y35.3408
X71.693 Y35.2972
X72.4307 Y35.2809
X73.1684 Y35.2915
X73.9053 Y35.3293
X74.6402 Y35.3942
X75.3723 Y35.4859
X76.1006 Y35.6039
X76.8242 Y35.7481
X77.5421 Y35.9182
X78.2535 Y36.1141
X78.9573 Y36.3355
X79.6527 Y36.5821
X80.3386 Y36.8538
X81.0143 Y37.1503
X81.6786 Y37.4712
X82.3308 Y37.8162
X82.7332 Y38.0547
X82.7993 Y38.1014
X82.9303 Y38.2197
X83.0296 Y38.3657
X83.0915 Y38.5311
X83.1125 Y38.7064
Y40.1492
G3 X82.5392 Y40.326 I-0.3173 J-0.0111
G1 X82.4974 Y40.269 Z-1.992
X82.4577 Y40.2149 Z-1.9686
X82.4221 Y40.1664 Z-1.9307
X82.3924 Y40.1258 Z-1.8805
X82.37 Y40.0953 Z-1.8203
X82.3561 Y40.0764 Z-1.7532
X82.3514 Y40.07 Z-1.6825
G0 Z5
X62.2711 Y41.2508
Z-1.365
G1 Z-1.6825 F3500
X62.267 Y41.244 Z-1.7532
X62.255 Y41.2238 Z-1.8203
X62.2357 Y41.1913 Z-1.8805
X62.21 Y41.1481 Z-1.9307
X62.1792 Y41.0963 Z-1.9686
X62.1449 Y41.0387 Z-1.992
X62.1088 Y40.9779 Z-2
G3 X61.8875 Y40.2244 I1.3603 J-0.8088
G1 Y38.8838
X61.895 Y38.734
X61.915 Y38.5854
X61.9486 Y38.4341
X62 Y38.267
X62.0789 Y38.0689
X62.1761 Y37.8722
X62.3137 Y37.6425
X62.487 Y37.3997
X62.7096 Y37.1356
X63.0026 Y36.8397
X63.3594 Y36.5332
X63.8093 Y36.2054
X64.3969 Y35.8459
X65.0551 Y35.5125
X65.7346 Y35.225
X66.4291 Y34.9758
X67.1347 Y34.7601
X67.8489 Y34.575
X68.5699 Y34.4185
X69.2964 Y34.2897
X70.0272 Y34.1884
X70.7613 Y34.1141
X71.4976 Y34.0661
X72.235 Y34.0439
X72.9728 Y34.0475
X73.7101 Y34.0766
X74.4459 Y34.1312
X75.1794 Y34.2109
X75.9097 Y34.3156
X76.6361 Y34.4451
X77.3576 Y34.5991
X78.0736 Y34.7775
X78.7831 Y34.98
X79.4853 Y35.2064
X80.1794 Y35.4566
X80.8646 Y35.7302
X81.54 Y36.0271
X82.2047 Y36.3473
X82.6443 Y36.586
X82.7763 Y36.672
X82.9164 Y36.7905
X83.0231 Y36.9397
X83.0898 Y37.1106
X83.1125 Y37.2926
Y38.7064
G3 X82.5392 Y38.8831 I-0.3173 J-0.0111
G1 X82.4974 Y38.8261 Z-1.992
X82.4577 Y38.772 Z-1.9686
X82.4221 Y38.7235 Z-1.9307
X82.3924 Y38.683 Z-1.8805
X82.37 Y38.6525 Z-1.8203
X82.3561 Y38.6335 Z-1.7532
X82.3514 Y38.6271 Z-1.6825
G0 Z5
X62.2711 Y39.9103
Z-1.365
G1 Z-1.6825 F3500
X62.267 Y39.9035 Z-1.7532
X62.255 Y39.8833 Z-1.8203
X62.2357 Y39.8508 Z-1.8805
X62.21 Y39.8076 Z-1.9307
X62.1792 Y39.7558 Z-1.9686
X62.1449 Y39.6981 Z-1.992
X62.1088 Y39.6374 Z-2
G3 X61.8875 Y38.8838 I1.3603 J-0.8088
G1 Y37.5433
X61.895 Y37.3935
X61.9151 Y37.2448
X61.9477 Y37.0984
X62.0009 Y36.9266
X62.0743 Y36.743
X62.1725 Y36.545
X62.311 Y36.3146
X62.4727 Y36.0889
X62.7048 Y35.8144
X62.9682 Y35.5493
X63.3377 Y35.2327
X63.7616 Y34.925
X64.3255 Y34.5812
X64.9842 Y34.2488
X65.665 Y33.9644
X66.3609 Y33.7193
X67.0678 Y33.508
X67.7831 Y33.3272
X68.505 Y33.1746
X69.2321 Y33.0491
X69.9632 Y32.9499
X70.6973 Y32.8761
X71.4335 Y32.8273
X72.1709 Y32.8036
X72.9087 Y32.8047
X73.6461 Y32.8303
X74.3822 Y32.8801
X75.1164 Y32.9537
X75.8478 Y33.0509
X76.5756 Y33.1716
X77.2993 Y33.3156
X78.0179 Y33.4827
X78.7309 Y33.6726
X79.4374 Y33.8852
X80.1367 Y34.1204
X80.8281 Y34.3779
X81.5109 Y34.6575
X82.184 Y34.9598
X82.6087 Y35.1786
X82.7627 Y35.2742
X82.9081 Y35.3925
X83.0192 Y35.5435
X83.0888 Y35.7175
X83.1125 Y35.9035
Y37.2926
G3 X82.5392 Y37.4694 I-0.3173 J-0.0111
G1 X82.4974 Y37.4124 Z-1.992
X82.4577 Y37.3583 Z-1.9686
X82.4221 Y37.3098 Z-1.9307
X82.3924 Y37.2692 Z-1.8805
X82.37 Y37.2387 Z-1.8203
X82.3561 Y37.2198 Z-1.7532
X82.3514 Y37.2134 Z-1.6825
G0 Z5
X62.2711 Y38.5698
Z-1.365
G1 Z-1.6825 F3500
X62.267 Y38.5629 Z-1.7532
X62.255 Y38.5428 Z-1.8203
X62.2357 Y38.5102 Z-1.8805
X62.21 Y38.467 Z-1.9307
X62.1792 Y38.4153 Z-1.9686
X62.1449 Y38.3576 Z-1.992
X62.1088 Y38.2969 Z-2
G3 X61.8875 Y37.5433 I1.3603 J-0.8088
G1 Y36.2028
X61.895 Y36.053
X61.9166 Y35.9045
X61.9516 Y35.7566
X62.0084 Y35.5807
X62.0825 Y35.4019
X62.1862 Y35.1994
X62.3228 Y34.9785
X62.4924 Y34.7478
X62.7257 Y34.4786
X62.9925 Y34.2167
X63.359 Y33.9106
X63.8025 Y33.597
X64.3605 Y33.2662
X65.0233 Y32.9421
X65.7076 Y32.6664
X66.4066 Y32.4302
X67.1161 Y32.2276
X67.8334 Y32.0551
X68.5569 Y31.9102
X69.2851 Y31.7915
X70.0169 Y31.6978
X70.7515 Y31.6286
X71.4879 Y31.5833
X72.2254 Y31.5618
X72.9632 Y31.5637
X73.7006 Y31.5888
X74.4369 Y31.6372
X75.1712 Y31.7086
X75.903 Y31.8027
X76.6316 Y31.9192
X77.3562 Y32.0578
X78.0764 Y32.2184
X78.7913 Y32.4006
X79.5004 Y32.6045
X80.203 Y32.8298
X80.8984 Y33.0763
X81.5859 Y33.344
X82.2638 Y33.6354
X82.6436 Y33.831
X82.7626 Y33.9049
X82.908 Y34.0232
X83.0192 Y34.1742
X83.0888 Y34.3482
X83.1125 Y34.5342
Y35.9035
G3 X82.5392 Y36.0802 I-0.3173 J-0.0111
G1 X82.4974 Y36.0233 Z-1.992
X82.4577 Y35.9692 Z-1.9686
X82.4221 Y35.9206 Z-1.9307
X82.3924 Y35.8801 Z-1.8805
X82.37 Y35.8496 Z-1.8203
X82.3561 Y35.8307 Z-1.7532
X82.3514 Y35.8242 Z-1.6825
G0 Z5
X62.2711 Y37.2293
Z-1.365
G1 Z-1.6825 F3500
X62.267 Y37.2224 Z-1.7532
X62.255 Y37.2022 Z-1.8203
X62.2357 Y37.1697 Z-1.8805
X62.21 Y37.1265 Z-1.9307
X62.1792 Y37.0748 Z-1.9686
X62.1449 Y37.0171 Z-1.992
X62.1088 Y36.9564 Z-2
G3 X61.8875 Y36.2028 I1.3603 J-0.8088
G1 Y34.8623
X61.895 Y34.7124
X61.9197 Y34.5645
X61.9579 Y34.415
X62.0189 Y34.2376
X62.0973 Y34.0581
X62.2065 Y33.8542
X62.3504 Y33.6308
X62.5275 Y33.3989
X62.7684 Y33.1313
X63.0461 Y32.8686
X63.4219 Y32.5663
X63.8839 Y32.2523
X64.4547 Y31.9281
X65.1234 Y31.6163
X65.8124 Y31.3524
X66.515 Y31.1273
X67.2274 Y30.9352
X67.9471 Y30.7725
X68.6722 Y30.6367
X69.4017 Y30.5261
X70.1345 Y30.4396
X70.8696 Y30.3765
X71.6063 Y30.3363
X72.3439 Y30.3187
X73.0817 Y30.3234
X73.819 Y30.3503
X74.5552 Y30.3991
X75.2896 Y30.4698
X76.0216 Y30.5624
X76.7505 Y30.6767
X77.4758 Y30.8121
X78.1968 Y30.9686
X78.9131 Y31.1458
X79.6239 Y31.3436
X80.3287 Y31.5617
X81.0269 Y31.8002
X81.7176 Y32.0595
X82.3384 Y32.3208
X82.677 Y32.4965
X82.7646 Y32.5513
X82.9093 Y32.6696
X83.0197 Y32.8204
X83.089 Y32.994
X83.1125 Y33.1794
Y34.5342
G3 X82.5392 Y34.7109 I-0.3173 J-0.0111
G1 X82.4974 Y34.654 Z-1.992
X82.4577 Y34.5999 Z-1.9686
X82.4221 Y34.5513 Z-1.9307
X82.3924 Y34.5108 Z-1.8805
X82.37 Y34.4803 Z-1.8203
X82.3561 Y34.4614 Z-1.7532
X82.3514 Y34.455 Z-1.6825
G0 Z5
X62.2711 Y35.8887
Z-1.365
G1 Z-1.6825 F3500
X62.267 Y35.8819 Z-1.7532
X62.255 Y35.8617 Z-1.8203
X62.2357 Y35.8292 Z-1.8805
X62.21 Y35.786 Z-1.9307
X62.1792 Y35.7342 Z-1.9686
X62.1449 Y35.6765 Z-1.992
X62.1088 Y35.6158 Z-2
G3 X61.8875 Y34.8623 I1.3603 J-0.8088
G1 Y33.5971
X61.895 Y33.4473
X61.9161 Y33.2988
X61.95 Y33.1527
X62.0019 Y32.9907
X62.079 Y32.8034
X62.1737 Y32.6172
X62.3094 Y32.3963
X62.4726 Y32.1731
X62.6897 Y31.9213
X62.9561 Y31.6584
X63.2996 Y31.37
X63.7112 Y31.0773
X64.2513 Y30.7552
X64.9132 Y30.4293
X65.5983 Y30.1555
X66.2987 Y29.9234
X67.0096 Y29.726
X67.7282 Y29.5589
X68.4527 Y29.4189
X69.1815 Y29.3045
X69.9138 Y29.2141
X70.6485 Y29.1467
X71.385 Y29.1016
X72.1224 Y29.0782
X72.8602 Y29.0762
X73.5978 Y29.0954
X74.3345 Y29.1357
X75.0698 Y29.1969
X75.803 Y29.2789
X76.5337 Y29.3814
X77.2612 Y29.5044
X77.985 Y29.6474
X78.7046 Y29.8104
X79.4194 Y29.9931
X80.129 Y30.1954
X80.8326 Y30.4172
X81.5297 Y30.659
X82.2177 Y30.9255
X82.5917 Y31.105
X82.7449 Y31.1944
X82.8972 Y31.3122
X83.0141 Y31.4653
X83.0875 Y31.6434
X83.1125 Y31.8344
Y33.1794
G3 X82.5392 Y33.3561 I-0.3173 J-0.0111
G1 X82.4974 Y33.2991 Z-1.992
X82.4577 Y33.245 Z-1.9686
X82.4221 Y33.1965 Z-1.9307
X82.3924 Y33.156 Z-1.8805
X82.37 Y33.1255 Z-1.8203
X82.3561 Y33.1065 Z-1.7532
X82.3514 Y33.1001 Z-1.6825
G0 Z5
X62.2711 Y34.6236
Z-1.365
G1 Z-1.6825 F3500
X62.267 Y34.6168 Z-1.7532
X62.255 Y34.5966 Z-1.8203
X62.2357 Y34.5641 Z-1.8805
X62.21 Y34.5209 Z-1.9307
X62.1792 Y34.4691 Z-1.9686
X62.1449 Y34.4114 Z-1.992
X62.1088 Y34.3507 Z-2
G3 X61.8875 Y33.5971 I1.3603 J-0.8088
G1 Y32.3488
X61.8965 Y32.1683
X61.916 Y32.0196
X61.9489 Y31.8733
X62.0019 Y31.7048
X62.0709 Y31.5342
X62.1681 Y31.3404
X62.2959 Y31.1299
X62.4547 Y30.91
X62.6721 Y30.6551
X62.9203 Y30.4074
X63.266 Y30.1138
X63.6606 Y29.8299
X64.1739 Y29.5198
X64.834 Y29.1903
X65.5184 Y28.9147
X66.2186 Y28.6821
X66.9296 Y28.4849
X67.6484 Y28.3183
X68.3729 Y28.1791
X69.1019 Y28.065
X69.8341 Y27.9743
X70.5687 Y27.9061
X71.3051 Y27.8594
X72.0424 Y27.8341
X72.7802 Y27.8297
X73.5179 Y27.8458
X74.2548 Y27.8822
X74.9905 Y27.9386
X75.7243 Y28.0148
X76.4559 Y28.1108
X77.1846 Y28.2262
X77.91 Y28.3608
X78.6316 Y28.5146
X79.3489 Y28.6874
X80.0615 Y28.8789
X80.7687 Y29.0892
X81.4697 Y29.3193
X82.1621 Y29.5742
X82.5484 Y29.7511
X82.7331 Y29.8542
X82.89 Y29.9716
X83.0107 Y30.126
X83.0866 Y30.3067
X83.1125 Y30.501
Y31.8344
G3 X82.5392 Y32.0111 I-0.3173 J-0.0111
G1 X82.4974 Y31.9541 Z-1.992
X82.4577 Y31.9 Z-1.9686
X82.4221 Y31.8515 Z-1.9307
X82.3924 Y31.811 Z-1.8805
X82.37 Y31.7805 Z-1.8203
X82.3561 Y31.7615 Z-1.7532
X82.3514 Y31.7551 Z-1.6825
G0 Z5
X62.2711 Y33.3752
Z-1.365
G1 Z-1.6825 F3500
X62.267 Y33.3684 Z-1.7532
X62.255 Y33.3482 Z-1.8203
X62.2357 Y33.3157 Z-1.8805
X62.21 Y33.2725 Z-1.9307
X62.1792 Y33.2207 Z-1.9686
X62.1449 Y33.1631 Z-1.992
X62.1088 Y33.1023 Z-2
G3 X61.8875 Y32.3488 I1.3603 J-0.8088
G1 Y31.0082
X61.895 Y30.8584
X61.917 Y30.71
X61.9536 Y30.5609
X62.0102 Y30.3908
X62.0832 Y30.2187
X62.1897 Y30.015
X62.3166 Y29.8134
X62.4904 Y29.5812
X62.7031 Y29.3399
X62.9763 Y29.0762
X63.3171 Y28.7964
X63.753 Y28.4936
X64.2657 Y28.1954
X64.9312 Y27.8769
X65.6196 Y27.6114
X66.3227 Y27.3879
X67.036 Y27.1992
X67.7565 Y27.0404
X68.4824 Y26.9083
X69.2123 Y26.8005
X69.9452 Y26.7154
X70.6803 Y26.652
X71.4169 Y26.6095
X72.1544 Y26.5875
X72.8922 Y26.5855
X73.6298 Y26.6032
X74.3667 Y26.6402
X75.1023 Y26.6965
X75.8363 Y26.7718
X76.5681 Y26.8663
X77.2971 Y26.9796
X78.023 Y27.1115
X78.7454 Y27.2618
X79.4637 Y27.4303
X80.1776 Y27.6168
X80.8864 Y27.8217
X81.589 Y28.0468
X82.2126 Y28.2756
X82.5754 Y28.4428
X82.7348 Y28.5325
X82.8911 Y28.65
X83.0112 Y28.8042
X83.0867 Y28.9845
X83.1125 Y29.1782
Y30.501
G3 X82.5392 Y30.6777 I-0.3173 J-0.0111
G1 X82.4974 Y30.6207 Z-1.992
X82.4577 Y30.5666 Z-1.9686
X82.4221 Y30.5181 Z-1.9307
X82.3924 Y30.4776 Z-1.8805
X82.37 Y30.4471 Z-1.8203
X82.3561 Y30.4281 Z-1.7532
X82.3514 Y30.4217 Z-1.6825
G0 Z5
X62.2711 Y32.0347
Z-1.365
G1 Z-1.6825 F3500
X62.267 Y32.0279 Z-1.7532
X62.255 Y32.0077 Z-1.8203
X62.2357 Y31.9752 Z-1.8805
X62.21 Y31.932 Z-1.9307
X62.1792 Y31.8802 Z-1.9686
X62.1449 Y31.8225 Z-1.992
X62.1088 Y31.7618 Z-2
G3 X61.8875 Y31.0082 I1.3603 J-0.8088
G1 Y29.7431
X61.895 Y29.5933
X61.9158 Y29.4447
X61.9497 Y29.2986
X62.0036 Y29.1317
X62.0746 Y28.9601
X62.1726 Y28.7687
X62.3052 Y28.554
X62.4642 Y28.3374
X62.6828 Y28.0852
X62.9302 Y27.842
X63.277 Y27.5522
X63.6664 Y27.2766
X64.1774 Y26.9733
X64.8318 Y26.653
X65.5184 Y26.3829
X66.2206 Y26.1564
X66.9333 Y25.9658
X67.6536 Y25.8057
X68.3792 Y25.6723
X69.109 Y25.5633
X69.8417 Y25.4767
X70.5766 Y25.4115
X71.3131 Y25.367
X72.0505 Y25.3425
X72.7883 Y25.3376
X73.526 Y25.3517
X74.2631 Y25.3845
X74.9991 Y25.4359
X75.7336 Y25.5056
X76.4661 Y25.5936
X77.1963 Y25.6997
X77.9236 Y25.8237
X78.6477 Y25.9654
X79.3681 Y26.1246
X80.0845 Y26.3013
X80.7962 Y26.4959
X81.502 Y26.7106
X82.1625 Y26.9419
X82.5377 Y27.1082
X82.7253 Y27.2101
X82.8852 Y27.3271
X83.0084 Y27.4824
X83.086 Y27.6647
X83.1125 Y27.8611
Y29.1782
G3 X82.5392 Y29.355 I-0.3173 J-0.0111
G1 X82.4974 Y29.298 Z-1.992
X82.4577 Y29.2439 Z-1.9686
X82.4221 Y29.1954 Z-1.9307
X82.3924 Y29.1549 Z-1.8805
X82.37 Y29.1244 Z-1.8203
X82.3561 Y29.1054 Z-1.7532
X82.3514 Y29.099 Z-1.6825
G0 Z5
X62.2711 Y30.7696
Z-1.365
G1 Z-1.6825 F3500
X62.267 Y30.7627 Z-1.7532
X62.255 Y30.7426 Z-1.8203
X62.2357 Y30.71 Z-1.8805
X62.21 Y30.6668 Z-1.9307
X62.1792 Y30.6151 Z-1.9686
X62.1449 Y30.5574 Z-1.992
X62.1088 Y30.4967 Z-2
G3 X61.8875 Y29.7431 I1.3603 J-0.8088
G1 Y28.4947
X61.8959 Y28.3269
X61.9154 Y28.1782
X61.9487 Y28.0319
X62.0019 Y27.8644
X62.0702 Y27.6971
X62.1681 Y27.5032
X62.2915 Y27.3011
X62.4513 Y27.0813
X62.6588 Y26.8393
X62.9082 Y26.5918
X63.2404 Y26.3113
X63.6313 Y26.0316
X64.1241 Y25.7359
X64.7604 Y25.4205
X65.4456 Y25.1469
X66.1471 Y24.9184
X66.8596 Y24.7267
X67.5797 Y24.5659
X68.3052 Y24.432
X69.0349 Y24.3225
X69.7675 Y24.2352
X70.5023 Y24.169
X71.2387 Y24.123
X71.9761 Y24.0966
X72.7139 Y24.0894
X73.4516 Y24.1008
X74.1888 Y24.1303
X74.9251 Y24.1778
X75.66 Y24.2431
X76.3932 Y24.3259
X77.1242 Y24.426
X77.8526 Y24.5434
X78.578 Y24.6778
X79.3002 Y24.8292
X80.0185 Y24.9975
X80.7325 Y25.1835
X81.4409 Y25.3896
X82.1203 Y25.6179
X82.5051 Y25.7826
X82.7554 Y25.9144
X82.7684 Y25.9227
X82.9116 Y26.041
X83.0208 Y26.1913
X83.0892 Y26.364
X83.1125 Y26.5483
Y27.8611
G3 X82.5392 Y28.0379 I-0.3173 J-0.0111
G1 X82.4974 Y27.9809 Z-1.992
X82.4577 Y27.9268 Z-1.9686
X82.4221 Y27.8782 Z-1.9307
X82.3924 Y27.8377 Z-1.8805
X82.37 Y27.8072 Z-1.8203
X82.3561 Y27.7883 Z-1.7532
X82.3514 Y27.7819 Z-1.6825
G0 Z5
X62.2711 Y29.5212
Z-1.365
G1 Z-1.6825 F3500
X62.267 Y29.5144 Z-1.7532
X62.255 Y29.4942 Z-1.8203
X62.2357 Y29.4617 Z-1.8805
X62.21 Y29.4185 Z-1.9307
X62.1792 Y29.3667 Z-1.9686
X62.1449 Y29.309 Z-1.992
X62.1088 Y29.2483 Z-2
G3 X61.8875 Y28.4947 I1.3603 J-0.8088
G1 Y27.1542
X61.895 Y27.0044
X61.9198 Y26.8565
X61.9606 Y26.7024
X62.0189 Y26.5373
X62.098 Y26.36
X62.2091 Y26.1565
X62.3409 Y25.9554
X62.5267 Y25.7162
X62.7366 Y25.4868
X63.0311 Y25.2127
X63.361 Y24.9518
X63.808 Y24.6532
X64.3505 Y24.3508
X65.0217 Y24.0444
X65.3291 Y23.9323
X65.4117 Y23.9075
X65.4967 Y23.8925
X65.5828 Y23.8875
G3 X65.7805 Y24.444 I-0.0111 J0.3173
G1 X65.7603 Y24.4617
X62.4663 Y27.3364
X62.4136 Y27.3823
G3 X61.8875 Y27.1542 I-0.2088 J-0.2392
G1 Y25.8891
X61.895 Y25.7393
X61.9199 Y25.5914
X61.9572 Y25.4461
X62.0151 Y25.2791
X62.092 Y25.104
X62.1949 Y24.9131
X62.3358 Y24.6955
X62.501 Y24.4804
X62.7322 Y24.2248
X62.8766 Y24.0889
X63.027 Y23.9794
X63.1999 Y23.9108
X63.3844 Y23.8875
G3 X63.6336 Y24.3866 I-0.0111 J0.3173
G1 X63.5739 Y24.472
X62.4651 Y26.0598
G3 X61.8875 Y25.8891 I-0.2603 J-0.1818
G1 Y24.6407
X61.895 Y24.4909
X61.9535 Y24.2984
X62.0635 Y24.1299
X62.2163 Y23.9989
X62.3996 Y23.9159
X62.5988 Y23.8875
G3 X62.8236 Y24.4174 I-0.0111 J0.3173
G1 X62.7801 Y24.4656
X62.462 Y24.8185
X62.4407 Y24.8422
G3 X61.8875 Y24.6407 I-0.2358 J-0.2126
G1 Y24.2274
X61.8888 Y24.1884
X61.8948 Y24.1493
X61.8975 Y24.138
X61.9115 Y24.0961
X61.9325 Y24.0542
X61.9624 Y24.0123
X61.9838 Y23.9894
X62.0051 Y23.9705
X62.0625 Y23.9319
X62.1044 Y23.911
X62.1464 Y23.8972
X62.1883 Y23.8896
X62.2302 Y23.8875
X79.3339
X80.0708 Y23.9244
X80.7144 Y24.0031
X81.4372 Y24.1511
X82.0433 Y24.3255
X82.406 Y24.4622
X82.6739 Y24.5886
X82.7405 Y24.6269
X82.8946 Y24.7445
X83.0128 Y24.8981
X83.0872 Y25.0772
X83.1125 Y25.2694
G3 X82.7025 Y25.5619 I-0.3173 J-0.0111
G1 X82.5077 Y25.5025
X79.2522 Y24.5085
G3 X79.3339 Y23.8875 I0.0927 J-0.3037
G1 X82.4444
X82.5942 Y23.895
X82.7594 Y23.9444
X82.9041 Y24.0383
X83.0167 Y24.1689
X83.0881 Y24.3259
X83.1125 Y24.4967
G3 X82.593 Y24.7303 I-0.3173 J-0.0111
G1 X82.5325 Y24.6803
X82.2673 Y24.4612
X82.2532 Y24.4496
G3 X82.4444 Y23.8875 I0.2023 J-0.2447
G1 X82.7714
X82.8133 Y23.8888
X82.8552 Y23.8955
X82.891 Y23.9059
X82.9268 Y23.9212
X82.9626 Y23.9422
X82.9984 Y23.9705
X83.0229 Y23.9954
X83.0523 Y24.0311
X83.0746 Y24.0667
X83.0911 Y24.1024
X83.1025 Y24.138
X83.1103 Y24.1799
X83.1125 Y24.2218
Y26.5483
G3 X82.815 Y26.8541 I-0.3173 J-0.0111
G1 X82.7952 Y26.8547 Z-1.9994
X82.7419 Y26.8412 Z-1.9907
X82.6908 Y26.8282 Z-1.9726
X82.6436 Y26.8162 Z-1.9455
X82.6079 Y26.7851 Z-1.9059
X82.5787 Y26.7596 Z-1.8579
X82.5571 Y26.7406 Z-1.8034
X82.5437 Y26.729 Z-1.7443
X82.5392 Y26.7251 Z-1.6829
G0 Z5
X221.1752 Y35.407
Z2.5
G3 X221.3466 Y35.6063 Z2.1783 I1.2249 J-0.8799 F1200
X221.55 Y35.7728 Z1.8566 I1.0535 J-1.0792
X221.7792 Y35.9015 Z1.5349 I0.8501 J-1.2457
X222.0273 Y35.9885 Z1.2132 I0.6208 J-1.3744
X222.2867 Y36.031 Z0.8914 I0.3727 J-1.4613
X222.5496 Y36.0278 Z0.5697 I0.1133 J-1.5039
X222.8079 Y35.979 Z0.248 I-0.1495 J-1.5007
X223.0538 Y35.8862 Z-0.0737 I-0.4079 J-1.4519
X223.2799 Y35.752 Z-0.3954 I-0.6538 J-1.359
X223.4792 Y35.5806 Z-0.7171 I-0.8799 J-1.2249
X223.6457 Y35.3772 Z-1.0388 I-1.0792 J-1.0535
X223.7744 Y35.1479 Z-1.3605 I-1.2457 J-0.8501
X223.8614 Y34.8999 Z-1.6822 I-1.3744 J-0.6208
X223.9081 Y34.5271 Z-2 I-1.4613 J-0.3727
X220.8919 I-1.5081
X223.9081 I1.5081
G1 X223.9274 Y35.2647 F3500
X223.9493 Y35.3543
X223.9647 Y35.5035
X223.9521 Y35.653
X223.9166 Y35.7987
X223.8617 Y35.9383
X223.7902 Y36.0702
X223.7044 Y36.1932
X223.6063 Y36.3067
X223.4976 Y36.41
X223.3797 Y36.5028
X223.2542 Y36.5849
X223.122 Y36.6559
X222.9835 Y36.7163
X222.8368 Y36.7667
X222.6828 Y36.806
X222.5228 Y36.8335
X222.3578 Y36.8484
X222.1891 Y36.8499
X222.0182 Y36.8378
X221.8464 Y36.8116
X221.675 Y36.7712
X221.5054 Y36.7165
X221.3392 Y36.6477
X221.1775 Y36.565
X221.0217 Y36.4689
X220.8732 Y36.3598
X220.7329 Y36.2383
X220.6022 Y36.1053
X220.4819 Y35.9615
X220.3732 Y35.8079
X220.2767 Y35.6454
X220.1934 Y35.4752
X220.1237 Y35.2983
X220.0684 Y35.1159
X220.0277 Y34.9292
X220.0022 Y34.7395
X219.9919 Y34.5481
X219.997 Y34.3562
X220.0175 Y34.165
X220.0534 Y33.9759
X220.1044 Y33.7901
X220.1701 Y33.6088
X220.2503 Y33.4333
X220.3443 Y33.2647
X220.4517 Y33.104
X220.5716 Y32.9524
X220.7034 Y32.8109
X220.8462 Y32.6803
X220.9991 Y32.5616
X221.161 Y32.4555
X221.331 Y32.3628
X221.5079 Y32.2839
X221.6906 Y32.2195
X221.8779 Y32.1699
X222.0686 Y32.1356
X222.2615 Y32.1166
X222.4552 Y32.1132
X222.6487 Y32.1254
X222.8406 Y32.153
X223.0297 Y32.196
X223.2147 Y32.254
X223.3944 Y32.3266
X223.5678 Y32.4135
X223.7337 Y32.514
X223.8909 Y32.6275
X224.0385 Y32.7532
X224.1756 Y32.8904
X224.3013 Y33.0382
X224.4146 Y33.1955
X224.519 Y33.3681
X224.6302 Y33.5906
X224.7772 Y33.9551
X224.8844 Y34.2982
X224.9483 Y34.5806
X224.985 Y34.8363
X224.9996 Y35.0734
X224.9955 Y35.2966
X224.9744 Y35.5096
X224.9369 Y35.7168
X224.8832 Y35.9192
X224.8136 Y36.116
X224.7285 Y36.3065
X224.6284 Y36.4895
X224.5135 Y36.6645
X224.384 Y36.831
X224.2399 Y36.9883
X224.0818 Y37.1353
X223.9103 Y37.2707
X223.726 Y37.3937
X223.5293 Y37.5031
X223.3215 Y37.5978
X223.1035 Y37.6767
X222.8769 Y37.7387
X222.6429 Y37.7828
X222.4031 Y37.8084
X222.1591 Y37.8147
X221.9128 Y37.8012
X221.6658 Y37.7677
X221.42 Y37.714
X221.1774 Y37.6401
X220.9397 Y37.5463
X220.7086 Y37.4329
X220.4859 Y37.3004
X220.2732 Y37.1496
X220.0722 Y36.9812
X219.8844 Y36.7963
X219.7112 Y36.596
X219.554 Y36.3815
X219.4139 Y36.1542
X219.2922 Y35.9155
X219.1896 Y35.6671
X219.1071 Y35.4105
X219.0453 Y35.1474
X219.0047 Y34.8797
X218.9857 Y34.609
X218.9884 Y34.3371
X219.0131 Y34.066
X219.0594 Y33.7973
X219.1273 Y33.5329
X219.2163 Y33.2746
X219.3258 Y33.0239
X219.4552 Y32.7827
X219.6036 Y32.5525
X219.7701 Y32.3348
X219.9537 Y32.131
X220.1531 Y31.9425
X220.3671 Y31.7706
X220.5943 Y31.6164
X220.8332 Y31.4808
X221.0823 Y31.3648
X221.34 Y31.2692
X221.6045 Y31.1945
X221.8743 Y31.1413
X222.1475 Y31.1099
X222.4223 Y31.1006
X222.6971 Y31.1133
X222.97 Y31.148
X223.2392 Y31.2046
X223.5031 Y31.2825
X223.7599 Y31.3814
X224.0079 Y31.5006
X224.2456 Y31.6394
X224.4713 Y31.7967
X224.685 Y31.9727
X224.8913 Y32.1726
X225.1055 Y32.4162
X225.3074 Y32.687
X225.4937 Y32.9839
X225.6584 Y33.3002
X225.7958 Y33.6254
X225.9037 Y33.9517
X225.9826 Y34.2754
X226.0338 Y34.5954
X226.0586 Y34.9118
X226.058 Y35.2243
X226.0326 Y35.5319
X225.9831 Y35.8332
X225.9103 Y36.1272
X225.8146 Y36.4127
X225.6966 Y36.6888
X225.557 Y36.9543
X225.3964 Y37.208
X225.2154 Y37.4487
X225.0148 Y37.6751
X224.7953 Y37.886
X224.558 Y38.0799
X224.3039 Y38.2554
X224.0343 Y38.4113
X223.7507 Y38.5462
X223.4546 Y38.6589
X223.1477 Y38.7483
X222.8319 Y38.8133
X222.5093 Y38.853
X222.1821 Y38.8669
X221.8525 Y38.8543
X221.5226 Y38.8151
X221.1947 Y38.749
X220.871 Y38.6563
X220.5539 Y38.5371
X220.2456 Y38.392
X219.9482 Y38.2217
X219.664 Y38.0271
X219.3951 Y37.8093
X219.1434 Y37.5695
X218.9107 Y37.3091
X218.6989 Y37.0299
X218.5095 Y36.7335
X218.344 Y36.4219
X218.2036 Y36.0971
X218.0894 Y35.7612
X218.0024 Y35.4163
X217.9432 Y35.0649
X217.9123 Y34.7092
X217.9101 Y34.3516
X217.9366 Y33.9944
X217.9918 Y33.64
X218.0753 Y33.2908
X218.1867 Y32.9491
X218.3253 Y32.6172
X218.4902 Y32.2972
X218.6804 Y31.9912
X218.8947 Y31.7013
X219.1317 Y31.4294
X219.3898 Y31.1773
X219.6675 Y30.9467
X219.9628 Y30.7389
X220.274 Y30.5555
X220.5991 Y30.3976
X220.9358 Y30.2663
X221.282 Y30.1624
X221.6355 Y30.0866
X221.9941 Y30.0394
X222.3553 Y30.0212
X222.7168 Y30.032
X223.0764 Y30.0717
X223.4316 Y30.1403
X223.7803 Y30.2371
X224.12 Y30.3616
X224.4491 Y30.5131
X224.7673 Y30.6919
X225.0795 Y30.902
X225.3831 Y31.1437
X225.6752 Y31.4174
X225.9516 Y31.7217
X226.2073 Y32.0531
X226.4375 Y32.4068
X226.6386 Y32.778
X226.8084 Y33.1622
X226.9457 Y33.5557
X227.0501 Y33.9554
X227.1214 Y34.3584
X227.1598 Y34.7623
X227.1656 Y35.1644
X227.1394 Y35.5627
X227.0816 Y35.9551
X226.9929 Y36.3396
X226.8742 Y36.7143
X226.7261 Y37.0774
X226.5495 Y37.4271
X226.3453 Y37.7616
X226.1146 Y38.0792
X225.8585 Y38.378
X225.5781 Y38.6563
X225.275 Y38.9124
X224.9507 Y39.1445
X224.607 Y39.3509
X224.2456 Y39.5301
X223.8687 Y39.6807
X223.4786 Y39.8013
X223.0777 Y39.8907
X222.6683 Y39.948
X222.2533 Y39.9724
X221.8352 Y39.9634
X221.4169 Y39.9205
X221.0011 Y39.8439
X220.5906 Y39.7335
X220.1883 Y39.5899
X219.7969 Y39.4135
X219.4193 Y39.2054
X219.058 Y38.9666
X218.7157 Y38.6986
X218.3947 Y38.4028
X218.0976 Y38.081
X217.8263 Y37.7354
X217.5829 Y37.368
X217.3693 Y36.9812
X217.1869 Y36.5775
X217.0371 Y36.1595
X216.9211 Y35.73
X216.8398 Y35.2916
X216.7939 Y34.8474
X216.7838 Y34.4003
X216.8096 Y33.9532
X216.8713 Y33.509
X216.9685 Y33.0707
X217.1008 Y32.6413
X217.2672 Y32.2234
X217.4668 Y31.82
X217.6982 Y31.4336
X217.9601 Y31.0668
X218.2507 Y30.7221
X218.5683 Y30.4016
X218.9106 Y30.1076
X219.2756 Y29.8418
X219.6608 Y29.6061
X220.0638 Y29.4021
X220.482 Y29.231
X220.9127 Y29.094
X221.3531 Y28.992
X221.8003 Y28.9256
X222.2514 Y28.8954
X222.7036 Y28.9014
X223.1539 Y28.9438
X223.5994 Y29.0221
X224.0378 Y29.1361
X224.4679 Y29.2857
X224.8885 Y29.4711
X225.2977 Y29.6922
X225.6934 Y29.9491
X226.0745 Y30.2425
X226.4375 Y30.5717
X226.7781 Y30.9343
X227.0916 Y31.3272
X227.3743 Y31.7463
X227.6229 Y32.1877
X227.8351 Y32.6472
X228.0092 Y33.1208
X228.1441 Y33.6047
X228.2393 Y34.0953
X228.2944 Y34.5892
X228.3097 Y35.0833
X228.2854 Y35.5744
X228.222 Y36.0598
X228.1203 Y36.5368
X227.981 Y37.0027
X227.8051 Y37.4552
X227.5937 Y37.8916
X227.3479 Y38.3097
X227.069 Y38.7071
X226.7586 Y39.0815
X226.4183 Y39.4307
X226.0499 Y39.7525
X225.6553 Y40.0447
X225.2369 Y40.3054
X224.797 Y40.5328
X224.338 Y40.7249
X223.8629 Y40.8804
X223.3745 Y40.9977
X222.8759 Y41.0759
X222.3701 Y41.114
X221.8605 Y41.1114
X221.3504 Y41.0677
X220.8432 Y40.9828
X220.3423 Y40.8569
X219.851 Y40.6905
X219.3728 Y40.4844
X218.9108 Y40.2397
X218.4684 Y39.9576
X218.0487 Y39.6399
X217.6545 Y39.2884
X217.2887 Y38.9052
X216.9539 Y38.4928
X216.6526 Y38.0537
X216.3868 Y37.5908
X216.1585 Y37.1069
X215.9694 Y36.6053
X215.8209 Y36.0892
X215.7142 Y35.5619
X215.6499 Y35.027
X215.6288 Y34.4879
X215.6511 Y33.9482
X215.7167 Y33.4114
X215.8252 Y32.881
X215.9762 Y32.3606
X216.1685 Y31.8537
X216.401 Y31.3634
X216.6724 Y30.8931
X216.9808 Y30.4458
X217.3242 Y30.0246
X217.7005 Y29.632
X218.1073 Y29.2708
X218.5418 Y28.9433
X219.0014 Y28.6517
X219.4831 Y28.3978
X219.9837 Y28.1833
X220.4999 Y28.0097
X221.0286 Y27.878
X221.5662 Y27.7892
X222.1092 Y27.7438
X222.6543 Y27.7422
X223.1979 Y27.7843
X223.7373 Y27.87
X224.2701 Y27.9992
X224.7937 Y28.1718
X225.3057 Y28.3874
X225.8038 Y28.6461
X226.2855 Y28.9477
X226.7471 Y29.2911
X227.1846 Y29.6749
X227.5937 Y30.0964
X227.9703 Y30.5525
X228.3105 Y31.0396
X228.6113 Y31.5537
X228.8699 Y32.0904
X229.0844 Y32.6456
X229.2533 Y33.2149
X229.3756 Y33.7942
X229.4507 Y34.3795
X229.4786 Y34.9667
X229.4592 Y35.5524
X229.3932 Y36.1327
X229.2811 Y36.7043
X229.1237 Y37.264
X228.9223 Y37.8084
X228.678 Y38.3345
X228.3923 Y38.8392
X228.0668 Y39.3198
X227.7033 Y39.7732
X227.3038 Y40.1968
X226.8706 Y40.588
X226.4061 Y40.9441
X225.9129 Y41.2628
X225.3939 Y41.5418
X224.8522 Y41.7792
X224.291 Y41.9731
X223.7138 Y42.1219
X223.1242 Y42.2243
X222.5259 Y42.2792
X221.9228 Y42.286
X221.3186 Y42.2443
X220.7176 Y42.1538
X220.1235 Y42.0148
X219.5403 Y41.828
X218.9721 Y41.5941
X218.4227 Y41.3145
X217.8959 Y40.9907
X217.3952 Y40.6246
X216.9243 Y40.2183
X216.4863 Y39.7744
X216.0844 Y39.2956
X215.7214 Y38.7849
X215.3999 Y38.2456
X215.1221 Y37.6811
X214.8901 Y37.0951
X214.7056 Y36.4914
X214.5699 Y35.8738
X214.4841 Y35.2465
X214.4489 Y34.6136
X214.4647 Y33.9792
X214.5313 Y33.3474
X214.6486 Y32.7224
X214.8158 Y32.1084
X215.0318 Y31.5093
X215.2955 Y30.9291
X215.605 Y30.3716
X215.9584 Y29.8404
X216.3536 Y29.3391
X216.7878 Y28.871
X217.2584 Y28.439
X217.7623 Y28.0461
X218.2963 Y27.6948
X218.8569 Y27.3874
X219.4405 Y27.126
X220.0433 Y26.9121
X220.6614 Y26.7474
X221.2908 Y26.6327
X221.9276 Y26.5689
X222.5679 Y26.5564
X223.2079 Y26.5954
X223.8444 Y26.6858
X224.4739 Y26.8276
X225.0934 Y27.0205
X225.6997 Y27.2642
X226.2892 Y27.5582
X226.8578 Y27.9013
X227.4016 Y28.2921
X227.9161 Y28.7287
X228.3973 Y29.2084
X228.841 Y29.7282
X229.2432 Y30.2843
X229.6005 Y30.8726
X229.9099 Y31.4884
X230.1688 Y32.1271
X230.3754 Y32.7837
X230.5283 Y33.4536
X230.6268 Y34.132
X230.6704 Y34.8144
X230.6591 Y35.4963
X230.5933 Y36.1735
X230.4736 Y36.8419
X230.3009 Y37.4975
X230.0764 Y38.1364
X229.8015 Y38.7548
X229.4779 Y39.3491
X229.1074 Y39.9158
X228.6923 Y40.4515
X228.2349 Y40.9528
X227.7378 Y41.4167
X227.2039 Y41.8401
X226.6362 Y42.2202
X226.0383 Y42.5546
X225.4135 Y42.8406
X224.7658 Y43.0764
X224.0991 Y43.2601
X223.4175 Y43.39
X222.7253 Y43.4651
X222.027 Y43.4845
X221.3271 Y43.4476
X220.6301 Y43.3544
X219.9405 Y43.2051
X219.2631 Y43.0002
X218.6022 Y42.7409
X217.9624 Y42.4284
X217.3481 Y42.0646
X216.7633 Y41.6515
X216.2122 Y41.1917
X215.6986 Y40.6879
X215.226 Y40.1434
X214.7979 Y39.5616
X214.417 Y38.9461
X214.0862 Y38.3008
X213.8079 Y37.6301
X213.5839 Y36.9381
X213.4159 Y36.2294
X213.3053 Y35.5087
X213.2527 Y34.7805
X213.2588 Y34.0498
X213.3236 Y33.3212
X213.4467 Y32.5996
X213.6275 Y31.8896
X213.8649 Y31.196
X214.1573 Y30.5233
X214.5029 Y29.8759
X214.8996 Y29.258
X215.3448 Y28.6736
X215.8356 Y28.1267
X216.369 Y27.6208
X216.9413 Y27.1592
X217.5491 Y26.7448
X218.1883 Y26.3806
X218.8548 Y26.0687
X219.5443 Y25.8113
X220.2523 Y25.61
X220.9743 Y25.4661
X221.7058 Y25.3807
X222.4424 Y25.3542
X223.1795 Y25.3869
X223.9116 Y25.4787
X224.634 Y25.6287
X225.3421 Y25.8359
X226.0315 Y26.0987
X226.6981 Y26.415
X227.3378 Y26.7825
X227.9471 Y27.1987
X228.5223 Y27.6607
X229.0605 Y28.1655
X229.5586 Y28.7098
X230.014 Y29.2903
X230.4243 Y29.9035
X230.7873 Y30.5458
X231.101 Y31.2136
X231.3636 Y31.9031
X231.5736 Y32.6104
X231.7298 Y33.3315
X231.8311 Y34.0623
X231.8764 Y34.7988
X231.865 Y35.5365
X231.7969 Y36.2712
X231.6725 Y36.9984
X231.4928 Y37.714
X231.2589 Y38.4138
X230.9723 Y39.0936
X230.6345 Y39.7496
X230.2476 Y40.3778
X229.8139 Y40.9747
X229.3359 Y41.5368
X228.8165 Y42.0608
X228.2587 Y42.5437
X227.6659 Y42.983
X227.0416 Y43.3762
X226.3893 Y43.7211
X225.713 Y44.0159
X225.0164 Y44.2591
X224.3036 Y44.4496
X223.5785 Y44.5859
X222.8451 Y44.6665
X222.1077 Y44.6913
X221.3705 Y44.6607
X220.6376 Y44.5755
X219.913 Y44.4366
X219.2006 Y44.2448
X218.5041 Y44.0014
X217.8271 Y43.708
X217.1732 Y43.3663
X216.5457 Y42.9781
X215.9479 Y42.5457
X215.3833 Y42.0707
X214.856 Y41.5547
X214.3681 Y41.0012
X213.9218 Y40.4137
X213.5188 Y39.7956
X213.1612 Y39.1503
X212.8504 Y38.4811
X212.5879 Y37.7916
X212.375 Y37.0852
X212.2126 Y36.3654
X212.1032 Y35.6358
X212.0483 Y34.9
X212.0468 Y34.1622
X212.0981 Y33.4262
X212.2014 Y32.6956
X212.3561 Y31.9742
X212.5612 Y31.2655
X212.8156 Y30.5729
X213.1179 Y29.8999
X213.4682 Y29.2505
X213.8655 Y28.6288
X214.3067 Y28.0375
X214.7889 Y27.479
X215.3093 Y26.9559
X215.8651 Y26.4708
X216.4537 Y26.0258
X217.0719 Y25.6231
X217.7168 Y25.2647
X218.3861 Y24.9542
X219.0764 Y24.6938
X219.7837 Y24.4837
X220.5041 Y24.3242
X221.2339 Y24.2158
X221.9695 Y24.1589
X222.7073 Y24.1535
X223.4437 Y24.1995
X224.175 Y24.2972
X224.8972 Y24.4483
X225.6066 Y24.6511
X226.2999 Y24.9036
X226.9739 Y25.2035
X227.6258 Y25.5492
X228.2525 Y25.9385
X228.8514 Y26.3695
X229.4199 Y26.8398
X229.9551 Y27.3476
X230.4533 Y27.8918
X230.9128 Y28.4691
X231.3323 Y29.0761
X231.7103 Y29.7097
X232.0455 Y30.367
X232.3365 Y31.045
X232.5821 Y31.7407
X232.7813 Y32.4511
X232.9326 Y33.1733
X233.0056 Y33.7043
X233.0095 Y33.7378
X233.0117 Y33.7714
X233.0125 Y33.8052
Y35.1974
X232.9756 Y35.9343
X232.9273 Y36.6087
X232.8198 Y37.3114
X232.65 Y38.0294
X232.4252 Y38.7321
X232.1501 Y39.4167
X231.828 Y40.0805
X231.4613 Y40.7208
X231.0523 Y41.3348
X230.6029 Y41.92
X230.1154 Y42.4738
X229.5919 Y42.9937
X229.0334 Y43.4758
X228.4428 Y43.918
X227.8235 Y44.3191
X227.1788 Y44.6779
X226.5117 Y44.993
X225.8252 Y45.2634
X225.1224 Y45.488
X224.4063 Y45.6657
X223.6799 Y45.7954
X222.9464 Y45.8744
X222.2091 Y45.9025
X221.4716 Y45.881
X220.7371 Y45.8109
X220.0088 Y45.6928
X219.2897 Y45.5278
X218.5827 Y45.3166
X217.8908 Y45.0604
X217.2168 Y44.7604
X216.5639 Y44.4167
X215.9355 Y44.03
X215.334 Y43.6028
X214.7618 Y43.137
X214.2213 Y42.6347
X213.7146 Y42.0985
X213.2434 Y41.5307
X212.8094 Y40.934
X212.4142 Y40.311
X212.0596 Y39.6639
X211.8566 Y39.2271
X211.8185 Y39.1267
X211.7953 Y39.0219
X211.7875 Y38.9148
Y31.1758
X211.8073 Y30.78
X211.8479 Y30.4703
X211.9338 Y30.0687
X212.0584 Y29.6527
X212.2586 Y29.1387
X212.5359 Y28.5671
X212.8826 Y27.9783
X213.3067 Y27.3746
X213.7753 Y26.8047
X214.2822 Y26.2685
X214.8233 Y25.7669
X215.3953 Y25.3009
X215.9955 Y24.8718
X216.6214 Y24.4812
X217.2709 Y24.131
X217.6562 Y23.9547
X217.7554 Y23.9176
X217.8588 Y23.8951
X217.9645 Y23.8875
X225.7211
X226.1227 Y23.9076
X226.4369 Y23.9488
X226.8452 Y24.0361
X227.2724 Y24.1641
X227.7972 Y24.3685
X228.396 Y24.659
X229.0318 Y25.0334
X229.6362 Y25.4565
X230.2086 Y25.9221
X230.7478 Y26.4257
X231.2531 Y26.9634
X231.7237 Y27.5316
X232.1587 Y28.1275
X232.5571 Y28.7486
X232.9176 Y29.3923
X232.9383 Y29.435
X232.9792 Y29.5386
X233.0042 Y29.6471
X233.0125 Y29.7581
Y33.8052
G3 X232.4383 Y33.9806 I-0.3173 J-0.0111
G1 X225.533 Y24.4709
X225.4752 Y24.3914
G3 X225.7211 Y23.8875 I0.2569 J-0.1866
G1 X228.2363
X228.4328 Y23.8973
X228.652 Y23.9261
X228.9229 Y23.984
X229.2149 Y24.0715
X229.5601 Y24.2059
X229.9498 Y24.395
X230.4151 Y24.669
X230.8994 Y25.0092
X231.4525 Y25.4683
X231.9806 Y25.9835
X232.4715 Y26.5343
X232.8544 Y27.022
X232.9408 Y27.1614
X232.9944 Y27.3165
X233.0125 Y27.4795
G3 X232.5074 Y27.7244 I-0.3173 J-0.0111
G1 X232.4294 Y27.6671
X228.0596 Y24.4608
G3 X228.2363 Y23.8875 I0.1878 J-0.256
G1 X230.0808
X230.3295 Y23.9
X230.5071 Y23.9232
X230.7224 Y23.9693
X230.9785 Y24.046
X231.2359 Y24.1463
X231.5576 Y24.3024
X231.8969 Y24.5021
X232.3112 Y24.7931
X232.7447 Y25.1529
X232.7891 Y25.1962
X232.9102 Y25.3508
X232.9865 Y25.5318
X233.0125 Y25.7265
G3 X232.5359 Y25.99 I-0.3173 J-0.0111
G1 X232.4227 Y25.9244
X229.9325 Y24.4794
G3 X230.0808 Y23.8875 I0.1593 J-0.2746
G1 X231.8499
X231.9997 Y23.895
X232.1783 Y23.9188
X232.3603 Y23.9582
X232.5238 Y24.0076
X232.5421 Y24.0148
X232.7335 Y24.1252
X232.8837 Y24.2871
X232.9796 Y24.4861
X233.0125 Y24.7045
G3 X232.5348 Y24.9674 I-0.3173 J-0.0111
G1 X232.423 Y24.9019
X231.7005 Y24.4788
G3 X231.8499 Y23.8875 I0.1605 J-0.274
G1 X232.6799
X232.7218 Y23.8898
X232.7637 Y23.8978
X232.7972 Y23.9086
X232.8306 Y23.9236
X232.864 Y23.9438
X232.8975 Y23.9705
X232.9314 Y24.0052
X232.9574 Y24.0384
X232.9772 Y24.0716
X232.992 Y24.1048
X233.0025 Y24.138
X233.0103 Y24.1799
X233.0125 Y24.2218
Y29.7581
G3 X232.4392 Y29.9349 I-0.3173 J-0.0111
G1 X232.3974 Y29.8779 Z-1.992
X232.3577 Y29.8238 Z-1.9686
X232.3221 Y29.7753 Z-1.9307
X232.2924 Y29.7347 Z-1.8805
X232.27 Y29.7042 Z-1.8203
X232.2561 Y29.6853 Z-1.7532
X232.2514 Y29.6789 Z-1.6825
G0 Z5
X212.1711 Y32.2023
Z-1.365
G1 Z-1.6825 F3500
X212.167 Y32.1954 Z-1.7532
X212.155 Y32.1752 Z-1.8203
X212.1357 Y32.1427 Z-1.8805
X212.11 Y32.0995 Z-1.9307
X212.0792 Y32.0478 Z-1.9686
X212.0449 Y31.9901 Z-1.992
X212.0088 Y31.9294 Z-2
G3 X211.7875 Y31.1758 I1.3603 J-0.8088
G1 Y28.6623
X211.7952 Y28.5083
X211.8238 Y28.2901
X211.8814 Y28.021
X211.9637 Y27.7464
X212.0956 Y27.4077
X212.2758 Y27.0363
X212.5408 Y26.586
X212.8685 Y26.1196
X213.3109 Y25.5866
X213.8262 Y25.0585
X214.3784 Y24.5692
X214.9612 Y24.1167
X215.1076 Y24.0167
X215.2373 Y23.9459
X215.3785 Y23.9022
X215.5256 Y23.8875
G3 X215.7665 Y24.398 I-0.0111 J0.3173
G1 X215.7117 Y24.4695
X212.3609 Y28.8391
X212.3568 Y28.8444
G3 X211.7875 Y28.6623 I-0.2519 J-0.1932
G1 Y26.8191
X211.7962 Y26.645
X211.8195 Y26.4673
X211.8656 Y26.2521
X211.9382 Y26.0095
X212.0383 Y25.7525
X212.1941 Y25.4315
X212.3844 Y25.1082
X212.6665 Y24.7066
X213.0167 Y24.2848
X213.1862 Y24.111
X213.3408 Y23.9898
X213.5218 Y23.9135
X213.7165 Y23.8875
G3 X213.9759 Y24.3711 I-0.0111 J0.3173
G1 X213.9116 Y24.4757
X212.3753 Y26.9743
G3 X211.7875 Y26.8191 I-0.2705 J-0.1663
G1 Y25.1434
X211.7952 Y24.99
X211.8182 Y24.8142
X211.8563 Y24.6362
X211.9132 Y24.4462
X211.947 Y24.3595
X212.0572 Y24.1676
X212.2192 Y24.0168
X212.4185 Y23.9206
X212.6373 Y23.8875
G3 X212.903 Y24.3604 I-0.0111 J0.3173
G1 X212.8368 Y24.4782
X212.3816 Y25.2879
G3 X211.7875 Y25.1434 I-0.2768 J-0.1556
G1 Y24.2218
X211.7897 Y24.1799
X211.7975 Y24.138
X211.8034 Y24.1181
X211.8181 Y24.0812
X211.8387 Y24.0443
X211.8667 Y24.0074
X211.9048 Y23.9705
X211.9379 Y23.9442
X211.9711 Y23.9241
X212.013 Y23.9057
X212.0549 Y23.894
X212.0968 Y23.8883
X212.1387 Y23.8875
X217.9645
G3 X218.1412 Y24.4608 I-0.0111 J0.3173
G1 X218.0843 Y24.5026 Z-1.992
X218.0301 Y24.5423 Z-1.9686
X217.9816 Y24.5779 Z-1.9307
X217.9411 Y24.6076 Z-1.8805
X217.9106 Y24.63 Z-1.8203
X217.8916 Y24.6439 Z-1.7532
X217.8852 Y24.6486 Z-1.6825
G0 Z5
X232.6289 Y34.1709
Z-1.365
G1 Z-1.6825 F3500
X232.633 Y34.1778 Z-1.7532
X232.645 Y34.1979 Z-1.8203
X232.6643 Y34.2304 Z-1.8805
X232.69 Y34.2737 Z-1.9307
X232.7208 Y34.3254 Z-1.9686
X232.7551 Y34.3831 Z-1.992
X232.7912 Y34.4438 Z-2
G3 X233.0125 Y35.1974 I-1.3603 J0.8088
G1 Y39.219
X233.0011 Y39.4463
X232.964 Y39.7299
X232.8912 Y40.0701
X232.7789 Y40.445
X232.6034 Y40.8956
X232.3472 Y41.4236
X232.0222 Y41.9756
X231.5981 Y42.5793
X231.1279 Y43.1479
X230.6189 Y43.682
X230.0757 Y44.1813
X229.5019 Y44.6451
X228.9005 Y45.0726
X228.2743 Y45.4627
X227.6258 Y45.8147
X226.9575 Y46.1272
X226.2711 Y46.3979
X225.5695 Y46.6263
X224.8555 Y46.812
X224.1315 Y46.9542
X223.4002 Y47.052
X222.6643 Y47.1052
X221.9265 Y47.1141
X221.1895 Y47.0792
X220.4559 Y47.0009
X219.7281 Y46.8797
X219.0089 Y46.7148
X218.301 Y46.507
X217.6064 Y46.2581
X216.9276 Y45.969
X216.267 Y45.6404
X215.627 Y45.2734
X215.0096 Y44.8694
X214.417 Y44.4298
X213.8512 Y43.9563
X213.3138 Y43.4507
X212.8076 Y42.914
X212.3345 Y42.3478
X211.9331 Y41.806
X211.8534 Y41.6705
X211.8042 Y41.5213
X211.7875 Y41.365
Y38.9148
G3 X212.3608 Y38.738 I0.3173 J0.0111
G1 X212.4026 Y38.795 Z-1.992
X212.4423 Y38.8491 Z-1.9686
X212.4779 Y38.8976 Z-1.9307
X212.5077 Y38.9382 Z-1.8805
X212.53 Y38.9687 Z-1.8203
X212.5439 Y38.9876 Z-1.7532
X212.5486 Y38.994 Z-1.6825
G0 Z5
X232.6289 Y38.1925
Z-1.365
G1 Z-1.6825 F3500
X232.633 Y38.1993 Z-1.7532
X232.645 Y38.2195 Z-1.8203
X232.6643 Y38.252 Z-1.8805
X232.69 Y38.2952 Z-1.9307
X232.7208 Y38.347 Z-1.9686
X232.7551 Y38.4047 Z-1.992
X232.7912 Y38.4654 Z-2
G3 X233.0125 Y39.219 I-1.3603 J0.8088
G1 Y41.3973
X233.0025 Y41.5981
X232.9739 Y41.8163
X232.9216 Y42.0608
X232.842 Y42.3264
X232.7124 Y42.6593
X232.5478 Y42.9985
X232.2982 Y43.4224
X231.9787 Y43.8773
X231.559 Y44.3829
X231.0437 Y44.911
X230.49 Y45.3987
X229.9056 Y45.849
X229.2951 Y46.2634
X228.662 Y46.6422
X228.0087 Y46.9852
X227.3375 Y47.2914
X226.6502 Y47.5599
X225.9489 Y47.7889
X225.2357 Y47.978
X224.5131 Y48.1271
X223.7834 Y48.2362
X223.0488 Y48.3051
X222.3116 Y48.3341
X221.5738 Y48.3234
X220.8377 Y48.2732
X220.1053 Y48.1839
X219.3788 Y48.0552
X218.6603 Y47.8874
X217.9522 Y47.6802
X217.2566 Y47.4343
X216.5752 Y47.1512
X215.9101 Y46.8319
X215.263 Y46.4775
X214.6356 Y46.0892
X214.0297 Y45.6682
X213.447 Y45.2156
X212.889 Y44.7329
X212.3575 Y44.2212
X211.9866 Y43.8235
X211.8783 Y43.6736
X211.8106 Y43.5016
X211.7875 Y43.3182
Y41.365
G3 X212.3608 Y41.1883 I0.3173 J0.0111
G1 X212.4026 Y41.2453 Z-1.992
X212.4423 Y41.2994 Z-1.9686
X212.4779 Y41.3479 Z-1.9307
X212.5077 Y41.3884 Z-1.8805
X212.53 Y41.4189 Z-1.8203
X212.5439 Y41.4379 Z-1.7532
X212.5486 Y41.4443 Z-1.6825
G0 Z5
X232.6289 Y40.3709
Z-1.365
G1 Z-1.6825 F3500
X232.633 Y40.3777 Z-1.7532
X232.645 Y40.3979 Z-1.8203
X232.6643 Y40.4304 Z-1.8805
X232.69 Y40.4736 Z-1.9307
X232.7208 Y40.5254 Z-1.9686
X232.7551 Y40.583 Z-1.992
X232.7912 Y40.6438 Z-2
G3 X233.0125 Y41.3973 I-1.3603 J0.8088
G1 Y43.2406
X233.0041 Y43.4082
X232.9808 Y43.5859
X232.9348 Y43.8011
X232.8675 Y44.0257
X232.7675 Y44.2827
X232.6165 Y44.5937
X232.432 Y44.9072
X232.1612 Y45.2927
X231.8174 Y45.7069
X231.3688 Y46.1667
X230.8128 Y46.6517
X230.2218 Y47.0933
X229.6038 Y47.4965
X228.9638 Y47.8636
X228.305 Y48.1957
X227.6296 Y48.4928
X226.9398 Y48.7545
X226.2374 Y48.9803
X225.5242 Y49.1693
X224.802 Y49.3205
X224.0731 Y49.4346
X223.3393 Y49.5118
X222.6026 Y49.5524
X221.8648 Y49.5566
X221.1277 Y49.5247
X220.393 Y49.4568
X219.6625 Y49.3529
X218.938 Y49.2133
X218.2214 Y49.0378
X217.5144 Y48.8268
X216.8189 Y48.5806
X216.1369 Y48.2991
X215.4698 Y47.9839
X214.8191 Y47.6361
X214.1861 Y47.257
X213.5723 Y46.8475
X212.9791 Y46.4088
X212.4078 Y45.9419
X212.0322 Y45.6033
X211.8999 Y45.4454
X211.8162 Y45.2571
X211.7875 Y45.0531
Y43.3182
G3 X212.3608 Y43.1414 I0.3173 J0.0111
G1 X212.4026 Y43.1984 Z-1.992
X212.4423 Y43.2525 Z-1.9686
X212.4779 Y43.301 Z-1.9307
X212.5077 Y43.3416 Z-1.8805
X212.53 Y43.3721 Z-1.8203
X212.5439 Y43.391 Z-1.7532
X212.5486 Y43.3974 Z-1.6825
G0 Z5
X232.6289 Y42.2141
Z-1.365
G1 Z-1.6825 F3500
X232.633 Y42.2209 Z-1.7532
X232.645 Y42.2411 Z-1.8203
X232.6643 Y42.2736 Z-1.8805
X232.69 Y42.3168 Z-1.9307
X232.7208 Y42.3686 Z-1.9686
X232.7551 Y42.4263 Z-1.992
X232.7912 Y42.487 Z-2
G3 X233.0125 Y43.2406 I-1.3603 J0.8088
G1 Y44.9162
X233.005 Y45.066
X232.9803 Y45.2376
X232.9392 Y45.4181
X232.8709 Y45.6355
X232.7739 Y45.8755
X232.6453 Y46.1319
X232.4538 Y46.4476
X232.2292 Y46.7587
X231.9056 Y47.1383
X231.4951 Y47.5482
X230.9704 Y47.994
X230.3716 Y48.4251
X229.7444 Y48.8136
X229.0953 Y49.1644
X228.4283 Y49.4799
X227.7463 Y49.7614
X227.0513 Y50.0091
X226.3452 Y50.223
X225.6296 Y50.4027
X224.9063 Y50.5483
X224.177 Y50.6599
X223.4432 Y50.7373
X222.7066 Y50.7798
X221.9689 Y50.7882
X221.2315 Y50.7628
X220.496 Y50.7041
X219.764 Y50.6121
X219.0368 Y50.487
X218.3161 Y50.3291
X217.6034 Y50.1383
X216.9002 Y49.9151
X216.208 Y49.6595
X215.5284 Y49.3724
X214.8625 Y49.0545
X214.2119 Y48.7066
X213.5782 Y48.3288
X212.9624 Y47.9223
X212.3656 Y47.4885
X212.0662 Y47.2496
X211.9161 Y47.0877
X211.8204 Y46.8888
X211.7875 Y46.6706
Y45.0531
G3 X212.3608 Y44.8763 I0.3173 J0.0111
G1 X212.4026 Y44.9333 Z-1.992
X212.4423 Y44.9874 Z-1.9686
X212.4779 Y45.0359 Z-1.9307
X212.5077 Y45.0765 Z-1.8805
X212.53 Y45.107 Z-1.8203
X212.5439 Y45.1259 Z-1.7532
X212.5486 Y45.1323 Z-1.6825
G0 Z5
X232.6289 Y43.8897
Z-1.365
G1 Z-1.6825 F3500
X232.633 Y43.8966 Z-1.7532
X232.645 Y43.9168 Z-1.8203
X232.6643 Y43.9493 Z-1.8805
X232.69 Y43.9925 Z-1.9307
X232.7208 Y44.0442 Z-1.9686
X232.7551 Y44.1019 Z-1.992
X232.7912 Y44.1626 Z-2
G3 X233.0125 Y44.9162 I-1.3603 J0.8088
G1 Y46.4243
X233.0047 Y46.5805
X232.9849 Y46.7314
X232.9486 Y46.9011
X232.8876 Y47.1048
X232.8063 Y47.3134
X232.6905 Y47.5522
X232.526 Y47.8316
X232.3295 Y48.1113
X232.0469 Y48.4518
X231.7068 Y48.8003
X231.2536 Y49.1957
X230.6624 Y49.6332
X230.0359 Y50.023
X229.3857 Y50.3716
X228.717 Y50.6835
X228.0336 Y50.9614
X227.3377 Y51.2066
X226.6313 Y51.4196
X225.9159 Y51.6002
X225.1931 Y51.7482
X224.4644 Y51.864
X223.7313 Y51.9475
X222.9953 Y51.9992
X222.2578 Y52.0192
X221.5201 Y52.0078
X220.7835 Y51.9654
X220.0493 Y51.892
X219.3189 Y51.7879
X218.5935 Y51.6531
X217.8744 Y51.488
X217.1629 Y51.2926
X216.4604 Y51.0671
X215.7682 Y50.8116
X215.0879 Y50.5262
X214.4204 Y50.2117
X213.7671 Y49.8688
X213.129 Y49.4984
X212.5072 Y49.1013
X212.1036 Y48.819
X211.9715 Y48.7006
X211.8713 Y48.5542
X211.8088 Y48.3881
X211.7875 Y48.212
Y46.6706
G3 X212.3608 Y46.4938 I0.3173 J0.0111
G1 X212.4026 Y46.5508 Z-1.992
X212.4423 Y46.6049 Z-1.9686
X212.4779 Y46.6534 Z-1.9307
X212.5077 Y46.694 Z-1.8805
X212.53 Y46.7245 Z-1.8203
X212.5439 Y46.7434 Z-1.7532
X212.5486 Y46.7498 Z-1.6825
G0 Z5
X232.6289 Y45.3978
Z-1.365
G1 Z-1.6825 F3500
X232.633 Y45.4047 Z-1.7532
X232.645 Y45.4249 Z-1.8203
X232.6643 Y45.4574 Z-1.8805
X232.69 Y45.5006 Z-1.9307
X232.7208 Y45.5523 Z-1.9686
X232.7551 Y45.61 Z-1.992
X232.7912 Y45.6707 Z-2
G3 X233.0125 Y46.4243 I-1.3603 J0.8088
G1 Y47.9324
X233.005 Y48.0822
X232.9808 Y48.237
X232.9383 Y48.4139
X232.8791 Y48.5952
X232.7882 Y48.8123
X232.6683 Y49.0446
X232.511 Y49.2972
X232.2879 Y49.5985
X232.0304 Y49.8935
X231.6722 Y50.2428
X231.2114 Y50.625
X230.64 Y51.0261
X230.0041 Y51.4003
X229.3446 Y51.731
X228.6676 Y52.0245
X227.977 Y52.2841
X227.2752 Y52.5117
X226.564 Y52.7082
X225.8451 Y52.8741
X225.1198 Y53.0097
X224.3896 Y53.1152
X223.6557 Y53.1908
X222.9193 Y53.2369
X222.1817 Y53.2535
X221.4439 Y53.241
X220.7073 Y53.1991
X219.973 Y53.1276
X219.2421 Y53.0269
X218.5157 Y52.8974
X217.795 Y52.7394
X217.0811 Y52.5531
X216.3751 Y52.3388
X215.6782 Y52.0964
X214.9916 Y51.8263
X214.3164 Y51.529
X213.6535 Y51.205
X213.004 Y50.8549
X212.3689 Y50.4794
X212.1143 Y50.3078
X211.978 Y50.1894
X211.8743 Y50.0414
X211.8095 Y49.8728
X211.7875 Y49.6935
Y48.212
G3 X212.3608 Y48.0352 I0.3173 J0.0111
G1 X212.4026 Y48.0922 Z-1.992
X212.4423 Y48.1463 Z-1.9686
X212.4779 Y48.1949 Z-1.9307
X212.5077 Y48.2354 Z-1.8805
X212.53 Y48.2659 Z-1.8203
X212.5439 Y48.2848 Z-1.7532
X212.5486 Y48.2912 Z-1.6825
G0 Z5
X232.6289 Y46.9059
Z-1.365
G1 Z-1.6825 F3500
X232.633 Y46.9128 Z-1.7532
X232.645 Y46.933 Z-1.8203
X232.6643 Y46.9655 Z-1.8805
X232.69 Y47.0087 Z-1.9307
X232.7208 Y47.0604 Z-1.9686
X232.7551 Y47.1181 Z-1.992
X232.7912 Y47.1788 Z-2
G3 X233.0125 Y47.9324 I-1.3603 J0.8088
G1 Y49.2729
X233.0027 Y49.4694
X232.9832 Y49.6181
X232.9464 Y49.7852
X232.8928 Y49.9605
X232.8156 Y50.1552
X232.7016 Y50.3866
X232.5661 Y50.6136
X232.3719 Y50.8865
X232.1348 Y51.1688
X231.8167 Y51.4909
X231.4335 Y51.8213
X230.92 Y52.1964
X230.2913 Y52.5825
X229.635 Y52.9196
X228.9595 Y53.2163
X228.2695 Y53.4776
X227.5681 Y53.7067
X226.8575 Y53.9052
X226.1392 Y54.0736
X225.4146 Y54.2126
X224.6851 Y54.3229
X223.9518 Y54.405
X223.216 Y54.4592
X222.4787 Y54.4858
X221.7408 Y54.4849
X221.0036 Y54.4565
X220.2679 Y54.4005
X219.5348 Y54.3172
X218.8053 Y54.2068
X218.0804 Y54.0696
X217.361 Y53.9057
X216.6481 Y53.7154
X215.9428 Y53.4988
X215.2461 Y53.256
X214.5591 Y52.9869
X213.8829 Y52.6918
X213.2182 Y52.3714
X212.566 Y52.0265
X212.1567 Y51.7821
X212.0987 Y51.7407
X211.9318 Y51.5765
X211.8245 Y51.3684
X211.7875 Y51.1373
Y49.6935
G3 X212.3608 Y49.5167 I0.3173 J0.0111
G1 X212.4026 Y49.5737 Z-1.992
X212.4423 Y49.6278 Z-1.9686
X212.4779 Y49.6763 Z-1.9307
X212.5077 Y49.7169 Z-1.8805
X212.53 Y49.7474 Z-1.8203
X212.5439 Y49.7663 Z-1.7532
X212.5486 Y49.7727 Z-1.6825
G0 Z5
X232.6289 Y48.2465
Z-1.365
G1 Z-1.6825 F3500
X232.633 Y48.2533 Z-1.7532
X232.645 Y48.2735 Z-1.8203
X232.6643 Y48.306 Z-1.8805
X232.69 Y48.3492 Z-1.9307
X232.7208 Y48.401 Z-1.9686
X232.7551 Y48.4586 Z-1.992
X232.7912 Y48.5194 Z-2
G3 X233.0125 Y49.2729 I-1.3603 J0.8088
G1 Y50.7056
X233.005 Y50.8554
X232.9849 Y51.0041
X232.9508 Y51.1592
X232.8984 Y51.3305
X232.8187 Y51.5319
X232.7205 Y51.7313
X232.5794 Y51.968
X232.4003 Y52.2198
X232.1706 Y52.4934
X231.869 Y52.799
X231.4901 Y53.1258
X231.0203 Y53.4693
X230.3997 Y53.8506
X229.7421 Y54.1852
X229.0645 Y54.4771
X228.3724 Y54.7327
X227.6691 Y54.9558
X226.9569 Y55.1486
X226.2375 Y55.3124
X225.5124 Y55.4484
X224.7826 Y55.5572
X224.0494 Y55.6393
X223.3136 Y55.6947
X222.5764 Y55.7234
X221.8386 Y55.7258
X221.1011 Y55.702
X220.365 Y55.6524
X219.631 Y55.577
X218.9001 Y55.4762
X218.1732 Y55.35
X217.451 Y55.1987
X216.7346 Y55.0225
X216.0247 Y54.8215
X215.3223 Y54.5957
X214.6282 Y54.3453
X213.9435 Y54.0705
X213.269 Y53.7716
X212.6054 Y53.449
X212.2142 Y53.2308
X212.1167 Y53.1656
X211.9794 Y53.0471
X211.875 Y52.8989
X211.8097 Y52.7297
X211.7875 Y52.5497
Y51.1373
G3 X212.3608 Y50.9605 I0.3173 J0.0111
G1 X212.4026 Y51.0175 Z-1.992
X212.4423 Y51.0716 Z-1.9686
X212.4779 Y51.1201 Z-1.9307
X212.5077 Y51.1607 Z-1.8805
X212.53 Y51.1912 Z-1.8203
X212.5439 Y51.2101 Z-1.7532
X212.5486 Y51.2165 Z-1.6825
G0 Z5
X232.6289 Y49.6791
Z-1.365
G1 Z-1.6825 F3500
X232.633 Y49.686 Z-1.7532
X232.645 Y49.7062 Z-1.8203
X232.6643 Y49.7387 Z-1.8805
X232.69 Y49.7819 Z-1.9307
X232.7208 Y49.8336 Z-1.9686
X232.7551 Y49.8913 Z-1.992
X232.7912 Y49.9521 Z-2
G3 X233.0125 Y50.7056 I-1.3603 J0.8088
G1 Y52.1216
X233.005 Y52.2714
X232.9795 Y52.4196
X232.9398 Y52.5748
X232.8763 Y52.7595
X232.7926 Y52.9514
X232.6785 Y53.1643
X232.5231 Y53.4056
X232.337 Y53.6492
X232.0706 Y53.9452
X231.7742 Y54.2257
X231.3646 Y54.5551
X230.844 Y54.9089
X230.2025 Y55.2734
X229.5341 Y55.5859
X228.8477 Y55.8565
X228.1484 Y56.0916
X227.4392 Y56.2952
X226.7223 Y56.4697
X225.9993 Y56.6167
X225.2714 Y56.7374
X224.5397 Y56.8323
X223.8052 Y56.9017
X223.0687 Y56.946
X222.3311 Y56.9652
X221.5933 Y56.9597
X220.8561 Y56.9296
X220.1203 Y56.8751
X219.3867 Y56.7964
X218.6561 Y56.6937
X217.9292 Y56.5671
X217.2069 Y56.4166
X216.4901 Y56.242
X215.7794 Y56.0436
X215.0758 Y55.8217
X214.3799 Y55.5766
X213.6925 Y55.3084
X213.0145 Y55.0175
X212.4325 Y54.7404
X212.1259 Y54.5629
X212.1069 Y54.5498
X211.9735 Y54.4314
X211.8722 Y54.2845
X211.809 Y54.1176
X211.7875 Y53.9405
Y52.5497
G3 X212.3608 Y52.3729 I0.3173 J0.0111
G1 X212.4026 Y52.4299 Z-1.992
X212.4423 Y52.484 Z-1.9686
X212.4779 Y52.5326 Z-1.9307
X212.5077 Y52.5731 Z-1.8805
X212.53 Y52.6036 Z-1.8203
X212.5439 Y52.6225 Z-1.7532
X212.5486 Y52.6289 Z-1.6825
G0 Z5
X232.6289 Y51.0951
Z-1.365
G1 Z-1.6825 F3500
X232.633 Y51.1019 Z-1.7532
X232.645 Y51.1221 Z-1.8203
X232.6643 Y51.1546 Z-1.8805
X232.69 Y51.1978 Z-1.9307
X232.7208 Y51.2496 Z-1.9686
X232.7551 Y51.3073 Z-1.992
X232.7912 Y51.368 Z-2
G3 X233.0125 Y52.1216 I-1.3603 J0.8088
G1 Y53.4621
X233.005 Y53.6119
X232.9797 Y53.7598
X232.9393 Y53.9175
X232.8809 Y54.0872
X232.7929 Y54.2886
X232.6855 Y54.4887
X232.5359 Y54.7208
X232.3441 Y54.9717
X232.1044 Y55.2378
X231.7883 Y55.5365
X231.4025 Y55.8466
X230.922 Y56.1729
X230.2926 Y56.53
X229.6237 Y56.8415
X228.9364 Y57.1096
X228.2359 Y57.3414
X227.5258 Y57.5415
X226.8081 Y57.7128
X226.0845 Y57.8573
X225.3564 Y57.9761
X224.6246 Y58.0701
X223.89 Y58.1398
X223.1536 Y58.1852
X222.4161 Y58.2064
X221.6783 Y58.2039
X220.941 Y58.1779
X220.2048 Y58.1287
X219.4705 Y58.0565
X218.7388 Y57.9615
X218.0105 Y57.8439
X217.2861 Y57.7035
X216.5666 Y57.5404
X215.8525 Y57.3548
X215.1445 Y57.1469
X214.4435 Y56.9169
X213.75 Y56.665
X213.065 Y56.391
X212.4816 Y56.1293
X212.1622 Y55.954
X212.1209 Y55.9268
X211.9819 Y55.8083
X211.8762 Y55.6595
X211.81 Y55.4893
X211.7875 Y55.3081
Y53.9405
G3 X212.3608 Y53.7638 I0.3173 J0.0111
G1 X212.4026 Y53.8207 Z-1.992
X212.4423 Y53.8748 Z-1.9686
X212.4779 Y53.9234 Z-1.9307
X212.5077 Y53.9639 Z-1.8805
X212.53 Y53.9944 Z-1.8203
X212.5439 Y54.0133 Z-1.7532
X212.5486 Y54.0197 Z-1.6825
G0 Z5
X232.6289 Y52.4356
Z-1.365
G1 Z-1.6825 F3500
X232.633 Y52.4425 Z-1.7532
X232.645 Y52.4626 Z-1.8203
X232.6643 Y52.4952 Z-1.8805
X232.69 Y52.5384 Z-1.9307
X232.7208 Y52.5901 Z-1.9686
X232.7551 Y52.6478 Z-1.992
X232.7912 Y52.7085 Z-2
G3 X233.0125 Y53.4621 I-1.3603 J0.8088
G1 Y54.8026
X233.005 Y54.9524
X232.9779 Y55.101
