%
(Made in : Autodesk CAM Post Processor)
(G Code optimized for OpenBuilds OX CNC 1000 x 750 with GRBL V0.9j controller)

(Program Name : 1001)
(1 Operation :)
(1 : Adaptive1)
(  Tool : Flat End Mill 3 Flutes, Diam = 3.175mm, Len = 20mm)
(  Spindle : RPM = 30000, set router dial to 6)
(  Machining time : 19 min 28 sec)

G90 G94
G17
G21

(Operation 1 of 1 : Adaptive1)

G53 G0 Z5
G54
S30000 M3
G4 P1.0
X-0.3115 Y-3.6663
Z6
Z5
Z-1.365
G1 Z-1.6825 F3500
X-0.3095 Y-3.6586 Z-1.7532
X-0.3037 Y-3.6358 Z-1.8203
X-0.2943 Y-3.5992 Z-1.8805
X-0.2818 Y-3.5505 Z-1.9307
X-0.2669 Y-3.4922 Z-1.9686
X-0.2502 Y-3.4272 Z-1.992
X-0.2327 Y-3.3587 Z-2
G3 X0.0159 Y-1.6303 I-7.8522 J2.0113
G1 Y-1.4803
X-0.1317 Y-0.7573
X-0.2114 Y-0.0238
X-0.254 Y0.7127
X-0.2765 Y1.4502
X-0.2884 Y2.1879
X-0.2947 Y2.9257
X-0.298 Y3.6635
X-0.3006 Y5.1392
X-0.3016 Y11.0417
Y48.6702
Y88.5123
X-0.2681 Y88.6936
X-0.1176 Y89.0304
X0.1271 Y89.3066
X0.7178 Y89.7486
X1.4108 Y90.0018
X2.1353 Y90.1413
X2.8693 Y90.2166
X3.606 Y90.2567
X4.3435 Y90.2779
X5.0813 Y90.2892
X5.8191 Y90.2951
X6.5569 Y90.2982
X8.0325 Y90.3007
X9.5081 Y90.3014
X59.6796 Y90.3016
X109.851
X160.0224
X210.1938
X260.3653
X310.5367
X360.7081
X404.6081
X404.9582 Y90.1853
X405.2481 Y89.9572
X405.714 Y89.3851
X405.9824 Y88.6978
X406.1308 Y87.9751
X406.2109 Y87.2416
X406.2537 Y86.505
X406.2764 Y85.7676
X406.2883 Y85.0299
X406.2946 Y84.2921
X406.2979 Y83.5543
X406.3006 Y82.0786
X406.3016 Y76.1761
Y34.1207
Y1.4723
X406.2636 Y1.2918
X406.1078 Y0.9574
X405.8606 Y0.6836
X405.2668 Y0.2457
X404.5729 Y-0.005
X403.8481 Y-0.143
X403.114 Y-0.2175
X402.3773 Y-0.2572
X401.6398 Y-0.2782
X400.902 Y-0.2893
X400.1642 Y-0.2951
X399.4265 Y-0.2982
X397.9508 Y-0.3007
X391.3105 Y-0.3016
X389.097
X338.9256
X288.7542
X238.5827
X188.4113
X138.2399
X88.0685
X37.897
X2.8508
X2.6686 Y-0.2732
X2.3261 Y-0.1361
X2.0405 Y0.0974
X1.5769 Y0.6714
X1.305 Y1.3573
X1.1519 Y2.079
X1.0676 Y2.812
X1.0217 Y3.5484
X0.997 Y4.2858
X0.9837 Y5.0235
X0.9766 Y5.7613
X0.9728 Y6.4991
X0.9696 Y7.9747
X0.9684 Y12.4016
Y14.6151
Y64.7865
Y86.9209
X1.0435 Y87.2821
X1.216 Y87.6082
X1.4566 Y87.8878
X2.0299 Y88.3523
X2.7094 Y88.6397
X3.4275 Y88.8094
X4.1588 Y88.907
X4.8946 Y88.9622
X5.6317 Y88.9932
X6.3693 Y89.0104
X7.1071 Y89.02
X7.8449 Y89.0252
X8.5827 Y89.0281
X10.0583 Y89.0306
X15.9608 Y89.0316
X28.5037
X78.6751
X128.8466
X179.018
X229.1894
X279.3608
X329.5323
X379.7037
X402.9449
X403.3054 Y88.9535
X403.6293 Y88.7769
X404.1823 Y88.2884
X404.5355 Y87.6406
X404.7478 Y86.9341
X404.8715 Y86.2067
X404.942 Y85.4722
X404.9818 Y84.7355
X405.0041 Y83.998
X405.0164 Y83.2603
X405.0233 Y82.5225
X405.027 Y81.7847
X405.0302 Y80.3091
X405.0316 Y76.62
Y62.6015
Y12.4301
Y3.2074
X404.9934 Y2.8405
X404.8532 Y2.4993
X404.6334 Y2.203
X404.0867 Y1.7075
X403.4173 Y1.3973
X402.7029 Y1.2126
X401.9729 Y1.1058
X401.2376 Y1.0451
X400.5005 Y1.011
X399.763 Y0.9919
X399.0252 Y0.9814
X398.2874 Y0.9755
X397.5496 Y0.9723
X396.074 Y0.9695
X390.9093 Y0.9684
X365.0858
X314.9143
X264.7429
X214.5715
X164.4001
X114.2286
X64.0572
X13.8858
X4.2942
X3.9387 Y1.0671
X3.6215 Y1.2554
X3.0802 Y1.7568
X2.7333 Y2.408
X2.5235 Y3.1153
X2.4005 Y3.8428
X2.3298 Y4.5772
X2.2896 Y5.3139
X2.267 Y6.0514
X2.2543 Y6.7891
X2.2472 Y7.5269
X2.2433 Y8.2647
X2.2399 Y9.7403
X2.2384 Y13.4294
Y40.7286
Y85.3664
X2.2801 Y85.7329
X2.4063 Y86.0795
X2.6097 Y86.3873
X3.1268 Y86.9136
X3.7808 Y87.2551
X4.4882 Y87.4649
X5.2153 Y87.5899
X5.9495 Y87.6631
X6.6861 Y87.7054
X7.4235 Y87.7297
X8.1612 Y87.7436
X8.899 Y87.7514
X9.6368 Y87.7559
X10.3746 Y87.7584
X11.8502 Y87.7606
X18.4906 Y87.7616
X56.8569
X107.0284
X157.1998
X207.3712
X257.5426
X307.7141
X357.8855
X401.4166
X401.7832 Y87.7208
X402.1264 Y87.5855
X402.4293 Y87.3749
X402.945 Y86.8472
X403.2767 Y86.1882
X403.4789 Y85.4786
X403.5987 Y84.7506
X403.6684 Y84.0161
X403.7086 Y83.2793
X403.7316 Y82.5419
X403.7447 Y81.8042
X403.7521 Y81.0664
X403.7563 Y80.3286
X403.7586 Y79.5908
X403.7611 Y77.3773
X403.7616 Y31.6328
Y4.3336
X403.6497 Y3.9821
X403.4581 Y3.6669
X402.9578 Y3.1246
X402.3109 Y2.7698
X401.6064 Y2.5506
X400.8803 Y2.4194
X400.1465 Y2.3425
X399.4101 Y2.2979
X398.6727 Y2.2722
X397.935 Y2.2576
X397.1973 Y2.2492
X396.4595 Y2.2445
X395.7216 Y2.2418
X394.246 Y2.2395
X388.3435 Y2.2384
X381.7032
X331.5317
X281.3603
X231.1889
X181.0175
X130.846
X80.6746
X30.5032
X5.7864
X5.4232 Y2.303
X5.0879 Y2.457
X4.7944 Y2.6805
X4.2957 Y3.2242
X3.9767 Y3.8895
X3.7822 Y4.6012
X3.6667 Y5.3299
X3.5993 Y6.0646
X3.5603 Y6.8014
X3.5379 Y7.5389
X3.5251 Y8.2766
X3.5179 Y9.0144
X3.5137 Y9.7522
X3.5114 Y10.49
X3.5089 Y12.7034
X3.5084 Y26.7219
Y76.8933
Y84.2715
X3.6037 Y84.6279
X3.7783 Y84.9529
X4.2503 Y85.5199
X4.8831 Y85.8994
X5.5812 Y86.1381
X6.3046 Y86.2833
X7.0373 Y86.3699
X7.7734 Y86.421
X8.5106 Y86.4508
X9.2482 Y86.4681
X9.9859 Y86.4781
X10.7237 Y86.4839
X11.4615 Y86.4872
X12.9372 Y86.4902
X16.6262 Y86.4915
X45.401 Y86.4916
X95.5724
X145.7439
X195.9153
X246.0867
X296.2581
X346.4296
X396.601
X400.2901
X400.646 Y86.3945
X400.9698 Y86.2177
X401.5335 Y85.7417
X401.9092 Y85.1068
X402.1448 Y84.4076
X402.2878 Y83.6837
X402.3728 Y82.9508
X402.4228 Y82.2147
X402.4519 Y81.4775
X402.4688 Y80.7398
X402.4785 Y80.0021
X402.4841 Y79.2643
X402.4873 Y78.5265
X402.4902 Y77.0509
X402.4916 Y72.624
Y40.8979
Y5.8517
X402.4315 Y5.4877
X402.2849 Y5.1492
X402.0686 Y4.8504
X401.5354 Y4.3403
X400.8765 Y4.0085
X400.1676 Y3.8039
X399.4401 Y3.6812
X398.7058 Y3.6087
X397.9692 Y3.5663
X397.2318 Y3.5417
X396.4941 Y3.5275
X395.7564 Y3.5193
X395.0186 Y3.5146
X394.2808 Y3.5119
X392.8051 Y3.5095
X388.3782 Y3.5084
X338.2068
X288.0354
X237.864
X187.6925
X137.5211
X87.3497
X37.1782
X6.9278
X6.5768 Y3.6219
X6.2599 Y3.8108
X5.7102 Y4.3029
X5.3452 Y4.9441
X5.1165 Y5.6456
X4.9775 Y6.3702
X4.8948 Y7.1034
X4.846 Y7.8396
X4.8175 Y8.5768
X4.8009 Y9.3144
X4.7914 Y10.0522
X4.7858 Y10.79
X4.7826 Y11.5278
X4.7798 Y13.0034
X4.7784 Y17.4303
Y22.595
Y72.7665
Y83.0959
X4.8989 Y83.4445
X5.0932 Y83.7581
X5.5959 Y84.2982
X6.24 Y84.6581
X6.9423 Y84.8843
X7.6671 Y85.022
X8.4003 Y85.1044
X9.1365 Y85.1531
X9.8738 Y85.1817
X10.6114 Y85.1984
X11.3491 Y85.2082
X12.0869 Y85.2139
X12.8247 Y85.2171
X14.3004 Y85.2201
X17.9894 Y85.2215
X43.813 Y85.2216
X93.9844
X144.1558
X194.3273
X244.4987
X294.6701
X344.8416
X395.013
X398.702
X399.0695 Y85.1895
X399.4221 Y85.0809
X399.74 Y84.8936
X400.2881 Y84.3997
X400.653 Y83.7585
X400.882 Y83.0571
X401.0211 Y82.3325
X401.1041 Y81.5994
X401.1531 Y80.8632
X401.1818 Y80.126
X401.1985 Y79.3883
X401.2083 Y78.6506
X401.2139 Y77.9128
X401.2172 Y77.175
X401.2202 Y75.6993
X401.2215 Y72.0103
X401.2216 Y39.5464
Y7.0825
X401.1414 Y6.7225
X400.9811 Y6.3902
X400.7567 Y6.0974
X400.2117 Y5.6
X399.5491 Y5.2754
X398.8394 Y5.074
X398.1116 Y4.9524
X397.3773 Y4.8801
X396.6408 Y4.8376
X395.9034 Y4.8128
X395.1657 Y4.7983
X394.4279 Y4.7899
X393.6901 Y4.785
X392.9523 Y4.7822
X391.4767 Y4.7796
X386.312 Y4.7784
X384.0985
X333.9271
X283.7557
X233.5843
X183.4128
X133.2414
X83.07
X32.8986
X8.5507
X8.1836 Y4.8149
X7.8327 Y4.9288
X7.5174 Y5.1203
X6.9741 Y5.6196
X6.6128 Y6.2628
X6.386 Y6.9649
X6.2481 Y7.6897
X6.1657 Y8.4229
X6.1169 Y9.1591
X6.0883 Y9.8964
X6.0716 Y10.634
X6.0618 Y11.3718
X6.0562 Y12.1096
X6.0529 Y12.8474
X6.0499 Y14.323
X6.0485 Y18.0121
X6.0484 Y29.8171
Y79.9885
Y81.4642
X6.0886 Y81.8309
X6.2078 Y82.18
X6.4031 Y82.493
X6.9071 Y83.0318
X7.5522 Y83.39
X8.2549 Y83.6149
X8.9799 Y83.7519
X9.7131 Y83.834
X10.4493 Y83.8826
X11.1866 Y83.9113
X11.9242 Y83.9281
X12.6619 Y83.9379
X13.3997 Y83.9436
X14.1375 Y83.947
X15.6132 Y83.9501
X19.3022 Y83.9515
X53.9795 Y83.9516
X104.151
X154.3224
X204.4938
X254.6653
X304.8367
X355.0081
X397.8014
X398.1507 Y83.833
X398.4655 Y83.6406
X399.0103 Y83.143
X399.3747 Y82.5015
X399.6048 Y81.8005
X399.7455 Y81.0762
X399.83 Y80.3433
X399.8802 Y79.6072
X399.9098 Y78.8699
X399.9272 Y78.1323
X399.9374 Y77.3946
X399.9434 Y76.6568
X399.9468 Y75.919
X399.95 Y74.4434
X399.9515 Y70.7543
X399.9516 Y27.2232
Y8.7778
X399.9485 Y8.4089
X399.876 Y8.0472
X399.7257 Y7.7103
X399.5079 Y7.4126
X398.9734 Y6.904
X398.3157 Y6.5695
X397.6082 Y6.3604
X396.8814 Y6.2333
X396.1475 Y6.1572
X395.4111 Y6.1122
X394.6737 Y6.0857
X393.9361 Y6.0701
X393.1983 Y6.061
X392.4605 Y6.0557
X391.7227 Y6.0526
X390.2471 Y6.0498
X385.8202 Y6.0484
X369.5883
X319.4168
X269.2454
X219.074
X168.9026
X118.7311
X68.5597
X18.3883
X9.5345
X9.1809 Y6.1535
X8.8593 Y6.3343
X8.2987 Y6.8139
X7.9211 Y7.4478
X7.6818 Y8.1458
X7.5349 Y8.8688
X7.4465 Y9.6013
X7.3938 Y10.3372
X7.3626 Y11.0744
X7.3443 Y11.812
X7.3335 Y12.5497
X7.3272 Y13.2875
X7.3235 Y14.0253
X7.3201 Y15.5009
X7.3186 Y18.4522
X7.3184 Y46.4892
Y80.4287
X7.4164 Y80.7843
X7.5909 Y81.1094
X8.0604 Y81.6785
X8.69 Y82.0632
X9.3861 Y82.3078
X10.1084 Y82.4583
X10.8406 Y82.5492
X11.5764 Y82.6035
X12.3135 Y82.6357
X13.0511 Y82.6546
X13.7888 Y82.6658
X14.5266 Y82.6724
X15.2644 Y82.6762
X16.74 Y82.6798
X19.6913 Y82.6814
X22.6425 Y82.6816
X72.8139
X122.9854
X173.1568
X223.3282
X273.4997
X323.6711
X373.8425
X395.977
X396.3459 Y82.6774
X396.7071 Y82.6026
X397.0413 Y82.4463
X397.336 Y82.2245
X397.8405 Y81.6861
X398.1703 Y81.0261
X398.3755 Y80.3174
X398.5001 Y79.5902
X398.5746 Y78.8561
X398.6187 Y78.1196
X398.6448 Y77.3823
X398.6601 Y76.6446
X398.669 Y75.9069
X398.6743 Y75.1691
X398.6773 Y74.4313
X398.6802 Y72.9556
X398.6816 Y68.5287
Y55.9859
X398.6812 Y9.5035
X398.5635 Y9.1539
X398.3742 Y8.8373
X397.8848 Y8.2851
X397.247 Y7.9141
X396.5478 Y7.6786
X395.8244 Y7.5337
X395.0918 Y7.4462
X394.3558 Y7.3939
X393.6187 Y7.3628
X392.881 Y7.3445
X392.1433 Y7.3337
X391.4055 Y7.3273
X390.6677 Y7.3236
X389.1921 Y7.3202
X386.2408 Y7.3186
X345.661 Y7.3184
X295.4896
X245.3181
X195.1467
X144.9753
X94.8039
X44.6324
X11.0619
X10.6958 Y7.364
X10.3492 Y7.4904
X10.0385 Y7.6892
X9.5038 Y8.1976
X9.148 Y8.844
X8.9244 Y9.5472
X8.7881 Y10.2723
X8.7064 Y11.0055
X8.6578 Y11.7418
X8.6291 Y12.479
X8.6123 Y13.2166
X8.6023 Y13.9544
X8.5965 Y14.6922
X8.5931 Y15.43
X8.59 Y16.9056
X8.5885 Y20.5947
X8.5884 Y22.8081
Y72.9796
Y78.8821
X8.6257 Y79.2491
X8.7389 Y79.6002
X8.9279 Y79.917
X9.4229 Y80.4641
X10.0634 Y80.8304
X10.764 Y81.0616
X11.4882 Y81.2031
X12.221 Y81.2882
X12.9571 Y81.3389
X13.6943 Y81.3688
X14.4319 Y81.3865
X15.1697 Y81.3969
X15.9075 Y81.403
X16.6453 Y81.4066
X18.1209 Y81.4099
X21.81 Y81.4115
X52.0604 Y81.4116
X102.2318
X152.4032
X202.5747
X252.7461
X302.9175
X353.089
X395.1444
X395.5003 Y81.3143
X395.8263 Y81.1417
X396.3991 Y80.6767
X396.7864 Y80.0487
X397.033 Y79.3533
X397.185 Y78.6313
X397.2769 Y77.8993
X397.332 Y77.1635
X397.3647 Y76.4264
X397.384 Y75.6888
X397.3954 Y74.9511
X397.4021 Y74.2133
X397.406 Y73.4755
X397.4097 Y71.9999
X397.4114 Y69.0486
X397.4116 Y24.0419
Y10.7612
X397.2951 Y10.4112
X397.1046 Y10.0953
X396.6103 Y9.5475
X395.9709 Y9.1793
X395.271 Y8.9458
X394.5473 Y8.8022
X393.8146 Y8.7154
X393.0786 Y8.6635
X392.3415 Y8.6327
X391.6039 Y8.6145
X390.8661 Y8.6037
X390.1284 Y8.5974
X389.3906 Y8.5937
X387.9149 Y8.5902
X384.9637 Y8.5886
X361.3536 Y8.5884
X311.1822
X261.0107
X210.8393
X160.6679
X110.4964
X60.325
X12.367
X12.001 Y8.634
X11.652 Y8.7537
X11.3383 Y8.9478
X10.796 Y9.4481
X10.4337 Y10.0908
X10.2051 Y10.7923
X10.0651 Y11.5168
X9.9808 Y12.2497
X9.9306 Y12.9859
X9.9009 Y13.7231
X9.8834 Y14.4607
X9.873 Y15.1984
X9.867 Y15.9362
X9.8634 Y16.674
X9.8601 Y18.1496
X9.8585 Y21.8387
X9.8584 Y60.2051
Y77.9127
X9.9638 Y78.2662
X10.1441 Y78.5881
X10.6221 Y79.1501
X11.2547 Y79.5297
X11.9519 Y79.7712
X12.6746 Y79.9199
X13.4069 Y80.0098
X14.1427 Y80.0636
X14.8799 Y80.0956
X15.6174 Y80.1145
X16.3552 Y80.1257
X17.093 Y80.1322
X17.8308 Y80.1361
X19.3064 Y80.1397
X22.2576 Y80.1414
X41.4408 Y80.1416
X91.6123
X141.7837
X191.9551
X242.1265
X292.298
X342.4694
X392.6408
X393.3786
X393.7476 Y80.1403
X394.1108 Y80.0762
X394.4497 Y79.9303
X394.7503 Y79.7166
X395.2677 Y79.1905
X395.6077 Y78.5357
X395.8204 Y77.8292
X395.9502 Y77.1029
X396.0282 Y76.3692
X396.0746 Y75.6329
X396.1021 Y74.8956
X396.1184 Y74.1579
X396.128 Y73.4202
X396.1336 Y72.6824
X396.1369 Y71.9446
X396.14 Y70.4689
X396.1415 Y66.7799
X396.1416 Y32.1026
Y12.1815
X396.0605 Y11.8217
X395.8994 Y11.4898
X395.4494 Y10.9051
X394.8285 Y10.5066
X394.136 Y10.2519
X393.4152 Y10.0945
X392.6836 Y9.9991
X391.948 Y9.9418
X391.2109 Y9.9077
X390.4734 Y9.8875
X389.7357 Y9.8755
X388.9979 Y9.8685
X388.2601 Y9.8643
X387.5223 Y9.8619
X386.0467 Y9.8596
X380.882 Y9.8584
X366.8635
X316.692
X266.5206
X216.3492
X166.1777
X116.0063
X65.8349
X15.6635
X13.45
X13.0911 Y9.9437
X12.76 Y10.1063
X12.1758 Y10.557
X11.7774 Y11.178
X11.5226 Y11.8704
X11.3649 Y12.5912
X11.2693 Y13.3228
X11.2119 Y14.0583
X11.1778 Y14.7954
X11.1575 Y15.5329
X11.1455 Y16.2706
X11.1385 Y17.0084
X11.1343 Y17.7462
X11.1319 Y18.484
X11.1296 Y19.9597
X11.1284 Y25.1244
Y56.8504
Y76.4025
X11.1764 Y76.7683
X11.3055 Y77.1138
X11.5062 Y77.4234
X12.0165 Y77.9563
X12.6634 Y78.3111
X13.3667 Y78.5343
X14.0918 Y78.6705
X14.825 Y78.7524
X15.5612 Y78.8012
X16.2985 Y78.8301
X17.0361 Y78.8472
X17.7738 Y78.8573
X18.5116 Y78.8632
X19.2494 Y78.8667
X20.7251 Y78.8699
X24.4141 Y78.8715
X40.6461 Y78.8716
X90.8175
X140.9889
X191.1604
X241.3318
X291.5032
X341.6747
X391.8461
X392.5839
X392.9408 Y78.7782
X393.2685 Y78.6088
X393.8452 Y78.1486
X394.2364 Y77.523
X394.486 Y76.8287
X394.6402 Y76.1072
X394.7337 Y75.3754
X394.7898 Y74.6397
X394.8232 Y73.9026
X394.843 Y73.1651
X394.8548 Y72.4273
X394.8617 Y71.6896
X394.8658 Y70.9518
X394.8696 Y69.4761
X394.8714 Y66.5249
X394.8716 Y30.3719
Y13.4022
X394.7798 Y13.0449
X394.6093 Y12.7177
X394.1435 Y12.1456
X393.5163 Y11.7569
X392.8213 Y11.5093
X392.0995 Y11.3566
X391.3675 Y11.2642
X390.6317 Y11.2089
X389.8947 Y11.176
X389.1571 Y11.1565
X388.4194 Y11.1449
X387.6816 Y11.1381
X386.9438 Y11.1341
X385.4681 Y11.1304
X382.5169 Y11.1286
X362.5959 Y11.1284
X312.4245
X262.253
X212.0816
X161.9102
X111.7387
X61.5673
X15.085
X14.7163 Y11.1429
X14.3564 Y11.2239
X14.0247 Y11.3852
X13.4417 Y11.8375
X13.044 Y12.4589
X12.79 Y13.1516
X12.6331 Y13.8726
X12.5381 Y14.6043
X12.4812 Y15.3399
X12.4474 Y16.0769
X12.4273 Y16.8145
X12.4154 Y17.5522
X12.4084 Y18.29
X12.4043 Y19.0278
X12.4019 Y19.7656
X12.3996 Y21.2412
X12.3984 Y26.4059
Y64.0345
Y75.1017
X12.4469 Y75.4674
X12.5693 Y75.8154
X12.7656 Y76.1278
X13.2687 Y76.6674
X13.9125 Y77.0278
X14.6143 Y77.2554
X15.3389 Y77.3948
X16.0719 Y77.4789
X16.808 Y77.529
X17.5452 Y77.5588
X18.2828 Y77.5764
X19.0205 Y77.5868
X19.7583 Y77.5929
X20.4961 Y77.5965
X21.9718 Y77.5999
X24.923 Y77.6014
X50.7466 Y77.6016
X100.918
X151.0894
X201.2608
X251.4323
X301.6037
X351.7751
X390.8793
X391.2481 Y77.5933
X391.6096 Y77.5197
X391.9445 Y77.365
X392.5359 Y76.9237
X392.9407 Y76.3069
X393.2 Y75.6162
X393.3605 Y74.896
X393.4579 Y74.1647
X393.5163 Y73.4292
X393.5511 Y72.6922
X393.5717 Y71.9546
X393.584 Y71.2169
X393.5912 Y70.4791
X393.5955 Y69.7413
X393.598 Y69.0035
X393.6004 Y67.5279
X393.6016 Y62.3632
Y17.3565
Y15.143
X393.5988 Y14.7741
X393.5307 Y14.4116
X393.3809 Y14.0744
X393.1641 Y13.776
X392.6341 Y13.2627
X391.9773 Y12.9265
X391.2701 Y12.7161
X390.5435 Y12.5879
X389.8098 Y12.5108
X389.0734 Y12.4649
X388.3361 Y12.4376
X387.5984 Y12.4215
X386.8607 Y12.412
X386.1229 Y12.4064
X385.3851 Y12.4031
X383.9095 Y12.4
X380.2204 Y12.3985
X347.0187 Y12.3984
X296.8473
X246.6758
X196.5044
X146.333
X96.1616
X45.9901
X16.4775
X16.1086 Y12.4002
X15.7438 Y12.455
X15.4012 Y12.5917
X15.0954 Y12.7982
X14.568 Y13.3141
X14.2192 Y13.9643
X14.0004 Y14.6689
X13.8666 Y15.3944
X13.7861 Y16.1278
X13.738 Y16.8641
X13.7095 Y17.6014
X13.6926 Y18.339
X13.6827 Y19.0767
X13.6768 Y19.8145
X13.6733 Y20.5523
X13.6701 Y22.028
X13.6685 Y25.717
X13.6684 Y31.6196
Y73.675
X13.6906 Y74.0433
X13.7818 Y74.4007
X13.9505 Y74.7288
X14.4111 Y75.3051
X15.0366 Y75.6965
X15.7309 Y75.9462
X16.4524 Y76.1004
X17.1843 Y76.1939
X17.9199 Y76.2499
X18.657 Y76.2833
X19.3946 Y76.3031
X20.1323 Y76.3148
X20.8701 Y76.3217
X21.6079 Y76.3258
X23.0835 Y76.3296
X26.0347 Y76.3314
X71.0415 Y76.3316
X121.2129
X171.3843
X221.5558
X271.7272
X321.8986
X372.07
X389.7776
X390.1448 Y76.2967
X390.4971 Y76.1872
X390.816 Y76.0017
X391.3685 Y75.5127
X391.7399 Y74.8752
X391.9743 Y74.1756
X392.118 Y73.4519
X392.2047 Y72.7192
X392.2565 Y71.9832
X392.2872 Y71.246
X392.3054 Y70.5084
X392.3162 Y69.7707
X392.3225 Y69.0329
X392.3263 Y68.2951
X392.3298 Y66.8195
X392.3314 Y63.8682
X392.3316 Y44.685
X392.3314 Y15.9102
X392.2266 Y15.5565
X392.0478 Y15.2339
X391.5737 Y14.6685
X390.9424 Y14.2867
X390.2457 Y14.0436
X389.5233 Y13.8935
X388.7912 Y13.8026
X388.0554 Y13.748
X387.3183 Y13.7155
X386.5807 Y13.6962
X385.843 Y13.6848
X385.1052 Y13.6781
X384.3674 Y13.6741
X382.8918 Y13.6704
X379.9405 Y13.6686
X371.8245 Y13.6684
X321.6531
X271.4817
X221.3103
X171.1388
X120.9674
X70.796
X20.6245
X17.6733
X17.3045 Y13.6761
X16.9429 Y13.7493
X16.6071 Y13.902
X16.3094 Y14.1199
X15.801 Y14.6546
X15.4657 Y15.3118
X15.2555 Y16.0191
X15.1273 Y16.7457
X15.0504 Y17.4795
X15.0045 Y18.2159
X14.9774 Y18.9532
X14.9614 Y19.6908
X14.9519 Y20.4286
X14.9463 Y21.1664
X14.9431 Y21.9042
X14.94 Y23.3798
X14.9385 Y27.0689
X14.9384 Y59.5327
X14.9385 Y72.8134
X15.04 Y73.1681
X15.2173 Y73.4916
X15.6916 Y74.0567
X16.322 Y74.4401
X17.0181 Y74.6846
X17.7404 Y74.8354
X18.4725 Y74.9269
X19.2083 Y74.9816
X19.9454 Y75.0143
X20.6829 Y75.0336
X21.4207 Y75.0451
X22.1584 Y75.0519
X22.8963 Y75.0559
X24.3719 Y75.0596
X27.3231 Y75.0614
X50.9332 Y75.0616
X101.1046
X151.2761
X201.4475
X251.6189
X301.7903
X351.9618
X388.8525
X389.2045 Y74.9512
X389.524 Y74.7668
X390.0805 Y74.2824
X390.456 Y73.6472
X390.6947 Y72.9491
X390.8417 Y72.2261
X390.9307 Y71.4936
X390.984 Y70.7578
X391.0157 Y70.0206
X391.0345 Y69.2831
X391.0456 Y68.5453
X391.0522 Y67.8075
X391.0561 Y67.0697
X391.0597 Y65.5941
X391.0614 Y62.6428
X391.0616 Y17.6361
X391.05 Y17.2674
X390.9705 Y16.9072
X390.8107 Y16.5747
X390.3618 Y15.9891
X389.7415 Y15.5895
X389.0494 Y15.3339
X388.3287 Y15.1759
X387.5972 Y15.08
X386.8616 Y15.0225
X386.1246 Y14.9882
X385.3871 Y14.9679
X384.6493 Y14.9558
X383.9115 Y14.9487
X383.1737 Y14.9444
X382.4359 Y14.942
X380.9603 Y14.9396
X375.7956 Y14.9384
X336.6914
X286.52
X236.3485
X186.1771
X136.0057
X85.8343
X35.6628
X18.6931
X18.3283 Y14.9934
X17.9826 Y15.1222
X17.6727 Y15.3223
X17.1368 Y15.8294
X16.7793 Y16.4748
X16.5534 Y17.1772
X16.4147 Y17.9019
X16.331 Y18.6349
X16.281 Y19.3711
X16.2513 Y20.1083
X16.2337 Y20.8459
X16.2233 Y21.5836
X16.2172 Y22.3214
X16.2136 Y23.0592
X16.2102 Y24.5348
X16.2086 Y27.4861
X16.2084 Y47.4071
Y71.3861
X16.2713 Y71.7496
X16.4158 Y72.089
X16.6282 Y72.3907
X17.1527 Y72.9096
X17.8062 Y73.252
X18.5121 Y73.4666
X19.2382 Y73.5976
X19.9718 Y73.6764
X20.7081 Y73.7234
X21.4454 Y73.7513
X22.1831 Y73.7678
X22.9208 Y73.7776
X23.6586 Y73.7834
X24.3964 Y73.7868
X25.872 Y73.7899
X29.5611 Y73.7915
X41.3662 Y73.7916
X91.5376
X141.709
X191.8804
X242.0519
X292.2233
X342.3947
X387.4014
X387.7644 Y73.7258
X388.1026 Y73.5784
X388.4027 Y73.3638
X388.918 Y72.8358
X389.2578 Y72.1809
X389.4703 Y71.4743
X389.5999 Y70.748
X389.6779 Y70.0143
X389.7243 Y69.2779
X389.7519 Y68.5406
X389.7682 Y67.803
X389.7778 Y67.0653
X389.7835 Y66.3275
X389.7868 Y65.5897
X389.7899 Y64.114
X389.7915 Y60.4249
X389.7916 Y19.1073
X389.79 Y18.3695
X389.67 Y18.0207
X389.4778 Y17.7057
X388.9802 Y17.161
X388.3396 Y16.7949
X387.6393 Y16.5629
X386.9153 Y16.4205
X386.1825 Y16.3346
X385.4465 Y16.2832
X384.7093 Y16.2526
X383.9717 Y16.2345
X383.2339 Y16.2238
X382.4962 Y16.2175
X381.7584 Y16.2138
X380.2827 Y16.2102
X377.3315 Y16.2086
X341.1785 Y16.2084
X291.0071
X240.8357
X190.6643
X140.4928
X90.3214
X40.15
X20.229
X19.8602 Y16.2167
X19.4983 Y16.2886
X19.1617 Y16.4396
X18.8627 Y16.6557
X18.3511 Y17.1873
X18.0126 Y17.8429
X17.8001 Y18.5494
X17.6703 Y19.2757
X17.5922 Y20.0094
X17.5457 Y20.7458
X17.5181 Y21.483
X17.5018 Y22.2207
X17.4922 Y22.9584
X17.4865 Y23.6962
X17.4832 Y24.434
X17.48 Y25.9097
X17.4785 Y29.5987
X17.4784 Y45.0929
Y70.1786
X17.5586 Y70.5386
X17.7169 Y70.8719
X17.9385 Y71.1668
X18.4785 Y71.6695
X19.1378 Y72.0007
X19.8459 Y72.2082
X20.5728 Y72.3347
X21.3066 Y72.4108
X22.0431 Y72.4561
X22.7804 Y72.483
X23.518 Y72.4988
X24.2558 Y72.5082
X24.9936 Y72.5137
X25.7314 Y72.517
X27.207 Y72.52
X30.8961 Y72.5215
X41.9633 Y72.5216
X92.1348
X142.3062
X192.4776
X242.649
X292.8205
X342.9919
X385.7852
X386.154 Y72.5149
X386.5157 Y72.4422
X386.8517 Y72.2899
X387.1496 Y72.0723
X387.658 Y71.5376
X387.9933 Y70.8804
X388.2036 Y70.1732
X388.332 Y69.4466
X388.4091 Y68.7129
X388.4551 Y67.9765
X388.4824 Y67.2392
X388.4985 Y66.5015
X388.508 Y65.7638
X388.5136 Y65.026
X388.5169 Y64.2882
X388.52 Y62.8125
X388.5215 Y59.1235
X388.5216 Y20.0193
X388.4859 Y19.6521
X388.3744 Y19.3004
X388.186 Y18.9832
X387.6933 Y18.4341
X387.0538 Y18.0661
X386.3536 Y17.8333
X385.6298 Y17.6906
X384.897 Y17.6045
X384.161 Y17.553
X383.4238 Y17.5225
X382.6862 Y17.5044
X381.9485 Y17.4937
X381.2107 Y17.4874
X380.4729 Y17.4837
X378.9973 Y17.4802
X376.046 Y17.4786
X335.4662 Y17.4784
X285.2947
X235.1233
X184.9519
X134.7805
X84.609
X34.4376
X21.1569
X20.7947 Y17.5484
X20.4553 Y17.6929
X20.1539 Y17.9056
X20.0929 Y17.9677
X19.9873 Y18.0567
X19.867 Y18.1246
X19.7363 Y18.169
X19.6387 Y18.1922
X19.4711 Y18.2488
X19.4054 Y18.2732
X19.3034 Y18.3189
X19.1357 Y18.4069
X19.0796 Y18.4408
X18.968 Y18.5164
X18.8539 Y18.6083
X18.8003 Y18.6528
X18.6326 Y18.8227
X18.5375 Y18.9435
X18.465 Y19.0446
X18.4253 Y19.111
X18.3293 Y19.2786
X18.257 Y19.4462
X18.1989 Y19.6137
X18.1572 Y19.7813
X18.1285 Y19.9489
X18.122 Y20.1164
X18.1139 Y20.4516
X18.1125 Y20.6191
Y69.716
X18.1147 Y69.8836
X18.1296 Y70.0587
X18.1617 Y70.2187
X18.2328 Y70.491
X18.2365 Y70.5015
X18.4863 Y70.9874
X18.4945 Y71.0013
X18.5375 Y71.0565
X18.6326 Y71.175
X18.866 Y71.3917
X18.968 Y71.4836
X19.0937 Y71.5687
X19.1077 Y71.5766
X19.5968 Y71.7957
X19.9741 Y71.8629
X20.1418 Y71.8867
X20.4772 Y71.8875
X385.3552
X385.8582 Y71.8841
X386.0259 Y71.8712
X386.1936 Y71.8477
X386.3613 Y71.8078
X386.529 Y71.7512
X386.5946 Y71.7268
X386.6967 Y71.6811
X386.8643 Y71.5931
X386.9204 Y71.5592
X387.032 Y71.4836
X387.1461 Y71.3917
X387.1997 Y71.3472
X387.3674 Y71.1773
X387.4626 Y71.0565
X387.5351 Y70.9555
X387.5748 Y70.889
X387.6708 Y70.7214
X387.7431 Y70.5538
X387.8012 Y70.3863
X387.8428 Y70.2187
X387.8715 Y70.0511
X387.8781 Y69.8836
X387.8862 Y69.5484
X387.8875 Y69.3809
Y20.6191
X387.8862 Y20.4516
X387.8781 Y20.1164
X387.8715 Y19.9489
X387.8428 Y19.7813
X387.8012 Y19.6137
X387.7431 Y19.4462
X387.6708 Y19.2786
X387.5748 Y19.111
X387.5351 Y19.0445
X387.4661 Y18.9435
X387.3674 Y18.8212
X387.3261 Y18.7759
X387.1997 Y18.6528
X387.032 Y18.5155
X386.9237 Y18.4408
X386.8643 Y18.4108
X386.4032 Y18.2043
X386.0259 Y18.1371
X385.8582 Y18.1133
X385.5229 Y18.1125
X20.6448
X20.1418 Y18.1159
X19.9741 Y18.1288
X19.8064 Y18.1523
X19.7363 Y18.169
G3 X19.3698 Y17.9504 I-0.0627 J-0.3112
G1 X19.3628 Y17.9035 Z-1.9964
X19.356 Y17.8577 Z-1.9858
X19.3706 Y17.8002 Z-1.96
X19.3837 Y17.749 Z-1.9227
X19.3946 Y17.7061 Z-1.8755
X19.4148 Y17.6766 Z-1.8165
X19.4273 Y17.6584 Z-1.7512
X19.4315 Y17.6522 Z-1.6826
G0 Z5
X121.2752 Y35.407
Z2.5
G3 X121.4466 Y35.6063 Z2.1783 I1.2249 J-0.8799 F1200
X121.65 Y35.7728 Z1.8566 I1.0535 J-1.0792
X121.8792 Y35.9015 Z1.5349 I0.8501 J-1.2457
X122.1273 Y35.9885 Z1.2132 I0.6208 J-1.3744
X122.3867 Y36.031 Z0.8914 I0.3727 J-1.4613
X122.6496 Y36.0278 Z0.5697 I0.1133 J-1.5039
X122.9079 Y35.979 Z0.248 I-0.1496 J-1.5007
X123.1538 Y35.8862 Z-0.0737 I-0.4079 J-1.4519
X123.3799 Y35.752 Z-0.3954 I-0.6538 J-1.359
X123.5792 Y35.5806 Z-0.7171 I-0.8799 J-1.2249
X123.7458 Y35.3772 Z-1.0388 I-1.0792 J-1.0535
X123.8744 Y35.1479 Z-1.3605 I-1.2457 J-0.8501
X123.9614 Y34.8999 Z-1.6822 I-1.3744 J-0.6208
X124.0081 Y34.5271 Z-2 I-1.4613 J-0.3727
X120.9919 I-1.5081
X124.0081 I1.5081
G1 X124.0274 Y35.2647 F3500
X124.0493 Y35.3543
X124.0647 Y35.5035
X124.0521 Y35.653
X124.0166 Y35.7987
X123.9617 Y35.9383
X123.8902 Y36.0702
X123.8044 Y36.1932
X123.7063 Y36.3067
X123.5976 Y36.41
X123.4797 Y36.5028
X123.3541 Y36.5849
X123.222 Y36.6559
X123.0835 Y36.7163
X122.9368 Y36.7667
X122.7828 Y36.806
X122.6228 Y36.8335
X122.4578 Y36.8484
X122.2891 Y36.8499
X122.1182 Y36.8378
X121.9464 Y36.8116
X121.775 Y36.7712
X121.6054 Y36.7165
X121.4392 Y36.6477
X121.2775 Y36.565
X121.1217 Y36.4689
X120.9732 Y36.3598
X120.8329 Y36.2383
X120.7022 Y36.1053
X120.582 Y35.9615
X120.4732 Y35.8079
X120.3767 Y35.6454
X120.2934 Y35.4752
X120.2237 Y35.2983
X120.1684 Y35.1159
X120.1277 Y34.9292
X120.1022 Y34.7395
X120.0919 Y34.5481
X120.097 Y34.3562
X120.1175 Y34.165
X120.1534 Y33.9759
X120.2044 Y33.7901
X120.2701 Y33.6088
X120.3503 Y33.4333
X120.4443 Y33.2647
X120.5517 Y33.104
X120.6716 Y32.9524
X120.8034 Y32.8109
X120.9462 Y32.6803
X121.0991 Y32.5616
X121.261 Y32.4555
X121.431 Y32.3628
X121.6079 Y32.2839
X121.7906 Y32.2195
X121.9779 Y32.1699
X122.1686 Y32.1356
X122.3615 Y32.1166
X122.5553 Y32.1132
X122.7487 Y32.1254
X122.9406 Y32.153
X123.1297 Y32.196
X123.3147 Y32.254
X123.4944 Y32.3266
X123.6678 Y32.4135
X123.8337 Y32.514
X123.9909 Y32.6275
X124.1385 Y32.7532
X124.2756 Y32.8904
X124.4012 Y33.0382
X124.5146 Y33.1955
X124.619 Y33.3681
X124.7302 Y33.5906
X124.8772 Y33.9551
X124.9844 Y34.2982
X125.0483 Y34.5806
X125.085 Y34.8363
X125.0997 Y35.0734
X125.0955 Y35.2966
X125.0744 Y35.5096
X125.0369 Y35.7168
X124.9832 Y35.9192
X124.9136 Y36.116
X124.8285 Y36.3065
X124.7284 Y36.4895
X124.6136 Y36.6645
X124.484 Y36.831
X124.3399 Y36.9883
X124.1818 Y37.1353
X124.0103 Y37.2707
X123.826 Y37.3937
X123.6293 Y37.5031
X123.4215 Y37.5978
X123.2035 Y37.6767
X122.9769 Y37.7387
X122.7429 Y37.7828
X122.5031 Y37.8084
X122.2591 Y37.8147
X122.0128 Y37.8012
X121.7658 Y37.7677
X121.5201 Y37.714
X121.2774 Y37.6401
X121.0397 Y37.5463
X120.8086 Y37.4329
X120.5859 Y37.3004
X120.3732 Y37.1496
X120.1722 Y36.9812
X119.9844 Y36.7963
X119.8112 Y36.596
X119.654 Y36.3815
X119.5139 Y36.1542
X119.3922 Y35.9155
X119.2896 Y35.6671
X119.2071 Y35.4105
X119.1453 Y35.1474
X119.1047 Y34.8797
X119.0857 Y34.609
X119.0885 Y34.3371
X119.1131 Y34.066
X119.1595 Y33.7973
X119.2273 Y33.5329
X119.3163 Y33.2746
X119.4258 Y33.0239
X119.5552 Y32.7827
X119.7036 Y32.5525
X119.8701 Y32.3348
X120.0537 Y32.131
X120.2531 Y31.9425
X120.4671 Y31.7706
X120.6943 Y31.6164
X120.9332 Y31.4808
X121.1823 Y31.3648
X121.44 Y31.2692
X121.7045 Y31.1945
X121.9743 Y31.1413
X122.2475 Y31.1099
X122.5223 Y31.1006
X122.7971 Y31.1133
X123.07 Y31.148
X123.3392 Y31.2046
X123.6031 Y31.2825
X123.8599 Y31.3814
X124.1079 Y31.5006
X124.3456 Y31.6394
X124.5713 Y31.7967
X124.785 Y31.9727
X124.9913 Y32.1726
X125.2055 Y32.4162
X125.4074 Y32.687
X125.5937 Y32.9839
X125.7584 Y33.3002
X125.8958 Y33.6254
X126.0037 Y33.9517
X126.0826 Y34.2754
X126.1338 Y34.5954
X126.1586 Y34.9118
X126.158 Y35.2243
X126.1326 Y35.5319
X126.0831 Y35.8332
X126.0103 Y36.1272
X125.9146 Y36.4127
X125.7966 Y36.6888
X125.657 Y36.9543
X125.4964 Y37.208
X125.3154 Y37.4487
X125.1148 Y37.6751
X124.8953 Y37.886
X124.658 Y38.0799
X124.4039 Y38.2554
X124.1343 Y38.4113
X123.8507 Y38.5462
X123.5546 Y38.6589
X123.2477 Y38.7483
X122.9319 Y38.8133
X122.6093 Y38.853
X122.2821 Y38.8669
X121.9525 Y38.8543
X121.6226 Y38.8151
X121.2947 Y38.749
X120.971 Y38.6563
X120.6539 Y38.5371
X120.3456 Y38.392
X120.0482 Y38.2217
X119.764 Y38.0271
X119.4951 Y37.8093
X119.2434 Y37.5695
X119.0107 Y37.3091
X118.7989 Y37.0299
X118.6095 Y36.7335
X118.444 Y36.4219
X118.3036 Y36.0971
X118.1895 Y35.7612
X118.1024 Y35.4163
X118.0432 Y35.0649
X118.0123 Y34.7092
X118.0101 Y34.3516
X118.0366 Y33.9944
X118.0918 Y33.64
X118.1753 Y33.2908
X118.2867 Y32.9491
X118.4253 Y32.6172
X118.5902 Y32.2972
X118.7804 Y31.9912
X118.9947 Y31.7013
X119.2317 Y31.4294
X119.4898 Y31.1773
X119.7675 Y30.9467
X120.0628 Y30.7389
X120.374 Y30.5555
X120.6991 Y30.3976
X121.0358 Y30.2663
X121.382 Y30.1624
X121.7355 Y30.0866
X122.0941 Y30.0394
X122.4553 Y30.0212
X122.8168 Y30.032
X123.1764 Y30.0717
X123.5316 Y30.1403
X123.8803 Y30.2371
X124.22 Y30.3616
X124.549 Y30.5131
X124.8673 Y30.6919
X125.1795 Y30.902
X125.4831 Y31.1437
X125.7752 Y31.4174
X126.0517 Y31.7217
X126.3073 Y32.0531
X126.5375 Y32.4068
X126.7386 Y32.778
X126.9084 Y33.1622
X127.0457 Y33.5557
X127.1501 Y33.9554
X127.2214 Y34.3584
X127.2598 Y34.7623
X127.2656 Y35.1644
X127.2394 Y35.5627
X127.1816 Y35.9551
X127.0929 Y36.3396
X126.9742 Y36.7143
X126.8261 Y37.0774
X126.6495 Y37.4271
X126.4453 Y37.7616
X126.2146 Y38.0792
X125.9585 Y38.378
X125.6781 Y38.6563
X125.375 Y38.9124
X125.0508 Y39.1445
X124.707 Y39.3509
X124.3456 Y39.5301
X123.9687 Y39.6807
X123.5786 Y39.8013
X123.1777 Y39.8907
X122.7683 Y39.948
X122.3533 Y39.9724
X121.9352 Y39.9634
X121.5169 Y39.9205
X121.1011 Y39.8439
X120.6906 Y39.7335
X120.2883 Y39.5899
X119.8969 Y39.4135
X119.5193 Y39.2054
X119.158 Y38.9666
X118.8157 Y38.6986
X118.4948 Y38.4028
X118.1976 Y38.081
X117.9263 Y37.7354
X117.6829 Y37.368
X117.4693 Y36.9812
X117.2869 Y36.5775
X117.1371 Y36.1595
X117.0211 Y35.73
X116.9398 Y35.2916
X116.8939 Y34.8474
X116.8838 Y34.4003
X116.9096 Y33.9532
X116.9713 Y33.509
X117.0685 Y33.0707
X117.2008 Y32.6413
X117.3672 Y32.2234
X117.5668 Y31.82
X117.7982 Y31.4336
X118.0601 Y31.0668
X118.3507 Y30.7221
X118.6683 Y30.4016
X119.0106 Y30.1076
X119.3756 Y29.8418
X119.7608 Y29.6061
X120.1638 Y29.4021
X120.582 Y29.231
X121.0127 Y29.094
X121.4531 Y28.992
X121.9003 Y28.9256
X122.3514 Y28.8954
X122.8036 Y28.9014
X123.2539 Y28.9438
X123.6994 Y29.0221
X124.1378 Y29.1361
X124.5679 Y29.2857
X124.9885 Y29.4711
X125.3977 Y29.6922
X125.7934 Y29.9491
X126.1745 Y30.2425
X126.5375 Y30.5717
X126.8781 Y30.9343
X127.1917 Y31.3272
X127.4743 Y31.7463
X127.7229 Y32.1877
X127.9351 Y32.6472
X128.1092 Y33.1208
X128.2441 Y33.6047
X128.3393 Y34.0953
X128.3944 Y34.5892
X128.4097 Y35.0833
X128.3854 Y35.5744
X128.322 Y36.0598
X128.2203 Y36.5368
X128.081 Y37.0027
X127.9051 Y37.4552
X127.6937 Y37.8916
X127.4479 Y38.3097
X127.169 Y38.7071
X126.8586 Y39.0815
X126.5183 Y39.4307
X126.1499 Y39.7525
X125.7554 Y40.0447
X125.3369 Y40.3054
X124.897 Y40.5328
X124.438 Y40.7249
X123.9629 Y40.8804
X123.4745 Y40.9977
X122.9759 Y41.0759
X122.4701 Y41.114
X121.9605 Y41.1114
X121.4504 Y41.0677
X120.9432 Y40.9828
X120.4423 Y40.8569
X119.951 Y40.6905
X119.4728 Y40.4844
X119.0108 Y40.2397
X118.5684 Y39.9576
X118.1487 Y39.6399
X117.7545 Y39.2884
X117.3887 Y38.9052
X117.054 Y38.4928
X116.7526 Y38.0537
X116.4868 Y37.5908
X116.2585 Y37.1069
X116.0694 Y36.6053
X115.9209 Y36.0892
X115.8141 Y35.5619
X115.7499 Y35.027
X115.7288 Y34.4879
X115.7511 Y33.9482
X115.8167 Y33.4114
X115.9252 Y32.881
X116.0761 Y32.3606
X116.2685 Y31.8537
X116.5011 Y31.3634
X116.7724 Y30.8931
X117.0808 Y30.4458
X117.4242 Y30.0246
X117.8005 Y29.632
X118.2073 Y29.2708
X118.6418 Y28.9433
X119.1014 Y28.6517
X119.5831 Y28.3978
X120.0836 Y28.1833
X120.5999 Y28.0097
X121.1286 Y27.878
X121.6662 Y27.7892
X122.2092 Y27.7438
X122.7543 Y27.7422
X123.2979 Y27.7843
X123.8373 Y27.87
X124.3701 Y27.9992
X124.8937 Y28.1718
X125.4057 Y28.3874
X125.9039 Y28.6461
X126.3855 Y28.9477
X126.8471 Y29.2911
X127.2846 Y29.6749
X127.6937 Y30.0964
X128.0703 Y30.5525
X128.4105 Y31.0396
X128.7113 Y31.5537
X128.9699 Y32.0904
X129.1844 Y32.6456
X129.3533 Y33.2149
X129.4756 Y33.7942
X129.5508 Y34.3795
X129.5786 Y34.9667
X129.5592 Y35.5524
X129.4932 Y36.1327
X129.3811 Y36.7043
X129.2237 Y37.264
X129.0223 Y37.8084
X128.778 Y38.3345
X128.4923 Y38.8392
X128.1668 Y39.3198
X127.8033 Y39.7732
X127.4038 Y40.1968
X126.9706 Y40.588
X126.5061 Y40.9441
X126.0129 Y41.2628
X125.4939 Y41.5418
X124.9522 Y41.7792
X124.391 Y41.9731
X123.8138 Y42.1219
X123.2242 Y42.2243
X122.6259 Y42.2792
X122.0228 Y42.286
X121.4187 Y42.2443
X120.8176 Y42.1538
X120.2235 Y42.0148
X119.6403 Y41.828
X119.0721 Y41.5941
X118.5227 Y41.3145
X117.9959 Y40.9907
X117.4952 Y40.6246
X117.0243 Y40.2183
X116.5863 Y39.7744
X116.1844 Y39.2956
X115.8214 Y38.7849
X115.4999 Y38.2456
X115.2221 Y37.6811
X114.9901 Y37.0951
X114.8056 Y36.4914
X114.6699 Y35.8738
X114.5842 Y35.2465
X114.5489 Y34.6136
X114.5647 Y33.9792
X114.6313 Y33.3474
X114.7486 Y32.7224
X114.9157 Y32.1084
X115.1318 Y31.5093
X115.3954 Y30.9291
X115.705 Y30.3716
X116.0584 Y29.8404
X116.4536 Y29.3391
X116.8878 Y28.871
X117.3584 Y28.439
X117.8623 Y28.0461
X118.3963 Y27.6948
X118.9569 Y27.3874
X119.5405 Y27.126
X120.1433 Y26.9121
X120.7614 Y26.7474
X121.3909 Y26.6327
X122.0276 Y26.5689
X122.6679 Y26.5564
X123.3079 Y26.5954
X123.9444 Y26.6858
X124.5739 Y26.8276
X125.1934 Y27.0205
X125.7997 Y27.2642
X126.3892 Y27.5582
X126.9578 Y27.9013
X127.5016 Y28.2921
X128.0161 Y28.7287
X128.4973 Y29.2084
X128.941 Y29.7282
X129.3432 Y30.2843
X129.7005 Y30.8726
X130.0099 Y31.4884
X130.2688 Y32.1271
X130.4754 Y32.7837
X130.6283 Y33.4536
X130.7268 Y34.132
X130.7704 Y34.8144
X130.7591 Y35.4963
X130.6933 Y36.1735
X130.5735 Y36.8419
X130.4009 Y37.4975
X130.1764 Y38.1364
X129.9015 Y38.7548
X129.5779 Y39.3491
X129.2074 Y39.9158
X128.7923 Y40.4515
X128.3349 Y40.9528
X127.8378 Y41.4167
X127.3039 Y41.8401
X126.7362 Y42.2202
X126.1383 Y42.5546
X125.5135 Y42.8406
X124.8658 Y43.0764
X124.1991 Y43.2601
X123.5175 Y43.39
X122.8253 Y43.4651
X122.127 Y43.4845
X121.4271 Y43.4476
X120.73 Y43.3544
X120.0405 Y43.2051
X119.3631 Y43.0002
X118.7022 Y42.7409
X118.0625 Y42.4284
X117.4481 Y42.0646
X116.8633 Y41.6515
X116.3122 Y41.1917
X115.7986 Y40.6879
X115.326 Y40.1434
X114.8979 Y39.5616
X114.517 Y38.9461
X114.1862 Y38.3008
X113.9079 Y37.6301
X113.6839 Y36.9381
X113.5159 Y36.2294
X113.4053 Y35.5087
X113.3527 Y34.7805
X113.3588 Y34.0498
X113.4236 Y33.3212
X113.5467 Y32.5996
X113.7275 Y31.8896
X113.9649 Y31.196
X114.2573 Y30.5233
X114.6029 Y29.8759
X114.9996 Y29.258
X115.4448 Y28.6736
X115.9356 Y28.1267
X116.469 Y27.6208
X117.0413 Y27.1592
X117.6491 Y26.7448
X118.2883 Y26.3806
X118.9548 Y26.0687
X119.6442 Y25.8113
X120.3523 Y25.61
X121.0743 Y25.4661
X121.8058 Y25.3807
X122.5424 Y25.3542
X123.2795 Y25.3869
X124.0116 Y25.4787
X124.734 Y25.6287
X125.4421 Y25.8359
X126.1315 Y26.0987
X126.7981 Y26.415
X127.4379 Y26.7825
X128.0471 Y27.1987
X128.6223 Y27.6607
X129.1605 Y28.1655
X129.6586 Y28.7098
X130.114 Y29.2903
X130.5243 Y29.9035
X130.8873 Y30.5458
X131.201 Y31.2136
X131.4636 Y31.9031
X131.6736 Y32.6104
X131.8298 Y33.3315
X131.9311 Y34.0623
X131.9764 Y34.7988
X131.965 Y35.5365
X131.8969 Y36.2712
X131.7725 Y36.9984
X131.5928 Y37.714
X131.3589 Y38.4138
X131.0723 Y39.0936
X130.7345 Y39.7496
X130.3476 Y40.3778
X129.9139 Y40.9747
X129.4359 Y41.5368
X128.9165 Y42.0608
X128.3587 Y42.5437
X127.7659 Y42.983
X127.1416 Y43.3762
X126.4893 Y43.7211
X125.813 Y44.0159
X125.1164 Y44.2591
X124.4036 Y44.4496
X123.6785 Y44.5859
X122.9451 Y44.6665
X122.2077 Y44.6913
X121.4705 Y44.6607
X120.7377 Y44.5755
X120.013 Y44.4366
X119.3006 Y44.2448
X118.6041 Y44.0014
X117.9271 Y43.708
X117.2732 Y43.3663
X116.6458 Y42.9781
X116.0479 Y42.5457
X115.4834 Y42.0707
X114.956 Y41.5547
X114.4681 Y41.0012
X114.0218 Y40.4137
X113.6189 Y39.7956
X113.2612 Y39.1503
X112.9504 Y38.4811
X112.6879 Y37.7916
X112.475 Y37.0852
X112.3126 Y36.3654
X112.2032 Y35.6358
X112.1483 Y34.9
X112.1468 Y34.1622
X112.1981 Y33.4262
X112.3014 Y32.6956
X112.4561 Y31.9742
X112.6612 Y31.2655
X112.9156 Y30.5729
X113.2179 Y29.8999
X113.5682 Y29.2505
X113.9655 Y28.6288
X114.4067 Y28.0375
X114.8889 Y27.479
X115.4093 Y26.9559
X115.9651 Y26.4708
X116.5537 Y26.0258
X117.1719 Y25.6231
X117.8168 Y25.2647
X118.4861 Y24.9542
X119.1764 Y24.6938
X119.8837 Y24.4837
X120.6041 Y24.3242
X121.3339 Y24.2158
X122.0695 Y24.1589
X122.8073 Y24.1535
X123.5437 Y24.1995
X124.275 Y24.2972
X124.9972 Y24.4483
X125.7066 Y24.6511
X126.3999 Y24.9036
X127.0739 Y25.2035
X127.7258 Y25.5492
X128.3525 Y25.9385
X128.9514 Y26.3695
X129.5199 Y26.8398
X130.0551 Y27.3476
X130.5533 Y27.8918
X131.0128 Y28.4691
X131.4323 Y29.0761
X131.8103 Y29.7097
X132.1455 Y30.367
X132.4365 Y31.045
X132.6821 Y31.7407
X132.8812 Y32.4511
X133.0326 Y33.1733
X133.1056 Y33.7042
X133.1095 Y33.7378
X133.1118 Y33.7714
X133.1125 Y33.8051
Y35.1974
X133.0756 Y35.9343
X133.0273 Y36.6087
X132.9198 Y37.3114
X132.75 Y38.0294
X132.5252 Y38.7321
X132.2501 Y39.4167
X131.928 Y40.0805
X131.5614 Y40.7208
X131.1523 Y41.3348
X130.7029 Y41.92
X130.2155 Y42.4738
X129.6919 Y42.9937
X129.1334 Y43.4758
X128.5428 Y43.918
X127.9235 Y44.3191
X127.2788 Y44.6779
X126.6117 Y44.993
X125.9252 Y45.2634
X125.2224 Y45.488
X124.5063 Y45.6657
X123.78 Y45.7954
X123.0464 Y45.8744
X122.3091 Y45.9025
X121.5716 Y45.881
X120.8371 Y45.8109
X120.1088 Y45.6928
X119.3897 Y45.5278
X118.6828 Y45.3166
X117.9909 Y45.0604
X117.3168 Y44.7604
X116.6639 Y44.4167
X116.0355 Y44.03
X115.434 Y43.6028
X114.8618 Y43.137
X114.3213 Y42.6348
X113.8146 Y42.0985
X113.3434 Y41.5307
X112.9095 Y40.934
X112.5142 Y40.311
X112.1597 Y39.664
X111.9566 Y39.2271
X111.9185 Y39.1267
X111.8953 Y39.0219
X111.8875 Y38.9148
Y31.1758
X111.9073 Y30.78
X111.9479 Y30.4703
X112.0338 Y30.0687
X112.1584 Y29.6527
X112.3586 Y29.1387
X112.6359 Y28.5671
X112.9826 Y27.9783
X113.4067 Y27.3746
X113.8753 Y26.8047
X114.3822 Y26.2685
X114.9233 Y25.7669
X115.4953 Y25.3009
X116.0955 Y24.8718
X116.7215 Y24.4812
X117.3709 Y24.131
X117.7562 Y23.9547
X117.8554 Y23.9176
X117.9588 Y23.8951
X118.0645 Y23.8875
X125.782
X126.2268 Y23.9098
X126.5409 Y23.951
X126.9487 Y24.0382
X127.3754 Y24.166
X127.8994 Y24.3701
X128.4975 Y24.6603
X129.1333 Y25.0346
X129.7377 Y25.4578
X130.31 Y25.9234
X130.8491 Y26.4271
X131.3544 Y26.9648
X131.8249 Y27.5331
X132.2598 Y28.1291
X132.658 Y28.7502
X133.0185 Y29.394
X133.0384 Y29.435
X133.0793 Y29.5385
X133.1042 Y29.647
X133.1125 Y29.758
Y33.8051
G3 X132.5388 Y33.9813 I-0.3173 J-0.0111
G1 X125.5942 Y24.4708
X125.5367 Y24.392
G3 X125.4756 Y24.2055 I0.2564 J-0.1872
G1 Y24.2048
G3 X125.782 Y23.8875 I0.3175
G1 X128.2973
X128.5355 Y23.8994
X128.7546 Y23.9282
X129.0255 Y23.9861
X129.3172 Y24.0735
X129.6624 Y24.2079
X130.0517 Y24.3968
X130.5168 Y24.6706
X131.0006 Y25.0105
X131.5534 Y25.4693
X132.0815 Y25.9846
X132.5724 Y26.5354
X132.9544 Y27.0221
X133.0408 Y27.1615
X133.0944 Y27.3165
X133.1125 Y27.4795
G3 X132.6085 Y27.7252 I-0.3173 J-0.0111
G1 X132.5291 Y27.6675
X128.1216 Y24.4616
G3 X128.2973 Y23.8875 I0.1868 J-0.2568
G1 X130.3095
X130.4593 Y23.895
X130.6455 Y23.9232
X130.8716 Y23.9763
X131.1298 Y24.0593
X131.4007 Y24.1711
X131.7399 Y24.3441
X132.0831 Y24.5555
X132.5037 Y24.8637
X132.8561 Y25.1683
X132.9946 Y25.3277
X133.0824 Y25.5198
X133.1125 Y25.7288
G3 X132.6296 Y25.9886 I-0.3173 J-0.0111
G1 X132.5242 Y25.9241
X130.1549 Y24.4757
G3 X130.3095 Y23.8875 I0.1656 J-0.2709
G1 X131.9863
X132.1361 Y23.895
X132.3143 Y23.9225
X132.49 Y23.9642
X132.6003 Y24
X132.8069 Y24.1051
X132.9709 Y24.2691
X133.0762 Y24.4756
X133.1125 Y24.7047
G3 X132.6294 Y24.9643 I-0.3173 J-0.0111
G1 X132.5243 Y24.8999
X131.8315 Y24.4755
G3 X131.9863 Y23.8875 I0.1658 J-0.2707
G1 X132.657
X132.8247 Y23.8906
X132.8666 Y23.8993
X132.9086 Y23.9144
X132.9505 Y23.9367
X132.995 Y23.9705
X133.0376 Y24.0123
X133.0676 Y24.0542
X133.0886 Y24.0961
X133.1025 Y24.138
X133.1103 Y24.1799
X133.1125 Y24.2218
Y29.758
G3 X132.5392 Y29.9348 I-0.3173 J-0.0111
G1 X132.4974 Y29.8778 Z-1.992
X132.4577 Y29.8237 Z-1.9686
X132.4221 Y29.7752 Z-1.9307
X132.3924 Y29.7346 Z-1.8805
X132.37 Y29.7041 Z-1.8203
X132.3561 Y29.6852 Z-1.7532
X132.3514 Y29.6788 Z-1.6825
G0 Z5
X112.2711 Y32.2023
Z-1.365
G1 Z-1.6825 F3500
X112.267 Y32.1954 Z-1.7532
X112.255 Y32.1752 Z-1.8203
X112.2357 Y32.1427 Z-1.8805
X112.21 Y32.0995 Z-1.9307
X112.1792 Y32.0478 Z-1.9686
X112.1449 Y31.9901 Z-1.992
X112.1088 Y31.9294 Z-2
G3 X111.8875 Y31.1758 I1.3603 J-0.8088
G1 Y28.6623
X111.8952 Y28.5083
X111.9238 Y28.2901
X111.9814 Y28.021
X112.0637 Y27.7464
X112.1956 Y27.4077
X112.3758 Y27.0363
X112.6408 Y26.586
X112.9685 Y26.1196
X113.4109 Y25.5866
X113.9262 Y25.0585
X114.4784 Y24.5692
X115.0612 Y24.1167
X115.2076 Y24.0167
X115.3373 Y23.9459
X115.4785 Y23.9022
X115.6256 Y23.8875
G3 X115.8665 Y24.398 I-0.0111 J0.3173
G1 X115.8117 Y24.4695
X112.4609 Y28.8391
X112.4568 Y28.8444
G3 X111.8875 Y28.6623 I-0.2519 J-0.1932
G1 Y26.8191
X111.8962 Y26.645
X111.9195 Y26.4673
X111.9656 Y26.2521
X112.0382 Y26.0095
X112.1383 Y25.7525
X112.2941 Y25.4315
X112.4845 Y25.1081
X112.7665 Y24.7066
X113.1167 Y24.2848
X113.2862 Y24.111
X113.4408 Y23.9898
X113.6218 Y23.9135
X113.8165 Y23.8875
G3 X114.0759 Y24.3711 I-0.0111 J0.3173
G1 X114.0116 Y24.4757
X112.4753 Y26.9743
G3 X111.8875 Y26.8191 I-0.2705 J-0.1663
G1 Y25.1434
X111.8952 Y24.99
X111.9182 Y24.8142
X111.9563 Y24.6362
X112.0132 Y24.4462
X112.047 Y24.3595
X112.1572 Y24.1676
X112.3192 Y24.0168
X112.5185 Y23.9206
X112.7373 Y23.8875
G3 X113.003 Y24.3604 I-0.0111 J0.3173
G1 X112.9368 Y24.4782
X112.4816 Y25.2879
G3 X111.8875 Y25.1434 I-0.2768 J-0.1556
G1 Y24.2218
X111.8897 Y24.1799
X111.8975 Y24.138
X111.9115 Y24.0961
X111.9325 Y24.0542
X111.9624 Y24.0123
X112.0033 Y23.9705
X112.032 Y23.9472
X112.074 Y23.9217
X112.1159 Y23.9041
X112.1578 Y23.8931
X112.1997 Y23.888
X118.0645 Y23.8875
G3 X118.2412 Y24.4608 I-0.0111 J0.3173
G1 X118.1842 Y24.5026 Z-1.992
X118.1301 Y24.5423 Z-1.9686
X118.0816 Y24.5779 Z-1.9307
X118.0411 Y24.6076 Z-1.8805
X118.0106 Y24.63 Z-1.8203
X117.9916 Y24.6439 Z-1.7532
X117.9852 Y24.6486 Z-1.6825
G0 Z5
X132.7289 Y34.1709
Z-1.365
G1 Z-1.6825 F3500
X132.733 Y34.1778 Z-1.7532
X132.745 Y34.1979 Z-1.8203
X132.7643 Y34.2304 Z-1.8805
X132.79 Y34.2737 Z-1.9307
X132.8208 Y34.3254 Z-1.9686
X132.8551 Y34.3831 Z-1.992
X132.8912 Y34.4438 Z-2
G3 X133.1125 Y35.1974 I-1.3603 J0.8088
G1 Y39.219
X133.1011 Y39.4463
X133.064 Y39.7299
X132.9912 Y40.0701
X132.8789 Y40.445
X132.7034 Y40.8956
X132.4472 Y41.4237
X132.1223 Y41.9756
X131.6981 Y42.5793
X131.2279 Y43.1479
X130.7189 Y43.682
X130.1757 Y44.1813
X129.6019 Y44.6451
X129.0005 Y45.0726
X128.3743 Y45.4627
X127.7258 Y45.8147
X127.0575 Y46.1272
X126.3711 Y46.3979
X125.6695 Y46.6263
X124.9555 Y46.812
X124.2315 Y46.9542
X123.5002 Y47.052
X122.7643 Y47.1052
X122.0265 Y47.1141
X121.2895 Y47.0792
X120.5559 Y47.0009
X119.8281 Y46.8797
X119.1089 Y46.7148
X118.401 Y46.507
X117.7064 Y46.2581
X117.0276 Y45.969
X116.367 Y45.6404
X115.7269 Y45.2734
X115.1096 Y44.8694
X114.517 Y44.4298
X113.9511 Y43.9563
X113.4138 Y43.4507
X112.9076 Y42.914
X112.4345 Y42.3478
X112.0331 Y41.806
X111.9534 Y41.6705
X111.9042 Y41.5213
X111.8875 Y41.365
Y38.9148
G3 X112.4608 Y38.738 I0.3173 J0.0111
G1 X112.5026 Y38.795 Z-1.992
X112.5423 Y38.8491 Z-1.9686
X112.5779 Y38.8976 Z-1.9307
X112.6077 Y38.9382 Z-1.8805
X112.63 Y38.9687 Z-1.8203
X112.6439 Y38.9876 Z-1.7532
X112.6486 Y38.994 Z-1.6825
G0 Z5
X132.7289 Y38.1925
Z-1.365
G1 Z-1.6825 F3500
X132.733 Y38.1993 Z-1.7532
X132.745 Y38.2195 Z-1.8203
X132.7643 Y38.252 Z-1.8805
X132.79 Y38.2952 Z-1.9307
X132.8208 Y38.347 Z-1.9686
X132.8551 Y38.4047 Z-1.992
X132.8912 Y38.4654 Z-2
G3 X133.1125 Y39.219 I-1.3603 J0.8088
G1 Y41.3973
X133.1025 Y41.5981
X133.0739 Y41.8164
X133.0216 Y42.0608
X132.942 Y42.3264
X132.8124 Y42.6593
X132.6478 Y42.9985
X132.3982 Y43.4225
X132.0787 Y43.8773
X131.659 Y44.3829
X131.1437 Y44.911
X130.59 Y45.3987
X130.0056 Y45.849
X129.3951 Y46.2634
X128.762 Y46.6422
X128.1087 Y46.9852
X127.4375 Y47.2914
X126.7502 Y47.5599
X126.0489 Y47.7889
X125.3357 Y47.978
X124.6131 Y48.1271
X123.8834 Y48.2362
X123.1488 Y48.3051
X122.4116 Y48.3341
X121.6738 Y48.3234
X120.9377 Y48.2732
X120.2053 Y48.1839
X119.4788 Y48.0552
X118.7603 Y47.8874
X118.0522 Y47.6802
X117.3566 Y47.4343
X116.6752 Y47.1512
X116.0101 Y46.8319
X115.363 Y46.4775
X114.7356 Y46.0892
X114.1297 Y45.6682
X113.547 Y45.2156
X112.989 Y44.7329
X112.4575 Y44.2212
X112.0866 Y43.8235
X111.9783 Y43.6736
X111.9106 Y43.5016
X111.8875 Y43.3182
Y41.365
G3 X112.4608 Y41.1883 I0.3173 J0.0111
G1 X112.5026 Y41.2453 Z-1.992
X112.5423 Y41.2994 Z-1.9686
X112.5779 Y41.3479 Z-1.9307
X112.6077 Y41.3884 Z-1.8805
X112.63 Y41.4189 Z-1.8203
X112.6439 Y41.4379 Z-1.7532
X112.6486 Y41.4443 Z-1.6825
G0 Z5
X132.7289 Y40.3709
Z-1.365
G1 Z-1.6825 F3500
X132.733 Y40.3777 Z-1.7532
X132.745 Y40.3979 Z-1.8203
X132.7643 Y40.4304 Z-1.8805
X132.79 Y40.4736 Z-1.9307
X132.8208 Y40.5254 Z-1.9686
X132.8551 Y40.583 Z-1.992
X132.8912 Y40.6438 Z-2
G3 X133.1125 Y41.3973 I-1.3603 J0.8088
G1 Y43.2406
X133.1041 Y43.4082
X133.0808 Y43.5859
X133.0348 Y43.8011
X132.9675 Y44.0257
X132.8674 Y44.2827
X132.7166 Y44.5937
X132.532 Y44.9072
X132.2612 Y45.2927
X131.9174 Y45.7069
X131.4688 Y46.1667
X130.9128 Y46.6517
X130.3218 Y47.0933
X129.7038 Y47.4965
X129.0638 Y47.8636
X128.405 Y48.1957
X127.7296 Y48.4928
X127.0398 Y48.7545
X126.3374 Y48.9803
X125.6242 Y49.1693
X124.902 Y49.3205
X124.1731 Y49.4346
X123.4393 Y49.5118
X122.7026 Y49.5524
X121.9648 Y49.5566
X121.2277 Y49.5247
X120.493 Y49.4568
X119.7625 Y49.3529
X119.0381 Y49.2133
X118.3214 Y49.0378
X117.6144 Y48.8268
X116.9189 Y48.5806
X116.2369 Y48.2991
X115.5698 Y47.9839
X114.9191 Y47.6361
X114.2861 Y47.257
X113.6723 Y46.8475
X113.0791 Y46.4088
X112.5078 Y45.9419
X112.1322 Y45.6033
X111.9999 Y45.4454
X111.9162 Y45.2571
X111.8875 Y45.0531
Y43.3182
G3 X112.4608 Y43.1414 I0.3173 J0.0111
G1 X112.5026 Y43.1984 Z-1.992
X112.5423 Y43.2525 Z-1.9686
X112.5779 Y43.3011 Z-1.9307
X112.6077 Y43.3416 Z-1.8805
X112.63 Y43.3721 Z-1.8203
X112.6439 Y43.391 Z-1.7532
X112.6486 Y43.3974 Z-1.6825
G0 Z5
X132.7289 Y42.2141
Z-1.365
G1 Z-1.6825 F3500
X132.733 Y42.2209 Z-1.7532
X132.745 Y42.2411 Z-1.8203
X132.7643 Y42.2736 Z-1.8805
X132.79 Y42.3168 Z-1.9307
X132.8208 Y42.3686 Z-1.9686
X132.8551 Y42.4263 Z-1.992
X132.8912 Y42.487 Z-2
G3 X133.1125 Y43.2406 I-1.3603 J0.8088
G1 Y44.9162
X133.105 Y45.066
X133.0802 Y45.2376
X133.0392 Y45.4181
X132.9709 Y45.6355
X132.8739 Y45.8755
X132.7453 Y46.1319
X132.5538 Y46.4476
X132.3292 Y46.7586
X132.0056 Y47.1383
X131.5951 Y47.5482
X131.0704 Y47.994
X130.4716 Y48.4251
X129.8444 Y48.8136
X129.1953 Y49.1643
X128.5283 Y49.4799
X127.8463 Y49.7613
X127.1513 Y50.0091
X126.4452 Y50.223
X125.7296 Y50.4027
X125.0063 Y50.5483
X124.277 Y50.6599
X123.5432 Y50.7373
X122.8067 Y50.7798
X122.0689 Y50.7882
X121.3315 Y50.7628
X120.596 Y50.7041
X119.864 Y50.6121
X119.1368 Y50.487
X118.4161 Y50.3291
X117.7034 Y50.1383
X117.0002 Y49.9151
X116.308 Y49.6595
X115.6284 Y49.3724
X114.9625 Y49.0545
X114.3119 Y48.7066
X113.6782 Y48.3288
X113.0624 Y47.9223
X112.4656 Y47.4885
X112.1662 Y47.2496
X112.0161 Y47.0877
X111.9204 Y46.8888
X111.8875 Y46.6706
Y45.0531
G3 X112.4608 Y44.8763 I0.3173 J0.0111
G1 X112.5026 Y44.9333 Z-1.992
X112.5423 Y44.9874 Z-1.9686
X112.5779 Y45.0359 Z-1.9307
X112.6077 Y45.0765 Z-1.8805
X112.63 Y45.107 Z-1.8203
X112.6439 Y45.1259 Z-1.7532
X112.6486 Y45.1323 Z-1.6825
G0 Z5
X132.7289 Y43.8897
Z-1.365
G1 Z-1.6825 F3500
X132.733 Y43.8966 Z-1.7532
X132.745 Y43.9168 Z-1.8203
X132.7643 Y43.9493 Z-1.8805
X132.79 Y43.9925 Z-1.9307
X132.8208 Y44.0442 Z-1.9686
X132.8551 Y44.1019 Z-1.992
X132.8912 Y44.1626 Z-2
G3 X133.1125 Y44.9162 I-1.3603 J0.8088
G1 Y46.4243
X133.1047 Y46.5805
X133.0849 Y46.7314
X133.0486 Y46.9011
X132.9876 Y47.1048
X132.9063 Y47.3134
X132.7905 Y47.5522
X132.626 Y47.8316
X132.4296 Y48.1113
X132.1469 Y48.4518
X131.8068 Y48.8003
X131.3536 Y49.1957
X130.7624 Y49.6332
X130.136 Y50.023
X129.4857 Y50.3716
X128.817 Y50.6835
X128.1336 Y50.9614
X127.4377 Y51.2066
X126.7313 Y51.4196
X126.0159 Y51.6002
X125.2931 Y51.7482
X124.5644 Y51.864
X123.8313 Y51.9475
X123.0953 Y51.9992
X122.3578 Y52.0192
X121.6201 Y52.0078
X120.8835 Y51.9654
X120.1493 Y51.892
X119.4189 Y51.7879
X118.6935 Y51.6531
X117.9744 Y51.488
X117.2629 Y51.2926
X116.5604 Y51.0671
X115.8682 Y50.8116
X115.1879 Y50.5262
X114.5204 Y50.2117
X113.8671 Y49.8688
X113.229 Y49.4984
X112.6072 Y49.1013
X112.2036 Y48.819
X112.0715 Y48.7006
X111.9713 Y48.5542
X111.9088 Y48.3881
X111.8875 Y48.212
Y46.6706
G3 X112.4608 Y46.4938 I0.3173 J0.0111
G1 X112.5026 Y46.5508 Z-1.992
X112.5423 Y46.6049 Z-1.9686
X112.5779 Y46.6534 Z-1.9307
X112.6077 Y46.694 Z-1.8805
X112.63 Y46.7245 Z-1.8203
X112.6439 Y46.7434 Z-1.7532
X112.6486 Y46.7498 Z-1.6825
G0 Z5
X132.7289 Y45.3978
Z-1.365
G1 Z-1.6825 F3500
X132.733 Y45.4047 Z-1.7532
X132.745 Y45.4249 Z-1.8203
X132.7643 Y45.4574 Z-1.8805
X132.79 Y45.5006 Z-1.9307
X132.8208 Y45.5523 Z-1.9686
X132.8551 Y45.61 Z-1.992
X132.8912 Y45.6707 Z-2
G3 X133.1125 Y46.4243 I-1.3603 J0.8088
G1 Y47.9324
X133.105 Y48.0822
X133.0808 Y48.237
X133.0383 Y48.4139
X132.9791 Y48.5952
X132.8882 Y48.8123
X132.7683 Y49.0446
X132.611 Y49.2972
X132.3879 Y49.5985
X132.1304 Y49.8935
X131.7722 Y50.2428
X131.3114 Y50.625
X130.74 Y51.0261
X130.1041 Y51.4003
X129.4446 Y51.731
X128.7676 Y52.0245
X128.077 Y52.2841
X127.3752 Y52.5117
X126.664 Y52.7082
X125.9451 Y52.8741
X125.2198 Y53.0097
X124.4896 Y53.1152
X123.7557 Y53.1908
X123.0193 Y53.2369
X122.2817 Y53.2535
X121.5439 Y53.241
X120.8073 Y53.1991
X120.073 Y53.1276
X119.3421 Y53.0269
X118.6157 Y52.8974
X117.895 Y52.7394
X117.1811 Y52.5531
X116.4751 Y52.3388
X115.7782 Y52.0964
X115.0916 Y51.8263
X114.4164 Y51.529
X113.7535 Y51.205
X113.104 Y50.8549
X112.4689 Y50.4794
X112.2143 Y50.3078
X112.078 Y50.1894
X111.9743 Y50.0414
X111.9095 Y49.8728
X111.8875 Y49.6935
Y48.212
G3 X112.4608 Y48.0352 I0.3173 J0.0111
G1 X112.5026 Y48.0922 Z-1.992
X112.5423 Y48.1463 Z-1.9686
X112.5779 Y48.1949 Z-1.9307
X112.6077 Y48.2354 Z-1.8805
X112.63 Y48.2659 Z-1.8203
X112.6439 Y48.2848 Z-1.7532
X112.6486 Y48.2912 Z-1.6825
G0 Z5
X132.7289 Y46.9059
Z-1.365
G1 Z-1.6825 F3500
X132.733 Y46.9128 Z-1.7532
X132.745 Y46.933 Z-1.8203
X132.7643 Y46.9655 Z-1.8805
X132.79 Y47.0087 Z-1.9307
X132.8208 Y47.0604 Z-1.9686
X132.8551 Y47.1181 Z-1.992
X132.8912 Y47.1788 Z-2
G3 X133.1125 Y47.9324 I-1.3603 J0.8088
G1 Y49.2729
X133.1027 Y49.4694
X133.0832 Y49.6181
X133.0464 Y49.7852
X132.9928 Y49.9605
X132.9156 Y50.1552
X132.8016 Y50.3866
X132.6662 Y50.6136
X132.4719 Y50.8865
X132.2348 Y51.1688
X131.9167 Y51.4909
X131.5334 Y51.8213
X131.02 Y52.1964
X130.3913 Y52.5825
X129.735 Y52.9196
X129.0595 Y53.2163
X128.3695 Y53.4776
X127.6681 Y53.7067
X126.9575 Y53.9052
X126.2392 Y54.0736
X125.5146 Y54.2126
X124.785 Y54.3229
X124.0518 Y54.405
X123.316 Y54.4592
X122.5787 Y54.4858
X121.8409 Y54.4849
X121.1036 Y54.4565
X120.3679 Y54.4005
X119.6348 Y54.3172
X118.9053 Y54.2068
X118.1803 Y54.0696
X117.461 Y53.9057
X116.7481 Y53.7154
X116.0428 Y53.4988
X115.3461 Y53.256
X114.6591 Y52.9869
X113.9829 Y52.6918
X113.3182 Y52.3714
X112.666 Y52.0265
X112.2567 Y51.7821
X112.1987 Y51.7407
X112.0318 Y51.5765
X111.9245 Y51.3684
X111.8875 Y51.1373
Y49.6935
G3 X112.4608 Y49.5167 I0.3173 J0.0111
G1 X112.5026 Y49.5737 Z-1.992
X112.5423 Y49.6278 Z-1.9686
X112.5779 Y49.6763 Z-1.9307
X112.6077 Y49.7169 Z-1.8805
X112.63 Y49.7474 Z-1.8203
X112.6439 Y49.7663 Z-1.7532
X112.6486 Y49.7727 Z-1.6825
G0 Z5
X132.7289 Y48.2465
Z-1.365
G1 Z-1.6825 F3500
X132.733 Y48.2533 Z-1.7532
X132.745 Y48.2735 Z-1.8203
X132.7643 Y48.306 Z-1.8805
X132.79 Y48.3492 Z-1.9307
X132.8208 Y48.401 Z-1.9686
X132.8551 Y48.4586 Z-1.992
X132.8912 Y48.5194 Z-2
G3 X133.1125 Y49.2729 I-1.3603 J0.8088
G1 Y50.7056
X133.105 Y50.8554
X133.0849 Y51.0041
X133.0508 Y51.1592
X132.9984 Y51.3305
X132.9187 Y51.5319
X132.8205 Y51.7313
X132.6794 Y51.968
X132.5003 Y52.2198
X132.2706 Y52.4934
X131.969 Y52.799
X131.5901 Y53.1258
X131.1203 Y53.4693
X130.4997 Y53.8506
X129.8421 Y54.1852
X129.1645 Y54.4771
X128.4724 Y54.7327
X127.7691 Y54.9558
X127.0569 Y55.1486
X126.3375 Y55.3124
X125.6124 Y55.4484
X124.8826 Y55.5572
X124.1494 Y55.6393
X123.4136 Y55.6947
X122.6764 Y55.7234
X121.9386 Y55.7258
X121.2011 Y55.702
X120.465 Y55.6524
X119.731 Y55.577
X119.0002 Y55.4762
X118.2732 Y55.35
X117.5511 Y55.1987
X116.8346 Y55.0225
X116.1247 Y54.8215
X115.4223 Y54.5957
X114.7282 Y54.3453
X114.0435 Y54.0705
X113.369 Y53.7716
X112.7054 Y53.449
X112.3142 Y53.2308
X112.2167 Y53.1656
X112.0794 Y53.0471
X111.975 Y52.8989
X111.9097 Y52.7297
X111.8875 Y52.5497
Y51.1373
G3 X112.4608 Y50.9605 I0.3173 J0.0111
G1 X112.5026 Y51.0175 Z-1.992
X112.5423 Y51.0716 Z-1.9686
X112.5779 Y51.1201 Z-1.9307
X112.6077 Y51.1607 Z-1.8805
X112.63 Y51.1912 Z-1.8203
X112.6439 Y51.2101 Z-1.7532
X112.6486 Y51.2165 Z-1.6825
G0 Z5
X132.7289 Y49.6791
Z-1.365
G1 Z-1.6825 F3500
X132.733 Y49.686 Z-1.7532
X132.745 Y49.7062 Z-1.8203
X132.7643 Y49.7387 Z-1.8805
X132.79 Y49.7819 Z-1.9307
X132.8208 Y49.8336 Z-1.9686
X132.8551 Y49.8913 Z-1.992
X132.8912 Y49.9521 Z-2
G3 X133.1125 Y50.7056 I-1.3603 J0.8088
G1 Y52.1216
X133.105 Y52.2714
X133.0795 Y52.4196
X133.0398 Y52.5748
X132.9763 Y52.7595
X132.8926 Y52.9514
X132.7785 Y53.1643
X132.6231 Y53.4056
X132.437 Y53.6492
X132.1706 Y53.9452
X131.8742 Y54.2257
X131.4646 Y54.555
X130.944 Y54.9089
X130.3025 Y55.2734
X129.6341 Y55.5859
X128.9477 Y55.8565
X128.2484 Y56.0916
X127.5392 Y56.2952
X126.8223 Y56.4697
X126.0993 Y56.6167
X125.3714 Y56.7374
X124.6397 Y56.8323
X123.9052 Y56.9017
X123.1687 Y56.946
X122.4311 Y56.9652
X121.6933 Y56.9597
X120.9561 Y56.9296
X120.2203 Y56.8751
X119.4867 Y56.7964
X118.7561 Y56.6937
X118.0292 Y56.5671
X117.3069 Y56.4166
X116.5901 Y56.242
X115.8794 Y56.0436
X115.1758 Y55.8217
X114.4799 Y55.5766
X113.7925 Y55.3084
X113.1145 Y55.0175
X112.5325 Y54.7404
X112.2259 Y54.5629
X112.2069 Y54.5498
X112.0735 Y54.4314
X111.9722 Y54.2845
X111.909 Y54.1176
X111.8875 Y53.9405
Y52.5497
G3 X112.4608 Y52.3729 I0.3173 J0.0111
G1 X112.5026 Y52.4299 Z-1.992
X112.5423 Y52.484 Z-1.9686
X112.5779 Y52.5326 Z-1.9307
X112.6077 Y52.5731 Z-1.8805
X112.63 Y52.6036 Z-1.8203
X112.6439 Y52.6225 Z-1.7532
X112.6486 Y52.6289 Z-1.6825
G0 Z5
X132.7289 Y51.0951
Z-1.365
G1 Z-1.6825 F3500
X132.733 Y51.1019 Z-1.7532
X132.745 Y51.1221 Z-1.8203
X132.7643 Y51.1546 Z-1.8805
X132.79 Y51.1978 Z-1.9307
X132.8208 Y51.2496 Z-1.9686
X132.8551 Y51.3073 Z-1.992
X132.8912 Y51.368 Z-2
G3 X133.1125 Y52.1216 I-1.3603 J0.8088
G1 Y53.4621
X133.105 Y53.6119
X133.0797 Y53.7598
X133.0392 Y53.9175
X132.9809 Y54.0872
X132.8929 Y54.2886
X132.7856 Y54.4887
X132.6359 Y54.7208
X132.4441 Y54.9717
X132.2044 Y55.2378
X131.8883 Y55.5365
X131.5025 Y55.8466
X131.022 Y56.1729
X130.3926 Y56.53
X129.7238 Y56.8415
X129.0364 Y57.1096
X128.3359 Y57.3414
X127.6258 Y57.5415
X126.9081 Y57.7128
X126.1846 Y57.8573
X125.4564 Y57.9761
X124.7246 Y58.0701
X123.9901 Y58.1398
X123.2536 Y58.1852
X122.5161 Y58.2064
X121.7783 Y58.2039
X121.041 Y58.1779
X120.3048 Y58.1287
X119.5705 Y58.0565
X118.8388 Y57.9615
X118.1105 Y57.8439
X117.3861 Y57.7035
X116.6666 Y57.5404
X115.9525 Y57.3548
X115.2445 Y57.1469
X114.5435 Y56.9169
X113.85 Y56.665
X113.165 Y56.391
X112.5816 Y56.1293
X112.2622 Y55.954
X112.2209 Y55.9268
X112.0819 Y55.8083
X111.9762 Y55.6595
X111.91 Y55.4893
X111.8875 Y55.3081
Y53.9405
G3 X112.4608 Y53.7638 I0.3173 J0.0111
G1 X112.5026 Y53.8207 Z-1.992
X112.5423 Y53.8748 Z-1.9686
X112.5779 Y53.9234 Z-1.9307
X112.6077 Y53.9639 Z-1.8805
X112.63 Y53.9944 Z-1.8203
X112.6439 Y54.0133 Z-1.7532
X112.6486 Y54.0197 Z-1.6825
G0 Z5
X132.7289 Y52.4356
Z-1.365
G1 Z-1.6825 F3500
X132.733 Y52.4425 Z-1.7532
X132.745 Y52.4626 Z-1.8203
X132.7643 Y52.4952 Z-1.8805
X132.79 Y52.5384 Z-1.9307
X132.8208 Y52.5901 Z-1.9686
X132.8551 Y52.6478 Z-1.992
X132.8912 Y52.7085 Z-2
G3 X133.1125 Y53.4621 I-1.3603 J0.8088
G1 Y54.8026
X133.105 Y54.9524
X133.0779 Y55.101
X133.0365 Y55.2562
X132.9751 Y55.4291
X132.8856 Y55.6287
X132.7768 Y55.8271
X132.6207 Y56.0642
X132.4377 Y56.2987
X132.1874 Y56.5713
X131.8847 Y56.8519
X131.4824 Y57.1689
X131.0139 Y57.4804
X130.3885 Y57.8275
X129.7167 Y58.1325
X129.0266 Y58.3936
X128.3239 Y58.6183
X127.6118 Y58.8116
X126.8926 Y58.9765
X126.168 Y59.1152
X125.439 Y59.229
X124.7067 Y59.319
X123.9719 Y59.3854
X123.2353 Y59.4287
X122.4978 Y59.4492
X121.76 Y59.4471
X121.0226 Y59.4224
X120.2863 Y59.3752
X119.5517 Y59.306
X118.8195 Y59.2149
X118.0904 Y59.1022
X117.3649 Y58.9678
X116.6438 Y58.812
X115.9275 Y58.6347
X115.2169 Y58.4363
X114.5125 Y58.2169
X113.8149 Y57.9765
X113.1254 Y57.7139
X112.5905 Y57.4819
X112.2809 Y57.3168
X112.2286 Y57.2833
X112.0866 Y57.1649
X111.9783 Y57.015
X111.9106 Y56.843
X111.8875 Y56.6596
Y55.3081
G3 X112.4608 Y55.1313 I0.3173 J0.0111
G1 X112.5026 Y55.1883 Z-1.992
X112.5423 Y55.2424 Z-1.9686
X112.5779 Y55.2909 Z-1.9307
X112.6077 Y55.3315 Z-1.8805
X112.63 Y55.362 Z-1.8203
X112.6439 Y55.3809 Z-1.7532
X112.6486 Y55.3873 Z-1.6825
G0 Z5
X132.7289 Y53.7761
Z-1.365
G1 Z-1.6825 F3500
X132.733 Y53.783 Z-1.7532
X132.745 Y53.8032 Z-1.8203
X132.7643 Y53.8357 Z-1.8805
X132.79 Y53.8789 Z-1.9307
X132.8208 Y53.9306 Z-1.9686
X132.8551 Y53.9883 Z-1.992
X132.8912 Y54.049 Z-2
G3 X133.1125 Y54.8026 I-1.3603 J0.8088
G1 Y56.0677
X133.105 Y56.2176
X133.0833 Y56.366
X133.0466 Y56.5203
X132.9949 Y56.6798
X132.9162 Y56.8689
X132.8156 Y57.0648
X132.6815 Y57.2812
X132.5065 Y57.5187
X132.2928 Y57.7645
X132.0024 Y58.0489
X131.6665 Y58.3287
X131.2263 Y58.6392
X130.6615 Y58.9732
X129.9982 Y59.2965
X129.3132 Y59.5704
X128.6135 Y59.8046
X127.9035 Y60.0053
X127.1858 Y60.1764
X126.4622 Y60.3205
X125.7341 Y60.4396
X125.0025 Y60.5351
X124.2682 Y60.6078
X123.5321 Y60.6581
X122.7949 Y60.6865
X122.0571 Y60.6932
X121.3194 Y60.6784
X120.5825 Y60.6422
X119.8469 Y60.5849
X119.1132 Y60.5067
X118.3821 Y60.4078
X117.654 Y60.2882
X116.9296 Y60.1481
X116.2095 Y59.9876
X115.4942 Y59.8068
X114.7842 Y59.6059
X114.0803 Y59.3849
X113.3831 Y59.1434
X112.7331 Y58.8879
X112.3771 Y58.7137
X112.2505 Y58.6386
X112.0999 Y58.5206
X111.9846 Y58.3681
X111.9122 Y58.1911
X111.8875 Y58.0014
Y56.6596
G3 X112.4608 Y56.4829 I0.3173 J0.0111
G1 X112.5026 Y56.5398 Z-1.992
X112.5423 Y56.5939 Z-1.9686
X112.5779 Y56.6425 Z-1.9307
X112.6077 Y56.683 Z-1.8805
X112.63 Y56.7135 Z-1.8203
X112.6439 Y56.7324 Z-1.7532
X112.6486 Y56.7389 Z-1.6825
G0 Z5
X132.7289 Y55.0413
Z-1.365
G1 Z-1.6825 F3500
X132.733 Y55.0481 Z-1.7532
X132.745 Y55.0683 Z-1.8203
X132.7643 Y55.1008 Z-1.8805
X132.79 Y55.144 Z-1.9307
X132.8208 Y55.1958 Z-1.9686
X132.8551 Y55.2534 Z-1.992
X132.8912 Y55.3142 Z-2
G3 X133.1125 Y56.0677 I-1.3603 J0.8088
G1 Y57.4083
X133.105 Y57.5581
X133.0794 Y57.7059
X133.0398 Y57.8568
X132.9777 Y58.034
X132.8996 Y58.2103
X132.7877 Y58.4162
X132.6458 Y58.6337
X132.4647 Y58.8678
X132.2251 Y59.131
X131.9409 Y59.3967
X131.566 Y59.6946
X131.0945 Y60.011
X130.5248 Y60.3302
X129.8543 Y60.6381
X129.1638 Y60.8981
X128.4601 Y61.1196
X127.7468 Y61.3084
X127.0266 Y61.4686
X126.3011 Y61.6029
X125.5716 Y61.7132
X124.839 Y61.8007
X124.1041 Y61.8662
X123.3676 Y61.9103
X122.6301 Y61.9334
X121.8923 Y61.9357
X121.1547 Y61.9176
X120.4179 Y61.8791
X119.6824 Y61.8205
X118.9488 Y61.7419
X118.2176 Y61.6435
X117.4893 Y61.5251
X116.7646 Y61.3868
X116.0439 Y61.2289
X115.3277 Y61.0516
X114.6165 Y60.855
X113.911 Y60.6391
X113.2127 Y60.401
X112.683 Y60.1917
X112.3557 Y60.0309
X112.2494 Y59.9675
X112.0993 Y59.8495
X111.9843 Y59.6971
X111.9121 Y59.5203
X111.8875 Y59.331
Y58.0014
G3 X112.4608 Y57.8247 I0.3173 J0.0111
G1 X112.5026 Y57.8816 Z-1.992
X112.5423 Y57.9357 Z-1.9686
X112.5779 Y57.9843 Z-1.9307
X112.6077 Y58.0248 Z-1.8805
X112.63 Y58.0553 Z-1.8203
X112.6439 Y58.0742 Z-1.7532
X112.6486 Y58.0807 Z-1.6825
G0 Z5
X132.7289 Y56.3818
Z-1.365
G1 Z-1.6825 F3500
X132.733 Y56.3886 Z-1.7532
X132.745 Y56.4088 Z-1.8203
X132.7643 Y56.4413 Z-1.8805
X132.79 Y56.4845 Z-1.9307
X132.8208 Y56.5363 Z-1.9686
X132.8551 Y56.594 Z-1.992
X132.8912 Y56.6547 Z-2
G3 X133.1125 Y57.4083 I-1.3603 J0.8088
G1 Y58.6566
X133.105 Y58.8064
X133.084 Y58.955
X133.05 Y59.1011
X132.999 Y59.2607
X132.9222 Y59.4475
X132.8283 Y59.6322
X132.6951 Y59.8492
X132.5301 Y60.075
X132.3175 Y60.3217
X132.0496 Y60.5862
X131.715 Y60.8674
X131.3026 Y61.1609
X130.7671 Y61.4805
X130.1052 Y61.8066
X129.4199 Y62.0799
X128.7193 Y62.3111
X128.0081 Y62.5077
X127.2894 Y62.6744
X126.5649 Y62.8142
X125.8362 Y62.9295
X125.1042 Y63.0221
X124.3698 Y63.093
X123.6337 Y63.1429
X122.8964 Y63.1726
X122.1587 Y63.1821
X121.4209 Y63.172
X120.6837 Y63.1423
X119.9475 Y63.0933
X119.2129 Y63.0251
X118.4802 Y62.9379
X117.7501 Y62.8316
X117.023 Y62.7062
X116.2994 Y62.5621
X115.5798 Y62.3993
X114.8646 Y62.2179
X114.1545 Y62.0178
X113.4504 Y61.7973
X112.8026 Y61.5626
X112.4362 Y61.3954
X112.2677 Y61.3015
X112.1105 Y61.1841
X111.9896 Y61.0296
X111.9135 Y60.8488
X111.8875 Y60.6544
Y59.331
G3 X112.4608 Y59.1543 I0.3173 J0.0111
G1 X112.5026 Y59.2112 Z-1.992
X112.5423 Y59.2653 Z-1.9686
X112.5779 Y59.3139 Z-1.9307
X112.6077 Y59.3544 Z-1.8805
X112.63 Y59.3849 Z-1.8203
X112.6439 Y59.4038 Z-1.7532
X112.6486 Y59.4102 Z-1.6825
G0 Z5
X132.7289 Y57.6302
Z-1.365
G1 Z-1.6825 F3500
X132.733 Y57.637 Z-1.7532
X132.745 Y57.6572 Z-1.8203
X132.7643 Y57.6897 Z-1.8805
X132.79 Y57.7329 Z-1.9307
X132.8208 Y57.7847 Z-1.9686
X132.8551 Y57.8423 Z-1.992
X132.8912 Y57.9031 Z-2
G3 X133.1125 Y58.6566 I-1.3603 J0.8088
G1 Y59.9972
X133.105 Y60.147
X133.0789 Y60.2947
X133.0369 Y60.4496
X132.975 Y60.6219
X132.8943 Y60.8002
X132.7779 Y61.0106
X132.6415 Y61.2161
X132.4516 Y61.4578
X132.2247 Y61.7031
X131.925 Y61.9789
X131.5664 Y62.2593
X131.0957 Y62.5699
X130.5214 Y62.8858
X129.8485 Y63.1884
X129.1554 Y63.4413
X128.4491 Y63.6548
X127.7337 Y63.8354
X127.0118 Y63.9876
X126.285 Y64.1145
X125.5545 Y64.2181
X124.8212 Y64.3
X124.0859 Y64.3611
X123.3493 Y64.4022
X122.6118 Y64.4237
X121.8739 Y64.426
X121.1363 Y64.4095
X120.3993 Y64.3743
X119.6635 Y64.3205
X118.9292 Y64.2484
X118.1969 Y64.158
X117.4672 Y64.0494
X116.7403 Y63.9226
X116.0169 Y63.7778
X115.2972 Y63.6152
X114.5818 Y63.4346
X113.8715 Y63.2349
X113.1684 Y63.0115
X112.6658 Y62.8177
X112.3632 Y62.6723
X112.2548 Y62.6089
X112.1026 Y62.4911
X111.9859 Y62.338
X111.9125 Y62.16
X111.8875 Y61.9692
Y60.6544
G3 X112.4608 Y60.4776 I0.3173 J0.0111
G1 X112.5026 Y60.5346 Z-1.992
X112.5423 Y60.5887 Z-1.9686
X112.5779 Y60.6372 Z-1.9307
X112.6077 Y60.6778 Z-1.8805
X112.63 Y60.7083 Z-1.8203
X112.6439 Y60.7272 Z-1.7532
X112.6486 Y60.7336 Z-1.6825
G0 Z5
X132.7289 Y58.9707
Z-1.365
G1 Z-1.6825 F3500
X132.733 Y58.9775 Z-1.7532
X132.745 Y58.9977 Z-1.8203
X132.7643 Y59.0302 Z-1.8805
X132.79 Y59.0734 Z-1.9307
X132.8208 Y59.1252 Z-1.9686
X132.8551 Y59.1829 Z-1.992
X132.8912 Y59.2436 Z-2
G3 X133.1125 Y59.9972 I-1.3603 J0.8088
G1 Y61.2623
X133.105 Y61.4121
X133.0802 Y61.56
X133.0426 Y61.7069
X132.9862 Y61.8709
X132.9048 Y62.0573
X132.8045 Y62.2445
X132.6609 Y62.4673
X132.4925 Y62.6877
X132.2641 Y62.9413
X131.9916 Y63.199
X131.6305 Y63.4893
X131.214 Y63.7723
X130.6639 Y64.0846
X129.9951 Y64.3963
X129.3046 Y64.6561
X128.5998 Y64.8746
X127.8855 Y65.0591
X127.1642 Y65.2145
X126.4379 Y65.3442
X125.7078 Y65.4506
X124.9748 Y65.5353
X124.2398 Y65.5992
X123.5033 Y65.6433
X122.7659 Y65.6683
X122.0281 Y65.6746
X121.2904 Y65.6626
X120.5532 Y65.6326
X119.8169 Y65.5848
X119.082 Y65.5192
X118.3489 Y65.436
X117.618 Y65.3354
X116.8897 Y65.2173
X116.1644 Y65.0819
X115.4426 Y64.9292
X114.7246 Y64.7591
X114.0114 Y64.5703
X113.3046 Y64.3587
X112.7605 Y64.163
X112.4179 Y64.0076
X112.2693 Y63.9253
X112.1115 Y63.808
X111.9901 Y63.6533
X111.9136 Y63.4722
X111.8875 Y63.2773
Y61.9692
G3 X112.4608 Y61.7924 I0.3173 J0.0111
G1 X112.5026 Y61.8494 Z-1.992
X112.5423 Y61.9035 Z-1.9686
X112.5779 Y61.952 Z-1.9307
X112.6077 Y61.9926 Z-1.8805
X112.63 Y62.0231 Z-1.8203
X112.6439 Y62.042 Z-1.7532
X112.6486 Y62.0484 Z-1.6825
G0 Z5
X132.7289 Y60.2358
Z-1.365
G1 Z-1.6825 F3500
X132.733 Y60.2427 Z-1.7532
X132.745 Y60.2628 Z-1.8203
X132.7643 Y60.2954 Z-1.8805
X132.79 Y60.3386 Z-1.9307
X132.8208 Y60.3903 Z-1.9686
X132.8551 Y60.448 Z-1.992
X132.8912 Y60.5087 Z-2
G3 X133.1125 Y61.2623 I-1.3603 J0.8088
G1 Y62.5107
X133.105 Y62.6605
X133.0835 Y62.8089
X133.049 Y62.9549
X132.9953 Y63.119
X132.9205 Y63.2977
X132.8234 Y63.4856
X132.6885 Y63.7022
X132.5313 Y63.9145
X132.309 Y64.1691
X132.0602 Y64.4116
X131.7088 Y64.703
X131.3208 Y64.9753
X130.8006 Y65.2813
X130.1403 Y65.6013
X129.4527 Y65.8687
X128.7982 Y66.0775
X128.7245 Y66.0969
X128.6492 Y66.1086
X128.5731 Y66.1125
G3 X128.3893 Y65.5445 I0.0111 J-0.3173
G1 X128.3963 Y65.5391
X132.5309 Y62.325
X132.6004 Y62.2711
G3 X133.1125 Y62.5107 I0.1949 J0.2507
G1 Y63.7758
X133.105 Y63.9256
X133.0846 Y64.0742
X133.0505 Y64.2203
X132.9963 Y64.3884
X132.9265 Y64.557
X132.8274 Y64.7509
X132.702 Y64.954
X132.5408 Y65.1736
X132.3296 Y65.4174
X132.0782 Y65.6645
X131.7407 Y65.9467
X131.6989 Y65.9763
X131.5666 Y66.0509
X131.4219 Y66.0969
X131.2708 Y66.1125
G3 X131.0283 Y65.6041 I0.0111 J-0.3173
G1 X131.0841 Y65.5301
X132.5392 Y63.599
X132.5416 Y63.5958
G3 X133.1125 Y63.7758 I0.2536 J0.1911
G1 Y65.0241
X133.1043 Y65.1877
X133.0848 Y65.3364
X133.0514 Y65.4826
X132.9972 Y65.6521
X132.8858 Y65.8397
X132.7245 Y65.9867
X132.5274 Y66.0804
X132.3115 Y66.1125
G3 X132.053 Y65.6275 I0.0111 J-0.3173
G1 X132.1169 Y65.5247
X132.5256 Y64.8676
G3 X133.1125 Y65.0241 I0.2696 J0.1677
G1 Y65.7782
X133.1103 Y65.8201
X133.1025 Y65.862
X133.0886 Y65.9039
X133.0676 Y65.9458
X133.0376 Y65.9876
X132.9924 Y66.0318
X132.9505 Y66.0633
X132.9086 Y66.0856
X132.8666 Y66.1007
X132.8247 Y66.1094
X132.657 Y66.1125
X116.3918
X115.6549 Y66.0756
X114.9236 Y65.999
X114.1984 Y65.8634
X113.4823 Y65.6856
X112.8858 Y65.4963
X112.5168 Y65.3455
X112.2719 Y65.2217
X112.2421 Y65.2035
X112.0948 Y65.0853
X111.9822 Y64.9337
X111.9116 Y64.7586
X111.8875 Y64.5713
G3 X112.2934 Y64.2775 I0.3173 J0.0111
G1 X112.4931 Y64.3355
X116.4693 Y65.4903
G3 X116.3918 Y66.1125 I-0.0886 J0.3049
G1 X112.7028
X112.5529 Y66.105
X112.5258 Y66.1012
X112.3227 Y66.0423
X112.1445 Y65.9285
X112.0057 Y65.769
X111.9177 Y65.5768
X111.8875 Y65.3675
G3 X112.4113 Y65.1374 I0.3173 J0.0111
G1 X112.4667 Y65.1848
X112.8801 Y65.5385
X112.8981 Y65.554
G3 X112.7028 Y66.1125 I-0.2064 J0.2412
G1 X112.1997 Y66.112
X112.1578 Y66.1069
X112.1159 Y66.0959
X112.074 Y66.0783
X112.032 Y66.0528
X112.0033 Y66.0295
X111.9624 Y65.9876
X111.9325 Y65.9458
X111.9115 Y65.9039
X111.8975 Y65.862
X111.8897 Y65.8201
X111.8875 Y65.7782
Y63.2773
G3 X112.1851 Y62.9715 I0.3173 J0.0111
G1 X112.2048 Y62.9709 Z-1.9994
X112.2582 Y62.9844 Z-1.9907
X112.3093 Y62.9974 Z-1.9726
X112.3565 Y63.0094 Z-1.9455
X112.3921 Y63.0405 Z-1.9059
X112.4213 Y63.066 Z-1.8579
X112.443 Y63.085 Z-1.8034
X112.4563 Y63.0966 Z-1.7443
X112.4608 Y63.1005 Z-1.6829
G0 Z5
X271.1752 Y35.407
Z2.5
G3 X271.3466 Y35.6063 Z2.1783 I1.2249 J-0.8799 F1200
X271.55 Y35.7728 Z1.8566 I1.0535 J-1.0792
X271.7792 Y35.9015 Z1.5349 I0.8501 J-1.2457
X272.0273 Y35.9885 Z1.2132 I0.6208 J-1.3744
X272.2867 Y36.031 Z0.8914 I0.3727 J-1.4613
X272.5496 Y36.0278 Z0.5697 I0.1133 J-1.5039
X272.8079 Y35.979 Z0.248 I-0.1496 J-1.5007
X273.0538 Y35.8861 Z-0.0737 I-0.4079 J-1.4519
X273.2799 Y35.752 Z-0.3954 I-0.6538 J-1.359
X273.4792 Y35.5806 Z-0.7171 I-0.8799 J-1.2249
X273.6457 Y35.3772 Z-1.0388 I-1.0792 J-1.0535
X273.7744 Y35.1479 Z-1.3605 I-1.2457 J-0.8501
X273.8614 Y34.8998 Z-1.6822 I-1.3744 J-0.6208
X273.9081 Y34.5271 Z-2 I-1.4613 J-0.3727
X270.8919 I-1.5081
X273.9081 I1.5081
G1 X273.9275 Y35.2647 F3500
X273.9493 Y35.3543
X273.9647 Y35.5035
X273.9521 Y35.653
X273.9166 Y35.7987
X273.8617 Y35.9383
X273.7902 Y36.0702
X273.7044 Y36.1932
X273.6063 Y36.3067
X273.4976 Y36.41
X273.3797 Y36.5028
X273.2542 Y36.5849
X273.122 Y36.6559
X272.9835 Y36.7163
X272.8368 Y36.7667
X272.6829 Y36.806
X272.5228 Y36.8335
X272.3578 Y36.8484
X272.1891 Y36.8499
X272.0182 Y36.8378
X271.8463 Y36.8116
X271.675 Y36.7712
X271.5055 Y36.7165
X271.3392 Y36.6477
X271.1775 Y36.565
X271.0218 Y36.4689
X270.8732 Y36.3598
X270.7329 Y36.2383
X270.6022 Y36.1053
X270.482 Y35.9615
X270.3732 Y35.8079
X270.2767 Y35.6454
X270.1934 Y35.4752
X270.1237 Y35.2983
X270.0684 Y35.1159
X270.0277 Y34.9292
X270.0022 Y34.7395
X269.9919 Y34.5481
X269.997 Y34.3562
X270.0175 Y34.165
X270.0534 Y33.9759
X270.1044 Y33.7901
X270.1701 Y33.6088
X270.2503 Y33.4333
X270.3443 Y33.2647
X270.4517 Y33.104
X270.5717 Y32.9524
X270.7034 Y32.8109
X270.8462 Y32.6803
X270.9991 Y32.5616
X271.161 Y32.4555
X271.331 Y32.3628
X271.5079 Y32.2839
X271.6906 Y32.2195
X271.8779 Y32.1699
X272.0686 Y32.1356
X272.2614 Y32.1166
X272.4553 Y32.1132
X272.6487 Y32.1254
X272.8406 Y32.153
X273.0297 Y32.196
X273.2147 Y32.254
X273.3944 Y32.3266
X273.5678 Y32.4135
X273.7336 Y32.514
X273.8909 Y32.6275
X274.0385 Y32.7532
X274.1756 Y32.8904
X274.3012 Y33.0382
X274.4146 Y33.1955
X274.519 Y33.3681
X274.6302 Y33.5906
X274.7772 Y33.9551
X274.8844 Y34.2982
X274.9484 Y34.5806
X274.985 Y34.8363
X274.9997 Y35.0734
X274.9955 Y35.2966
X274.9744 Y35.5096
X274.9369 Y35.7168
X274.8832 Y35.9192
X274.8136 Y36.116
X274.7285 Y36.3065
X274.6284 Y36.4895
X274.5135 Y36.6645
X274.384 Y36.831
X274.2399 Y36.9883
X274.0818 Y37.1353
X273.9103 Y37.2707
X273.726 Y37.3937
X273.5293 Y37.5031
X273.3215 Y37.5978
X273.1035 Y37.6767
X272.8769 Y37.7387
X272.6429 Y37.7828
X272.4031 Y37.8084
X272.1591 Y37.8147
X271.9128 Y37.8012
X271.6658 Y37.7677
X271.42 Y37.714
X271.1774 Y37.6401
X270.9397 Y37.5463
X270.7086 Y37.4329
X270.4859 Y37.3004
X270.2732 Y37.1496
X270.0722 Y36.9812
X269.8844 Y36.7963
X269.7112 Y36.596
X269.554 Y36.3815
X269.4139 Y36.1542
X269.2922 Y35.9155
X269.1896 Y35.6671
X269.1071 Y35.4105
X269.0453 Y35.1474
X269.0047 Y34.8797
X268.9857 Y34.609
X268.9885 Y34.3371
X269.0131 Y34.066
X269.0594 Y33.7973
X269.1273 Y33.5329
X269.2163 Y33.2746
X269.3258 Y33.0239
X269.4552 Y32.7827
X269.6036 Y32.5525
X269.7701 Y32.3348
X269.9537 Y32.131
X270.1531 Y31.9425
X270.3671 Y31.7706
X270.5943 Y31.6164
X270.8332 Y31.4808
X271.0823 Y31.3648
X271.34 Y31.2692
X271.6045 Y31.1945
X271.8743 Y31.1413
X272.1475 Y31.1099
X272.4223 Y31.1006
X272.6971 Y31.1133
X272.97 Y31.148
X273.2392 Y31.2046
X273.5031 Y31.2825
X273.7599 Y31.3814
X274.0079 Y31.5006
X274.2455 Y31.6394
X274.4713 Y31.7967
X274.685 Y31.9727
X274.8913 Y32.1726
X275.1055 Y32.4162
X275.3074 Y32.687
X275.4937 Y32.9839
X275.6584 Y33.3002
X275.7958 Y33.6254
X275.9037 Y33.9517
X275.9826 Y34.2754
X276.0338 Y34.5954
X276.0586 Y34.9118
X276.058 Y35.2243
X276.0326 Y35.5319
X275.9832 Y35.8332
X275.9103 Y36.1272
X275.8146 Y36.4127
X275.6966 Y36.6888
X275.557 Y36.9543
X275.3964 Y37.208
X275.2154 Y37.4487
X275.0148 Y37.6751
X274.7953 Y37.886
X274.558 Y38.0799
X274.3039 Y38.2554
X274.0343 Y38.4113
X273.7507 Y38.5462
X273.4546 Y38.6589
X273.1477 Y38.7483
X272.8319 Y38.8133
X272.5093 Y38.853
X272.1821 Y38.8669
X271.8525 Y38.8543
X271.5226 Y38.8151
X271.1947 Y38.749
X270.871 Y38.6563
X270.5539 Y38.5371
X270.2456 Y38.392
X269.9482 Y38.2217
X269.6641 Y38.0271
X269.3951 Y37.8093
X269.1433 Y37.5695
X268.9107 Y37.3091
X268.6989 Y37.0299
X268.5095 Y36.7335
X268.344 Y36.4219
X268.2036 Y36.0971
X268.0894 Y35.7612
X268.0024 Y35.4163
X267.9432 Y35.0649
X267.9123 Y34.7092
X267.9101 Y34.3516
X267.9366 Y33.9944
X267.9918 Y33.64
X268.0753 Y33.2908
X268.1867 Y32.9491
X268.3253 Y32.6172
X268.4902 Y32.2972
X268.6804 Y31.9912
X268.8947 Y31.7013
X269.1317 Y31.4294
X269.3898 Y31.1773
X269.6674 Y30.9467
X269.9629 Y30.7389
X270.274 Y30.5555
X270.5991 Y30.3976
X270.9358 Y30.2663
X271.282 Y30.1624
X271.6355 Y30.0866
X271.994 Y30.0394
X272.3553 Y30.0212
X272.7168 Y30.032
X273.0764 Y30.0717
X273.4316 Y30.1403
X273.7803 Y30.2371
X274.12 Y30.3616
X274.449 Y30.5131
X274.7674 Y30.6919
X275.0795 Y30.902
X275.3831 Y31.1437
X275.6752 Y31.4174
X275.9517 Y31.7217
X276.2073 Y32.0531
X276.4375 Y32.4068
X276.6386 Y32.778
X276.8084 Y33.1622
X276.9457 Y33.5557
X277.0501 Y33.9554
X277.1214 Y34.3584
X277.1598 Y34.7623
X277.1656 Y35.1644
X277.1394 Y35.5627
X277.0816 Y35.9551
X276.9929 Y36.3396
X276.8742 Y36.7143
X276.7261 Y37.0774
X276.5495 Y37.4271
X276.3453 Y37.7616
X276.1146 Y38.0792
X275.8585 Y38.378
X275.5781 Y38.6563
X275.2751 Y38.9124
X274.9507 Y39.1445
X274.607 Y39.3509
X274.2456 Y39.5301
X273.8687 Y39.6807
X273.4786 Y39.8013
X273.0776 Y39.8907
X272.6683 Y39.948
X272.2533 Y39.9724
X271.8352 Y39.9634
X271.4169 Y39.9205
X271.0011 Y39.8439
X270.5906 Y39.7335
X270.1883 Y39.5899
X269.7969 Y39.4135
X269.4193 Y39.2054
X269.058 Y38.9666
X268.7157 Y38.6986
X268.3947 Y38.4028
X268.0976 Y38.081
X267.8263 Y37.7354
X267.5829 Y37.368
X267.3693 Y36.9812
X267.1869 Y36.5775
X267.0371 Y36.1595
X266.9211 Y35.73
X266.8398 Y35.2916
X266.7939 Y34.8474
X266.7838 Y34.4003
X266.8096 Y33.9532
X266.8713 Y33.509
X266.9685 Y33.0707
X267.1008 Y32.6413
X267.2672 Y32.2234
X267.4668 Y31.82
X267.6982 Y31.4336
X267.9601 Y31.0668
X268.2508 Y30.7221
X268.5683 Y30.4016
X268.9106 Y30.1076
X269.2756 Y29.8418
X269.6608 Y29.6061
X270.0638 Y29.4021
X270.4821 Y29.231
X270.9127 Y29.094
X271.3531 Y28.992
X271.8003 Y28.9256
X272.2514 Y28.8954
X272.7036 Y28.9014
X273.1539 Y28.9438
X273.5995 Y29.0221
X274.0378 Y29.1361
X274.4679 Y29.2857
X274.8885 Y29.4711
X275.2977 Y29.6922
X275.6935 Y29.9491
X276.0745 Y30.2425
X276.4375 Y30.5717
X276.7781 Y30.9343
X277.0916 Y31.3272
X277.3743 Y31.7463
X277.6229 Y32.1877
X277.8351 Y32.6472
X278.0092 Y33.1208
X278.1441 Y33.6047
X278.2393 Y34.0953
X278.2944 Y34.5892
X278.3097 Y35.0833
X278.2854 Y35.5744
X278.222 Y36.0598
X278.1203 Y36.5368
X277.981 Y37.0027
X277.8051 Y37.4552
X277.5937 Y37.8916
X277.3479 Y38.3097
X277.069 Y38.7071
X276.7586 Y39.0815
X276.4183 Y39.4307
X276.0499 Y39.7525
X275.6554 Y40.0447
X275.2369 Y40.3054
X274.797 Y40.5328
X274.338 Y40.7249
X273.8629 Y40.8804
X273.3745 Y40.9977
X272.8759 Y41.0759
X272.3701 Y41.114
X271.8605 Y41.1114
X271.3504 Y41.0677
X270.8432 Y40.9828
X270.3423 Y40.8569
X269.851 Y40.6905
X269.3728 Y40.4844
X268.9108 Y40.2397
X268.4684 Y39.9576
X268.0487 Y39.6399
X267.6545 Y39.2884
X267.2887 Y38.9052
X266.9539 Y38.4928
X266.6526 Y38.0537
X266.3868 Y37.5908
X266.1585 Y37.1069
X265.9694 Y36.6053
X265.8209 Y36.0892
X265.7141 Y35.5619
X265.6499 Y35.027
X265.6288 Y34.4879
X265.6511 Y33.9482
X265.7167 Y33.4114
X265.8253 Y32.881
X265.9761 Y32.3606
X266.1685 Y31.8537
X266.4011 Y31.3634
X266.6724 Y30.8931
X266.9807 Y30.4458
X267.3242 Y30.0246
X267.7005 Y29.632
X268.1073 Y29.2708
X268.5418 Y28.9433
X269.0014 Y28.6517
X269.4831 Y28.3978
X269.9836 Y28.1833
X270.4999 Y28.0097
X271.0286 Y27.878
X271.5662 Y27.7892
X272.1092 Y27.7438
X272.6543 Y27.7422
X273.1979 Y27.7843
X273.7373 Y27.87
X274.2701 Y27.9992
X274.7937 Y28.1718
X275.3057 Y28.3874
X275.8039 Y28.6461
X276.2855 Y28.9477
X276.7471 Y29.2911
X277.1846 Y29.6749
X277.5937 Y30.0964
X277.9703 Y30.5525
X278.3105 Y31.0396
X278.6113 Y31.5537
X278.8699 Y32.0904
X279.0844 Y32.6456
X279.2533 Y33.2149
X279.3756 Y33.7942
X279.4507 Y34.3795
X279.4786 Y34.9667
X279.4592 Y35.5524
X279.3932 Y36.1327
X279.2811 Y36.7043
X279.1237 Y37.264
X278.9223 Y37.8084
X278.678 Y38.3345
X278.3923 Y38.8392
X278.0668 Y39.3198
X277.7033 Y39.7732
X277.3038 Y40.1968
X276.8706 Y40.588
X276.4061 Y40.9441
X275.9129 Y41.2628
X275.3939 Y41.5418
X274.8522 Y41.7792
X274.291 Y41.9731
X273.7138 Y42.1219
X273.1242 Y42.2243
X272.5259 Y42.2792
X271.9228 Y42.286
X271.3187 Y42.2443
X270.7176 Y42.1538
X270.1234 Y42.0148
X269.5403 Y41.828
X268.9721 Y41.5941
X268.4227 Y41.3145
X267.8959 Y40.9907
X267.3952 Y40.6246
X266.9243 Y40.2183
X266.4863 Y39.7744
X266.0844 Y39.2956
X265.7214 Y38.7849
X265.3998 Y38.2456
X265.1221 Y37.6811
X264.8901 Y37.0951
X264.7056 Y36.4914
X264.5699 Y35.8738
X264.4842 Y35.2465
X264.4489 Y34.6136
X264.4647 Y33.9792
X264.5313 Y33.3474
X264.6486 Y32.7224
X264.8157 Y32.1084
X265.0318 Y31.5093
X265.2954 Y30.9291
X265.605 Y30.3716
X265.9584 Y29.8404
X266.3535 Y29.3391
X266.7878 Y28.871
X267.2584 Y28.439
X267.7623 Y28.0461
X268.2963 Y27.6948
X268.8569 Y27.3874
X269.4405 Y27.126
X270.0433 Y26.9121
X270.6614 Y26.7474
X271.2909 Y26.6327
X271.9276 Y26.5689
X272.5679 Y26.5564
X273.2079 Y26.5954
X273.8444 Y26.6858
X274.4739 Y26.8276
X275.0934 Y27.0205
X275.6997 Y27.2642
X276.2892 Y27.5582
X276.8578 Y27.9013
X277.4016 Y28.2921
X277.9161 Y28.7287
X278.3973 Y29.2084
X278.841 Y29.7282
X279.2432 Y30.2843
X279.6005 Y30.8726
X279.9099 Y31.4884
X280.1688 Y32.1271
X280.3754 Y32.7837
X280.5283 Y33.4536
X280.6268 Y34.132
X280.6704 Y34.8144
X280.6591 Y35.4963
X280.5933 Y36.1735
X280.4735 Y36.8419
X280.3009 Y37.4975
X280.0764 Y38.1364
X279.8015 Y38.7548
X279.4779 Y39.3491
X279.1075 Y39.9158
X278.6923 Y40.4515
X278.2349 Y40.9528
X277.7378 Y41.4167
X277.2039 Y41.8401
X276.6362 Y42.2202
X276.0383 Y42.5546
X275.4135 Y42.8406
X274.7658 Y43.0764
X274.0991 Y43.2601
X273.4175 Y43.39
X272.7253 Y43.4651
X272.027 Y43.4845
X271.3271 Y43.4476
X270.6301 Y43.3544
X269.9405 Y43.2051
X269.2631 Y43.0002
X268.6022 Y42.7409
X267.9625 Y42.4284
X267.3481 Y42.0646
X266.7633 Y41.6515
X266.2122 Y41.1917
X265.6986 Y40.6879
X265.226 Y40.1434
X264.7979 Y39.5616
X264.417 Y38.9461
X264.0862 Y38.3008
X263.8079 Y37.6301
X263.5839 Y36.9381
X263.4159 Y36.2294
X263.3053 Y35.5087
X263.2527 Y34.7805
X263.2588 Y34.0498
X263.3236 Y33.3212
X263.4467 Y32.5996
X263.6275 Y31.8896
X263.8648 Y31.196
X264.1573 Y30.5233
X264.5029 Y29.8759
X264.8996 Y29.258
X265.3448 Y28.6736
X265.8356 Y28.1267
X266.369 Y27.6208
X266.9413 Y27.1592
X267.5491 Y26.7448
X268.1883 Y26.3806
X268.8548 Y26.0687
X269.5443 Y25.8113
X270.2523 Y25.61
X270.9743 Y25.4661
X271.7058 Y25.3807
X272.4424 Y25.3542
X273.1795 Y25.3869
X273.9116 Y25.4787
X274.634 Y25.6287
X275.3421 Y25.8359
X276.0315 Y26.0987
X276.6981 Y26.415
X277.3379 Y26.7825
X277.9471 Y27.1987
X278.5223 Y27.6607
X279.0605 Y28.1655
X279.5586 Y28.7098
X280.014 Y29.2903
X280.4243 Y29.9035
X280.7873 Y30.5458
X281.101 Y31.2136
X281.3636 Y31.9031
X281.5736 Y32.6104
X281.7298 Y33.3315
X281.8311 Y34.0623
X281.8764 Y34.7988
X281.865 Y35.5365
X281.7969 Y36.2712
X281.6725 Y36.9984
X281.4928 Y37.714
X281.2589 Y38.4138
X280.9723 Y39.0936
X280.6345 Y39.7496
X280.2476 Y40.3778
X279.8139 Y40.9747
X279.3359 Y41.5368
X278.8165 Y42.0608
X278.2587 Y42.5437
X277.6659 Y42.983
X277.0416 Y43.3762
X276.3893 Y43.7211
X275.713 Y44.0159
X275.0164 Y44.2591
X274.3036 Y44.4496
X273.5785 Y44.5859
X272.8451 Y44.6665
X272.1077 Y44.6913
X271.3705 Y44.6607
X270.6377 Y44.5755
X269.9131 Y44.4366
X269.2006 Y44.2448
X268.5041 Y44.0014
X267.8271 Y43.708
X267.1732 Y43.3663
X266.5457 Y42.9781
X265.9479 Y42.5457
X265.3834 Y42.0707
X264.856 Y41.5547
X264.3682 Y41.0012
X263.9218 Y40.4137
X263.5189 Y39.7956
X263.1612 Y39.1503
X262.8504 Y38.4811
X262.5879 Y37.7916
X262.375 Y37.0852
X262.2126 Y36.3654
X262.1032 Y35.6358
X262.0483 Y34.9
X262.0468 Y34.1622
X262.0981 Y33.4262
X262.2014 Y32.6956
X262.3561 Y31.9742
X262.5612 Y31.2655
X262.8156 Y30.5729
X263.1179 Y29.8999
X263.4682 Y29.2505
X263.8655 Y28.6288
X264.3067 Y28.0375
X264.7889 Y27.479
X265.3093 Y26.9559
X265.8651 Y26.4708
X266.4536 Y26.0258
X267.0719 Y25.6231
X267.7168 Y25.2647
X268.3861 Y24.9542
X269.0764 Y24.6938
X269.7837 Y24.4837
X270.5041 Y24.3242
X271.2339 Y24.2158
X271.9695 Y24.1589
X272.7073 Y24.1535
X273.4437 Y24.1995
X274.175 Y24.2972
X274.8972 Y24.4483
X275.6066 Y24.6511
X276.2999 Y24.9036
X276.9739 Y25.2035
X277.6258 Y25.5492
X278.2525 Y25.9385
X278.8514 Y26.3695
X279.4199 Y26.8398
X279.9551 Y27.3476
X280.4533 Y27.8918
X280.9128 Y28.4691
X281.3322 Y29.0761
X281.7103 Y29.7097
X282.0455 Y30.367
X282.3365 Y31.045
X282.5821 Y31.7407
X282.7813 Y32.4511
X282.9326 Y33.1733
X283.0056 Y33.7042
X283.0095 Y33.7377
X283.0117 Y33.7714
X283.0125 Y33.8051
Y35.1974
X282.9756 Y35.9343
X282.9273 Y36.6087
X282.8198 Y37.3113
X282.65 Y38.0294
X282.4252 Y38.7321
X282.1501 Y39.4167
X281.828 Y40.0805
X281.4614 Y40.7208
X281.0523 Y41.3348
X280.6029 Y41.92
X280.1154 Y42.4738
X279.5919 Y42.9937
X279.0334 Y43.4758
X278.4428 Y43.918
X277.8235 Y44.3191
X277.1788 Y44.6778
X276.5117 Y44.993
X275.8252 Y45.2634
X275.1224 Y45.488
X274.4063 Y45.6657
X273.68 Y45.7954
X272.9464 Y45.8744
X272.2091 Y45.9025
X271.4716 Y45.881
X270.7372 Y45.8109
X270.0089 Y45.6928
X269.2897 Y45.5278
X268.5828 Y45.3166
X267.8909 Y45.0604
X267.2168 Y44.7604
X266.5639 Y44.4167
X265.9355 Y44.0301
X265.334 Y43.6028
X264.7618 Y43.137
X264.2213 Y42.6348
X263.7146 Y42.0985
X263.2434 Y41.5307
X262.8095 Y40.934
X262.4142 Y40.311
X262.0597 Y39.664
X261.8566 Y39.2271
X261.8185 Y39.1267
X261.7953 Y39.0219
X261.7875 Y38.9148
Y31.1758
X261.8073 Y30.78
X261.848 Y30.4703
X261.9338 Y30.0687
X262.0584 Y29.6527
X262.2586 Y29.1387
X262.5359 Y28.5671
X262.8826 Y27.9783
X263.3067 Y27.3746
X263.7754 Y26.8047
X264.2823 Y26.2685
X264.8233 Y25.7669
X265.3953 Y25.3009
X265.9955 Y24.8718
X266.6215 Y24.4812
X267.2709 Y24.131
X267.6562 Y23.9547
X267.7554 Y23.9176
X267.8589 Y23.8951
X267.9645 Y23.8875
X275.6906
X276.1259 Y23.9093
X276.4401 Y23.9505
X276.8479 Y24.0377
X277.2747 Y24.1656
X277.7989 Y24.3697
X278.3972 Y24.66
X279.033 Y25.0343
X279.6374 Y25.4575
X280.2097 Y25.9231
X280.7488 Y26.4268
X281.2541 Y26.9645
X281.7247 Y27.5328
X282.1596 Y28.1287
X282.5578 Y28.7499
X282.9183 Y29.3936
X282.9384 Y29.435
X282.9792 Y29.5385
X283.0042 Y29.647
X283.0125 Y29.758
Y33.8051
G3 X282.4387 Y33.9811 I-0.3173 J-0.0111
G1 X275.5027 Y24.4708
X275.4451 Y24.3919
G3 X275.3842 Y24.2053 I0.2565 J-0.1871
G1 Y24.2048
G3 X275.6906 Y23.8875 I0.3175
G1 X278.2058
X278.435 Y23.899
X278.6541 Y23.9277
X278.925 Y23.9856
X279.2167 Y24.073
X279.5619 Y24.2075
X279.9513 Y24.3964
X280.4164 Y24.6702
X280.9004 Y25.0102
X281.4532 Y25.4691
X281.9813 Y25.9843
X282.4722 Y26.5352
X282.8544 Y27.0221
X282.9408 Y27.1615
X282.9944 Y27.3165
X283.0125 Y27.4795
G3 X282.5082 Y27.725 I-0.3173 J-0.0111
G1 X282.4292 Y27.6674
X278.0299 Y24.4614
G3 X278.2058 Y23.8875 I0.187 J-0.2566
G1 X280.1425
X280.3251 Y23.8966
X280.5029 Y23.9199
X280.7181 Y23.966
X280.975 Y24.043
X281.2328 Y24.1433
X281.5545 Y24.2994
X281.8947 Y24.4997
X282.3096 Y24.7912
X282.7431 Y25.151
X282.7891 Y25.1958
X282.9102 Y25.3504
X282.9865 Y25.5314
X283.0125 Y25.7261
G3 X282.533 Y25.9879 I-0.3173 J-0.0111
G1 X282.4234 Y25.9228
X279.9914 Y24.4778
G3 X280.1425 Y23.8875 I0.1622 J-0.273
G1 X281.8948
X282.0446 Y23.895
X282.23 Y23.9243
X282.4079 Y23.9674
X282.5031 Y23.9986
X282.7087 Y24.1042
X282.8718 Y24.268
X282.9765 Y24.4741
X283.0125 Y24.7024
G3 X282.5286 Y24.9616 I-0.3173 J-0.0111
G1 X282.4244 Y24.8974
X281.7393 Y24.4751
G3 X281.8948 Y23.8875 I0.1666 J-0.2703
G1 X282.5656
X282.7332 Y23.8915
X282.7742 Y23.9009
X282.8151 Y23.9163
X282.856 Y23.9388
X282.9009 Y23.9741
X282.9399 Y24.0151
X282.9686 Y24.0561
X282.9889 Y24.097
X283.0025 Y24.138
X283.0103 Y24.1799
X283.0125 Y24.2218
Y29.758
G3 X282.4392 Y29.9348 I-0.3173 J-0.0111
G1 X282.3974 Y29.8778 Z-1.992
X282.3577 Y29.8237 Z-1.9686
X282.3221 Y29.7752 Z-1.9307
X282.2924 Y29.7346 Z-1.8805
X282.27 Y29.7041 Z-1.8203
X282.2561 Y29.6852 Z-1.7532
X282.2514 Y29.6788 Z-1.6825
G0 Z5
X262.1711 Y32.2023
Z-1.365
G1 Z-1.6825 F3500
X262.167 Y32.1954 Z-1.7532
X262.155 Y32.1752 Z-1.8203
X262.1357 Y32.1427 Z-1.8805
X262.11 Y32.0995 Z-1.9307
X262.0793 Y32.0478 Z-1.9686
X262.045 Y31.9901 Z-1.992
X262.0089 Y31.9294 Z-2
G3 X261.7875 Y31.1758 I1.3603 J-0.8088
G1 Y28.6623
X261.7952 Y28.5083
X261.8239 Y28.2901
X261.8814 Y28.021
X261.9637 Y27.7464
X262.0956 Y27.4077
X262.2758 Y27.0363
X262.5408 Y26.586
X262.8685 Y26.1196
X263.3109 Y25.5866
X263.8262 Y25.0585
X264.3784 Y24.5692
X264.9612 Y24.1167
X265.1076 Y24.0167
X265.2373 Y23.9459
X265.3785 Y23.9022
X265.5256 Y23.8875
G3 X265.7664 Y24.398 I-0.0111 J0.3173
G1 X265.7117 Y24.4695
X262.3609 Y28.8391
X262.3568 Y28.8444
G3 X261.7875 Y28.6623 I-0.252 J-0.1932
G1 Y26.8191
X261.7962 Y26.645
X261.8195 Y26.4673
X261.8656 Y26.2521
X261.9382 Y26.0095
X262.0383 Y25.7525
X262.1941 Y25.4315
X262.3845 Y25.1081
X262.6666 Y24.7066
X263.0167 Y24.2848
X263.1862 Y24.111
X263.3408 Y23.9898
X263.5218 Y23.9135
X263.7165 Y23.8875
G3 X263.9759 Y24.3711 I-0.0111 J0.3173
G1 X263.9116 Y24.4757
X262.3753 Y26.9743
G3 X261.7875 Y26.8191 I-0.2705 J-0.1663
G1 Y25.1434
X261.7952 Y24.9899
X261.8182 Y24.8142
X261.8563 Y24.6362
X261.9132 Y24.4462
X261.947 Y24.3595
X262.0572 Y24.1676
X262.2192 Y24.0168
X262.4185 Y23.9206
X262.6373 Y23.8875
G3 X262.903 Y24.3604 I-0.0111 J0.3173
G1 X262.8368 Y24.4782
X262.3816 Y25.2879
G3 X261.7875 Y25.1434 I-0.2768 J-0.1556
G1 Y24.2218
X261.7897 Y24.1799
X261.7975 Y24.138
X261.8115 Y24.0961
X261.8325 Y24.0542
X261.8624 Y24.0123
X261.903 Y23.9705
X261.9406 Y23.9411
X261.9825 Y23.9174
X262.0244 Y23.9013
X262.0663 Y23.8916
X262.1082 Y23.8876
X267.9645 Y23.8875
G3 X268.1412 Y24.4608 I-0.0111 J0.3173
G1 X268.0842 Y24.5026 Z-1.992
X268.0301 Y24.5423 Z-1.9686
X267.9816 Y24.5779 Z-1.9307
X267.9411 Y24.6076 Z-1.8805
X267.9106 Y24.63 Z-1.8203
X267.8916 Y24.6439 Z-1.7531
X267.8852 Y24.6486 Z-1.6825
G0 Z5
X282.6289 Y34.1709
Z-1.365
G1 Z-1.6825 F3500
X282.633 Y34.1778 Z-1.7532
X282.645 Y34.1979 Z-1.8203
X282.6643 Y34.2304 Z-1.8805
X282.69 Y34.2737 Z-1.9307
X282.7208 Y34.3254 Z-1.9686
X282.7551 Y34.3831 Z-1.992
X282.7912 Y34.4438 Z-2
G3 X283.0125 Y35.1974 I-1.3603 J0.8088
G1 Y39.219
X283.0011 Y39.4464
X282.964 Y39.7299
X282.8912 Y40.0701
X282.7789 Y40.445
X282.6034 Y40.8956
X282.3472 Y41.4237
X282.0222 Y41.9756
X281.5981 Y42.5794
X281.1279 Y43.1479
X280.6189 Y43.682
X280.0757 Y44.1813
X279.5019 Y44.6451
X278.9005 Y45.0726
X278.2743 Y45.4627
X277.6258 Y45.8147
X276.9575 Y46.1272
X276.2711 Y46.3979
X275.5695 Y46.6263
X274.8554 Y46.812
X274.1315 Y46.9542
X273.4001 Y47.052
X272.6643 Y47.1052
X271.9265 Y47.1141
X271.1895 Y47.0792
X270.4559 Y47.0009
X269.7281 Y46.8797
X269.0089 Y46.7148
X268.301 Y46.507
X267.6064 Y46.2581
X266.9276 Y45.969
X266.267 Y45.6404
X265.627 Y45.2734
X265.0096 Y44.8694
X264.417 Y44.4298
X263.8511 Y43.9563
X263.3138 Y43.4507
X262.8076 Y42.914
X262.3344 Y42.3478
X261.9331 Y41.806
X261.8535 Y41.6705
X261.8042 Y41.5213
X261.7875 Y41.365
Y38.9148
G3 X262.3608 Y38.738 I0.3173 J0.0111
G1 X262.4026 Y38.795 Z-1.992
X262.4423 Y38.8491 Z-1.9686
X262.4779 Y38.8976 Z-1.9307
X262.5077 Y38.9382 Z-1.8805
X262.53 Y38.9687 Z-1.8203
X262.5439 Y38.9876 Z-1.7532
X262.5486 Y38.994 Z-1.6825
G0 Z5
X282.6289 Y38.1925
Z-1.365
G1 Z-1.6825 F3500
X282.633 Y38.1993 Z-1.7532
X282.645 Y38.2195 Z-1.8203
X282.6643 Y38.252 Z-1.8805
X282.69 Y38.2952 Z-1.9307
X282.7208 Y38.347 Z-1.9686
X282.7551 Y38.4047 Z-1.992
X282.7912 Y38.4654 Z-2
G3 X283.0125 Y39.219 I-1.3603 J0.8088
G1 Y41.3973
X283.0025 Y41.5982
X282.9738 Y41.8164
X282.9216 Y42.0608
X282.842 Y42.3264
X282.7124 Y42.6593
X282.5478 Y42.9985
X282.2982 Y43.4225
X281.9787 Y43.8773
X281.559 Y44.3829
X281.0437 Y44.911
X280.49 Y45.3987
X279.9056 Y45.849
X279.2951 Y46.2634
X278.662 Y46.6422
X278.0088 Y46.9852
X277.3375 Y47.2914
X276.6502 Y47.5599
X275.9489 Y47.7889
X275.2357 Y47.978
X274.5131 Y48.1271
X273.7834 Y48.2362
X273.0488 Y48.3051
X272.3116 Y48.3341
X271.5738 Y48.3234
X270.8377 Y48.2732
X270.1053 Y48.1839
X269.3788 Y48.0552
X268.6603 Y47.8874
X267.9522 Y47.6802
X267.2566 Y47.4343
X266.5753 Y47.1512
X265.9101 Y46.8319
X265.263 Y46.4775
X264.6356 Y46.0892
X264.0297 Y45.6682
X263.447 Y45.2156
X262.889 Y44.7329
X262.3575 Y44.2212
X261.9866 Y43.8235
X261.8784 Y43.6736
X261.8106 Y43.5016
X261.7875 Y43.3182
Y41.365
G3 X262.3608 Y41.1883 I0.3173 J0.0111
G1 X262.4026 Y41.2453 Z-1.992
X262.4423 Y41.2994 Z-1.9686
X262.4779 Y41.3479 Z-1.9307
X262.5077 Y41.3884 Z-1.8805
X262.53 Y41.4189 Z-1.8203
X262.5439 Y41.4379 Z-1.7532
X262.5486 Y41.4443 Z-1.6825
G0 Z5
X282.6289 Y40.3709
Z-1.365
G1 Z-1.6825 F3500
X282.633 Y40.3777 Z-1.7532
X282.645 Y40.3979 Z-1.8203
X282.6643 Y40.4304 Z-1.8805
X282.69 Y40.4736 Z-1.9307
X282.7208 Y40.5254 Z-1.9686
X282.7551 Y40.583 Z-1.992
X282.7912 Y40.6438 Z-2
G3 X283.0125 Y41.3973 I-1.3603 J0.8088
G1 Y43.2406
X283.0041 Y43.4082
X282.9808 Y43.5859
X282.9348 Y43.8012
X282.8676 Y44.0257
X282.7675 Y44.2827
X282.6165 Y44.5937
X282.432 Y44.9072
X282.1612 Y45.2927
X281.8174 Y45.7069
X281.3688 Y46.1667
X280.8128 Y46.6517
X280.2218 Y47.0933
X279.6038 Y47.4965
X278.9638 Y47.8636
X278.305 Y48.1957
X277.6296 Y48.4928
X276.9398 Y48.7545
X276.2374 Y48.9803
X275.5242 Y49.1693
X274.802 Y49.3205
X274.0731 Y49.4346
X273.3393 Y49.5118
X272.6026 Y49.5524
X271.8648 Y49.5566
X271.1277 Y49.5247
X270.393 Y49.4568
X269.6625 Y49.3529
X268.938 Y49.2133
X268.2214 Y49.0378
X267.5144 Y48.8268
X266.8189 Y48.5806
X266.1369 Y48.2991
X265.4698 Y47.9839
X264.8191 Y47.6361
X264.1861 Y47.257
X263.5724 Y46.8475
X262.9791 Y46.4088
X262.4078 Y45.9419
X262.0323 Y45.6033
X261.8999 Y45.4454
X261.8162 Y45.2571
X261.7875 Y45.0531
Y43.3182
G3 X262.3608 Y43.1414 I0.3173 J0.0111
G1 X262.4026 Y43.1984 Z-1.992
X262.4423 Y43.2525 Z-1.9686
X262.4779 Y43.3011 Z-1.9307
X262.5077 Y43.3416 Z-1.8805
X262.53 Y43.3721 Z-1.8203
X262.5439 Y43.391 Z-1.7532
X262.5486 Y43.3974 Z-1.6825
G0 Z5
X282.6289 Y42.2141
Z-1.365
G1 Z-1.6825 F3500
X282.633 Y42.2209 Z-1.7532
X282.645 Y42.2411 Z-1.8203
X282.6643 Y42.2736 Z-1.8805
X282.69 Y42.3168 Z-1.9307
X282.7208 Y42.3686 Z-1.9686
X282.7551 Y42.4263 Z-1.992
X282.7912 Y42.487 Z-2
G3 X283.0125 Y43.2406 I-1.3603 J0.8088
G1 Y44.9162
X283.005 Y45.066
X282.9803 Y45.2376
X282.9392 Y45.4181
X282.8709 Y45.6355
X282.7739 Y45.8754
X282.6453 Y46.1319
X282.4538 Y46.4476
X282.2292 Y46.7586
X281.9056 Y47.1383
X281.4951 Y47.5482
X280.9704 Y47.994
X280.3716 Y48.4251
X279.7444 Y48.8136
X279.0953 Y49.1643
X278.4283 Y49.4799
X277.7463 Y49.7613
X277.0514 Y50.0091
X276.3452 Y50.223
X275.6296 Y50.4027
X274.9063 Y50.5483
X274.177 Y50.6599
X273.4433 Y50.7373
X272.7067 Y50.7798
X271.9689 Y50.7882
X271.2315 Y50.7628
X270.4961 Y50.7041
X269.764 Y50.6121
X269.0369 Y50.487
X268.3162 Y50.3291
X267.6034 Y50.1383
X266.9002 Y49.9151
X266.208 Y49.6595
X265.5284 Y49.3724
X264.8625 Y49.0545
X264.2119 Y48.7066
X263.5782 Y48.3288
X262.9624 Y47.9223
X262.3656 Y47.4885
X262.0662 Y47.2496
X261.9161 Y47.0877
X261.8204 Y46.8888
X261.7875 Y46.6706
Y45.0531
G3 X262.3608 Y44.8763 I0.3173 J0.0111
G1 X262.4026 Y44.9333 Z-1.992
X262.4423 Y44.9874 Z-1.9686
X262.4779 Y45.0359 Z-1.9307
X262.5077 Y45.0765 Z-1.8805
X262.53 Y45.107 Z-1.8203
X262.5439 Y45.1259 Z-1.7532
X262.5486 Y45.1323 Z-1.6825
G0 Z5
X282.6289 Y43.8897
Z-1.365
G1 Z-1.6825 F3500
X282.633 Y43.8966 Z-1.7532
X282.645 Y43.9168 Z-1.8203
X282.6643 Y43.9493 Z-1.8805
X282.69 Y43.9925 Z-1.9307
X282.7208 Y44.0442 Z-1.9686
X282.7551 Y44.1019 Z-1.992
X282.7912 Y44.1626 Z-2
G3 X283.0125 Y44.9162 I-1.3603 J0.8088
G1 Y46.4243
X283.0047 Y46.5805
X282.9849 Y46.7314
X282.9486 Y46.9011
X282.8876 Y47.1048
X282.8063 Y47.3134
X282.6905 Y47.5522
X282.526 Y47.8316
X282.3295 Y48.1113
X282.0469 Y48.4518
X281.7068 Y48.8003
X281.2536 Y49.1957
X280.6624 Y49.6332
X280.0359 Y50.023
X279.3857 Y50.3716
X278.717 Y50.6835
X278.0336 Y50.9614
X277.3377 Y51.2066
X276.6313 Y51.4196
X275.9159 Y51.6002
X275.1931 Y51.7482
X274.4644 Y51.864
X273.7313 Y51.9475
X272.9953 Y51.9992
X272.2578 Y52.0192
X271.5201 Y52.0078
X270.7835 Y51.9654
X270.0493 Y51.892
X269.3189 Y51.7879
X268.5935 Y51.6531
X267.8744 Y51.488
X267.1629 Y51.2926
X266.4604 Y51.0671
X265.7682 Y50.8116
X265.0879 Y50.5262
X264.4204 Y50.2117
X263.7671 Y49.8688
X263.129 Y49.4984
X262.5072 Y49.1013
X262.1036 Y48.819
X261.9715 Y48.7006
X261.8713 Y48.5542
X261.8088 Y48.3881
X261.7875 Y48.212
Y46.6706
G3 X262.3608 Y46.4938 I0.3173 J0.0111
G1 X262.4026 Y46.5508 Z-1.992
X262.4423 Y46.6049 Z-1.9686
X262.4779 Y46.6534 Z-1.9307
X262.5077 Y46.694 Z-1.8805
X262.53 Y46.7245 Z-1.8203
X262.5439 Y46.7434 Z-1.7532
X262.5486 Y46.7498 Z-1.6825
G0 Z5
X282.6289 Y45.3978
Z-1.365
G1 Z-1.6825 F3500
X282.633 Y45.4047 Z-1.7532
X282.645 Y45.4249 Z-1.8203
X282.6643 Y45.4574 Z-1.8805
X282.69 Y45.5006 Z-1.9307
X282.7208 Y45.5523 Z-1.9686
X282.7551 Y45.61 Z-1.992
X282.7912 Y45.6707 Z-2
G3 X283.0125 Y46.4243 I-1.3603 J0.8088
G1 Y47.9324
X283.005 Y48.0822
X282.9808 Y48.237
X282.9383 Y48.4139
X282.8791 Y48.5952
X282.7882 Y48.8123
X282.6683 Y49.0446
X282.511 Y49.2972
X282.2879 Y49.5985
X282.0304 Y49.8935
X281.6722 Y50.2428
X281.2114 Y50.625
X280.64 Y51.0261
X280.0041 Y51.4003
X279.3446 Y51.731
X278.6676 Y52.0245
X277.977 Y52.2841
X277.2752 Y52.5117
X276.564 Y52.7082
X275.8451 Y52.8741
X275.1198 Y53.0097
X274.3896 Y53.1152
X273.6557 Y53.1908
X272.9193 Y53.2369
X272.1817 Y53.2535
X271.444 Y53.241
X270.7073 Y53.1991
X269.973 Y53.1276
X269.2421 Y53.0269
X268.5157 Y52.8974
X267.795 Y52.7394
X267.0811 Y52.5531
X266.3751 Y52.3388
X265.6783 Y52.0964
X264.9916 Y51.8263
X264.3164 Y51.529
X263.6535 Y51.205
X263.0041 Y50.8549
X262.3689 Y50.4794
X262.1143 Y50.3078
X261.978 Y50.1894
X261.8743 Y50.0414
X261.8095 Y49.8728
X261.7875 Y49.6935
Y48.212
G3 X262.3608 Y48.0352 I0.3173 J0.0111
G1 X262.4026 Y48.0922 Z-1.992
X262.4423 Y48.1463 Z-1.9686
X262.4779 Y48.1949 Z-1.9307
X262.5077 Y48.2354 Z-1.8805
X262.53 Y48.2659 Z-1.8203
X262.5439 Y48.2848 Z-1.7532
X262.5486 Y48.2912 Z-1.6825
G0 Z5
X282.6289 Y46.9059
Z-1.365
G1 Z-1.6825 F3500
X282.633 Y46.9128 Z-1.7532
X282.645 Y46.933 Z-1.8203
X282.6643 Y46.9655 Z-1.8805
X282.69 Y47.0087 Z-1.9307
X282.7208 Y47.0604 Z-1.9686
X282.7551 Y47.1181 Z-1.992
X282.7912 Y47.1788 Z-2
G3 X283.0125 Y47.9324 I-1.3603 J0.8088
G1 Y49.2729
X283.0027 Y49.4694
X282.9832 Y49.6181
X282.9464 Y49.7852
X282.8928 Y49.9605
X282.8156 Y50.1552
X282.7016 Y50.3866
X282.5662 Y50.6136
X282.3719 Y50.8865
X282.1348 Y51.1688
X281.8167 Y51.4909
X281.4334 Y51.8213
X280.92 Y52.1964
X280.2913 Y52.5825
X279.635 Y52.9196
X278.9595 Y53.2163
X278.2695 Y53.4776
X277.5681 Y53.7067
X276.8575 Y53.9052
X276.1392 Y54.0736
X275.4146 Y54.2126
X274.6851 Y54.3229
X273.9518 Y54.405
X273.216 Y54.4592
X272.4787 Y54.4858
X271.7408 Y54.4849
X271.0036 Y54.4565
X270.2679 Y54.4005
X269.5348 Y54.3172
X268.8053 Y54.2068
X268.0804 Y54.0696
X267.361 Y53.9057
X266.6481 Y53.7154
X265.9428 Y53.4988
X265.2461 Y53.256
X264.5591 Y52.9869
X263.8829 Y52.6918
X263.2182 Y52.3714
X262.566 Y52.0265
X262.1567 Y51.7821
X262.0987 Y51.7407
X261.9318 Y51.5765
X261.8245 Y51.3684
X261.7875 Y51.1373
Y49.6935
G3 X262.3608 Y49.5167 I0.3173 J0.0111
G1 X262.4026 Y49.5737 Z-1.992
X262.4423 Y49.6278 Z-1.9686
X262.4779 Y49.6763 Z-1.9307
X262.5077 Y49.7169 Z-1.8805
X262.53 Y49.7474 Z-1.8203
X262.5439 Y49.7663 Z-1.7532
X262.5486 Y49.7727 Z-1.6825
G0 Z5
X282.6289 Y48.2465
Z-1.365
G1 Z-1.6825 F3500
X282.633 Y48.2533 Z-1.7532
X282.645 Y48.2735 Z-1.8203
X282.6643 Y48.306 Z-1.8805
X282.69 Y48.3492 Z-1.9307
X282.7208 Y48.401 Z-1.9686
X282.7551 Y48.4586 Z-1.992
X282.7912 Y48.5194 Z-2
G3 X283.0125 Y49.2729 I-1.3603 J0.8088
G1 Y50.7056
X283.005 Y50.8554
X282.9849 Y51.0041
X282.9508 Y51.1592
X282.8984 Y51.3305
X282.8187 Y51.5319
X282.7205 Y51.7313
X282.5794 Y51.968
X282.4003 Y52.2198
X282.1706 Y52.4934
X281.869 Y52.799
X281.4901 Y53.1258
X281.0203 Y53.4693
X280.3997 Y53.8506
X279.7421 Y54.1852
X279.0645 Y54.4771
X278.3724 Y54.7327
X277.6691 Y54.9558
X276.9569 Y55.1486
X276.2375 Y55.3124
X275.5124 Y55.4484
X274.7826 Y55.5572
X274.0494 Y55.6393
X273.3137 Y55.6947
X272.5764 Y55.7234
X271.8386 Y55.7258
X271.1011 Y55.702
X270.365 Y55.6524
X269.631 Y55.577
X268.9001 Y55.4762
X268.1732 Y55.35
X267.4511 Y55.1987
X266.7346 Y55.0225
X266.0247 Y54.8215
X265.3223 Y54.5957
X264.6283 Y54.3453
X263.9435 Y54.0705
X263.269 Y53.7716
X262.6054 Y53.449
X262.2142 Y53.2308
X262.1167 Y53.1656
X261.9794 Y53.0471
X261.875 Y52.8989
X261.8097 Y52.7297
X261.7875 Y52.5497
Y51.1373
G3 X262.3608 Y50.9605 I0.3173 J0.0111
G1 X262.4026 Y51.0175 Z-1.992
X262.4423 Y51.0716 Z-1.9686
X262.4779 Y51.1201 Z-1.9307
X262.5077 Y51.1607 Z-1.8805
X262.53 Y51.1912 Z-1.8203
X262.5439 Y51.2101 Z-1.7532
X262.5486 Y51.2165 Z-1.6825
G0 Z5
X282.6289 Y49.6791
Z-1.365
G1 Z-1.6825 F3500
X282.633 Y49.686 Z-1.7532
X282.645 Y49.7062 Z-1.8203
X282.6643 Y49.7387 Z-1.8805
X282.69 Y49.7819 Z-1.9307
X282.7208 Y49.8336 Z-1.9686
X282.7551 Y49.8913 Z-1.992
X282.7912 Y49.9521 Z-2
G3 X283.0125 Y50.7056 I-1.3603 J0.8088
G1 Y52.1216
X283.005 Y52.2714
X282.9795 Y52.4196
X282.9398 Y52.5748
X282.8763 Y52.7595
X282.7926 Y52.9514
X282.6785 Y53.1643
X282.5231 Y53.4056
X282.337 Y53.6492
X282.0706 Y53.9452
X281.7742 Y54.2257
X281.3646 Y54.555
X280.844 Y54.9089
X280.2025 Y55.2734
X279.5341 Y55.5859
X278.8477 Y55.8565
X278.1484 Y56.0916
X277.4392 Y56.2952
X276.7223 Y56.4697
X275.9993 Y56.6167
X275.2714 Y56.7374
X274.5397 Y56.8323
X273.8052 Y56.9017
X273.0687 Y56.946
X272.3311 Y56.9652
X271.5934 Y56.9597
X270.8561 Y56.9296
X270.1204 Y56.8751
X269.3867 Y56.7964
X268.6561 Y56.6937
X267.9292 Y56.5671
X267.2069 Y56.4166
X266.4901 Y56.242
X265.7794 Y56.0436
X265.0758 Y55.8217
X264.3799 Y55.5766
X263.6925 Y55.3084
X263.0145 Y55.0175
X262.4325 Y54.7404
X262.1259 Y54.5629
X262.107 Y54.5498
X261.9735 Y54.4314
X261.8722 Y54.2845
X261.809 Y54.1176
X261.7875 Y53.9405
Y52.5497
G3 X262.3608 Y52.373 I0.3173 J0.0111
G1 X262.4026 Y52.4299 Z-1.992
X262.4423 Y52.484 Z-1.9686
X262.4779 Y52.5326 Z-1.9307
X262.5077 Y52.5731 Z-1.8805
X262.53 Y52.6036 Z-1.8203
X262.5439 Y52.6225 Z-1.7532
X262.5486 Y52.6289 Z-1.6825
G0 Z5
X282.6289 Y51.0951
Z-1.365
G1 Z-1.6825 F3500
X282.633 Y51.1019 Z-1.7532
X282.645 Y51.1221 Z-1.8203
X282.6643 Y51.1546 Z-1.8805
X282.69 Y51.1978 Z-1.9307
X282.7208 Y51.2496 Z-1.9686
X282.7551 Y51.3073 Z-1.992
X282.7912 Y51.368 Z-2
G3 X283.0125 Y52.1216 I-1.3603 J0.8088
G1 Y53.4621
X283.005 Y53.6119
X282.9797 Y53.7598
X282.9392 Y53.9175
X282.8809 Y54.0872
X282.7928 Y54.2886
X282.6855 Y54.4887
X282.5359 Y54.7208
X282.3441 Y54.9717
X282.1044 Y55.2378
X281.7883 Y55.5365
