%
(Made in : Autodesk CAM Post Processor)
(G Code optimized for OpenBuilds OX CNC 1000 x 750 with GRBL V0.9j controller)

(Program Name : 1001)
(1 Operation :)
(1 : Pocket1)
(  Tool : Flat End Mill 3 Flutes, Diam = 3.175mm, Len = 20mm)
(  Spindle : RPM = 30000, set router dial to 6)
(  Machining time : 10 min 3 sec)

G90 G94
G17
G21

(Operation 1 of 1 : Pocket1)

G53 G0 Z5
G54
S30000 M3
G4 P1.0
X271.698 Y36.1069
Z6
Z3
G1 Z2.4173 F1200
X271.6849 Y36.0999 Z2.3213
X271.6472 Y36.0788 Z2.2343
X271.5896 Y36.0437 Z2.1644
X271.519 Y35.9957 Z2.1182
X271.4434 Y35.9374 Z2.1
G3 X271.6601 Y36.0862 Z1.7783 I0.9589 J-1.164
X271.8994 Y36.1951 Z1.4566 I0.7422 J-1.3128
X272.1539 Y36.2609 Z1.1349 I0.503 J-1.4218
X272.416 Y36.2814 Z0.8132 I0.2484 J-1.4875
X272.6776 Y36.2561 Z0.4914 I-0.0136 J-1.5081
X272.9309 Y36.1858 Z0.1697 I-0.2753 J-1.4828
X273.1682 Y36.0725 Z-0.152 I-0.5286 J-1.4125
X273.3822 Y35.9198 Z-0.4737 I-0.7658 J-1.2992
X273.5664 Y35.7323 Z-0.7954 I-0.9798 J-1.1465
X273.7152 Y35.5156 Z-1.1171 I-1.164 J-0.9589
X273.8241 Y35.2763 Z-1.4388 I-1.3128 J-0.7422
X273.8899 Y35.0218 Z-1.7605 I-1.4218 J-0.503
X272.4023 Y33.2652 Z-2 I-1.4875 J-0.2484
G1 X272.6716 F3500
G3 X273.6348 Y34.2285 J0.9632
G1 Y55.7716
G3 X272.6716 Y56.7348 I-0.9633
G1 X272.1331
G3 X271.1699 Y55.7716 J-0.9632
G1 Y34.2285
G3 X272.1331 Y33.2652 I0.9632
G1 X272.4023
G2 X274.0193 Y32.1157 J-1.712
G3 X275.9755 Y32.4462 I0.9502 J0.3305
G1 Y58.1122
G3 X275.0122 Y59.0755 I-0.9632
G1 X269.7924
G3 X268.8292 Y58.1122 J-0.9632
G1 Y31.8878
G3 X269.7924 Y30.9246 I0.9632
G1 X275.0122
G3 X275.9755 Y31.8878 J0.9632
G1 Y32.4462
G2 X277.1458 Y34.2016 I1.9018
G3 X278.3161 Y35.9571 I-0.7315 J1.7555
G1 Y60.4529
G3 X277.3529 Y61.4161 I-0.9633
G1 X267.4518
G3 X266.4885 Y60.4529 J-0.9632
G1 Y29.5471
G3 X267.4518 Y28.5839 I0.9633
G1 X277.3529
G3 X278.3161 Y29.5471 J0.9632
G1 Y35.9571
G2 X279.4865 Y37.7126 I1.9018
G3 X280.6568 Y39.4681 I-0.7314 J1.7555
G1 Y62.7935
G3 X279.6935 Y63.7568 I-0.9632
G1 X265.1111
G3 X264.1479 Y62.7935 J-0.9632
G1 Y27.2065
G3 X265.1111 Y26.2432 I0.9632
G1 X279.6935
G3 X280.6568 Y27.2065 J0.9632
G1 Y39.4681
G2 X281.8347 Y41.2349 I1.9141
G3 X283.0125 Y43.0017 I-0.7362 J1.7668
G1 Y66.1125
X261.7921
Y23.8875
X283.0125
Y43.0017
X283.0087 Y43.0506 Z-1.9922
X282.9975 Y43.0983 Z-1.9845
X282.9811 Y43.1394 Z-1.9619
X282.9592 Y43.1778 Z-1.9394
X282.9142 Y43.2315 Z-1.8691
X282.8794 Y43.2602 Z-1.7806
X282.8666 Y43.2689 Z-1.6825
G0 Z5
X272.3098 Y35.9828
Z1
G1 Z-4 F1200
X272.2971 Y35.9535 F3500
X272.2915 Y35.9143
X272.2918 Y35.883
X272.2972 Y35.8506
X272.3089 Y35.8154
X272.3256 Y35.7835
X272.3381 Y35.766
X272.3483 Y35.755
X272.3858 Y35.725
X272.4019 Y35.7158
X272.4518 Y35.6972
X272.4778 Y35.6922
X272.5107 Y35.6912
X272.5382 Y35.6944
X272.5757 Y35.7047
X272.5983 Y35.7143
X272.6056 Y35.7185
X272.6447 Y35.7497
X272.6729 Y35.7815
X272.6768 Y35.7874
X272.6969 Y35.8308
X272.7052 Y35.8612
X272.7088 Y35.8926
X272.7076 Y35.923
X272.7008 Y35.9575
X272.6918 Y35.9822
X272.6677 Y36.0248
X272.6568 Y36.0386
X272.6292 Y36.0646
X272.615 Y36.0744
X272.5595 Y36.101
X272.5191 Y36.108
X272.4881 Y36.1086
X272.4576 Y36.1044
X272.406 Y36.0888
X272.3581 Y36.0547
X272.3536 Y36.0505
X272.3215 Y36.0096
X272.3098 Y35.9828
X272.2971 Y35.9535 Z-3.9984
X272.2915 Y35.9143 Z-3.9918
X272.2918 Y35.883 Z-3.9829
X272.2972 Y35.8506 Z-3.9695
X272.3089 Y35.8154 Z-3.9489
X272.3256 Y35.7835 Z-3.9217
X272.3381 Y35.766 Z-3.9011
X272.3483 Y35.755 Z-3.8841
X272.3693 Y35.7382 Z-3.8459
X272.3858 Y35.725 Z-3.8041
X272.4019 Y35.7158 Z-3.7423
X272.4072 Y35.7138 Z-3.6825
G0 Z5
X272.3098 Y35.9828
Z3
G1 Z-1 F1200
Z-6
X272.2971 Y35.9535 F3500
X272.2915 Y35.9143
X272.2918 Y35.883
X272.2972 Y35.8506
X272.3089 Y35.8154
X272.3256 Y35.7835
X272.3381 Y35.766
X272.3483 Y35.755
X272.3858 Y35.725
X272.4019 Y35.7158
X272.4518 Y35.6972
X272.4778 Y35.6922
X272.5107 Y35.6912
X272.5382 Y35.6944
X272.5757 Y35.7047
X272.5983 Y35.7143
X272.6056 Y35.7185
X272.6447 Y35.7497
X272.6729 Y35.7815
X272.6768 Y35.7874
X272.6969 Y35.8308
X272.7052 Y35.8612
X272.7088 Y35.8926
X272.7076 Y35.923
X272.7008 Y35.9575
X272.6918 Y35.9822
X272.6677 Y36.0248
X272.6568 Y36.0386
X272.6292 Y36.0646
X272.615 Y36.0744
X272.5595 Y36.101
X272.5191 Y36.108
X272.4881 Y36.1086
X272.4576 Y36.1044
X272.406 Y36.0888
X272.3581 Y36.0547
X272.3536 Y36.0505
X272.3215 Y36.0096
X272.3098 Y35.9828
X272.2971 Y35.9535 Z-5.9984
X272.2915 Y35.9143 Z-5.9918
X272.2918 Y35.883 Z-5.9829
X272.2972 Y35.8506 Z-5.9696
X272.3089 Y35.8154 Z-5.9489
X272.3256 Y35.7835 Z-5.9217
X272.3381 Y35.766 Z-5.9011
X272.3483 Y35.755 Z-5.8841
X272.3693 Y35.7382 Z-5.8459
X272.3858 Y35.725 Z-5.8041
X272.4019 Y35.7158 Z-5.7423
X272.4072 Y35.7138 Z-5.6825
G0 Z5
X272.4275 Y35.7062
Z-3
G1 Z-8 F1200
X272.4518 Y35.6972 F3500
X272.4778 Y35.6922
X272.5107 Y35.6912
X272.5382 Y35.6944
X272.5757 Y35.7047
X272.5983 Y35.7143
X272.6056 Y35.7185
X272.6447 Y35.7497
X272.6729 Y35.7815
X272.6768 Y35.7874
X272.6969 Y35.8308
X272.7052 Y35.8612
X272.7088 Y35.8926
X272.7076 Y35.923
X272.7008 Y35.9575
X272.6918 Y35.9822
X272.6677 Y36.0248
X272.6568 Y36.0386
X272.6292 Y36.0646
X272.615 Y36.0744
X272.5595 Y36.101
X272.5191 Y36.108
X272.4881 Y36.1086
X272.4576 Y36.1044
X272.406 Y36.0888
X272.3581 Y36.0547
X272.3536 Y36.0505
X272.3215 Y36.0096
X272.2971 Y35.9535
X272.2915 Y35.9143
X272.2918 Y35.883
X272.2972 Y35.8506
X272.3089 Y35.8154
X272.3256 Y35.7835
X272.3381 Y35.766
X272.3483 Y35.755
X272.3858 Y35.725
X272.4019 Y35.7158
X272.4275 Y35.7062
X272.4518 Y35.6972 Z-7.9989
X272.4778 Y35.6922 Z-7.9956
X272.5107 Y35.6912 Z-7.9883
X272.5382 Y35.6944 Z-7.9792
X272.5757 Y35.7047 Z-7.9613
X272.5983 Y35.7143 Z-7.9465
X272.6056 Y35.7185 Z-7.9406
X272.6447 Y35.7497 Z-7.8961
X272.6599 Y35.7669 Z-7.8678
X272.6729 Y35.7815 Z-7.837
X272.6768 Y35.7874 Z-7.8236
X272.6844 Y35.8039 Z-7.7784
X272.6891 Y35.814 Z-7.731
X272.6907 Y35.8174 Z-7.6825
G0 Z5
X272.4275 Y35.7062
Z1
G1 Z-5 F1200
Z-10
X272.4518 Y35.6972 F3500
X272.4778 Y35.6922
X272.5107 Y35.6912
X272.5382 Y35.6944
X272.5757 Y35.7047
X272.5983 Y35.7143
X272.6056 Y35.7185
X272.6447 Y35.7497
X272.6729 Y35.7815
X272.6768 Y35.7874
X272.6969 Y35.8308
X272.7052 Y35.8612
X272.7088 Y35.8926
X272.7076 Y35.923
X272.7008 Y35.9575
X272.6918 Y35.9822
X272.6677 Y36.0248
X272.6568 Y36.0386
X272.6292 Y36.0646
X272.615 Y36.0744
X272.5595 Y36.101
X272.5191 Y36.108
X272.4881 Y36.1086
X272.4576 Y36.1044
X272.406 Y36.0888
X272.3581 Y36.0547
X272.3536 Y36.0505
X272.3215 Y36.0096
X272.2971 Y35.9535
X272.2915 Y35.9143
X272.2918 Y35.883
X272.2972 Y35.8506
X272.3089 Y35.8154
X272.3256 Y35.7835
X272.3381 Y35.766
X272.3483 Y35.755
X272.3858 Y35.725
X272.4019 Y35.7158
X272.4275 Y35.7062
X272.4518 Y35.6972 Z-9.9989
X272.4778 Y35.6922 Z-9.9956
X272.5107 Y35.6912 Z-9.9883
X272.5382 Y35.6944 Z-9.9792
X272.5757 Y35.7047 Z-9.9613
X272.5983 Y35.7143 Z-9.9465
X272.6056 Y35.7185 Z-9.9406
X272.6447 Y35.7497 Z-9.8961
X272.6599 Y35.7669 Z-9.8678
X272.6729 Y35.7815 Z-9.837
X272.6768 Y35.7874 Z-9.8236
X272.6844 Y35.8039 Z-9.7784
X272.6891 Y35.814 Z-9.731
X272.6907 Y35.8174 Z-9.6825
G0 Z5
X272.4275 Y35.7062
Z1
G1 Z-7 F1200
Z-12
X272.4518 Y35.6972 F3500
X272.4778 Y35.6922
X272.5107 Y35.6912
X272.5382 Y35.6944
X272.5757 Y35.7047
X272.5983 Y35.7143
X272.6056 Y35.7185
X272.6447 Y35.7497
X272.6729 Y35.7815
X272.6768 Y35.7874
X272.6969 Y35.8308
X272.7052 Y35.8612
X272.7088 Y35.8926
X272.7076 Y35.923
X272.7008 Y35.9575
X272.6918 Y35.9822
X272.6677 Y36.0248
X272.6568 Y36.0386
X272.6292 Y36.0646
X272.615 Y36.0744
X272.5595 Y36.101
X272.5191 Y36.108
X272.4881 Y36.1086
X272.4576 Y36.1044
X272.406 Y36.0888
X272.3581 Y36.0547
X272.3536 Y36.0505
X272.3215 Y36.0096
X272.2971 Y35.9535
X272.2915 Y35.9143
X272.2918 Y35.883
X272.2972 Y35.8506
X272.3089 Y35.8154
X272.3256 Y35.7835
X272.3381 Y35.766
X272.3483 Y35.755
X272.3858 Y35.725
X272.4019 Y35.7158
X272.4275 Y35.7062
X272.4518 Y35.6972 Z-11.9989
X272.4778 Y35.6922 Z-11.9956
X272.5107 Y35.6912 Z-11.9883
X272.5382 Y35.6944 Z-11.9792
X272.5757 Y35.7047 Z-11.9613
X272.5983 Y35.7143 Z-11.9465
X272.6056 Y35.7185 Z-11.9406
X272.6447 Y35.7497 Z-11.8961
X272.6599 Y35.7669 Z-11.8678
X272.6729 Y35.7815 Z-11.837
X272.6768 Y35.7874 Z-11.8236
X272.6844 Y35.8039 Z-11.7784
X272.6891 Y35.814 Z-11.731
X272.6907 Y35.8174 Z-11.6825
G0 Z5
X272.4275 Y35.7062
Z1
G1 Z-9 F1200
Z-13.4
X272.4518 Y35.6972 F3500
X272.4778 Y35.6922
X272.5107 Y35.6912
X272.5382 Y35.6944
X272.5757 Y35.7047
X272.5983 Y35.7143
X272.6056 Y35.7185
X272.6447 Y35.7497
X272.6729 Y35.7815
X272.6768 Y35.7874
X272.6969 Y35.8308
X272.7052 Y35.8612
X272.7088 Y35.8926
X272.7076 Y35.923
X272.7008 Y35.9575
X272.6918 Y35.9822
X272.6677 Y36.0248
X272.6568 Y36.0386
X272.6292 Y36.0646
X272.615 Y36.0744
X272.5595 Y36.101
X272.5191 Y36.108
X272.4881 Y36.1086
X272.4576 Y36.1044
X272.406 Y36.0888
X272.3581 Y36.0547
X272.3536 Y36.0505
X272.3215 Y36.0096
X272.2971 Y35.9535
X272.2915 Y35.9143
X272.2918 Y35.883
X272.2972 Y35.8506
X272.3089 Y35.8154
X272.3256 Y35.7835
X272.3381 Y35.766
X272.3483 Y35.755
X272.3858 Y35.725
X272.4019 Y35.7158
X272.4275 Y35.7062
X272.4518 Y35.6972 Z-13.3989
X272.4778 Y35.6922 Z-13.3956
X272.5107 Y35.6912 Z-13.3883
X272.5382 Y35.6944 Z-13.3792
X272.5757 Y35.7047 Z-13.3613
X272.5983 Y35.7143 Z-13.3465
X272.6056 Y35.7185 Z-13.3406
X272.6447 Y35.7497 Z-13.2961
X272.6599 Y35.7669 Z-13.2678
X272.6729 Y35.7815 Z-13.237
X272.6768 Y35.7874 Z-13.2236
X272.6844 Y35.8039 Z-13.1784
X272.6891 Y35.814 Z-13.131
X272.6907 Y35.8174 Z-13.0825
G0 Z5
X272.7044 Y60.9233
Z1
G1 Z-4 F1200
X272.7013 Y60.9482 F3500
X272.6839 Y61.0003
X272.65 Y61.0478
X272.6451 Y61.0531
X272.605 Y61.0806
X272.5624 Y61.1005
X272.5191 Y61.108
X272.4881 Y61.1086
X272.4576 Y61.1044
X272.4289 Y61.0957
X272.377 Y61.0698
X272.3487 Y61.0434
X272.3254 Y61.013
X272.3046 Y60.9727
X272.2999 Y60.9579
X272.2916 Y60.8904
X272.2926 Y60.8738
X272.2993 Y60.8425
X272.3122 Y60.8096
X272.3342 Y60.7729
X272.3679 Y60.7383
X272.3901 Y60.7219
X272.4121 Y60.7101
X272.4447 Y60.6986
X272.4778 Y60.6922
X272.5089 Y60.6912
X272.5398 Y60.6949
X272.5847 Y60.7078
X272.6276 Y60.7337
X272.6337 Y60.7387
X272.6676 Y60.7769
X272.6887 Y60.8118
X272.7007 Y60.8425
X272.7075 Y60.8738
X272.7084 Y60.8904
X272.7044 Y60.9233
X272.7013 Y60.9482 Z-3.999
X272.6839 Y61.0003 Z-3.9898
X272.65 Y61.0478 Z-3.9682
X272.6451 Y61.0531 Z-3.9646
X272.605 Y61.0806 Z-3.9336
X272.5624 Y61.1005 Z-3.8889
X272.5387 Y61.1046 Z-3.8569
X272.5191 Y61.108 Z-3.8222
X272.4986 Y61.1084 Z-3.7681
X272.4881 Y61.1086 Z-3.7113
X272.4868 Y61.1084 Z-3.6825
G0 Z5
X272.7044 Y60.9233
Z3
G1 Z-1 F1200
Z-6
X272.7013 Y60.9482 F3500
X272.6839 Y61.0003
X272.65 Y61.0478
X272.6451 Y61.0531
X272.605 Y61.0806
X272.5624 Y61.1005
X272.5191 Y61.108
X272.4881 Y61.1086
X272.4576 Y61.1044
X272.4289 Y61.0957
X272.377 Y61.0698
X272.3487 Y61.0434
X272.3254 Y61.013
X272.3046 Y60.9727
X272.2999 Y60.9579
X272.2916 Y60.8904
X272.2926 Y60.8738
X272.2993 Y60.8425
X272.3122 Y60.8096
X272.3342 Y60.7729
X272.3679 Y60.7383
X272.3901 Y60.7219
X272.4121 Y60.7101
X272.4447 Y60.6986
X272.4778 Y60.6922
X272.5089 Y60.6912
X272.5398 Y60.6949
X272.5847 Y60.7078
X272.6276 Y60.7337
X272.6337 Y60.7387
X272.6676 Y60.7769
X272.6887 Y60.8118
X272.7007 Y60.8425
X272.7075 Y60.8738
X272.7084 Y60.8904
X272.7044 Y60.9233
X272.7013 Y60.9482 Z-5.999
X272.6839 Y61.0003 Z-5.9898
X272.65 Y61.0478 Z-5.9682
X272.6451 Y61.0531 Z-5.9646
X272.605 Y61.0806 Z-5.9336
X272.5624 Y61.1005 Z-5.8889
X272.5387 Y61.1046 Z-5.8569
X272.5191 Y61.108 Z-5.8222
X272.4986 Y61.1084 Z-5.7681
X272.4881 Y61.1086 Z-5.7113
X272.4868 Y61.1084 Z-5.6825
G0 Z5
X272.7044 Y60.9233
Z-3
G1 Z-8 F1200
X272.7013 Y60.9482 F3500
X272.6839 Y61.0003
X272.65 Y61.0478
X272.6451 Y61.0531
X272.605 Y61.0806
X272.5624 Y61.1005
X272.5191 Y61.108
X272.4881 Y61.1086
X272.4576 Y61.1044
X272.4289 Y61.0957
X272.377 Y61.0698
X272.3487 Y61.0434
X272.3254 Y61.013
X272.3046 Y60.9727
X272.2999 Y60.9579
X272.2916 Y60.8904
X272.2926 Y60.8738
X272.2993 Y60.8425
X272.3122 Y60.8096
X272.3342 Y60.7729
X272.3679 Y60.7383
X272.3901 Y60.7219
X272.4121 Y60.7101
X272.4447 Y60.6986
X272.4778 Y60.6922
X272.5089 Y60.6912
X272.5398 Y60.6949
X272.5847 Y60.7078
X272.6276 Y60.7337
X272.6337 Y60.7387
X272.6676 Y60.7769
X272.6887 Y60.8118
X272.7007 Y60.8425
X272.7075 Y60.8738
X272.7084 Y60.8904
X272.7044 Y60.9233
X272.7013 Y60.9482 Z-7.999
X272.6839 Y61.0003 Z-7.9898
X272.65 Y61.0478 Z-7.9682
X272.6451 Y61.0531 Z-7.9646
X272.605 Y61.0806 Z-7.9336
X272.5624 Y61.1005 Z-7.8889
X272.5387 Y61.1046 Z-7.8569
X272.5191 Y61.108 Z-7.8222
X272.4986 Y61.1084 Z-7.7681
X272.4881 Y61.1086 Z-7.7113
X272.4868 Y61.1084 Z-7.6825
G0 Z5
X272.2957 Y60.9233
Z1
G1 Z-5 F1200
Z-10
X272.2916 Y60.8904 F3500
X272.2926 Y60.8738
X272.2993 Y60.8425
X272.3122 Y60.8096
X272.3342 Y60.7729
X272.3679 Y60.7383
X272.3901 Y60.7219
X272.4121 Y60.7101
X272.4447 Y60.6986
X272.4778 Y60.6922
X272.5089 Y60.6912
X272.5398 Y60.6949
X272.5847 Y60.7078
X272.6276 Y60.7337
X272.6337 Y60.7387
X272.6676 Y60.7769
X272.6887 Y60.8118
X272.7007 Y60.8425
X272.7075 Y60.8738
X272.7084 Y60.8904
X272.7013 Y60.9482
X272.6839 Y61.0003
X272.65 Y61.0478
X272.6451 Y61.0531
X272.605 Y61.0806
X272.5624 Y61.1005
X272.5191 Y61.108
X272.4881 Y61.1086
X272.4576 Y61.1044
X272.4289 Y61.0957
X272.377 Y61.0698
X272.3487 Y61.0434
X272.3254 Y61.013
X272.3046 Y60.9727
X272.2999 Y60.9579
X272.2957 Y60.9233
X272.2916 Y60.8904 Z-9.9983
X272.2926 Y60.8738 Z-9.9961
X272.2993 Y60.8425 Z-9.9893
X272.3122 Y60.8096 Z-9.9776
X272.3342 Y60.7729 Z-9.9568
X272.3679 Y60.7383 Z-9.9222
X272.3901 Y60.7219 Z-9.8951
X272.4121 Y60.7101 Z-9.8637
X272.4301 Y60.7037 Z-9.8324
X272.4447 Y60.6986 Z-9.7992
X272.461 Y60.6954 Z-9.7419
X272.4665 Y60.6944 Z-9.6825
G0 Z5
X272.7044 Y60.9233
Z1
G1 Z-7 F1200
Z-12
X272.7013 Y60.9482 F3500
X272.6839 Y61.0003
X272.65 Y61.0478
X272.6451 Y61.0531
X272.605 Y61.0806
X272.5624 Y61.1005
X272.5191 Y61.108
X272.4881 Y61.1086
X272.4576 Y61.1044
X272.4289 Y61.0957
X272.377 Y61.0698
X272.3487 Y61.0434
X272.3254 Y61.013
X272.3046 Y60.9727
X272.2999 Y60.9579
X272.2916 Y60.8904
X272.2926 Y60.8738
X272.2993 Y60.8425
X272.3122 Y60.8096
X272.3342 Y60.7729
X272.3679 Y60.7383
X272.3901 Y60.7219
X272.4121 Y60.7101
X272.4447 Y60.6986
X272.4778 Y60.6922
X272.5089 Y60.6912
X272.5398 Y60.6949
X272.5847 Y60.7078
X272.6276 Y60.7337
X272.6337 Y60.7387
X272.6676 Y60.7769
X272.6887 Y60.8118
X272.7007 Y60.8425
X272.7075 Y60.8738
X272.7084 Y60.8904
X272.7044 Y60.9233
X272.7013 Y60.9482 Z-11.999
X272.6839 Y61.0003 Z-11.9898
X272.65 Y61.0478 Z-11.9682
X272.6451 Y61.0531 Z-11.9646
X272.605 Y61.0806 Z-11.9336
X272.5624 Y61.1005 Z-11.8889
X272.5387 Y61.1046 Z-11.8569
X272.5191 Y61.108 Z-11.8222
X272.4986 Y61.1084 Z-11.7681
X272.4881 Y61.1086 Z-11.7113
X272.4868 Y61.1084 Z-11.6825
G0 Z5
X272.6541 Y60.7617
Z1
G1 Z-9 F1200
Z-13.4
X272.6676 Y60.7769 F3500
X272.6887 Y60.8118
X272.7007 Y60.8425
X272.7075 Y60.8738
X272.7084 Y60.8904
X272.7013 Y60.9482
X272.6839 Y61.0003
X272.65 Y61.0478
X272.6451 Y61.0531
X272.605 Y61.0806
X272.5624 Y61.1005
X272.5191 Y61.108
X272.4881 Y61.1086
X272.4576 Y61.1044
X272.4289 Y61.0957
X272.377 Y61.0698
X272.3487 Y61.0434
X272.3254 Y61.013
X272.3046 Y60.9727
X272.2999 Y60.9579
X272.2916 Y60.8904
X272.2926 Y60.8738
X272.2993 Y60.8425
X272.3122 Y60.8096
X272.3342 Y60.7729
X272.3679 Y60.7383
X272.3901 Y60.7219
X272.4121 Y60.7101
X272.4447 Y60.6986
X272.4778 Y60.6922
X272.5089 Y60.6912
X272.5398 Y60.6949
X272.5847 Y60.7078
X272.6276 Y60.7337
X272.6337 Y60.7387
X272.6541 Y60.7617
X272.6676 Y60.7769 Z-13.3993
X272.6887 Y60.8118 Z-13.3941
X272.7007 Y60.8425 Z-13.3857
X272.7075 Y60.8738 Z-13.3739
X272.7084 Y60.8904 Z-13.3661
X272.7013 Y60.9482 Z-13.3283
X272.692 Y60.976 Z-13.3011
X272.6839 Y61.0003 Z-13.2705
X272.6681 Y61.0224 Z-13.2262
X272.6567 Y61.0384 Z-13.1781
X272.65 Y61.0478 Z-13.1274
X272.6478 Y61.0502 Z-13.0825
G0 Z5
X10.2822 Y9.244
Z2.4173
G1 X10.2965 Y9.2399 Z2.3213 F1200
X10.3382 Y9.2289 Z2.2343
X10.4041 Y9.214 Z2.1644
X10.4882 Y9.1994 Z2.1182
X10.5831 Y9.1887 Z2.1
G3 X10.3239 Y9.2325 Z1.7783 I0.1207 J1.5033
X10.0762 Y9.3207 Z1.4566 I0.3799 J1.4595
X9.8476 Y9.4505 Z1.1349 I0.6276 J1.3713
X9.645 Y9.618 Z0.8132 I0.8562 J1.2415
X9.4746 Y9.8182 Z0.4914 I1.0588 J1.074
X9.3415 Y10.0449 Z0.1697 I1.2292 J0.8738
X9.2499 Y10.2913 Z-0.152 I1.3622 J0.6471
X9.2024 Y10.5498 Z-0.4737 I1.4539 J0.4007
X9.2005 Y10.8127 Z-0.7954 I1.5014 J0.1422
X9.2443 Y11.0719 Z-1.1171 I1.5033 J-0.1207
X9.3324 Y11.3196 Z-1.4388 I1.4595 J-0.3799
X9.4622 Y11.5482 Z-1.7605 I1.3713 J-0.6276
X11.7528 Y11.7756 Z-2 I1.2415 J-0.8562
G2 X11.3319 Y12.2087 I6.8713 J7.0975 F3500
X10.9179 Y12.7216 I3.9651 J3.6237
G1 X10.526 Y13.2733
G3 X9.8146 Y13.0464 I-0.3195 J-0.227
G1 X9.8147 Y10.775
G3 X10.778 Y9.8117 I0.9633
G1 X13.0446 Y9.8118
G3 X13.2752 Y10.525 J0.3939
G2 X12.2604 Y11.3171 I10.1308 J14.026
X11.7528 Y11.7756 I6.3637 J7.556
G1 X11.7157 Y11.8076 Z-1.9922
X11.6741 Y11.8336 Z-1.9845
X11.6336 Y11.8513 Z-1.9619
X11.591 Y11.8632 Z-1.9394
X11.5212 Y11.8696 Z-1.8691
X11.4763 Y11.8655 Z-1.7806
X11.4611 Y11.8627 Z-1.6825
G0 Z5
X9.2456 Y79.7179
Z2.4173
G1 X9.2415 Y79.7036 Z2.3213 F1200
X9.2304 Y79.6618 Z2.2343
X9.2155 Y79.596 Z2.1644
X9.2009 Y79.5118 Z2.1182
X9.1902 Y79.417 Z2.1
G3 X9.2341 Y79.6762 Z1.7783 I1.5032 J-0.1214
X9.3224 Y79.9238 Z1.4566 I1.4593 J-0.3806
X9.4523 Y80.1524 Z1.1349 I1.371 J-0.6282
X9.6199 Y80.3549 Z0.8132 I1.2411 J-0.8568
X9.8202 Y80.5252 Z0.4914 I1.0735 J-1.0593
X10.047 Y80.6581 Z0.1697 I0.8732 J-1.2296
X10.2934 Y80.7497 Z-0.152 I0.6465 J-1.3625
X10.552 Y80.7971 Z-0.4737 I0.4 J-1.4541
X10.8149 Y80.7988 Z-0.7954 I0.1414 J-1.5015
X11.074 Y80.7549 Z-1.1171 I-0.1214 J-1.5032
X11.3217 Y80.6666 Z-1.4388 I-0.3806 J-1.4593
X11.5502 Y80.5367 Z-1.7605 I-0.6282 J-1.371
X11.7765 Y78.2461 Z-2 I-0.8568 J-1.2411
G2 X12.2141 Y78.6713 I7.2891 J-7.0635 F3500
X12.7212 Y79.0814 I3.6064 J-3.9418
G1 X13.2725 Y79.4739
G3 X13.0451 Y80.1854 I-0.2274 J0.3194
G1 X10.7753
G3 X9.8122 Y79.2221 J-0.9632
G1 Y76.9561
G3 X10.5252 Y76.726 I0.3937
G2 X11.3197 Y77.742 I13.4037 J-9.6619
X11.7765 Y78.2461 I7.7458 J-6.5594
G1 X11.8086 Y78.2831 Z-1.9922
X11.8346 Y78.3246 Z-1.9845
X11.8523 Y78.3652 Z-1.9619
X11.8642 Y78.4077 Z-1.9394
X11.8708 Y78.4775 Z-1.8691
X11.8668 Y78.5224 Z-1.7806
X11.8639 Y78.5377 Z-1.6825
G0 Z5
X395.7178 Y80.756
Z2.4173
G1 X395.7036 Y80.7601 Z2.3213 F1200
X395.6618 Y80.7712 Z2.2343
X395.596 Y80.786 Z2.1644
X395.5118 Y80.8007 Z2.1182
X395.417 Y80.8113 Z2.1
G3 X395.6762 Y80.7675 Z1.7783 I-0.1207 J-1.5033
X395.9239 Y80.6794 Z1.4566 I-0.3799 J-1.4595
X396.1525 Y80.5495 Z1.1349 I-0.6276 J-1.3714
X396.3551 Y80.382 Z0.8132 I-0.8562 J-1.2415
X396.5255 Y80.1818 Z0.4914 I-1.0588 J-1.074
X396.6585 Y79.9551 Z0.1697 I-1.2292 J-0.8738
X396.7502 Y79.7087 Z-0.152 I-1.3622 J-0.6471
X396.7977 Y79.4502 Z-0.4737 I-1.4539 J-0.4007
X396.7996 Y79.1873 Z-0.7954 I-1.5014 J-0.1422
X396.7558 Y78.9281 Z-1.1171 I-1.5033 J0.1207
X396.6677 Y78.6804 Z-1.4388 I-1.4595 J0.3799
X396.5378 Y78.4518 Z-1.7605 I-1.3714 J0.6276
X394.2473 Y78.2245 Z-2 I-1.2415 J0.8562
G2 X394.6679 Y77.7916 I-6.8705 J-7.0967 F3500
X395.0821 Y77.2784 I-3.966 J-3.6248
G1 X395.474 Y76.7267
G3 X396.1854 Y76.9537 I0.3195 J0.227
G1 X396.1853 Y79.225
G3 X395.222 Y80.1883 I-0.9633
G1 X392.9555 Y80.1882
G3 X392.7249 Y79.475 J-0.3939
G2 X393.7395 Y78.6831 I-10.1335 J-14.0296
X394.2473 Y78.2245 I-6.3627 J-7.5553
G1 X394.2844 Y78.1924 Z-1.9922
X394.3259 Y78.1664 Z-1.9845
X394.3664 Y78.1488 Z-1.9619
X394.409 Y78.1369 Z-1.9394
X394.4789 Y78.1304 Z-1.8691
X394.5237 Y78.1345 Z-1.7806
X394.539 Y78.1373 Z-1.6825
G0 Z5
X396.7544 Y10.2821
Z2.4173
G1 X396.7585 Y10.2964 Z2.3213 F1200
X396.7696 Y10.3382 Z2.2343
X396.7845 Y10.404 Z2.1644
X396.7992 Y10.4881 Z2.1182
X396.8098 Y10.583 Z2.1
G3 X396.7659 Y10.3238 Z1.7783 I-1.5032 J0.1214
X396.6777 Y10.0761 Z1.4566 I-1.4593 J0.3806
X396.5477 Y9.8476 Z1.1349 I-1.371 J0.6282
X396.3801 Y9.6451 Z0.8132 I-1.2411 J0.8568
X396.1798 Y9.4748 Z0.4914 I-1.0735 J1.0593
X395.9531 Y9.3418 Z0.1697 I-0.8732 J1.2296
X395.7066 Y9.2503 Z-0.152 I-0.6465 J1.3625
X395.4481 Y9.2029 Z-0.4737 I-0.4 J1.4541
X395.1852 Y9.2012 Z-0.7954 I-0.1414 J1.5015
X394.926 Y9.2451 Z-1.1171 I0.1214 J1.5032
X394.6784 Y9.3334 Z-1.4388 I0.3806 J1.4593
X394.4498 Y9.4633 Z-1.7605 I0.6282 J1.371
X394.2236 Y11.7539 Z-2 I0.8568 J1.2411
G2 X393.7859 Y11.3286 I-7.2893 J7.0638 F3500
X393.2788 Y10.9186 I-3.6058 J3.9413
G1 X392.7276 Y10.5261
G3 X392.955 Y9.8146 I0.2274 J-0.3194
G1 X395.2247
G3 X396.1879 Y10.7779 J0.9632
G1 X396.1878 Y13.0438
G3 X395.4748 Y13.274 I-0.3937
G2 X394.6803 Y12.2579 I-13.4023 J9.661
X394.2236 Y11.7539 I-7.746 J6.5598
X392.7549 Y11.4845 I-0.9231 J0.8945
G3 X391.2643 Y11.3969 I-0.6645 J-1.4177
G2 X387.9815 Y10.0537 I-5.6173 J9.0452
X386.868 Y9.8738 I-2.0323 J9.0441
X385.7415 Y9.8178 I-1.1265 J11.3076
G1 X20.1301 Y9.8202
G2 X12.8269 Y12.8677 I0.0001 J10.2746
X9.8179 Y20.1869 I7.3958 J7.3186
G1 X9.8207 Y69.8781
G2 X12.1534 Y76.3502 I10.1464 J-0.0006
X18.0183 Y79.9463 I8.1996 J-6.7923
X19.1319 Y80.1262 I2.0326 J-9.0442
X20.2586 Y80.1822 I1.1266 J-11.307
G1 X385.8699 Y80.1798
G2 X392.3127 Y77.8753 I-0.0001 J-10.1584
X395.9277 Y72.0658 I-6.7524 J-8.2314
X396.1821 Y69.8131 I-9.4523 J-2.208
G1 X396.1793 Y20.1219
G2 X393.8466 Y13.6497 I-10.1465 J0.0006
X391.2643 Y11.3969 I-8.1995 J6.7924
X388.5474 Y11.6156 I-1.2104 J1.949
G3 X385.9818 Y12.5358 I-2.4621 J-2.828
G2 X385.7416 Y12.5324 I-0.2403 J8.6953
G1 X20.1301 Y12.5348
G2 X15.3745 Y14.2513 J7.4459
X12.7158 Y18.5517 I5.0677 J6.1052
X12.5772 Y19.364 I6.6337 J1.5496
X12.5326 Y20.1867 I7.5528 J0.8223
G1 X12.5354 Y69.878
G2 X14.2729 Y74.6541 I7.4341 J-0.0004
X18.6136 Y77.2977 I6.0807 J-5.0986
X19.4313 Y77.4281 I1.444 J-6.4253
X20.2584 Y77.4676 I0.8272 J-8.6586
G1 X385.8699 Y77.4652
G2 X390.6255 Y75.7487 J-7.446
X393.2843 Y71.4483 I-5.0676 J-6.1052
X393.4229 Y70.636 I-6.6337 J-1.5496
X393.4675 Y69.8133 I-7.5527 J-0.8223
G1 X393.4647 Y20.122
G2 X391.7271 Y15.3459 I-7.4341 J0.0004
X387.3863 Y12.7022 I-6.0806 J5.0987
X386.5686 Y12.5718 I-1.4438 J6.4251
X385.9818 Y12.5358 I-0.8271 J8.6592
X383.899 Y13.8771 I-0.0606 J2.1936
G3 X381.8349 Y15.2471 I-2.0641 J-0.8699
G1 X20.1301 Y15.2494
G2 X17.0617 Y16.378 J4.7357
X15.3592 Y19.1692 I3.3855 J3.9797
X15.274 Y19.6747 I4.0013 J0.9347
X15.2472 Y20.1866 I4.871 J0.5116
G1 X15.25 Y69.8778
G2 X16.3924 Y72.9579 I4.7241 J-0.0003
X19.2088 Y74.6492 I3.9624 J-3.4078
X19.7308 Y74.7301 I0.8617 J-3.8342
X20.2585 Y74.7529 I0.5277 J-6.0814
G1 X385.8699 Y74.7506
G2 X388.9384 Y73.622 J-4.7357
X390.6408 Y70.8308 I-3.3855 J-3.9798
X390.7261 Y70.3253 I-4.0013 J-0.9347
X390.7529 Y69.8134 I-4.871 J-0.5116
G1 X390.7501 Y20.1222
G2 X389.6076 Y17.042 I-4.7241 J0.0003
X386.7911 Y15.3508 I-3.9623 J3.4079
X386.2692 Y15.2699 I-0.8616 J3.834
X385.7416 Y15.2471 I-0.5277 J6.0821
G1 X381.8349
G2 X379.6859 Y16.6798 J2.3282
G3 X377.5368 Y18.1125 I-2.1491 J-0.8954
G1 X20.1302 Y18.1148
G2 X19.9645 Y18.1281 J1.0437
G1 X19.7744 Y18.1586
G2 X19.5859 Y18.2073 I0.1656 J1.0305
G1 X19.4006 Y18.2742
G2 X19.2466 Y18.3443 I0.3542 J0.9818
G1 X19.123 Y18.4132
G2 X18.9886 Y18.5024 I0.5082 J0.9117
G1 X18.8459 Y18.6139
G2 X18.7181 Y18.7322 I0.6426 J0.8225
G1 X18.6051 Y18.8558
G2 X18.5077 Y18.9801 I0.7705 J0.7041
G1 X18.4252 Y19.1037
G2 X18.3402 Y19.2575 I0.8679 J0.5798
G1 X18.2573 Y19.4429
G2 X18.1939 Y19.6313 I0.9529 J0.4259
G1 X18.1495 Y19.821
G2 X18.1251 Y19.9807 I1.0164 J0.2374
G1 X18.1155 Y20.1086
X18.1126 Y20.1864
X18.1154 Y69.8777
G2 X18.1301 Y70.0519 I1.0438 J-0.0001
G1 X18.1626 Y70.2437
G2 X18.2134 Y70.4332 I1.0291 J-0.1743
G1 X18.2823 Y70.6185
G2 X18.3543 Y70.7725 I0.9783 J-0.3637
G1 X18.4249 Y70.8961
G2 X18.5081 Y71.0202 I0.9063 J-0.5178
G1 X18.6045 Y71.1438
G2 X18.723 Y71.2719 I0.823 J-0.6419
G1 X18.8649 Y71.4018
G2 X18.9992 Y71.506 I0.7045 J-0.7701
G1 X19.1228 Y71.5865
G2 X19.2767 Y71.6694 I0.5702 J-0.8742
G1 X19.462 Y71.75
G2 X19.6494 Y71.8113 I0.4163 J-0.9571
G1 X19.8371 Y71.8535
G2 X20.0192 Y71.8778 I0.2289 J-1.0183
G1 X20.2117 Y71.8865
X20.2585 Y71.8875
X385.8699 Y71.8852
G2 X386.0355 Y71.8719 J-1.0438
G1 X386.2256 Y71.8414
G2 X386.4142 Y71.7927 I-0.1656 J-1.0305
G1 X386.5995 Y71.7258
G2 X386.7535 Y71.6557 I-0.3542 J-0.9818
G1 X386.877 Y71.5868
G2 X387.0114 Y71.4977 I-0.5082 J-0.9117
G1 X387.1541 Y71.3862
G2 X387.282 Y71.2678 I-0.6426 J-0.8225
G1 X387.3949 Y71.1443
G2 X387.4923 Y71.0199 I-0.7704 J-0.7042
G1 X387.5749 Y70.8964
G2 X387.6599 Y70.7425 I-0.8679 J-0.5798
G1 X387.7427 Y70.5571
G2 X387.8062 Y70.3687 I-0.9529 J-0.4259
G1 X387.8505 Y70.179
G2 X387.875 Y70.0193 I-1.0164 J-0.2374
G1 X387.8845 Y69.8914
X387.8874 Y69.8136
X387.8846 Y20.1223
G2 X387.87 Y19.9481 I-1.0438 J0.0001
G1 X387.8375 Y19.7563
G2 X387.7867 Y19.5668 I-1.0291 J0.1743
G1 X387.7178 Y19.3815
G2 X387.6458 Y19.2275 I-0.9783 J0.3638
G1 X387.5752 Y19.1039
G2 X387.4919 Y18.9797 I-0.9063 J0.5178
G1 X387.3955 Y18.8562
G2 X387.2771 Y18.728 I-0.823 J0.6419
G1 X387.1351 Y18.5982
G2 X387.0008 Y18.494 I-0.7045 J0.7701
G1 X386.8773 Y18.4135
G2 X386.7234 Y18.3306 I-0.5703 J0.8742
G1 X386.5381 Y18.2499
G2 X386.3506 Y18.1887 I-0.4163 J0.9571
G1 X386.1629 Y18.1465
G2 X385.9808 Y18.1222 I-0.2289 J1.0184
G1 X385.7883 Y18.1135
X385.7415 Y18.1125
X377.5368
X377.4879 Y18.1088 Z-1.9922
X377.4402 Y18.0975 Z-1.9845
X377.3992 Y18.0812 Z-1.9619
X377.3607 Y18.0593 Z-1.9394
X377.3071 Y18.0142 Z-1.8691
X377.2784 Y17.9795 Z-1.7806
X377.2697 Y17.9666 Z-1.6825
G0 Z5
X376.9522 Y12.2724
Z3
G1 Z-1.6825 F3500
G19 G2 Y11.9549 Z-2 J-0.3175
G1 Y9.0914
G17 G3 X377.2697 Y8.7739 I0.3175
G1 X393.4106 Y8.774
X395.028
X396.2846
G3 X397.2285 Y9.718 J0.9439
G1 X397.2259 Y80.2849
G3 X396.2819 Y81.2289 I-0.944
G1 X9.7154 Y81.226
G3 X8.7715 Y80.282 J-0.9439
G1 X8.7741 Y9.7151
G3 X9.7181 Y8.7711 I0.944
G1 X377.2697 Y8.7739
G2 X378.5701 Y7.9069 J-1.4088
G3 X379.8705 Y7.04 I1.3004 J0.5419
G1 X397.9993 Y7.0401
G3 X398.9625 Y8.0034 J0.9632
G1 X398.9597 Y81.9995
G3 X397.9965 Y82.9628 I-0.9633
G1 X8.0007 Y82.9599
G3 X7.0375 Y81.9966 J-0.9632
G1 X7.0403 Y8.0004
G3 X8.0036 Y7.0372 I0.9633
G1 X379.8705 Y7.04
G2 X381.626 Y5.8697 J-1.9018
G3 X383.3815 Y4.6994 I1.7555 J0.7315
G1 X400.34 Y4.6995
G3 X401.3032 Y5.6628 J0.9632
G1 X401.3003 Y84.3402
G3 X400.337 Y85.3034 I-0.9633
G1 X5.66 Y85.3005
G3 X4.6968 Y84.3372 J-0.9632
G1 X4.6997 Y5.6598
G3 X5.663 Y4.6966 I0.9633
G1 X383.3815 Y4.6994
G2 X385.137 Y3.5291 J-1.9018
G3 X386.8925 Y2.3588 I1.7555 J0.7315
G1 X402.6807 Y2.3589
G3 X403.644 Y3.3221 J0.9632
G1 X403.6408 Y86.6809
G3 X402.6776 Y87.6441 I-0.9633
G1 X3.3193 Y87.6411
G3 X2.3561 Y86.6779 J-0.9632
G1 X2.3592 Y3.3191
G3 X3.3225 Y2.3559 I0.9633
G1 X386.8925 Y2.3588
G2 X388.6593 Y1.1809 J-1.914
G3 X390.4261 Y0.0031 I1.7668 J0.7362
G1 X405.9917 Y0.0032
X405.9995 Y0.0177
X405.9964 Y89.9942
X405.9603 Y89.9998
X0.0083 Y89.9968
X0.0005 Y89.9823
X0.0036 Y0.0058
X0.0397 Y0.0001
X390.4261 Y0.0031
X390.4706 Y0.0095
X390.5115 Y0.028
X390.5456 Y0.0573
X390.5701 Y0.0949
X393.4106 Y6.2084
X393.43 Y6.2399
X393.4561 Y6.266
X393.4813 Y6.2911
X393.5003 Y6.3211
X393.5122 Y6.3546
X394.7858 Y11.8366
X394.7896 Y11.8824
X394.7802 Y11.9274
X394.7582 Y11.9677
X394.7256 Y12.0001
X394.6851 Y12.0218
X394.6401 Y12.031
X394.5944 Y12.027
X394.5517 Y12.01
G3 X394.7899 Y12.1212 Z-2.3217 I0.7549 J-1.3056 F1200
X395.0438 Y12.1894 Z-2.6434 I0.5167 J-1.4168
X395.3056 Y12.2125 Z-2.9651 I0.2629 J-1.485
X395.5675 Y12.1898 Z-3.2868 I0.001 J-1.5081
X395.8215 Y12.1219 Z-3.6086 I-0.2609 J-1.4854
X396.0598 Y12.0109 Z-3.9303 I-0.5149 J-1.4175
X394.2236 Y11.7539 Z-4 I-0.7532 J-1.3066
G2 X393.7859 Y11.3286 I-7.2893 J7.0638 F3500
X393.2788 Y10.9186 I-3.6058 J3.9413
G1 X392.7276 Y10.5261
G3 X392.955 Y9.8146 I0.2274 J-0.3194
G1 X395.2247
G3 X396.1879 Y10.7779 J0.9632
G1 X396.1878 Y13.0438
G3 X395.4748 Y13.274 I-0.3937
G2 X394.6803 Y12.2579 I-13.4023 J9.661
X394.2236 Y11.7539 I-7.746 J6.5598
G1 X394.1915 Y11.7169 Z-3.9922
X394.1655 Y11.6753 Z-3.9845
X394.1477 Y11.6348 Z-3.9619
X394.1358 Y11.5923 Z-3.9394
X394.1293 Y11.5225 Z-3.8691
X394.1333 Y11.4776 Z-3.7806
X394.1361 Y11.4623 Z-3.6825
G0 Z5
X395.7178 Y80.756
Z0.4173
G1 X395.7036 Y80.7601 Z0.3213 F1200
X395.6618 Y80.7712 Z0.2343
X395.596 Y80.786 Z0.1644
X395.5118 Y80.8007 Z0.1182
X395.417 Y80.8113 Z0.1
G3 X395.6762 Y80.7675 Z-0.2217 I-0.1207 J-1.5033
X395.9239 Y80.6794 Z-0.5434 I-0.3799 J-1.4595
X396.1525 Y80.5495 Z-0.8651 I-0.6276 J-1.3714
X396.3551 Y80.382 Z-1.1868 I-0.8562 J-1.2415
X396.5255 Y80.1818 Z-1.5086 I-1.0588 J-1.074
X396.6585 Y79.9551 Z-1.8303 I-1.2292 J-0.8738
X396.7502 Y79.7087 Z-2.152 I-1.3622 J-0.6471
X396.7977 Y79.4502 Z-2.4737 I-1.4539 J-0.4007
X396.7996 Y79.1873 Z-2.7954 I-1.5014 J-0.1422
X396.7558 Y78.9281 Z-3.1171 I-1.5033 J0.1207
X396.6677 Y78.6804 Z-3.4388 I-1.4595 J0.3799
X396.5378 Y78.4518 Z-3.7605 I-1.3714 J0.6276
X394.2473 Y78.2245 Z-4 I-1.2415 J0.8562
G2 X394.6679 Y77.7916 I-6.8705 J-7.0967 F3500
X395.0821 Y77.2784 I-3.966 J-3.6248
G1 X395.474 Y76.7267
G3 X396.1854 Y76.9537 I0.3195 J0.227
G1 X396.1853 Y79.225
G3 X395.222 Y80.1883 I-0.9633
G1 X392.9555 Y80.1882
G3 X392.7249 Y79.475 J-0.3939
G2 X393.7395 Y78.6831 I-10.1335 J-14.0296
X394.2473 Y78.2245 I-6.3627 J-7.5553
G1 X394.2844 Y78.1924 Z-3.9922
X394.3259 Y78.1664 Z-3.9845
X394.3664 Y78.1488 Z-3.9619
X394.409 Y78.1369 Z-3.9394
X394.4789 Y78.1304 Z-3.8691
X394.5237 Y78.1345 Z-3.7806
X394.539 Y78.1373 Z-3.6825
G0 Z5
X9.2456 Y79.7179
Z0.4173
G1 X9.2415 Y79.7036 Z0.3213 F1200
X9.2304 Y79.6618 Z0.2343
X9.2155 Y79.596 Z0.1644
X9.2009 Y79.5118 Z0.1182
X9.1902 Y79.417 Z0.1
G3 X9.2341 Y79.6762 Z-0.2217 I1.5032 J-0.1214
X9.3224 Y79.9238 Z-0.5434 I1.4593 J-0.3806
X9.4523 Y80.1524 Z-0.8651 I1.371 J-0.6282
X9.6199 Y80.3549 Z-1.1868 I1.2411 J-0.8568
X9.8202 Y80.5252 Z-1.5086 I1.0735 J-1.0593
X10.047 Y80.6581 Z-1.8303 I0.8732 J-1.2296
X10.2934 Y80.7497 Z-2.152 I0.6465 J-1.3625
X10.552 Y80.7971 Z-2.4737 I0.4 J-1.4541
X10.8149 Y80.7988 Z-2.7954 I0.1414 J-1.5015
X11.074 Y80.7549 Z-3.1171 I-0.1214 J-1.5032
X11.3217 Y80.6666 Z-3.4388 I-0.3806 J-1.4593
X11.5502 Y80.5367 Z-3.7605 I-0.6282 J-1.371
X11.7765 Y78.2461 Z-4 I-0.8568 J-1.2411
G2 X12.2141 Y78.6713 I7.2891 J-7.0635 F3500
X12.7212 Y79.0814 I3.6064 J-3.9418
G1 X13.2725 Y79.4739
G3 X13.0451 Y80.1854 I-0.2274 J0.3194
G1 X10.7753
G3 X9.8122 Y79.2221 J-0.9632
G1 Y76.9561
G3 X10.5252 Y76.726 I0.3937
G2 X11.3197 Y77.742 I13.4037 J-9.6619
X11.7765 Y78.2461 I7.7458 J-6.5594
G1 X11.8086 Y78.2831 Z-3.9922
X11.8346 Y78.3246 Z-3.9845
X11.8523 Y78.3652 Z-3.9619
X11.8642 Y78.4077 Z-3.9394
X11.8708 Y78.4775 Z-3.8691
X11.8668 Y78.5224 Z-3.7806
X11.8639 Y78.5377 Z-3.6825
G0 Z5
X10.2822 Y9.244
Z0.4173
G1 X10.2965 Y9.2399 Z0.3213 F1200
X10.3382 Y9.2289 Z0.2343
X10.4041 Y9.214 Z0.1644
X10.4882 Y9.1994 Z0.1182
X10.5831 Y9.1887 Z0.1
G3 X10.3239 Y9.2325 Z-0.2217 I0.1207 J1.5033
X10.0762 Y9.3207 Z-0.5434 I0.3799 J1.4595
X9.8476 Y9.4505 Z-0.8651 I0.6276 J1.3713
X9.645 Y9.618 Z-1.1868 I0.8562 J1.2415
X9.4746 Y9.8182 Z-1.5086 I1.0588 J1.074
X9.3415 Y10.0449 Z-1.8303 I1.2292 J0.8738
X9.2499 Y10.2913 Z-2.152 I1.3622 J0.6471
X9.2024 Y10.5498 Z-2.4737 I1.4539 J0.4007
X9.2005 Y10.8127 Z-2.7954 I1.5014 J0.1422
X9.2443 Y11.0719 Z-3.1171 I1.5033 J-0.1207
X9.3324 Y11.3196 Z-3.4388 I1.4595 J-0.3799
X9.4622 Y11.5482 Z-3.7605 I1.3713 J-0.6276
X11.7528 Y11.7756 Z-4 I1.2415 J-0.8562
G2 X11.3319 Y12.2087 I6.8713 J7.0975 F3500
X10.9179 Y12.7216 I3.9651 J3.6237
G1 X10.526 Y13.2733
G3 X9.8146 Y13.0464 I-0.3195 J-0.227
G1 X9.8147 Y10.775
G3 X10.778 Y9.8117 I0.9633
G1 X13.0446 Y9.8118
G3 X13.2752 Y10.525 J0.3939
G2 X12.2604 Y11.3171 I10.1308 J14.026
X11.7528 Y11.7756 I6.3637 J7.556
X11.4824 Y13.247 I0.8957 J0.9252
G3 X11.3945 Y14.7406 I-1.4212 J0.6658
G2 X10.0723 Y17.9342 I9.0453 J5.6154
X9.8179 Y20.1869 I9.4523 J2.208
G1 X9.8207 Y69.8781
G2 X12.1534 Y76.3502 I10.1464 J-0.0006
X18.0183 Y79.9463 I8.1996 J-6.7923
X19.1319 Y80.1262 I2.0326 J-9.0442
X20.2586 Y80.1822 I1.1266 J-11.307
G1 X385.8699 Y80.1798
G2 X392.3127 Y77.8753 I-0.0001 J-10.1584
X395.9277 Y72.0658 I-6.7524 J-8.2314
X396.1821 Y69.8131 I-9.4523 J-2.208
G1 X396.1793 Y20.1219
G2 X393.0944 Y12.8082 I-10.2134 J0.0006
X385.7415 Y9.8178 I-7.3528 J7.5445
G1 X20.1301 Y9.8202
G2 X13.6874 Y12.1247 I0.0001 J10.1584
X11.3945 Y14.7406 I6.7525 J8.2313
X11.6097 Y17.4583 I1.9535 J1.2127
G3 X12.5343 Y20.023 I-2.8681 J2.4831
G2 X12.5326 Y20.1867 I7.5956 J0.1633
G1 X12.5354 Y69.878
G2 X14.2729 Y74.6541 I7.4341 J-0.0004
X18.6136 Y77.2977 I6.0807 J-5.0986
X19.4313 Y77.4281 I1.444 J-6.4253
X20.2584 Y77.4676 I0.8272 J-8.6586
G1 X385.8699 Y77.4652
G2 X390.6255 Y75.7487 J-7.446
X393.2843 Y71.4483 I-5.0676 J-6.1052
X393.4229 Y70.636 I-6.6337 J-1.5496
X393.4675 Y69.8133 I-7.5527 J-0.8223
G1 X393.4647 Y20.122
G2 X391.7271 Y15.3459 I-7.4341 J0.0004
X387.3863 Y12.7022 I-6.0806 J5.0987
X386.5686 Y12.5718 I-1.4438 J6.4251
X385.7416 Y12.5324 I-0.8271 J8.6592
G1 X20.1301 Y12.5348
G2 X15.3745 Y14.2513 J7.4459
X12.7158 Y18.5517 I5.0677 J6.1052
X12.5772 Y19.364 I6.6337 J1.5496
X12.5343 Y20.023 I7.5528 J0.8223
X13.8797 Y22.0954 I2.1961 J0.0472
G3 X15.2474 Y24.1532 I-0.8645 J2.0579
G1 X15.25 Y69.8778
G2 X16.3924 Y72.9579 I4.7241 J-0.0003
X19.2088 Y74.6492 I3.9624 J-3.4078
X19.7308 Y74.7301 I0.8617 J-3.8342
X20.2585 Y74.7529 I0.5277 J-6.0814
G1 X385.8699 Y74.7506
G2 X388.9384 Y73.622 J-4.7357
X390.6408 Y70.8308 I-3.3855 J-3.9798
X390.7261 Y70.3253 I-4.0013 J-0.9347
X390.7529 Y69.8134 I-4.871 J-0.5116
G1 X390.7501 Y20.1222
G2 X389.6076 Y17.042 I-4.7241 J0.0003
X386.7911 Y15.3508 I-3.9623 J3.4079
X386.2692 Y15.2699 I-0.8616 J3.834
X385.7416 Y15.2471 I-0.5277 J6.0821
G1 X20.1301 Y15.2494
G2 X16.6661 Y16.7067 J4.8458
X15.2472 Y20.1866 I3.5571 J3.4796
G1 X15.2474 Y24.1532
G2 X16.6803 Y26.3022 I2.3282 J-0.0001
G3 X18.1131 Y28.4512 I-0.8953 J2.1491
G1 X18.1154 Y69.8777
G2 X18.1301 Y70.0519 I1.0438 J-0.0001
G1 X18.1626 Y70.2437
G2 X18.2134 Y70.4332 I1.0291 J-0.1743
G1 X18.2823 Y70.6185
G2 X18.3543 Y70.7725 I0.9783 J-0.3637
G1 X18.4249 Y70.8961
G2 X18.5081 Y71.0202 I0.9063 J-0.5178
G1 X18.6045 Y71.1438
G2 X18.723 Y71.2719 I0.823 J-0.6419
G1 X18.8649 Y71.4018
G2 X18.9992 Y71.506 I0.7045 J-0.7701
G1 X19.1228 Y71.5865
G2 X19.2767 Y71.6694 I0.5702 J-0.8742
G1 X19.462 Y71.75
G2 X19.6494 Y71.8113 I0.4163 J-0.9571
G1 X19.8371 Y71.8535
G2 X20.0192 Y71.8778 I0.2289 J-1.0183
G1 X20.2117 Y71.8865
X20.2585 Y71.8875
X385.8699 Y71.8852
G2 X386.0355 Y71.8719 J-1.0438
G1 X386.2256 Y71.8414
G2 X386.4142 Y71.7927 I-0.1656 J-1.0305
G1 X386.5995 Y71.7258
G2 X386.7535 Y71.6557 I-0.3542 J-0.9818
G1 X386.877 Y71.5868
G2 X387.0114 Y71.4977 I-0.5082 J-0.9117
G1 X387.1541 Y71.3862
G2 X387.282 Y71.2678 I-0.6426 J-0.8225
G1 X387.3949 Y71.1443
G2 X387.4923 Y71.0199 I-0.7704 J-0.7042
G1 X387.5749 Y70.8964
G2 X387.6599 Y70.7425 I-0.8679 J-0.5798
G1 X387.7427 Y70.5571
G2 X387.8062 Y70.3687 I-0.9529 J-0.4259
G1 X387.8505 Y70.179
G2 X387.875 Y70.0193 I-1.0164 J-0.2374
G1 X387.8845 Y69.8914
X387.8874 Y69.8136
X387.8846 Y20.1223
G2 X387.87 Y19.9481 I-1.0438 J0.0001
G1 X387.8375 Y19.7563
G2 X387.7867 Y19.5668 I-1.0291 J0.1743
G1 X387.7178 Y19.3815
G2 X387.6458 Y19.2275 I-0.9783 J0.3638
G1 X387.5752 Y19.1039
G2 X387.4919 Y18.9797 I-0.9063 J0.5178
G1 X387.3955 Y18.8562
G2 X387.2771 Y18.728 I-0.823 J0.6419
G1 X387.1351 Y18.5982
G2 X387.0008 Y18.494 I-0.7045 J0.7701
G1 X386.8773 Y18.4135
G2 X386.7234 Y18.3306 I-0.5703 J0.8742
G1 X386.5381 Y18.2499
G2 X386.3506 Y18.1887 I-0.4163 J0.9571
G1 X386.1629 Y18.1465
G2 X385.9808 Y18.1222 I-0.2289 J1.0184
G1 X385.7883 Y18.1135
X385.7415 Y18.1125
X20.1302 Y18.1148
G2 X19.9645 Y18.1281 J1.0437
G1 X19.7744 Y18.1586
G2 X19.5859 Y18.2073 I0.1656 J1.0305
G1 X19.4006 Y18.2742
G2 X19.2466 Y18.3443 I0.3542 J0.9818
G1 X19.123 Y18.4132
G2 X18.9886 Y18.5024 I0.5082 J0.9117
G1 X18.8459 Y18.6139
G2 X18.7181 Y18.7322 I0.6426 J0.8225
G1 X18.6051 Y18.8558
G2 X18.5077 Y18.9801 I0.7705 J0.7041
G1 X18.4252 Y19.1037
G2 X18.3402 Y19.2575 I0.8679 J0.5798
G1 X18.2573 Y19.4429
G2 X18.1939 Y19.6313 I0.9529 J0.4259
G1 X18.1495 Y19.821
G2 X18.1251 Y19.9807 I1.0164 J0.2374
G1 X18.1155 Y20.1086
X18.1126 Y20.1864
X18.1131 Y28.4512
X18.1093 Y28.5001 Z-3.9922
X18.0981 Y28.5478 Z-3.9845
X18.0817 Y28.5889 Z-3.9619
X18.0598 Y28.6273 Z-3.9394
X18.0148 Y28.681 Z-3.8691
X17.98 Y28.7097 Z-3.7806
X17.9672 Y28.7184 Z-3.6825
G0 Z5
X12.2719 Y29.0357
Z1
G1 Z-3.6825 F3500
G18 G3 X11.9544 Z-4 I-0.3175
G1 X9.0909 Y29.0356
G17 G3 X8.7734 Y28.7181 J-0.3175
G1 X8.774 Y12.5864
X8.7741 Y9.7151
G3 X9.7181 Y8.7711 I0.944
G1 X396.2846 Y8.774
G3 X397.2285 Y9.718 J0.9439
G1 X397.2259 Y80.2849
G3 X396.2819 Y81.2289 I-0.944
G1 X10.9782 Y81.226
X9.7154
G3 X8.7715 Y80.282 J-0.9439
G1 X8.7734 Y28.7181
G2 X7.9065 Y27.4176 I-1.4088 J-0.0001
G3 X7.0396 Y26.1172 I0.5419 J-1.3004
G1 X7.0403 Y8.0004
G3 X8.0036 Y7.0372 I0.9633
G1 X397.9993 Y7.0401
G3 X398.9625 Y8.0034 J0.9632
G1 X398.9597 Y81.9995
G3 X397.9965 Y82.9628 I-0.9633
G1 X8.0007 Y82.9599
G3 X7.0375 Y81.9966 J-0.9632
G1 X7.0396 Y26.1172
G2 X5.8694 Y24.3616 I-1.9018 J-0.0001
G3 X4.6991 Y22.6061 I0.7315 J-1.7555
G1 X4.6997 Y5.6598
G3 X5.663 Y4.6966 I0.9633
G1 X400.34 Y4.6995
G3 X401.3032 Y5.6628 J0.9632
G1 X401.3003 Y84.3402
G3 X400.337 Y85.3034 I-0.9633
G1 X5.66 Y85.3005
G3 X4.6968 Y84.3372 J-0.9632
G1 X4.6991 Y22.6061
G2 X3.5289 Y20.8506 I-1.9018 J-0.0001
G3 X2.3586 Y19.0951 I0.7315 J-1.7555
G1 X2.3592 Y3.3191
G3 X3.3225 Y2.3559 I0.9633
G1 X402.6807 Y2.3589
G3 X403.644 Y3.3221 J0.9632
G1 X403.6408 Y86.6809
G3 X402.6776 Y87.6441 I-0.9633
G1 X3.3193 Y87.6411
G3 X2.3561 Y86.6779 J-0.9632
G1 X2.3586 Y19.0951
G2 X1.1808 Y17.3283 I-1.914 J-0.0001
G3 X0.0031 Y15.5615 I0.7362 J-1.7667
G1 X0.0036 Y0.0058
X0.0397 Y0.0001
X405.9917 Y0.0032
X405.9995 Y0.0177
X405.9964 Y89.9942
X405.9603 Y89.9998
X0.0083 Y89.9968
X0.0005 Y89.9823
X0.0031 Y15.5615
X0.0094 Y15.517
X0.028 Y15.476
X0.0573 Y15.442
X0.095 Y15.4175
X6.2083 Y12.5826
X6.2397 Y12.5633
X6.2658 Y12.5373
X6.2909 Y12.5121
X6.3209 Y12.4932
X6.3544 Y12.4813
X11.8358 Y11.2134
X11.8816 Y11.2096
X11.9265 Y11.2191
X11.9669 Y11.2411
X11.9992 Y11.2737
X12.0209 Y11.3141
X12.0301 Y11.3592
X12.026 Y11.4049
X12.009 Y11.4476
G3 X12.1204 Y11.2094 Z-4.3217 I-1.3052 J-0.7555 F1200
X12.1887 Y10.9556 Z-4.6434 I-1.4166 J-0.5174
X12.2119 Y10.6937 Z-4.9651 I-1.4849 J-0.2636
X12.1893 Y10.4318 Z-5.2868 I-1.5081 J-0.0017
X12.1215 Y10.1778 Z-5.6086 I-1.4855 J0.2602
X12.0107 Y9.9394 Z-5.9303 I-1.4178 J0.5142
X11.7528 Y11.7756 Z-6 I-1.3069 J0.7526
G2 X11.3319 Y12.2087 I6.8713 J7.0975 F3500
X10.9179 Y12.7216 I3.9651 J3.6237
G1 X10.526 Y13.2733
G3 X9.8146 Y13.0464 I-0.3195 J-0.227
G1 X9.8147 Y10.775
G3 X10.778 Y9.8117 I0.9633
G1 X13.0446 Y9.8118
G3 X13.2752 Y10.525 J0.3939
G2 X12.2604 Y11.3171 I10.1308 J14.026
X11.7528 Y11.7756 I6.3637 J7.556
G1 X11.7157 Y11.8076 Z-5.9922
X11.6741 Y11.8336 Z-5.9845
X11.6336 Y11.8513 Z-5.9619
X11.591 Y11.8632 Z-5.9394
X11.5212 Y11.8696 Z-5.8691
X11.4763 Y11.8655 Z-5.7806
X11.4611 Y11.8627 Z-5.6825
G0 Z5
X9.2456 Y79.7179
Z3
G1 Z-1.5827 F1200
X9.2415 Y79.7036 Z-1.6787
X9.2304 Y79.6618 Z-1.7657
X9.2155 Y79.596 Z-1.8356
X9.2009 Y79.5118 Z-1.8818
X9.1902 Y79.417 Z-1.9
G3 X9.2341 Y79.6762 Z-2.2217 I1.5032 J-0.1214
X9.3224 Y79.9238 Z-2.5434 I1.4593 J-0.3806
X9.4523 Y80.1524 Z-2.8651 I1.371 J-0.6282
X9.6199 Y80.3549 Z-3.1868 I1.2411 J-0.8568
X9.8202 Y80.5252 Z-3.5086 I1.0735 J-1.0593
X10.047 Y80.6581 Z-3.8303 I0.8732 J-1.2296
X10.2934 Y80.7497 Z-4.152 I0.6465 J-1.3625
X10.552 Y80.7971 Z-4.4737 I0.4 J-1.4541
X10.8149 Y80.7988 Z-4.7954 I0.1414 J-1.5015
X11.074 Y80.7549 Z-5.1171 I-0.1214 J-1.5032
X11.3217 Y80.6666 Z-5.4388 I-0.3806 J-1.4593
X11.5502 Y80.5367 Z-5.7605 I-0.6282 J-1.371
X11.7765 Y78.2461 Z-6 I-0.8568 J-1.2411
G2 X12.2141 Y78.6713 I7.2891 J-7.0635 F3500
X12.7212 Y79.0814 I3.6064 J-3.9418
G1 X13.2725 Y79.4739
G3 X13.0451 Y80.1854 I-0.2274 J0.3194
G1 X10.7753
G3 X9.8122 Y79.2221 J-0.9632
G1 Y76.9561
G3 X10.5252 Y76.726 I0.3937
G2 X11.3197 Y77.742 I13.4037 J-9.6619
X11.7765 Y78.2461 I7.7458 J-6.5594
G1 X11.8086 Y78.2831 Z-5.9922
X11.8346 Y78.3246 Z-5.9845
X11.8523 Y78.3652 Z-5.9619
X11.8642 Y78.4077 Z-5.9394
X11.8708 Y78.4775 Z-5.8691
X11.8668 Y78.5224 Z-5.7806
X11.8639 Y78.5377 Z-5.6825
G0 Z5
X395.7178 Y80.756
Z3
G1 Z-1.5827 F1200
X395.7036 Y80.7601 Z-1.6787
X395.6618 Y80.7712 Z-1.7657
X395.596 Y80.786 Z-1.8356
X395.5118 Y80.8007 Z-1.8818
X395.417 Y80.8113 Z-1.9
G3 X395.6762 Y80.7675 Z-2.2217 I-0.1207 J-1.5033
X395.9239 Y80.6794 Z-2.5434 I-0.3799 J-1.4595
X396.1525 Y80.5495 Z-2.8651 I-0.6276 J-1.3714
X396.3551 Y80.382 Z-3.1868 I-0.8562 J-1.2415
X396.5255 Y80.1818 Z-3.5086 I-1.0588 J-1.074
X396.6585 Y79.9551 Z-3.8303 I-1.2292 J-0.8738
X396.7502 Y79.7087 Z-4.152 I-1.3622 J-0.6471
X396.7977 Y79.4502 Z-4.4737 I-1.4539 J-0.4007
X396.7996 Y79.1873 Z-4.7954 I-1.5014 J-0.1422
X396.7558 Y78.9281 Z-5.1171 I-1.5033 J0.1207
X396.6677 Y78.6804 Z-5.4388 I-1.4595 J0.3799
X396.5378 Y78.4518 Z-5.7605 I-1.3714 J0.6276
X394.2473 Y78.2245 Z-6 I-1.2415 J0.8562
G2 X394.6679 Y77.7916 I-6.8705 J-7.0967 F3500
X395.0821 Y77.2784 I-3.966 J-3.6248
G1 X395.474 Y76.7267
G3 X396.1854 Y76.9537 I0.3195 J0.227
G1 X396.1853 Y79.225
G3 X395.222 Y80.1883 I-0.9633
G1 X392.9555 Y80.1882
G3 X392.7249 Y79.475 J-0.3939
G2 X393.7395 Y78.6831 I-10.1335 J-14.0296
X394.2473 Y78.2245 I-6.3627 J-7.5553
G1 X394.2844 Y78.1924 Z-5.9922
X394.3259 Y78.1664 Z-5.9845
X394.3664 Y78.1488 Z-5.9619
X394.409 Y78.1369 Z-5.9394
X394.4789 Y78.1304 Z-5.8691
X394.5237 Y78.1345 Z-5.7806
X394.539 Y78.1373 Z-5.6825
G0 Z5
X396.7544 Y10.2821
Z3
G1 Z-1.5827 F1200
X396.7585 Y10.2964 Z-1.6787
X396.7696 Y10.3382 Z-1.7657
X396.7845 Y10.404 Z-1.8356
X396.7992 Y10.4881 Z-1.8818
X396.8098 Y10.583 Z-1.9
G3 X396.7659 Y10.3238 Z-2.2217 I-1.5032 J0.1214
X396.6777 Y10.0761 Z-2.5434 I-1.4593 J0.3806
X396.5477 Y9.8476 Z-2.8651 I-1.371 J0.6282
X396.3801 Y9.6451 Z-3.1868 I-1.2411 J0.8568
X396.1798 Y9.4748 Z-3.5086 I-1.0735 J1.0593
X395.9531 Y9.3418 Z-3.8303 I-0.8732 J1.2296
X395.7066 Y9.2503 Z-4.152 I-0.6465 J1.3625
X395.4481 Y9.2029 Z-4.4737 I-0.4 J1.4541
X395.1852 Y9.2012 Z-4.7954 I-0.1414 J1.5015
X394.926 Y9.2451 Z-5.1171 I0.1214 J1.5032
X394.6784 Y9.3334 Z-5.4388 I0.3806 J1.4593
X394.4498 Y9.4633 Z-5.7605 I0.6282 J1.371
X394.2236 Y11.7539 Z-6 I0.8568 J1.2411
G2 X393.7859 Y11.3286 I-7.2893 J7.0638 F3500
X393.2788 Y10.9186 I-3.6058 J3.9413
G1 X392.7276 Y10.5261
G3 X392.955 Y9.8146 I0.2274 J-0.3194
G1 X395.2247
G3 X396.1879 Y10.7779 J0.9632
G1 X396.1878 Y13.0438
G3 X395.4748 Y13.274 I-0.3937
G2 X394.6803 Y12.2579 I-13.4023 J9.661
X394.2236 Y11.7539 I-7.746 J6.5598
X392.771 Y11.4877 I-0.9128 J0.8845
G3 X391.2968 Y11.4016 I-0.6577 J-1.4019
G2 X385.7415 Y9.8178 I-5.5553 J8.9511
G1 X20.1301 Y9.8202
G2 X13.6874 Y12.1247 I0.0001 J10.1584
X10.0723 Y17.9342 I6.7525 J8.2313
X9.8179 Y20.1869 I9.4523 J2.208
G1 X9.8207 Y69.8781
G2 X12.1534 Y76.3502 I10.1464 J-0.0006
X18.0183 Y79.9463 I8.1996 J-6.7923
X19.1319 Y80.1262 I2.0326 J-9.0442
X20.2586 Y80.1822 I1.1266 J-11.307
G1 X385.8699 Y80.1798
G2 X392.3127 Y77.8753 I-0.0001 J-10.1584
X395.9277 Y72.0658 I-6.7524 J-8.2314
X396.1821 Y69.8131 I-9.4523 J-2.208
G1 X396.1793 Y20.1219
G2 X393.0944 Y12.8082 I-10.2134 J0.0006
X391.2968 Y11.4016 I-7.3528 J7.5445
X388.5696 Y11.6177 I-1.2168 J1.9606
G3 X385.9927 Y12.5361 I-2.468 J-2.8506
G2 X385.7416 Y12.5324 I-0.2512 J8.695
G1 X20.1301 Y12.5348
G2 X15.3745 Y14.2513 J7.4459
X12.7158 Y18.5517 I5.0677 J6.1052
X12.5772 Y19.364 I6.6337 J1.5496
X12.5326 Y20.1867 I7.5528 J0.8223
G1 X12.5354 Y69.878
G2 X14.2729 Y74.6541 I7.4341 J-0.0004
X18.6136 Y77.2977 I6.0807 J-5.0986
X19.4313 Y77.4281 I1.444 J-6.4253
X20.2584 Y77.4676 I0.8272 J-8.6586
G1 X385.8699 Y77.4652
G2 X390.6255 Y75.7487 J-7.446
X393.2843 Y71.4483 I-5.0676 J-6.1052
X393.4229 Y70.636 I-6.6337 J-1.5496
X393.4675 Y69.8133 I-7.5527 J-0.8223
G1 X393.4647 Y20.122
G2 X391.7271 Y15.3459 I-7.4341 J0.0004
X387.3863 Y12.7022 I-6.0806 J5.0987
X386.5686 Y12.5718 I-1.4438 J6.4251
X385.9927 Y12.5361 I-0.8271 J8.6592
X383.9078 Y13.8766 I-0.0634 J2.193
G3 X381.8425 Y15.2471 I-2.0653 J-0.871
G1 X20.1301 Y15.2494
G2 X16.6661 Y16.7067 J4.8458
X15.2472 Y20.1866 I3.5571 J3.4796
G1 X15.25 Y69.8778
G2 X16.3924 Y72.9579 I4.7241 J-0.0003
X19.2088 Y74.6492 I3.9624 J-3.4078
X19.7308 Y74.7301 I0.8617 J-3.8342
X20.2585 Y74.7529 I0.5277 J-6.0814
G1 X385.8699 Y74.7506
G2 X388.9384 Y73.622 J-4.7357
X390.6408 Y70.8308 I-3.3855 J-3.9798
X390.7261 Y70.3253 I-4.0013 J-0.9347
X390.7529 Y69.8134 I-4.871 J-0.5116
G1 X390.7501 Y20.1222
G2 X389.6076 Y17.042 I-4.7241 J0.0003
X386.7911 Y15.3508 I-3.9623 J3.4079
X386.2692 Y15.2699 I-0.8616 J3.834
X385.7416 Y15.2471 I-0.5277 J6.0821
G1 X381.8425
G2 X379.6934 Y16.6798 J2.3282
G3 X377.5443 Y18.1125 I-2.1491 J-0.8954
G1 X20.1302 Y18.1148
G2 X19.9645 Y18.1281 J1.0437
G1 X19.7744 Y18.1586
G2 X19.5859 Y18.2073 I0.1656 J1.0305
G1 X19.4006 Y18.2742
G2 X19.2466 Y18.3443 I0.3542 J0.9818
G1 X19.123 Y18.4132
G2 X18.9886 Y18.5024 I0.5082 J0.9117
G1 X18.8459 Y18.6139
G2 X18.7181 Y18.7322 I0.6426 J0.8225
G1 X18.6051 Y18.8558
G2 X18.5077 Y18.9801 I0.7705 J0.7041
G1 X18.4252 Y19.1037
G2 X18.3402 Y19.2575 I0.8679 J0.5798
G1 X18.2573 Y19.4429
G2 X18.1939 Y19.6313 I0.9529 J0.4259
G1 X18.1495 Y19.821
G2 X18.1251 Y19.9807 I1.0164 J0.2374
G1 X18.1155 Y20.1086
X18.1126 Y20.1864
X18.1154 Y69.8777
G2 X18.1301 Y70.0519 I1.0438 J-0.0001
G1 X18.1626 Y70.2437
G2 X18.2134 Y70.4332 I1.0291 J-0.1743
G1 X18.2823 Y70.6185
G2 X18.3543 Y70.7725 I0.9783 J-0.3637
G1 X18.4249 Y70.8961
G2 X18.5081 Y71.0202 I0.9063 J-0.5178
G1 X18.6045 Y71.1438
G2 X18.723 Y71.2719 I0.823 J-0.6419
G1 X18.8649 Y71.4018
G2 X18.9992 Y71.506 I0.7045 J-0.7701
G1 X19.1228 Y71.5865
G2 X19.2767 Y71.6694 I0.5702 J-0.8742
G1 X19.462 Y71.75
G2 X19.6494 Y71.8113 I0.4163 J-0.9571
G1 X19.8371 Y71.8535
G2 X20.0192 Y71.8778 I0.2289 J-1.0183
G1 X20.2117 Y71.8865
X20.2585 Y71.8875
X385.8699 Y71.8852
G2 X386.0355 Y71.8719 J-1.0438
G1 X386.2256 Y71.8414
G2 X386.4142 Y71.7927 I-0.1656 J-1.0305
G1 X386.5995 Y71.7258
G2 X386.7535 Y71.6557 I-0.3542 J-0.9818
G1 X386.877 Y71.5868
G2 X387.0114 Y71.4977 I-0.5082 J-0.9117
G1 X387.1541 Y71.3862
G2 X387.282 Y71.2678 I-0.6426 J-0.8225
G1 X387.3949 Y71.1443
G2 X387.4923 Y71.0199 I-0.7704 J-0.7042
G1 X387.5749 Y70.8964
G2 X387.6599 Y70.7425 I-0.8679 J-0.5798
G1 X387.7427 Y70.5571
G2 X387.8062 Y70.3687 I-0.9529 J-0.4259
G1 X387.8505 Y70.179
G2 X387.875 Y70.0193 I-1.0164 J-0.2374
G1 X387.8845 Y69.8914
X387.8874 Y69.8136
X387.8846 Y20.1223
G2 X387.87 Y19.9481 I-1.0438 J0.0001
G1 X387.8375 Y19.7563
G2 X387.7867 Y19.5668 I-1.0291 J0.1743
G1 X387.7178 Y19.3815
G2 X387.6458 Y19.2275 I-0.9783 J0.3638
G1 X387.5752 Y19.1039
G2 X387.4919 Y18.9797 I-0.9063 J0.5178
G1 X387.3955 Y18.8562
G2 X387.2771 Y18.728 I-0.823 J0.6419
G1 X387.1351 Y18.5982
G2 X387.0008 Y18.494 I-0.7045 J0.7701
G1 X386.8773 Y18.4135
G2 X386.7234 Y18.3306 I-0.5703 J0.8742
G1 X386.5381 Y18.2499
G2 X386.3506 Y18.1887 I-0.4163 J0.9571
G1 X386.1629 Y18.1465
G2 X385.9808 Y18.1222 I-0.2289 J1.0184
G1 X385.7883 Y18.1135
X385.7415 Y18.1125
X377.5443
X377.4955 Y18.1088 Z-5.9922
X377.4478 Y18.0975 Z-5.9845
X377.4067 Y18.0812 Z-5.9619
X377.3683 Y18.0593 Z-5.9394
X377.3146 Y18.0142 Z-5.8691
X377.2859 Y17.9795 Z-5.7806
X377.2772 Y17.9666 Z-5.6825
G0 Z5
X376.9597 Y12.2724
Z3
G1 Z-1 F1200
Z-5.6825 F3500
G19 G2 Y11.9549 Z-6 J-0.3175
G1 Y9.0914
G17 G3 X377.2773 Y8.7739 I0.3175
G1 X393.4106 Y8.774
X395.028
X396.2846
G3 X397.2285 Y9.718 J0.9439
G1 X397.2259 Y80.2849
G3 X396.2819 Y81.2289 I-0.944
G1 X9.7154 Y81.226
G3 X8.7715 Y80.282 J-0.9439
G1 X8.7741 Y9.7151
G3 X9.7181 Y8.7711 I0.944
G1 X377.2773 Y8.7739
G2 X378.5777 Y7.9069 J-1.4088
G3 X379.8781 Y7.04 I1.3004 J0.5419
G1 X397.9993 Y7.0401
G3 X398.9625 Y8.0034 J0.9632
G1 X398.9597 Y81.9995
G3 X397.9965 Y82.9628 I-0.9633
G1 X8.0007 Y82.9599
G3 X7.0375 Y81.9966 J-0.9632
G1 X7.0403 Y8.0004
G3 X8.0036 Y7.0372 I0.9633
G1 X379.8781 Y7.04
G2 X381.6336 Y5.8697 J-1.9018
G3 X383.3891 Y4.6994 I1.7555 J0.7315
G1 X400.34 Y4.6995
G3 X401.3032 Y5.6628 J0.9632
G1 X401.3003 Y84.3402
G3 X400.337 Y85.3034 I-0.9633
G1 X5.66 Y85.3005
G3 X4.6968 Y84.3372 J-0.9632
G1 X4.6997 Y5.6598
G3 X5.663 Y4.6966 I0.9633
G1 X383.3891 Y4.6994
G2 X385.1446 Y3.5291 J-1.9018
G3 X386.9001 Y2.3588 I1.7555 J0.7315
G1 X402.6807 Y2.3589
G3 X403.644 Y3.3221 J0.9632
G1 X403.6408 Y86.6809
G3 X402.6776 Y87.6441 I-0.9633
G1 X3.3193 Y87.6411
G3 X2.3561 Y86.6779 J-0.9632
G1 X2.3592 Y3.3191
G3 X3.3225 Y2.3559 I0.9633
G1 X386.9001 Y2.3588
G2 X388.6668 Y1.1809 J-1.914
G3 X390.4337 Y0.0031 I1.7668 J0.7362
G1 X405.9917 Y0.0032
X405.9995 Y0.0177
X405.9964 Y89.9942
X405.9603 Y89.9998
X0.0083 Y89.9968
X0.0005 Y89.9823
X0.0036 Y0.0058
X0.0397 Y0.0001
X390.4337 Y0.0031
X390.4825 Y0.0069 Z-5.9922
X390.5302 Y0.0181 Z-5.9845
X390.5713 Y0.0345 Z-5.9619
X390.6097 Y0.0564 Z-5.9394
X390.6634 Y0.1014 Z-5.8691
X390.6921 Y0.1362 Z-5.7806
X390.7008 Y0.149 Z-5.6825
G0 Z5
X395.8658 Y9.3932
Z-3
G1 Z-7.6825 F1200
X395.8772 Y9.3826 Z-7.7806
X395.913 Y9.3552 Z-7.8691
X395.9754 Y9.3233 Z-7.9394
X396.0178 Y9.3106 Z-7.9619
X396.0615 Y9.3039 Z-7.9845
X396.1105 Y9.3036 Z-7.9922
X396.1589 Y9.3109 Z-8
X396.2291 Y9.3271 F3500
X396.2477 Y9.3337
X396.3554 Y9.3856
X396.4293 Y9.4343
X396.4932 Y9.4891
X396.5544 Y9.5564
X396.606 Y9.6304
X396.6565 Y9.7294
X396.6823 Y9.8013
X396.6979 Y9.8686
X396.7091 Y9.9813
X396.7043 Y10.0839
X396.6801 Y10.2067
X396.6695 Y10.2405
X396.6516 Y10.2847
X396.6121 Y10.3608
X396.5625 Y10.4336
X396.5007 Y10.5045
X396.465 Y10.5375
X396.384 Y10.5976
X396.3069 Y10.6414
X396.263 Y10.6609
X396.2291 Y10.6729
X396.1066 Y10.7011
X395.9973 Y10.7095
X395.9018 Y10.7027
X395.7778 Y10.6753
X395.7443 Y10.6638
X395.7006 Y10.6448
X395.62 Y10.5999
X395.541 Y10.5419
X395.4795 Y10.484
X395.4402 Y10.4384
X395.4107 Y10.3974
X395.3637 Y10.3157
X395.3352 Y10.2488
X395.3039 Y10.1352
X395.2915 Y10.0325
X395.2941 Y9.93
X395.3155 Y9.8076
X395.3251 Y9.7748
X395.3387 Y9.7391
X395.3948 Y9.6297
X395.4591 Y9.5386
X395.4795 Y9.5153
X395.5257 Y9.4709
X395.6152 Y9.4035
X395.7027 Y9.3543
X395.7443 Y9.3362
X395.7778 Y9.3247
X395.9004 Y9.2976
X396.0028 Y9.2906
X396.1057 Y9.2987
X396.1589 Y9.3109
X396.2057 Y9.3256 Z-7.9922
X396.2497 Y9.3473 Z-7.9845
X396.286 Y9.3724 Z-7.9619
X396.3185 Y9.4024 Z-7.9394
X396.3607 Y9.4584 Z-7.8691
X396.3809 Y9.4987 Z-7.7806
X396.3865 Y9.5132 Z-7.6825
G0 Z5
X395.8658 Y9.3932
Z-5
G1 Z-9.6825 F1200
X395.8772 Y9.3826 Z-9.7806
X395.913 Y9.3552 Z-9.8691
X395.9754 Y9.3233 Z-9.9394
X396.0178 Y9.3106 Z-9.9619
X396.0615 Y9.3039 Z-9.9845
X396.1105 Y9.3036 Z-9.9922
X396.1589 Y9.3109 Z-10
X396.2291 Y9.3271 F3500
X396.2477 Y9.3337
X396.3554 Y9.3856
X396.4293 Y9.4343
X396.4932 Y9.4891
X396.5544 Y9.5564
X396.606 Y9.6304
X396.6565 Y9.7294
X396.6823 Y9.8013
X396.6979 Y9.8686
X396.7091 Y9.9813
X396.7043 Y10.0839
X396.6801 Y10.2067
X396.6695 Y10.2405
X396.6516 Y10.2847
X396.6121 Y10.3608
X396.5625 Y10.4336
X396.5007 Y10.5045
X396.465 Y10.5375
X396.384 Y10.5976
X396.3069 Y10.6414
X396.263 Y10.6609
X396.2291 Y10.6729
X396.1066 Y10.7011
X395.9973 Y10.7095
X395.9018 Y10.7027
X395.7778 Y10.6753
X395.7443 Y10.6638
X395.7006 Y10.6448
X395.62 Y10.5999
X395.541 Y10.5419
X395.4795 Y10.484
X395.4402 Y10.4384
X395.4107 Y10.3974
X395.3637 Y10.3157
X395.3352 Y10.2488
X395.3039 Y10.1352
X395.2915 Y10.0325
X395.2941 Y9.93
X395.3155 Y9.8076
X395.3251 Y9.7748
X395.3387 Y9.7391
X395.3948 Y9.6297
X395.4591 Y9.5386
X395.4795 Y9.5153
X395.5257 Y9.4709
X395.6152 Y9.4035
X395.7027 Y9.3543
X395.7443 Y9.3362
X395.7778 Y9.3247
X395.9004 Y9.2976
X396.0028 Y9.2906
X396.1057 Y9.2987
X396.1589 Y9.3109
X396.2057 Y9.3256 Z-9.9922
X396.2497 Y9.3473 Z-9.9845
X396.286 Y9.3724 Z-9.9619
X396.3185 Y9.4024 Z-9.9394
X396.3607 Y9.4584 Z-9.8691
X396.3809 Y9.4987 Z-9.7806
X396.3865 Y9.5132 Z-9.6825
G0 Z5
X395.8658 Y9.3932
Z-7
G1 Z-11.6825 F1200
X395.8772 Y9.3826 Z-11.7806
X395.913 Y9.3552 Z-11.8691
X395.9754 Y9.3233 Z-11.9394
X396.0178 Y9.3106 Z-11.9619
X396.0615 Y9.3039 Z-11.9845
X396.1105 Y9.3036 Z-11.9922
X396.1589 Y9.3109 Z-12
X396.2291 Y9.3271 F3500
X396.2477 Y9.3337
X396.3554 Y9.3856
X396.4293 Y9.4343
X396.4932 Y9.4891
X396.5544 Y9.5564
X396.606 Y9.6304
X396.6565 Y9.7294
X396.6823 Y9.8013
X396.6979 Y9.8686
X396.7091 Y9.9813
X396.7043 Y10.0839
X396.6801 Y10.2067
X396.6695 Y10.2405
X396.6516 Y10.2847
X396.6121 Y10.3608
X396.5625 Y10.4336
X396.5007 Y10.5045
X396.465 Y10.5375
X396.384 Y10.5976
X396.3069 Y10.6414
X396.263 Y10.6609
X396.2291 Y10.6729
X396.1066 Y10.7011
X395.9973 Y10.7095
X395.9018 Y10.7027
X395.7778 Y10.6753
X395.7443 Y10.6638
X395.7006 Y10.6448
X395.62 Y10.5999
X395.541 Y10.5419
X395.4795 Y10.484
X395.4402 Y10.4384
X395.4107 Y10.3974
X395.3637 Y10.3157
X395.3352 Y10.2488
X395.3039 Y10.1352
X395.2915 Y10.0325
X395.2941 Y9.93
X395.3155 Y9.8076
X395.3251 Y9.7748
X395.3387 Y9.7391
X395.3948 Y9.6297
X395.4591 Y9.5386
X395.4795 Y9.5153
X395.5257 Y9.4709
X395.6152 Y9.4035
X395.7027 Y9.3543
X395.7443 Y9.3362
X395.7778 Y9.3247
X395.9004 Y9.2976
X396.0028 Y9.2906
X396.1057 Y9.2987
X396.1589 Y9.3109
X396.2057 Y9.3256 Z-11.9922
X396.2497 Y9.3473 Z-11.9845
X396.286 Y9.3724 Z-11.9619
X396.3185 Y9.4024 Z-11.9394
X396.3607 Y9.4584 Z-11.8691
X396.3809 Y9.4987 Z-11.7806
X396.3865 Y9.5132 Z-11.6825
G0 Z5
X395.8658 Y9.3932
Z-3
G1 Z-9 F1200
Z-13.0825
X395.8772 Y9.3826 Z-13.1806
X395.913 Y9.3552 Z-13.2691
X395.9754 Y9.3233 Z-13.3394
X396.0178 Y9.3106 Z-13.3619
X396.0615 Y9.3039 Z-13.3845
X396.1105 Y9.3036 Z-13.3922
X396.1589 Y9.3109 Z-13.4
X396.2291 Y9.3271 F3500
X396.2477 Y9.3337
X396.3554 Y9.3856
X396.4293 Y9.4343
X396.4932 Y9.4891
X396.5544 Y9.5564
X396.606 Y9.6304
X396.6565 Y9.7294
X396.6823 Y9.8013
X396.6979 Y9.8686
X396.7091 Y9.9813
X396.7043 Y10.0839
X396.6801 Y10.2067
X396.6695 Y10.2405
X396.6516 Y10.2847
X396.6121 Y10.3608
X396.5625 Y10.4336
X396.5007 Y10.5045
X396.465 Y10.5375
X396.384 Y10.5976
X396.3069 Y10.6414
X396.263 Y10.6609
X396.2291 Y10.6729
X396.1066 Y10.7011
X395.9973 Y10.7095
X395.9018 Y10.7027
X395.7778 Y10.6753
X395.7443 Y10.6638
X395.7006 Y10.6448
X395.62 Y10.5999
X395.541 Y10.5419
X395.4795 Y10.484
X395.4402 Y10.4384
X395.4107 Y10.3974
X395.3637 Y10.3157
X395.3352 Y10.2488
X395.3039 Y10.1352
X395.2915 Y10.0325
X395.2941 Y9.93
X395.3155 Y9.8076
X395.3251 Y9.7748
X395.3387 Y9.7391
X395.3948 Y9.6297
X395.4591 Y9.5386
X395.4795 Y9.5153
X395.5257 Y9.4709
X395.6152 Y9.4035
X395.7027 Y9.3543
X395.7443 Y9.3362
X395.7778 Y9.3247
X395.9004 Y9.2976
X396.0028 Y9.2906
X396.1057 Y9.2987
X396.1589 Y9.3109
X396.2057 Y9.3256 Z-13.3922
X396.2497 Y9.3473 Z-13.3845
X396.286 Y9.3724 Z-13.3619
X396.3185 Y9.4024 Z-13.3394
X396.3607 Y9.4584 Z-13.2691
X396.3809 Y9.4987 Z-13.1806
X396.3865 Y9.5132 Z-13.0825
G0 Z5
X395.3976 Y80.1544
Z-3
G1 Z-7.6825 F1200
X395.3867 Y80.1434 Z-7.7806
X395.3581 Y80.1085 Z-7.8691
X395.3242 Y80.0472 Z-7.9394
X395.3102 Y80.0052 Z-7.9619
X395.3021 Y79.9618 Z-7.9845
X395.3002 Y79.9128 Z-7.9922
X395.306 Y79.8641 Z-8
X395.3199 Y79.7934 F3500
X395.3275 Y79.7692
X395.3637 Y79.6843
X395.4051 Y79.6123
X395.4731 Y79.5221
X395.541 Y79.4581
X395.62 Y79.4001
X395.7006 Y79.3552
X395.7443 Y79.3362
X395.7778 Y79.3247
X395.9018 Y79.2973
X395.9973 Y79.2905
X396.1066 Y79.2989
X396.2291 Y79.3271
X396.263 Y79.3391
X396.3069 Y79.3586
X396.3741 Y79.3968
X396.4991 Y79.4939
X396.5215 Y79.5163
X396.5573 Y79.5588
X396.6121 Y79.6392
X396.6516 Y79.7153
X396.6695 Y79.7596
X396.6802 Y79.7934
X396.7043 Y79.9161
X396.7091 Y80.0187
X396.6989 Y80.1213
X396.668 Y80.2433
X396.6611 Y80.2616
X396.6059 Y80.3696
X396.5544 Y80.4437
X396.4932 Y80.5109
X396.4292 Y80.5657
X396.3555 Y80.6143
X396.2477 Y80.6663
X396.229 Y80.6729
X396.1057 Y80.7013
X396.0028 Y80.7094
X395.9004 Y80.7024
X395.7779 Y80.6753
X395.7597 Y80.669
X395.65 Y80.6173
X395.5599 Y80.5587
X395.5388 Y80.5416
X395.4929 Y80.4975
X395.4176 Y80.4055
X395.364 Y80.3174
X395.3488 Y80.2853
X395.3178 Y80.1988
X395.3022 Y80.1314
X395.291 Y80.0186
X395.2957 Y79.916
X395.306 Y79.8641
X395.3191 Y79.8169 Z-7.9922
X395.3394 Y79.7723 Z-7.9845
X395.3633 Y79.7351 Z-7.9619
X395.3922 Y79.7017 Z-7.9394
X395.4468 Y79.6577 Z-7.8691
X395.4864 Y79.6362 Z-7.7806
X395.5007 Y79.6301 Z-7.6825
G0 Z5
X395.3976 Y80.1544
Z-5
G1 Z-9.6825 F1200
X395.3867 Y80.1434 Z-9.7806
X395.3581 Y80.1085 Z-9.8691
X395.3242 Y80.0472 Z-9.9394
X395.3102 Y80.0052 Z-9.9619
X395.3021 Y79.9618 Z-9.9845
X395.3002 Y79.9128 Z-9.9922
X395.306 Y79.8641 Z-10
X395.3199 Y79.7934 F3500
X395.3275 Y79.7692
X395.3637 Y79.6843
X395.4051 Y79.6123
X395.4731 Y79.5221
X395.541 Y79.4581
X395.62 Y79.4001
X395.7006 Y79.3552
X395.7443 Y79.3362
X395.7778 Y79.3247
X395.9018 Y79.2973
X395.9973 Y79.2905
X396.1066 Y79.2989
X396.2291 Y79.3271
X396.263 Y79.3391
X396.3069 Y79.3586
X396.3741 Y79.3968
X396.4991 Y79.4939
X396.5215 Y79.5163
X396.5573 Y79.5588
X396.6121 Y79.6392
X396.6516 Y79.7153
X396.6695 Y79.7596
X396.6802 Y79.7934
X396.7043 Y79.9161
X396.7091 Y80.0187
X396.6989 Y80.1213
X396.668 Y80.2433
X396.6611 Y80.2616
X396.6059 Y80.3696
X396.5544 Y80.4437
X396.4932 Y80.5109
X396.4292 Y80.5657
X396.3555 Y80.6143
X396.2477 Y80.6663
X396.229 Y80.6729
X396.1057 Y80.7013
X396.0028 Y80.7094
X395.9004 Y80.7024
X395.7779 Y80.6753
X395.7597 Y80.669
X395.65 Y80.6173
X395.5599 Y80.5587
X395.5388 Y80.5416
X395.4929 Y80.4975
X395.4176 Y80.4055
X395.364 Y80.3174
X395.3488 Y80.2853
X395.3178 Y80.1988
X395.3022 Y80.1314
X395.291 Y80.0186
X395.2957 Y79.916
X395.306 Y79.8641
X395.3191 Y79.8169 Z-9.9922
X395.3394 Y79.7723 Z-9.9845
X395.3633 Y79.7351 Z-9.9619
X395.3922 Y79.7017 Z-9.9394
X395.4468 Y79.6577 Z-9.8691
X395.4864 Y79.6362 Z-9.7806
X395.5007 Y79.6301 Z-9.6825
G0 Z5
X395.3976 Y80.1544
Z-7
G1 Z-11.6825 F1200
X395.3867 Y80.1434 Z-11.7806
X395.3581 Y80.1085 Z-11.8691
X395.3242 Y80.0472 Z-11.9394
X395.3102 Y80.0052 Z-11.9619
X395.3021 Y79.9618 Z-11.9845
X395.3002 Y79.9128 Z-11.9922
X395.306 Y79.8641 Z-12
X395.3199 Y79.7934 F3500
X395.3275 Y79.7692
X395.3637 Y79.6843
X395.4051 Y79.6123
X395.4731 Y79.5221
X395.541 Y79.4581
X395.62 Y79.4001
X395.7006 Y79.3552
X395.7443 Y79.3362
X395.7778 Y79.3247
X395.9018 Y79.2973
X395.9973 Y79.2905
X396.1066 Y79.2989
X396.2291 Y79.3271
X396.263 Y79.3391
X396.3069 Y79.3586
X396.3741 Y79.3968
X396.4991 Y79.4939
X396.5215 Y79.5163
X396.5573 Y79.5588
X396.6121 Y79.6392
X396.6516 Y79.7153
X396.6695 Y79.7596
X396.6802 Y79.7934
X396.7043 Y79.9161
X396.7091 Y80.0187
X396.6989 Y80.1213
X396.668 Y80.2433
X396.6611 Y80.2616
X396.6059 Y80.3696
X396.5544 Y80.4437
X396.4932 Y80.5109
X396.4292 Y80.5657
X396.3555 Y80.6143
X396.2477 Y80.6663
X396.229 Y80.6729
X396.1057 Y80.7013
X396.0028 Y80.7094
X395.9004 Y80.7024
X395.7779 Y80.6753
X395.7597 Y80.669
X395.65 Y80.6173
X395.5599 Y80.5587
X395.5388 Y80.5416
X395.4929 Y80.4975
X395.4176 Y80.4055
X395.364 Y80.3174
X395.3488 Y80.2853
X395.3178 Y80.1988
X395.3022 Y80.1314
X395.291 Y80.0186
X395.2957 Y79.916
X395.306 Y79.8641
X395.3191 Y79.8169 Z-11.9922
X395.3394 Y79.7723 Z-11.9845
X395.3633 Y79.7351 Z-11.9619
X395.3922 Y79.7017 Z-11.9394
X395.4468 Y79.6577 Z-11.8691
X395.4864 Y79.6362 Z-11.7806
X395.5007 Y79.6301 Z-11.6825
G0 Z5
X395.3976 Y80.1544
Z-3
G1 Z-9 F1200
Z-13.0825
X395.3867 Y80.1434 Z-13.1806
X395.3581 Y80.1085 Z-13.2691
X395.3242 Y80.0472 Z-13.3394
X395.3102 Y80.0052 Z-13.3619
X395.3021 Y79.9618 Z-13.3845
X395.3002 Y79.9128 Z-13.3922
X395.306 Y79.8641 Z-13.4
X395.3199 Y79.7934 F3500
X395.3275 Y79.7692
X395.3637 Y79.6843
X395.4051 Y79.6123
X395.4731 Y79.5221
X395.541 Y79.4581
X395.62 Y79.4001
X395.7006 Y79.3552
X395.7443 Y79.3362
X395.7778 Y79.3247
X395.9018 Y79.2973
X395.9973 Y79.2905
X396.1066 Y79.2989
X396.2291 Y79.3271
X396.263 Y79.3391
X396.3069 Y79.3586
X396.3741 Y79.3968
X396.4991 Y79.4939
X396.5215 Y79.5163
X396.5573 Y79.5588
X396.6121 Y79.6392
X396.6516 Y79.7153
X396.6695 Y79.7596
X396.6802 Y79.7934
X396.7043 Y79.9161
X396.7091 Y80.0187
X396.6989 Y80.1213
X396.668 Y80.2433
X396.6611 Y80.2616
X396.6059 Y80.3696
X396.5544 Y80.4437
X396.4932 Y80.5109
X396.4292 Y80.5657
X396.3555 Y80.6143
X396.2477 Y80.6663
X396.229 Y80.6729
X396.1057 Y80.7013
X396.0028 Y80.7094
X395.9004 Y80.7024
X395.7779 Y80.6753
X395.7597 Y80.669
X395.65 Y80.6173
X395.5599 Y80.5587
X395.5388 Y80.5416
X395.4929 Y80.4975
X395.4176 Y80.4055
X395.364 Y80.3174
X395.3488 Y80.2853
X395.3178 Y80.1988
X395.3022 Y80.1314
X395.291 Y80.0186
X395.2957 Y79.916
X395.306 Y79.8641
X395.3191 Y79.8169 Z-13.3922
X395.3394 Y79.7723 Z-13.3845
X395.3633 Y79.7351 Z-13.3619
X395.3922 Y79.7017 Z-13.3394
X395.4468 Y79.6577 Z-13.2691
X395.4864 Y79.6362 Z-13.1806
X395.5007 Y79.6301 Z-13.0825
G0 Z5
X203.3845 Y80.4886
Z-3
G1 Z-7.6825 F1200
X203.3789 Y80.5031 Z-7.7806
X203.3585 Y80.5433 Z-7.8691
X203.3161 Y80.599 Z-7.9394
X203.2834 Y80.6288 Z-7.9619
X203.2469 Y80.6538 Z-7.9845
X203.2029 Y80.6753 Z-7.9922
X203.1561 Y80.6898 Z-8
X203.1024 Y80.7019 F3500
X203 Y80.7095
X202.8977 Y80.7019
X202.7737 Y80.6739
X202.7556 Y80.6676
X202.6475 Y80.6161
X202.5584 Y80.5577
X202.5399 Y80.5427
X202.488 Y80.4924
X202.4159 Y80.4035
X202.3644 Y80.3187
X202.3488 Y80.2856
X202.3175 Y80.1986
X202.3022 Y80.1324
X202.2911 Y80.0194
X202.2969 Y79.8949
X202.302 Y79.862
X202.3091 Y79.8319
X202.3571 Y79.6986
X202.3834 Y79.6482
X202.4748 Y79.521
X202.542 Y79.4572
X202.6174 Y79.4015
X202.6971 Y79.3568
X202.7411 Y79.3374
X202.7736 Y79.3261
X202.8976 Y79.2981
X203 Y79.2905
X203.1024 Y79.2981
X203.2264 Y79.3261
X203.259 Y79.3374
X203.303 Y79.3568
X203.3827 Y79.4015
X203.458 Y79.4572
X203.5249 Y79.5207
X203.5554 Y79.5565
X203.6113 Y79.638
X203.6429 Y79.6986
X203.6909 Y79.8319
X203.6939 Y79.8445
X203.7085 Y79.967
X203.7059 Y80.0702
X203.6844 Y80.1928
X203.6749 Y80.2254
X203.6613 Y80.2613
X203.6058 Y80.3697
X203.5436 Y80.4584
X203.5248 Y80.48
X203.4724 Y80.5308
X203.3872 Y80.5952
X203.3008 Y80.6441
X203.259 Y80.6626
X203.2263 Y80.6739
X203.1561 Y80.6898
X203.1076 Y80.6968 Z-7.9922
X203.0585 Y80.6964 Z-7.9845
X203.0149 Y80.6894 Z-7.9619
X202.9726 Y80.6765 Z-7.9394
X202.9103 Y80.6444 Z-7.8691
X202.8746 Y80.6168 Z-7.7806
X202.8633 Y80.6062 Z-7.6825
G0 Z5
X203.4375 Y79.559
Z-5
G1 Z-9.6825 F1200
X203.4525 Y79.5629 Z-9.7806
X203.4949 Y79.5781 Z-9.8691
X203.5555 Y79.6133 Z-9.9394
X203.5892 Y79.642 Z-9.9619
X203.6185 Y79.6752 Z-9.9845
X203.6452 Y79.7162 Z-9.9922
X203.6653 Y79.7609 Z-10
X203.6909 Y79.8319 F3500
X203.6939 Y79.8445
X203.7085 Y79.967
X203.7059 Y80.0702
X203.6844 Y80.1928
X203.6749 Y80.2254
X203.6613 Y80.2613
X203.6058 Y80.3697
X203.5436 Y80.4584
X203.5248 Y80.48
X203.4724 Y80.5308
X203.3872 Y80.5952
X203.3008 Y80.6441
X203.259 Y80.6626
X203.2263 Y80.6739
X203.1024 Y80.7019
X203 Y80.7095
X202.8977 Y80.7019
X202.7737 Y80.6739
X202.7556 Y80.6676
X202.6475 Y80.6161
X202.5584 Y80.5577
X202.5399 Y80.5427
X202.488 Y80.4924
X202.4159 Y80.4035
X202.3644 Y80.3187
X202.3488 Y80.2856
X202.3175 Y80.1986
X202.3022 Y80.1324
X202.2911 Y80.0194
X202.2969 Y79.8949
X202.302 Y79.862
X202.3091 Y79.8319
X202.3571 Y79.6986
X202.3834 Y79.6482
X202.4748 Y79.521
X202.542 Y79.4572
X202.6174 Y79.4015
X202.6971 Y79.3568
X202.7411 Y79.3374
X202.7736 Y79.3261
X202.8976 Y79.2981
X203 Y79.2905
X203.1024 Y79.2981
X203.2264 Y79.3261
X203.259 Y79.3374
X203.303 Y79.3568
X203.3827 Y79.4015
X203.458 Y79.4572
X203.5249 Y79.5207
X203.5554 Y79.5565
X203.6113 Y79.638
X203.6429 Y79.6986
X203.6653 Y79.7609
X203.6784 Y79.8082 Z-9.9922
X203.6839 Y79.8568 Z-9.9845
X203.6825 Y79.901 Z-9.9619
X203.6749 Y79.9446 Z-9.9394
X203.6507 Y80.0104 Z-9.8691
X203.6277 Y80.0492 Z-9.7806
X203.6186 Y80.0617 Z-9.6825
G0 Z5
X203.4375 Y79.559
Z-7
G1 Z-11.6825 F1200
X203.4525 Y79.5629 Z-11.7806
X203.4949 Y79.5781 Z-11.8691
X203.5555 Y79.6133 Z-11.9394
X203.5892 Y79.642 Z-11.9619
X203.6185 Y79.6752 Z-11.9845
X203.6452 Y79.7162 Z-11.9922
X203.6653 Y79.7609 Z-12
X203.6909 Y79.8319 F3500
X203.6939 Y79.8445
X203.7085 Y79.967
X203.7059 Y80.0702
X203.6844 Y80.1928
X203.6749 Y80.2254
X203.6613 Y80.2613
X203.6058 Y80.3697
X203.5436 Y80.4584
X203.5248 Y80.48
X203.4724 Y80.5308
X203.3872 Y80.5952
X203.3008 Y80.6441
X203.259 Y80.6626
X203.2263 Y80.6739
X203.1024 Y80.7019
X203 Y80.7095
X202.8977 Y80.7019
X202.7737 Y80.6739
X202.7556 Y80.6676
X202.6475 Y80.6161
X202.5584 Y80.5577
X202.5399 Y80.5427
X202.488 Y80.4924
X202.4159 Y80.4035
X202.3644 Y80.3187
X202.3488 Y80.2856
X202.3175 Y80.1986
X202.3022 Y80.1324
X202.2911 Y80.0194
X202.2969 Y79.8949
X202.302 Y79.862
X202.3091 Y79.8319
X202.3571 Y79.6986
X202.3834 Y79.6482
X202.4748 Y79.521
X202.542 Y79.4572
X202.6174 Y79.4015
X202.6971 Y79.3568
X202.7411 Y79.3374
X202.7736 Y79.3261
X202.8976 Y79.2981
X203 Y79.2905
X203.1024 Y79.2981
X203.2264 Y79.3261
X203.259 Y79.3374
X203.303 Y79.3568
X203.3827 Y79.4015
X203.458 Y79.4572
X203.5249 Y79.5207
X203.5554 Y79.5565
X203.6113 Y79.638
X203.6429 Y79.6986
X203.6653 Y79.7609
X203.6784 Y79.8082 Z-11.9922
X203.6839 Y79.8568 Z-11.9845
X203.6825 Y79.901 Z-11.9619
X203.6749 Y79.9446 Z-11.9394
X203.6507 Y80.0104 Z-11.8691
X203.6277 Y80.0492 Z-11.7806
X203.6186 Y80.0617 Z-11.6825
G0 Z5
X203.3845 Y80.4886
Z-3
G1 Z-9 F1200
Z-13.0825
X203.3789 Y80.5031 Z-13.1806
X203.3585 Y80.5433 Z-13.2691
X203.3161 Y80.599 Z-13.3394
X203.2834 Y80.6288 Z-13.3619
X203.2469 Y80.6538 Z-13.3845
X203.2029 Y80.6753 Z-13.3922
X203.1561 Y80.6898 Z-13.4
X203.1024 Y80.7019 F3500
X203 Y80.7095
X202.8977 Y80.7019
X202.7737 Y80.6739
X202.7556 Y80.6676
X202.6475 Y80.6161
X202.5584 Y80.5577
X202.5399 Y80.5427
X202.488 Y80.4924
X202.4159 Y80.4035
X202.3644 Y80.3187
X202.3488 Y80.2856
X202.3175 Y80.1986
X202.3022 Y80.1324
X202.2911 Y80.0194
X202.2969 Y79.8949
X202.302 Y79.862
X202.3091 Y79.8319
X202.3571 Y79.6986
X202.3834 Y79.6482
X202.4748 Y79.521
X202.542 Y79.4572
X202.6174 Y79.4015
X202.6971 Y79.3568
X202.7411 Y79.3374
X202.7736 Y79.3261
X202.8976 Y79.2981
X203 Y79.2905
X203.1024 Y79.2981
X203.2264 Y79.3261
X203.259 Y79.3374
X203.303 Y79.3568
X203.3827 Y79.4015
X203.458 Y79.4572
X203.5249 Y79.5207
X203.5554 Y79.5565
X203.6113 Y79.638
X203.6429 Y79.6986
X203.6909 Y79.8319
X203.6939 Y79.8445
X203.7085 Y79.967
X203.7059 Y80.0702
X203.6844 Y80.1928
X203.6749 Y80.2254
X203.6613 Y80.2613
X203.6058 Y80.3697
X203.5436 Y80.4584
X203.5248 Y80.48
X203.4724 Y80.5308
X203.3872 Y80.5952
X203.3008 Y80.6441
X203.259 Y80.6626
X203.2263 Y80.6739
X203.1561 Y80.6898
X203.1076 Y80.6968 Z-13.3922
X203.0585 Y80.6964 Z-13.3845
X203.0149 Y80.6894 Z-13.3619
X202.9726 Y80.6765 Z-13.3394
X202.9103 Y80.6444 Z-13.2691
X202.8746 Y80.6168 Z-13.1806
X202.8633 Y80.6062 Z-13.0825
G0 Z5
X202.5625 Y10.441
Z-3
G1 Z-7.6825 F1200
X202.5475 Y10.4371 Z-7.7806
X202.5051 Y10.4219 Z-7.8691
X202.4445 Y10.3866 Z-7.9394
X202.4109 Y10.3579 Z-7.9619
X202.3815 Y10.3248 Z-7.9845
X202.3548 Y10.2837 Z-7.9922
X202.3347 Y10.2391 Z-8
X202.3091 Y10.1681 F3500
X202.3062 Y10.1555
X202.2915 Y10.033
X202.2941 Y9.9298
X202.3156 Y9.8072
X202.3251 Y9.7746
X202.3388 Y9.7387
X202.3942 Y9.6303
X202.4565 Y9.5415
X202.4753 Y9.5199
X202.5276 Y9.4692
X202.6129 Y9.4048
X202.6994 Y9.3558
X202.7411 Y9.3374
X202.7736 Y9.3261
X202.8977 Y9.2981
X203 Y9.2905
X203.1024 Y9.2981
X203.2264 Y9.3261
X203.2445 Y9.3324
X203.3524 Y9.3839
X203.4416 Y9.4424
X203.4603 Y9.4574
X203.5121 Y9.5076
X203.5841 Y9.5964
X203.6357 Y9.6813
X203.6512 Y9.7143
X203.6825 Y9.8014
X203.6978 Y9.8676
X203.709 Y9.9806
X203.7031 Y10.1051
X203.698 Y10.1379
X203.6909 Y10.168
X203.6429 Y10.3014
X203.6166 Y10.3518
X203.532 Y10.4696
X203.4832 Y10.5205
X203.398 Y10.5891
X203.3605 Y10.6133
X203.3126 Y10.6389
X203.2589 Y10.6626
X203.2264 Y10.6739
X203.1024 Y10.7019
X203 Y10.7095
X202.8977 Y10.7019
X202.7736 Y10.6739
X202.7411 Y10.6626
X202.6971 Y10.6432
X202.6174 Y10.5985
X202.542 Y10.5428
X202.4752 Y10.4793
X202.4446 Y10.4435
X202.3887 Y10.362
X202.3571 Y10.3014
X202.3347 Y10.2391
X202.3217 Y10.1918 Z-7.9922
X202.3161 Y10.1431 Z-7.9845
X202.3176 Y10.0989 Z-7.9619
X202.3251 Y10.0554 Z-7.9394
X202.3494 Y9.9896 Z-7.8691
X202.3723 Y9.9508 Z-7.7806
X202.3815 Y9.9382 Z-7.6825
G0 Z5
X203.6108 Y10.1098
Z-5
G1 Z-9.6825 F1200
X203.6161 Y10.1244 Z-9.7806
X203.6276 Y10.168 Z-9.8691
X203.6329 Y10.2379 Z-9.9394
X203.6282 Y10.2818 Z-9.9619
X203.6176 Y10.3247 Z-9.9845
X203.5989 Y10.37 Z-9.9922
X203.5734 Y10.4119 Z-10
X203.532 Y10.4696 F3500
X203.4832 Y10.5205
X203.398 Y10.5891
X203.3605 Y10.6133
X203.3126 Y10.6389
X203.2589 Y10.6626
X203.2264 Y10.6739
X203.1024 Y10.7019
X203 Y10.7095
X202.8977 Y10.7019
X202.7736 Y10.6739
X202.7411 Y10.6626
X202.6971 Y10.6432
X202.6174 Y10.5985
X202.542 Y10.5428
X202.4752 Y10.4793
X202.4446 Y10.4435
X202.3887 Y10.362
X202.3571 Y10.3014
X202.3091 Y10.1681
X202.3062 Y10.1555
X202.2915 Y10.033
X202.2941 Y9.9298
X202.3156 Y9.8072
X202.3251 Y9.7746
X202.3388 Y9.7387
X202.3942 Y9.6303
X202.4565 Y9.5415
X202.4753 Y9.5199
X202.5276 Y9.4692
X202.6129 Y9.4048
X202.6994 Y9.3558
X202.7411 Y9.3374
X202.7736 Y9.3261
X202.8977 Y9.2981
X203 Y9.2905
X203.1024 Y9.2981
X203.2264 Y9.3261
X203.2445 Y9.3324
X203.3524 Y9.3839
X203.4416 Y9.4424
X203.4603 Y9.4574
X203.5121 Y9.5076
X203.5841 Y9.5964
X203.6357 Y9.6813
X203.6512 Y9.7143
X203.6825 Y9.8014
X203.6978 Y9.8676
X203.709 Y9.9806
X203.7031 Y10.1051
X203.698 Y10.1379
X203.6909 Y10.168
X203.6429 Y10.3014
X203.6166 Y10.3518
X203.5734 Y10.4119
X203.5418 Y10.4494 Z-9.9922
X203.5049 Y10.4816 Z-9.9845
X203.4676 Y10.5054 Z-9.9619
X203.4274 Y10.5238 Z-9.9394
X203.3595 Y10.5411 Z-9.8691
X203.3145 Y10.5442 Z-9.7806
X203.299 Y10.5437 Z-9.6825
G0 Z5
X203.6108 Y10.1098
Z-7
G1 Z-11.6825 F1200
X203.6161 Y10.1244 Z-11.7806
X203.6276 Y10.168 Z-11.8691
X203.6329 Y10.2379 Z-11.9394
X203.6282 Y10.2818 Z-11.9619
X203.6176 Y10.3247 Z-11.9845
X203.5989 Y10.37 Z-11.9922
X203.5734 Y10.4119 Z-12
X203.532 Y10.4696 F3500
X203.4832 Y10.5205
X203.398 Y10.5891
X203.3605 Y10.6133
X203.3126 Y10.6389
X203.2589 Y10.6626
X203.2264 Y10.6739
X203.1024 Y10.7019
X203 Y10.7095
X202.8977 Y10.7019
X202.7736 Y10.6739
X202.7411 Y10.6626
X202.6971 Y10.6432
X202.6174 Y10.5985
X202.542 Y10.5428
X202.4752 Y10.4793
X202.4446 Y10.4435
X202.3887 Y10.362
X202.3571 Y10.3014
X202.3091 Y10.1681
X202.3062 Y10.1555
X202.2915 Y10.033
X202.2941 Y9.9298
X202.3156 Y9.8072
X202.3251 Y9.7746
X202.3388 Y9.7387
X202.3942 Y9.6303
X202.4565 Y9.5415
X202.4753 Y9.5199
X202.5276 Y9.4692
X202.6129 Y9.4048
X202.6994 Y9.3558
X202.7411 Y9.3374
X202.7736 Y9.3261
X202.8977 Y9.2981
X203 Y9.2905
X203.1024 Y9.2981
X203.2264 Y9.3261
X203.2445 Y9.3324
X203.3524 Y9.3839
X203.4416 Y9.4424
X203.4603 Y9.4574
X203.5121 Y9.5076
X203.5841 Y9.5964
X203.6357 Y9.6813
X203.6512 Y9.7143
X203.6825 Y9.8014
X203.6978 Y9.8676
X203.709 Y9.9806
X203.7031 Y10.1051
X203.698 Y10.1379
X203.6909 Y10.168
X203.6429 Y10.3014
X203.6166 Y10.3518
X203.5734 Y10.4119
X203.5418 Y10.4494 Z-11.9922
X203.5049 Y10.4816 Z-11.9845
X203.4676 Y10.5054 Z-11.9619
X203.4274 Y10.5238 Z-11.9394
X203.3595 Y10.5411 Z-11.8691
X203.3145 Y10.5442 Z-11.7806
X203.299 Y10.5437 Z-11.6825
G0 Z5
X202.5625 Y10.441
Z-3
G1 Z-9 F1200
Z-13.0825
X202.5475 Y10.4371 Z-13.1806
X202.5051 Y10.4219 Z-13.2691
X202.4445 Y10.3866 Z-13.3394
X202.4109 Y10.3579 Z-13.3619
X202.3815 Y10.3248 Z-13.3845
X202.3548 Y10.2837 Z-13.3922
X202.3347 Y10.2391 Z-13.4
X202.3091 Y10.1681 F3500
X202.3062 Y10.1555
X202.2915 Y10.033
X202.2941 Y9.9298
X202.3156 Y9.8072
X202.3251 Y9.7746
X202.3388 Y9.7387
X202.3942 Y9.6303
X202.4565 Y9.5415
X202.4753 Y9.5199
X202.5276 Y9.4692
X202.6129 Y9.4048
X202.6994 Y9.3558
X202.7411 Y9.3374
X202.7736 Y9.3261
X202.8977 Y9.2981
X203 Y9.2905
X203.1024 Y9.2981
X203.2264 Y9.3261
X203.2445 Y9.3324
X203.3524 Y9.3839
X203.4416 Y9.4424
X203.4603 Y9.4574
X203.5121 Y9.5076
X203.5841 Y9.5964
X203.6357 Y9.6813
X203.6512 Y9.7143
X203.6825 Y9.8014
X203.6978 Y9.8676
X203.709 Y9.9806
X203.7031 Y10.1051
X203.698 Y10.1379
X203.6909 Y10.168
X203.6429 Y10.3014
X203.6166 Y10.3518
X203.532 Y10.4696
X203.4832 Y10.5205
X203.398 Y10.5891
X203.3605 Y10.6133
X203.3126 Y10.6389
X203.2589 Y10.6626
X203.2264 Y10.6739
X203.1024 Y10.7019
X203 Y10.7095
X202.8977 Y10.7019
X202.7736 Y10.6739
X202.7411 Y10.6626
X202.6971 Y10.6432
X202.6174 Y10.5985
X202.542 Y10.5428
X202.4752 Y10.4793
X202.4446 Y10.4435
X202.3887 Y10.362
X202.3571 Y10.3014
X202.3347 Y10.2391
X202.3217 Y10.1918 Z-13.3922
X202.3161 Y10.1431 Z-13.3845
X202.3176 Y10.0989 Z-13.3619
X202.3251 Y10.0554 Z-13.3394
X202.3494 Y9.9896 Z-13.2691
X202.3723 Y9.9508 Z-13.1806
X202.3815 Y9.9382 Z-13.0825
G0 Z5
X76.8642 Y9.2103
Z-3.5827
G1 X76.8572 Y9.2234 Z-3.6787 F1200
X76.8361 Y9.2611 Z-3.7657
X76.801 Y9.3187 Z-3.8356
X76.753 Y9.3894 Z-3.8818
X76.6947 Y9.4649 Z-3.9
G3 X76.8435 Y9.2482 Z-4.2217 I-1.1642 J-0.9587
X76.9524 Y9.0089 Z-4.5434 I-1.313 J-0.742
X77.0181 Y8.7544 Z-4.8651 I-1.4219 J-0.5027
X77.0385 Y8.4923 Z-5.1868 I-1.4876 J-0.2481
X77.0132 Y8.2306 Z-5.5086 I-1.5081 J0.0139
X76.9428 Y7.9773 Z-5.8303 I-1.4827 J0.2756
X76.8295 Y7.7401 Z-6.152 I-1.4123 J0.5289
X76.6768 Y7.5262 Z-6.4737 I-1.299 J0.7661
X76.4892 Y7.342 Z-6.7954 I-1.1463 J0.98
X76.2724 Y7.1932 Z-7.1171 I-0.9587 J1.1642
X76.0332 Y7.0844 Z-7.4388 I-0.742 J1.313
X75.7786 Y7.0187 Z-7.7605 I-0.5027 J1.4219
X74.0224 Y8.5065 Z-8 I-0.2481 J1.4876
G1 X74.0223 Y7.9999 F3500
G3 X74.9853 Y7.0367 I0.963 J-0.0002
G1 X135.0148
G3 X135.9778 Y7.9999 J0.963
G1 X135.9776 Y9.0125
G3 X135.0141 Y9.9758 I-0.9635 J-0.0002
G1 X74.9859
G3 X74.0225 Y9.0125 J-0.9635
G1 X74.0224 Y8.5065
G2 X72.9969 Y6.6992 I-2.1061 J0.0004
G3 X73.55 Y4.6962 I0.5531 J-0.9252
G1 X137.3558
G3 X138.3188 Y5.6594 J0.963
G1 X138.3177 Y11.353
G3 X137.3542 Y12.3163 I-0.9635 J-0.0002
G1 X72.6459
G3 X71.6824 Y11.353 J-0.9635
G1 X71.6812 Y5.6594
G3 X72.6442 Y4.6962 I0.963 J-0.0002
G1 X73.55
G2 X75.3054 Y3.5259 J-1.9017
G3 X77.0608 Y2.3556 I1.7554 J0.7314
G1 X139.6968
G3 X140.6598 Y3.3188 J0.963
G1 X140.6577 Y13.6936
G3 X139.6943 Y14.6569 I-0.9635 J-0.0002
G1 X70.3058
G3 X69.3423 Y13.6936 J-0.9635
G1 X69.3402 Y3.3188
G3 X70.3032 Y2.3556 I0.963 J-0.0002
G1 X77.0608
G2 X78.8275 Y1.1778 J-1.9139
G3 X80.5942 Y0 I1.7667 J0.7361
G1 X143.0161
X143.0127 Y17.0125
X66.9873
X66.9839 Y0
X80.5942
X80.6371 Y0.0059
X80.6768 Y0.0232
X80.7104 Y0.0505
X80.7353 Y0.0859
X80.7497 Y0.1268
X80.7526 Y0.17
X80.7437 Y0.2123
X78.8344 Y5.5367
X78.813 Y5.5769
X78.7812 Y5.6094
X74.3288 Y9.0016
X74.2905 Y9.0232
X74.2477 Y9.0334
X74.2038 Y9.0314
X74.1621 Y9.0176
X74.1257 Y8.9928
X74.0976 Y8.959
X74.0799 Y8.9188
G3 X74.1735 Y9.1644 Z-8.3217 I1.4506 J-0.4125 F1200
X74.3084 Y9.39 Z-8.6434 I1.3569 J-0.6581
X74.4805 Y9.5888 Z-8.9651 I1.222 J-0.8838
X74.6844 Y9.7547 Z-9.2868 I1.05 J-1.0826
X74.914 Y9.8826 Z-9.6086 I0.8461 J-1.2484
X75.1624 Y9.9688 Z-9.9303 I0.6164 J-1.3764
X74.0224 Y8.5065 Z-10 I0.3681 J-1.4625
G1 X74.0223 Y7.9999 F3500
G3 X74.9853 Y7.0367 I0.963 J-0.0002
G1 X135.0148
G3 X135.9778 Y7.9999 J0.963
G1 X135.9776 Y9.0125
G3 X135.0141 Y9.9758 I-0.9635 J-0.0002
G1 X74.9859
G3 X74.0225 Y9.0125 J-0.9635
G1 X74.0224 Y8.5065
G2 X72.9969 Y6.6992 I-2.1061 J0.0004
G3 X73.55 Y4.6962 I0.5531 J-0.9252
G1 X137.3558
G3 X138.3188 Y5.6594 J0.963
G1 X138.3177 Y11.353
G3 X137.3542 Y12.3163 I-0.9635 J-0.0002
G1 X72.6459
G3 X71.6824 Y11.353 J-0.9635
G1 X71.6812 Y5.6594
G3 X72.6442 Y4.6962 I0.963 J-0.0002
G1 X73.55
G2 X75.3054 Y3.5259 J-1.9017
G3 X77.0608 Y2.3556 I1.7554 J0.7314
G1 X139.6968
G3 X140.6598 Y3.3188 J0.963
G1 X140.6577 Y13.6936
G3 X139.6943 Y14.6569 I-0.9635 J-0.0002
G1 X70.3058
G3 X69.3423 Y13.6936 J-0.9635
G1 X69.3402 Y3.3188
G3 X70.3032 Y2.3556 I0.963 J-0.0002
G1 X77.0608
G2 X78.8275 Y1.1778 J-1.9139
G3 X80.5942 Y0 I1.7667 J0.7361
G1 X143.0161
X143.0127 Y17.0125
X66.9873
X66.9839 Y0
X80.5942
X80.6371 Y0.0059
X80.6768 Y0.0232
X80.7104 Y0.0505
X80.7353 Y0.0859
X80.7497 Y0.1268
X80.7526 Y0.17
X80.7437 Y0.2123
X78.8344 Y5.5367
X78.813 Y5.5769
X78.7812 Y5.6094
X74.3288 Y9.0016
X74.2905 Y9.0232
X74.2477 Y9.0334
X74.2038 Y9.0314
X74.1621 Y9.0176
X74.1257 Y8.9928
X74.0976 Y8.959
X74.0799 Y8.9188
G3 X74.1735 Y9.1644 Z-10.3217 I1.4506 J-0.4125 F1200
X74.3084 Y9.39 Z-10.6434 I1.3569 J-0.6581
X74.4805 Y9.5888 Z-10.9651 I1.222 J-0.8838
X74.6844 Y9.7547 Z-11.2868 I1.05 J-1.0826
X74.914 Y9.8826 Z-11.6086 I0.8461 J-1.2484
X75.1624 Y9.9688 Z-11.9303 I0.6164 J-1.3764
X74.0224 Y8.5065 Z-12 I0.3681 J-1.4625
G1 X74.0223 Y7.9999 F3500
G3 X74.9853 Y7.0367 I0.963 J-0.0002
G1 X135.0148
G3 X135.9778 Y7.9999 J0.963
G1 X135.9776 Y9.0125
G3 X135.0141 Y9.9758 I-0.9635 J-0.0002
G1 X74.9859
G3 X74.0225 Y9.0125 J-0.9635
G1 X74.0224 Y8.5065
G2 X72.9969 Y6.6992 I-2.1061 J0.0004
G3 X73.55 Y4.6962 I0.5531 J-0.9252
G1 X137.3558
G3 X138.3188 Y5.6594 J0.963
G1 X138.3177 Y11.353
G3 X137.3542 Y12.3163 I-0.9635 J-0.0002
G1 X72.6459
G3 X71.6824 Y11.353 J-0.9635
G1 X71.6812 Y5.6594
G3 X72.6442 Y4.6962 I0.963 J-0.0002
G1 X73.55
G2 X75.3054 Y3.5259 J-1.9017
G3 X77.0608 Y2.3556 I1.7554 J0.7314
G1 X139.6968
G3 X140.6598 Y3.3188 J0.963
G1 X140.6577 Y13.6936
G3 X139.6943 Y14.6569 I-0.9635 J-0.0002
G1 X70.3058
G3 X69.3423 Y13.6936 J-0.9635
G1 X69.3402 Y3.3188
G3 X70.3032 Y2.3556 I0.963 J-0.0002
G1 X77.0608
G2 X78.8275 Y1.1778 J-1.9139
G3 X80.5942 Y0 I1.7667 J0.7361
G1 X143.0161
X143.0127 Y17.0125
X66.9873
X66.9839 Y0
X80.5942
X80.6403 Y0.0068
X80.6825 Y0.0268
X80.717 Y0.0581
X80.7409 Y0.0981
X80.7522 Y0.1433
X80.7499 Y0.1899
X80.7342 Y0.2337
X78.1995 Y4.9631
X78.1812 Y4.9902
X78.1577 Y5.0129
X78.1342 Y5.0356
X78.1159 Y5.0627
X75.5086 Y9.921
X75.4802 Y9.9589
X75.4419 Y9.9868
X75.3971 Y10.0021
X75.3497 Y10.0035
G3 X75.6124 Y10.0121 Z-12.3217 I0.1808 J-1.4973 F1200
X75.8727 Y9.975 Z-12.6434 I-0.082 J-1.5059
X76.1225 Y9.8933 Z-12.9651 I-0.3422 J-1.4688
X76.3544 Y9.7694 Z-13.2868 I-0.5921 J-1.387
X74.0224 Y8.5065 Z-13.4 I-0.8239 J-1.2632
G1 X74.0223 Y7.9999 F3500
G3 X74.9853 Y7.0367 I0.963 J-0.0002
G1 X135.0148
G3 X135.9778 Y7.9999 J0.963
G1 X135.9776 Y9.0125
G3 X135.0141 Y9.9758 I-0.9635 J-0.0002
G1 X74.9859
G3 X74.0225 Y9.0125 J-0.9635
G1 X74.0224 Y8.5065
G2 X72.9969 Y6.6992 I-2.1061 J0.0004
G3 X73.55 Y4.6962 I0.5531 J-0.9252
G1 X137.3558
G3 X138.3188 Y5.6594 J0.963
G1 X138.3177 Y11.353
G3 X137.3542 Y12.3163 I-0.9635 J-0.0002
G1 X72.6459
G3 X71.6824 Y11.353 J-0.9635
G1 X71.6812 Y5.6594
G3 X72.6442 Y4.6962 I0.963 J-0.0002
G1 X73.55
G2 X75.3054 Y3.5259 J-1.9017
G3 X77.0608 Y2.3556 I1.7554 J0.7314
G1 X139.6968
G3 X140.6598 Y3.3188 J0.963
G1 X140.6577 Y13.6936
G3 X139.6943 Y14.6569 I-0.9635 J-0.0002
G1 X70.3058
G3 X69.3423 Y13.6936 J-0.9635
G1 X69.3402 Y3.3188
G3 X70.3032 Y2.3556 I0.963 J-0.0002
G1 X77.0608
G2 X78.8275 Y1.1778 J-1.9139
G3 X80.5942 Y0 I1.7667 J0.7361
G1 X143.0161
X143.0127 Y17.0125
X66.9873
X66.9839 Y0
X80.5942
X80.6431 Y0.0038 Z-13.3922
X80.6908 Y0.015 Z-13.3845
X80.7319 Y0.0314 Z-13.3619
X80.7703 Y0.0533 Z-13.3394
X80.824 Y0.0984 Z-13.2691
X80.8527 Y0.1331 Z-13.1806
X80.8614 Y0.146 Z-13.0825
G0 Z5
X10.6186 Y9.9382
Z-3
G1 Z-7.6825 F1200
X10.6278 Y9.9507 Z-7.7806
X10.6507 Y9.9895 Z-7.8691
X10.6749 Y10.0553 Z-7.9394
X10.6825 Y10.0989 Z-7.9619
X10.684 Y10.1431 Z-7.9845
X10.6784 Y10.1918 Z-7.9922
X10.6654 Y10.239 Z-8
X10.64 Y10.3094 F3500
X10.6251 Y10.3392
X10.6007 Y10.3797
X10.535 Y10.467
X10.4842 Y10.5196
X10.3965 Y10.5901
X10.3584 Y10.6145
X10.3087 Y10.6407
X10.2553 Y10.664
X10.223 Y10.6751
X10.0982 Y10.7027
X10.0028 Y10.7095
X9.8934 Y10.7011
X9.7708 Y10.6728
X9.7375 Y10.6611
X9.6931 Y10.6413
X9.6255 Y10.603
X9.5017 Y10.5068
X9.4785 Y10.4834
X9.4422 Y10.4406
X9.3881 Y10.3609
X9.3572 Y10.3016
X9.3091 Y10.1681
X9.3061 Y10.1555
X9.2915 Y10.033
X9.2941 Y9.9298
X9.3156 Y9.8072
X9.3251 Y9.7747
X9.3387 Y9.7389
X9.3941 Y9.6307
X9.4541 Y9.5444
X9.4705 Y9.5254
X9.5296 Y9.4676
X9.6113 Y9.4058
X9.6951 Y9.3578
X9.7375 Y9.3389
X9.7708 Y9.3272
X9.8944 Y9.2987
X9.9973 Y9.2906
X10.0996 Y9.2977
X10.223 Y9.3249
X10.2407 Y9.331
X10.3497 Y9.3824
X10.4409 Y9.4419
X10.4614 Y9.4584
X10.5068 Y9.5021
X10.5824 Y9.5944
X10.636 Y9.6827
X10.6518 Y9.716
X10.6829 Y9.8023
X10.6981 Y9.8677
X10.7091 Y9.9807
X10.7044 Y10.0846
X10.6844 Y10.1863
X10.6654 Y10.239
X10.6453 Y10.2837 Z-7.9922
X10.6185 Y10.3247 Z-7.9845
X10.5892 Y10.3579 Z-7.9619
X10.5556 Y10.3866 Z-7.9394
X10.495 Y10.4218 Z-7.8691
X10.4526 Y10.437 Z-7.7806
X10.4375 Y10.4409 Z-7.6825
G0 Z5
X10.6186 Y9.9382
Z-5
G1 Z-9.6825 F1200
X10.6278 Y9.9507 Z-9.7806
X10.6507 Y9.9895 Z-9.8691
X10.6749 Y10.0553 Z-9.9394
X10.6825 Y10.0989 Z-9.9619
X10.684 Y10.1431 Z-9.9845
X10.6784 Y10.1918 Z-9.9922
X10.6654 Y10.239 Z-10
X10.64 Y10.3094 F3500
X10.6251 Y10.3392
X10.6007 Y10.3797
X10.535 Y10.467
X10.4842 Y10.5196
X10.3965 Y10.5901
X10.3584 Y10.6145
X10.3087 Y10.6407
X10.2553 Y10.664
X10.223 Y10.6751
X10.0982 Y10.7027
X10.0028 Y10.7095
X9.8934 Y10.7011
X9.7708 Y10.6728
X9.7375 Y10.6611
X9.6931 Y10.6413
X9.6255 Y10.603
X9.5017 Y10.5068
X9.4785 Y10.4834
X9.4422 Y10.4406
X9.3881 Y10.3609
X9.3572 Y10.3016
X9.3091 Y10.1681
X9.3061 Y10.1555
X9.2915 Y10.033
X9.2941 Y9.9298
X9.3156 Y9.8072
X9.3251 Y9.7747
X9.3387 Y9.7389
X9.3941 Y9.6307
X9.4541 Y9.5444
X9.4705 Y9.5254
X9.5296 Y9.4676
X9.6113 Y9.4058
X9.6951 Y9.3578
X9.7375 Y9.3389
X9.7708 Y9.3272
X9.8944 Y9.2987
X9.9973 Y9.2906
X10.0996 Y9.2977
X10.223 Y9.3249
X10.2407 Y9.331
X10.3497 Y9.3824
X10.4409 Y9.4419
X10.4614 Y9.4584
X10.5068 Y9.5021
X10.5824 Y9.5944
X10.636 Y9.6827
X10.6518 Y9.716
X10.6829 Y9.8023
X10.6981 Y9.8677
X10.7091 Y9.9807
X10.7044 Y10.0846
X10.6844 Y10.1863
X10.6654 Y10.239
X10.6453 Y10.2837 Z-9.9922
X10.6185 Y10.3247 Z-9.9845
X10.5892 Y10.3579 Z-9.9619
X10.5556 Y10.3866 Z-9.9394
X10.495 Y10.4218 Z-9.8691
X10.4526 Y10.437 Z-9.7806
X10.4375 Y10.4409 Z-9.6825
G0 Z5
X10.6186 Y9.9382
Z-7
G1 Z-11.6825 F1200
X10.6278 Y9.9507 Z-11.7806
X10.6507 Y9.9895 Z-11.8691
X10.6749 Y10.0553 Z-11.9394
X10.6825 Y10.0989 Z-11.9619
X10.684 Y10.1431 Z-11.9845
X10.6784 Y10.1918 Z-11.9922
X10.6654 Y10.239 Z-12
X10.64 Y10.3094 F3500
X10.6251 Y10.3392
X10.6007 Y10.3797
X10.535 Y10.467
X10.4842 Y10.5196
X10.3965 Y10.5901
X10.3584 Y10.6145
X10.3087 Y10.6407
X10.2553 Y10.664
X10.223 Y10.6751
X10.0982 Y10.7027
X10.0028 Y10.7095
X9.8934 Y10.7011
X9.7708 Y10.6728
X9.7375 Y10.6611
X9.6931 Y10.6413
X9.6255 Y10.603
X9.5017 Y10.5068
X9.4785 Y10.4834
X9.4422 Y10.4406
X9.3881 Y10.3609
X9.3572 Y10.3016
X9.3091 Y10.1681
X9.3061 Y10.1555
X9.2915 Y10.033
X9.2941 Y9.9298
X9.3156 Y9.8072
X9.3251 Y9.7747
X9.3387 Y9.7389
X9.3941 Y9.6307
X9.4541 Y9.5444
X9.4705 Y9.5254
X9.5296 Y9.4676
X9.6113 Y9.4058
X9.6951 Y9.3578
X9.7375 Y9.3389
X9.7708 Y9.3272
X9.8944 Y9.2987
X9.9973 Y9.2906
X10.0996 Y9.2977
X10.223 Y9.3249
X10.2407 Y9.331
X10.3497 Y9.3824
X10.4409 Y9.4419
X10.4614 Y9.4584
X10.5068 Y9.5021
X10.5824 Y9.5944
X10.636 Y9.6827
X10.6518 Y9.716
X10.6829 Y9.8023
X10.6981 Y9.8677
X10.7091 Y9.9807
X10.7044 Y10.0846
X10.6844 Y10.1863
X10.6654 Y10.239
X10.6453 Y10.2837 Z-11.9922
X10.6185 Y10.3247 Z-11.9845
X10.5892 Y10.3579 Z-11.9619
X10.5556 Y10.3866 Z-11.9394
X10.495 Y10.4218 Z-11.8691
X10.4526 Y10.437 Z-11.7806
X10.4375 Y10.4409 Z-11.6825
G0 Z5
X9.8676 Y10.6062
Z-3
G1 Z-9 F1200
Z-13.0825
X9.8528 Y10.611 Z-13.1806
X9.8088 Y10.6208 Z-13.2691
X9.7388 Y10.6235 Z-13.3394
X9.695 Y10.6172 Z-13.3619
X9.6526 Y10.6049 Z-13.3845
X9.608 Y10.5846 Z-13.3922
X9.5671 Y10.5576 Z-13.4
X9.5017 Y10.5068 F3500
X9.4785 Y10.4834
X9.4422 Y10.4406
X9.3881 Y10.3609
X9.3572 Y10.3016
X9.3091 Y10.1681
X9.3061 Y10.1555
X9.2915 Y10.033
X9.2941 Y9.9298
X9.3156 Y9.8072
X9.3251 Y9.7747
X9.3387 Y9.7389
X9.3941 Y9.6307
X9.4541 Y9.5444
X9.4705 Y9.5254
X9.5296 Y9.4676
X9.6113 Y9.4058
X9.6951 Y9.3578
X9.7375 Y9.3389
X9.7708 Y9.3272
X9.8944 Y9.2987
X9.9973 Y9.2906
X10.0996 Y9.2977
X10.223 Y9.3249
X10.2407 Y9.331
X10.3497 Y9.3824
X10.4409 Y9.4419
X10.4614 Y9.4584
X10.5068 Y9.5021
X10.5824 Y9.5944
X10.636 Y9.6827
X10.6518 Y9.716
X10.6829 Y9.8023
X10.6981 Y9.8677
X10.7091 Y9.9807
X10.7044 Y10.0846
X10.6844 Y10.1863
X10.64 Y10.3094
X10.6251 Y10.3392
X10.6007 Y10.3797
X10.535 Y10.467
X10.4842 Y10.5196
X10.3965 Y10.5901
X10.3584 Y10.6145
X10.3087 Y10.6407
X10.2553 Y10.664
X10.223 Y10.6751
X10.0982 Y10.7027
X10.0028 Y10.7095
X9.8934 Y10.7011
X9.7708 Y10.6728
X9.7375 Y10.6611
X9.6931 Y10.6413
X9.6255 Y10.603
X9.5671 Y10.5576
X9.5308 Y10.5246 Z-13.3922
X9.5 Y10.4865 Z-13.3845
X9.4776 Y10.4484 Z-13.3619
X9.4607 Y10.4075 Z-13.3394
X9.446 Y10.339 Z-13.2691
X9.4446 Y10.2939 Z-13.1806
X9.4456 Y10.2784 Z-13.0825
G0 Z5
X10.1346 Y80.6069
Z-3
G1 Z-7.6825 F1200
X10.1233 Y80.6175 Z-7.7806
X10.0875 Y80.6449 Z-7.8691
X10.0251 Y80.6767 Z-7.9394
X9.9827 Y80.6894 Z-7.9619
X9.939 Y80.6961 Z-7.9845
X9.89 Y80.6964 Z-7.9922
X9.8415 Y80.6891 Z-8
X9.7709 Y80.6729 F3500
X9.7521 Y80.6662
X9.6445 Y80.6144
X9.5708 Y80.5657
X9.5069 Y80.511
X9.4459 Y80.4439
X9.3941 Y80.3693
X9.343 Y80.2696
X9.3175 Y80.1985
X9.3022 Y80.1324
X9.2911 Y80.0194
X9.2969 Y79.8949
X9.302 Y79.8619
X9.3091 Y79.8319
X9.3535 Y79.7087
X9.4143 Y79.5976
X9.4363 Y79.5664
X9.4706 Y79.5258
X9.5427 Y79.4567
X9.6154 Y79.4027
X9.6931 Y79.3587
X9.7375 Y79.3389
X9.7708 Y79.3272
X9.8934 Y79.2989
X10.0028 Y79.2905
X10.0983 Y79.2973
X10.223 Y79.3249
X10.2553 Y79.336
X10.299 Y79.355
X10.3806 Y79.4003
X10.4586 Y79.4576
X10.5205 Y79.516
X10.5596 Y79.5612
X10.5891 Y79.6024
X10.6365 Y79.6844
X10.6726 Y79.7698
X10.6807 Y79.7949
X10.7044 Y79.9153
X10.7091 Y80.0193
X10.6991 Y80.1218
X10.6684 Y80.2426
X10.6617 Y80.2603
X10.6053 Y80.3699
X10.5408 Y80.4614
X10.5198 Y80.4853
X10.4739 Y80.5296
X10.3855 Y80.5962
X10.2969 Y80.6459
X10.2554 Y80.664
X10.2229 Y80.6751
X10.0996 Y80.7023
X9.9972 Y80.7094
X9.8944 Y80.7013
X9.8415 Y80.6891
X9.7948 Y80.6745 Z-7.9922
X9.7508 Y80.6528 Z-7.9845
X9.7144 Y80.6276 Z-7.9619
X9.6819 Y80.5977 Z-7.9394
X9.6397 Y80.5417 Z-7.8691
X9.6195 Y80.5014 Z-7.7806
X9.6139 Y80.4869 Z-7.6825
G0 Z5
X9.614 Y79.5131
Z-5
G1 Z-9.6825 F1200
X9.6196 Y79.4986 Z-9.7806
X9.6397 Y79.4583 Z-9.8691
X9.6819 Y79.4023 Z-9.9394
X9.7145 Y79.3724 Z-9.9619
X9.7508 Y79.3472 Z-9.9845
X9.7948 Y79.3255 Z-9.9922
X9.8415 Y79.3109 Z-10
X9.8934 Y79.2989 F3500
X10.0028 Y79.2905
X10.0983 Y79.2973
X10.223 Y79.3249
X10.2553 Y79.336
X10.299 Y79.355
X10.3806 Y79.4003
X10.4586 Y79.4576
X10.5205 Y79.516
X10.5596 Y79.5612
X10.5891 Y79.6024
X10.6365 Y79.6844
X10.6726 Y79.7698
X10.6807 Y79.7949
X10.7044 Y79.9153
X10.7091 Y80.0193
X10.6991 Y80.1218
X10.6684 Y80.2426
X10.6617 Y80.2603
X10.6053 Y80.3699
X10.5408 Y80.4614
X10.5198 Y80.4853
X10.4739 Y80.5296
X10.3855 Y80.5962
X10.2969 Y80.6459
X10.2554 Y80.664
X10.2229 Y80.6751
X10.0996 Y80.7023
X9.9972 Y80.7094
X9.8944 Y80.7013
X9.7709 Y80.6729
X9.7521 Y80.6662
X9.6445 Y80.6144
X9.5708 Y80.5657
X9.5069 Y80.511
X9.4459 Y80.4439
X9.3941 Y80.3693
X9.343 Y80.2696
X9.3175 Y80.1985
X9.3022 Y80.1324
X9.2911 Y80.0194
X9.2969 Y79.8949
X9.302 Y79.8619
X9.3091 Y79.8319
X9.3535 Y79.7087
X9.4143 Y79.5976
X9.4363 Y79.5664
X9.4706 Y79.5258
X9.5427 Y79.4567
X9.6154 Y79.4027
X9.6931 Y79.3587
X9.7375 Y79.3389
X9.7708 Y79.3272
X9.8415 Y79.3109
X9.89 Y79.3036 Z-9.9922
X9.939 Y79.3039 Z-9.9845
X9.9827 Y79.3106 Z-9.9619
X10.0251 Y79.3233 Z-9.9394
X10.0875 Y79.3551 Z-9.8691
X10.1233 Y79.3826 Z-9.7806
X10.1347 Y79.3931 Z-9.6825
G0 Z5
X9.614 Y79.5131
Z-7
G1 Z-11.6825 F1200
X9.6196 Y79.4986 Z-11.7806
X9.6397 Y79.4583 Z-11.8691
X9.6819 Y79.4023 Z-11.9394
X9.7145 Y79.3724 Z-11.9619
X9.7508 Y79.3472 Z-11.9845
X9.7948 Y79.3255 Z-11.9922
X9.8415 Y79.3109 Z-12
X9.8934 Y79.2989 F3500
X10.0028 Y79.2905
X10.0983 Y79.2973
X10.223 Y79.3249
X10.2553 Y79.336
X10.299 Y79.355
X10.3806 Y79.4003
X10.4586 Y79.4576
X10.5205 Y79.516
X10.5596 Y79.5612
X10.5891 Y79.6024
X10.6365 Y79.6844
X10.6726 Y79.7698
X10.6807 Y79.7949
X10.7044 Y79.9153
X10.7091 Y80.0193
X10.6991 Y80.1218
X10.6684 Y80.2426
X10.6617 Y80.2603
X10.6053 Y80.3699
X10.5408 Y80.4614
X10.5198 Y80.4853
X10.4739 Y80.5296
X10.3855 Y80.5962
X10.2969 Y80.6459
X10.2554 Y80.664
X10.2229 Y80.6751
X10.0996 Y80.7023
X9.9972 Y80.7094
X9.8944 Y80.7013
X9.7709 Y80.6729
X9.7521 Y80.6662
X9.6445 Y80.6144
X9.5708 Y80.5657
X9.5069 Y80.511
X9.4459 Y80.4439
X9.3941 Y80.3693
X9.343 Y80.2696
X9.3175 Y80.1985
X9.3022 Y80.1324
X9.2911 Y80.0194
X9.2969 Y79.8949
X9.302 Y79.8619
X9.3091 Y79.8319
X9.3535 Y79.7087
X9.4143 Y79.5976
X9.4363 Y79.5664
X9.4706 Y79.5258
X9.5427 Y79.4567
X9.6154 Y79.4027
X9.6931 Y79.3587
X9.7375 Y79.3389
X9.7708 Y79.3272
X9.8415 Y79.3109
X9.89 Y79.3036 Z-11.9922
X9.939 Y79.3039 Z-11.9845
X9.9827 Y79.3106 Z-11.9619
X10.0251 Y79.3233 Z-11.9394
X10.0875 Y79.3551 Z-11.8691
X10.1233 Y79.3826 Z-11.7806
X10.1347 Y79.3931 Z-11.6825
G0 Z5
X9.614 Y79.5131
Z-3
G1 Z-9 F1200
Z-13.0825
X9.6196 Y79.4986 Z-13.1806
X9.6397 Y79.4583 Z-13.2691
X9.6819 Y79.4023 Z-13.3394
X9.7145 Y79.3724 Z-13.3619
X9.7508 Y79.3472 Z-13.3845
X9.7948 Y79.3255 Z-13.3922
X9.8415 Y79.3109 Z-13.4
X9.8934 Y79.2989 F3500
X10.0028 Y79.2905
X10.0983 Y79.2973
X10.223 Y79.3249
X10.2553 Y79.336
X10.299 Y79.355
X10.3806 Y79.4003
X10.4586 Y79.4576
X10.5205 Y79.516
X10.5596 Y79.5612
X10.5891 Y79.6024
X10.6365 Y79.6844
X10.6726 Y79.7698
X10.6807 Y79.7949
X10.7044 Y79.9153
X10.7091 Y80.0193
X10.6991 Y80.1218
X10.6684 Y80.2426
X10.6617 Y80.2603
X10.6053 Y80.3699
X10.5408 Y80.4614
X10.5198 Y80.4853
X10.4739 Y80.5296
X10.3855 Y80.5962
X10.2969 Y80.6459
X10.2554 Y80.664
X10.2229 Y80.6751
X10.0996 Y80.7023
X9.9972 Y80.7094
X9.8944 Y80.7013
X9.7709 Y80.6729
X9.7521 Y80.6662
X9.6445 Y80.6144
X9.5708 Y80.5657
X9.5069 Y80.511
X9.4459 Y80.4439
X9.3941 Y80.3693
X9.343 Y80.2696
X9.3175 Y80.1985
X9.3022 Y80.1324
X9.2911 Y80.0194
X9.2969 Y79.8949
X9.302 Y79.8619
X9.3091 Y79.8319
X9.3535 Y79.7087
X9.4143 Y79.5976
X9.4363 Y79.5664
X9.4706 Y79.5258
X9.5427 Y79.4567
X9.6154 Y79.4027
X9.6931 Y79.3587
X9.7375 Y79.3389
X9.7708 Y79.3272
X9.8415 Y79.3109
X9.89 Y79.3036 Z-13.3922
X9.939 Y79.3039 Z-13.3845
X9.9827 Y79.3106 Z-13.3619
X10.0251 Y79.3233 Z-13.3394
X10.0875 Y79.3551 Z-13.2691
X10.1233 Y79.3826 Z-13.1806
X10.1347 Y79.3931 Z-13.0825
G0 Z5
X121.7957 Y36.1069
Z2.4173
G1 X121.7826 Y36.0999 Z2.3213 F1200
X121.7449 Y36.0788 Z2.2343
X121.6873 Y36.0437 Z2.1644
X121.6166 Y35.9957 Z2.1182
X121.5411 Y35.9374 Z2.1
G3 X121.7578 Y36.0862 Z1.7783 I0.9589 J-1.164
X121.9971 Y36.1951 Z1.4566 I0.7422 J-1.3128
X122.2516 Y36.2609 Z1.1349 I0.503 J-1.4218
X122.5137 Y36.2814 Z0.8132 I0.2484 J-1.4875
X122.7753 Y36.2561 Z0.4914 I-0.0136 J-1.5081
X123.0286 Y36.1858 Z0.1697 I-0.2753 J-1.4828
X123.2659 Y36.0725 Z-0.152 I-0.5286 J-1.4124
X123.4798 Y35.9198 Z-0.4737 I-0.7659 J-1.2992
X123.664 Y35.7322 Z-0.7954 I-0.9798 J-1.1465
X123.8129 Y35.5155 Z-1.1171 I-1.164 J-0.9589
X123.9218 Y35.2763 Z-1.4388 I-1.3128 J-0.7422
X123.9875 Y35.0218 Z-1.7605 I-1.4218 J-0.503
X122.5 Y33.2652 Z-2 I-1.4875 J-0.2484
G1 X122.7716 F3500
G3 X123.7348 Y34.2285 J0.9632
G1 Y55.7716
G3 X122.7716 Y56.7348 I-0.9632
G1 X122.2285
G3 X121.2652 Y55.7716 J-0.9632
G1 Y34.2285
G3 X122.2285 Y33.2652 I0.9632
G1 X122.5
G2 X124.1176 Y32.114 J-1.7121
G3 X126.0755 Y32.4438 I0.9511 J0.3298
G1 Y58.1122
G3 X125.1122 Y59.0755 I-0.9632
G1 X119.8878
G3 X118.9246 Y58.1122 J-0.9632
G1 Y31.8878
G3 X119.8878 Y30.9246 I0.9632
G1 X125.1122
G3 X126.0755 Y31.8878 J0.9632
G1 Y32.4438
G2 X127.2458 Y34.1993 I1.9018
G3 X128.4161 Y35.9548 I-0.7315 J1.7555
G1 Y60.4529
G3 X127.4529 Y61.4161 I-0.9632
G1 X117.5471
G3 X116.5839 Y60.4529 J-0.9632
G1 Y29.5471
G3 X117.5471 Y28.5839 I0.9632
G1 X127.4529
G3 X128.4161 Y29.5471 J0.9632
G1 Y35.9548
G2 X129.5865 Y37.7103 I1.9018
G3 X130.7568 Y39.4658 I-0.7315 J1.7555
G1 Y62.7935
G3 X129.7935 Y63.7568 I-0.9632
G1 X115.2065
G3 X114.2433 Y62.7935 J-0.9632
G1 Y27.2065
G3 X115.2065 Y26.2432 I0.9632
G1 X129.7935
G3 X130.7568 Y27.2065 J0.9632
G1 Y39.4658
G2 X131.9347 Y41.2326 I1.914
G3 X133.1125 Y42.9994 I-0.7362 J1.7668
G1 Y66.1125
X111.8875
Y23.8875
X133.1125
Y42.9994
X133.1087 Y43.0483 Z-1.9922
X133.0975 Y43.096 Z-1.9845
X133.0811 Y43.1371 Z-1.9619
X133.0592 Y43.1755 Z-1.9394
X133.0142 Y43.2292 Z-1.8691
X132.9794 Y43.2579 Z-1.7806
X132.9666 Y43.2666 Z-1.6825
G0 Z5
X122.4955 Y36.1055
Z1
G1 Z-4 F1200
X122.4624 Y36.1048 F3500
X122.4444 Y36.1011
X122.4139 Y36.0895
X122.3682 Y36.0625
X122.3571 Y36.0533
X122.3447 Y36.04
X122.315 Y35.995
X122.2971 Y35.9538
X122.2915 Y35.9143
X122.2918 Y35.8831
X122.2972 Y35.8506
X122.3065 Y35.8227
X122.3263 Y35.786
X122.3571 Y35.7478
X122.3862 Y35.7246
X122.4051 Y35.7138
X122.4445 Y35.6988
X122.4747 Y35.6926
X122.4997 Y35.6914
X122.5488 Y35.6973
X122.578 Y35.7059
X122.6062 Y35.7191
X122.6233 Y35.7301
X122.6353 Y35.7401
X122.6743 Y35.7853
X122.6879 Y35.8078
X122.6958 Y35.8271
X122.7073 Y35.8754
X122.7097 Y35.9123
X122.7021 Y35.9521
X122.6898 Y35.9858
X122.664 Y36.0303
X122.6602 Y36.035
X122.6245 Y36.0678
X122.6069 Y36.0795
X122.5586 Y36.1014
X122.529 Y36.1062
X122.4955 Y36.1055
X122.4624 Y36.1048 Z-3.9983
X122.4444 Y36.1011 Z-3.9958
X122.4139 Y36.0895 Z-3.9886
X122.3682 Y36.0625 Z-3.9688
X122.3571 Y36.0533 Z-3.9614
X122.3447 Y36.04 Z-3.9508
X122.315 Y35.995 Z-3.9078
X122.3055 Y35.973 Z-3.8811
X122.2971 Y35.9538 Z-3.8518
X122.2938 Y35.9303 Z-3.8062
X122.2915 Y35.9143 Z-3.7574
Y35.9076 Z-3.7202
X122.2916 Y35.9054 Z-3.6825
G0 Z5
X122.5245 Y35.6944
Z3
G1 Z-1 F1200
Z-6
X122.5488 Y35.6973 F3500
X122.578 Y35.7059
X122.6062 Y35.7191
X122.6233 Y35.7301
X122.6353 Y35.7401
X122.6743 Y35.7853
X122.6879 Y35.8078
X122.6958 Y35.8271
X122.7073 Y35.8754
X122.7097 Y35.9123
X122.7021 Y35.9521
X122.6898 Y35.9858
X122.664 Y36.0303
X122.6602 Y36.035
X122.6245 Y36.0678
X122.6069 Y36.0795
X122.5586 Y36.1014
X122.529 Y36.1062
X122.4624 Y36.1048
X122.4444 Y36.1011
X122.4139 Y36.0895
X122.3682 Y36.0625
X122.3571 Y36.0533
X122.3447 Y36.04
X122.315 Y35.995
X122.2971 Y35.9538
X122.2915 Y35.9143
X122.2918 Y35.8831
X122.2972 Y35.8506
X122.3065 Y35.8227
X122.3263 Y35.786
X122.3571 Y35.7478
X122.3862 Y35.7246
X122.4051 Y35.7138
X122.4445 Y35.6988
X122.4747 Y35.6926
X122.4997 Y35.6914
X122.5245 Y35.6944
X122.5488 Y35.6973 Z-5.9991
X122.578 Y35.7059 Z-5.9952
X122.6062 Y35.7191 Z-5.9881
X122.6233 Y35.7301 Z-5.9817
X122.6353 Y35.7401 Z-5.9757
X122.6743 Y35.7853 Z-5.9429
X122.6879 Y35.8078 Z-5.9225
X122.6958 Y35.8271 Z-5.9026
X122.7021 Y35.8534 Z-5.8705
X122.7073 Y35.8754 Z-5.8351
X122.7089 Y35.8995 Z-5.7785
X122.7097 Y35.9123 Z-5.7184
X122.7093 Y35.9143 Z-5.6825
G0 Z5
X122.4955 Y36.1055
Z-3
G1 Z-8 F1200
X122.4624 Y36.1048 F3500
X122.4444 Y36.1011
X122.4139 Y36.0895
X122.3682 Y36.0625
X122.3571 Y36.0533
X122.3447 Y36.04
X122.315 Y35.995
X122.2971 Y35.9538
X122.2915 Y35.9143
X122.2918 Y35.8831
X122.2972 Y35.8506
X122.3065 Y35.8227
X122.3263 Y35.786
X122.3571 Y35.7478
X122.3862 Y35.7246
X122.4051 Y35.7138
X122.4445 Y35.6988
X122.4747 Y35.6926
X122.4997 Y35.6914
X122.5488 Y35.6973
X122.578 Y35.7059
X122.6062 Y35.7191
X122.6233 Y35.7301
X122.6353 Y35.7401
X122.6743 Y35.7853
X122.6879 Y35.8078
X122.6958 Y35.8271
X122.7073 Y35.8754
X122.7097 Y35.9123
X122.7021 Y35.9521
X122.6898 Y35.9858
X122.664 Y36.0303
X122.6602 Y36.035
X122.6245 Y36.0678
X122.6069 Y36.0795
X122.5586 Y36.1014
X122.529 Y36.1062
X122.4955 Y36.1055
X122.4624 Y36.1048 Z-7.9983
X122.4444 Y36.1011 Z-7.9958
X122.4139 Y36.0895 Z-7.9886
X122.3682 Y36.0625 Z-7.9688
X122.3571 Y36.0533 Z-7.9614
X122.3447 Y36.04 Z-7.9508
X122.315 Y35.995 Z-7.9078
X122.3055 Y35.973 Z-7.8811
X122.2971 Y35.9538 Z-7.8518
X122.2938 Y35.9303 Z-7.8062
X122.2915 Y35.9143 Z-7.7574
Y35.9076 Z-7.7202
X122.2916 Y35.9054 Z-7.6825
G0 Z5
X122.4955 Y36.1055
Z1
G1 Z-5 F1200
Z-10
X122.4624 Y36.1048 F3500
X122.4444 Y36.1011
X122.4139 Y36.0895
X122.3682 Y36.0625
X122.3571 Y36.0533
X122.3447 Y36.04
X122.315 Y35.995
X122.2971 Y35.9538
X122.2915 Y35.9143
X122.2918 Y35.8831
X122.2972 Y35.8506
X122.3065 Y35.8227
X122.3263 Y35.786
X122.3571 Y35.7478
X122.3862 Y35.7246
X122.4051 Y35.7138
X122.4445 Y35.6988
X122.4747 Y35.6926
X122.4997 Y35.6914
X122.5488 Y35.6973
X122.578 Y35.7059
X122.6062 Y35.7191
X122.6233 Y35.7301
X122.6353 Y35.7401
X122.6743 Y35.7853
X122.6879 Y35.8078
X122.6958 Y35.8271
X122.7073 Y35.8754
X122.7097 Y35.9123
X122.7021 Y35.9521
X122.6898 Y35.9858
X122.664 Y36.0303
X122.6602 Y36.035
X122.6245 Y36.0678
X122.6069 Y36.0795
X122.5586 Y36.1014
X122.529 Y36.1062
X122.4955 Y36.1055
X122.4624 Y36.1048 Z-9.9983
X122.4444 Y36.1011 Z-9.9958
X122.4139 Y36.0895 Z-9.9886
X122.3682 Y36.0625 Z-9.9688
X122.3571 Y36.0533 Z-9.9614
X122.3447 Y36.04 Z-9.9508
X122.315 Y35.995 Z-9.9078
X122.3055 Y35.973 Z-9.8811
X122.2971 Y35.9538 Z-9.8518
X122.2938 Y35.9303 Z-9.8062
X122.2915 Y35.9143 Z-9.7574
Y35.9076 Z-9.7202
X122.2916 Y35.9054 Z-9.6825
G0 Z5
X122.4955 Y36.1055
Z1
G1 Z-7 F1200
Z-12
X122.4624 Y36.1048 F3500
X122.4444 Y36.1011
X122.4139 Y36.0895
X122.3682 Y36.0625
X122.3571 Y36.0533
X122.3447 Y36.04
X122.315 Y35.995
X122.2971 Y35.9538
X122.2915 Y35.9143
X122.2918 Y35.8831
X122.2972 Y35.8506
X122.3065 Y35.8227
X122.3263 Y35.786
X122.3571 Y35.7478
X122.3862 Y35.7246
X122.4051 Y35.7138
X122.4445 Y35.6988
X122.4747 Y35.6926
X122.4997 Y35.6914
X122.5488 Y35.6973
X122.578 Y35.7059
X122.6062 Y35.7191
X122.6233 Y35.7301
X122.6353 Y35.7401
X122.6743 Y35.7853
X122.6879 Y35.8078
X122.6958 Y35.8271
X122.7073 Y35.8754
X122.7097 Y35.9123
X122.7021 Y35.9521
X122.6898 Y35.9858
X122.664 Y36.0303
X122.6602 Y36.035
X122.6245 Y36.0678
X122.6069 Y36.0795
X122.5586 Y36.1014
X122.529 Y36.1062
X122.4955 Y36.1055
X122.4624 Y36.1048 Z-11.9983
X122.4444 Y36.1011 Z-11.9958
X122.4139 Y36.0895 Z-11.9886
X122.3682 Y36.0625 Z-11.9688
X122.3571 Y36.0533 Z-11.9614
X122.3447 Y36.04 Z-11.9508
X122.315 Y35.995 Z-11.9078
X122.3055 Y35.973 Z-11.8811
X122.2971 Y35.9538 Z-11.8518
X122.2938 Y35.9303 Z-11.8062
X122.2915 Y35.9143 Z-11.7574
Y35.9076 Z-11.7202
X122.2916 Y35.9054 Z-11.6825
G0 Z5
