%
(Made in : Autodesk CAM Post Processor)
(G Code optimized for OpenBuilds OX CNC 1000 x 750 with GRBL V0.9j controller)

(Program Name : 1001)
(2 Operations :)
(1 : Contour2)
(  Tool : Flat End Mill 2 Flutes, Diam = 1.9mm, Len = 12.7mm)
(  Spindle : RPM = 30000, set router dial to 6)
(  Machining time : 5 min 35 sec)
(2 : Horizontal1)
(  Tool : Flat End Mill 2 Flutes, Diam = 1.9mm, Len = 12.7mm)
(  Spindle : RPM = 30000, set router dial to 6)
(  Machining time : 5 min 50 sec)

G90 G94
G17
G21

(Operation 1 of 2 : Contour2)

G53 G0 Z5
G54
S30000 M3
G4 P1.0
X17.7785 Y19.3765
Z6
Z1.1897
G1 Z-0.81 F3200
X17.7848 Y19.3782 Z-0.8592
X17.8031 Y19.3832 Z-0.905
X17.8322 Y19.3912 Z-0.9444
X17.8701 Y19.4016 Z-0.9745
X17.9143 Y19.4137 Z-0.9935
X17.9618 Y19.4267 Z-1
X19.142 Y19.75
X19.1877 Y19.7692
X19.2269 Y19.7997
X19.2569 Y19.8392
X19.2756 Y19.8851
X19.2818 Y19.9343
X19.275 Y19.9835
X19.2663 Y20.0249
X19.2576 Y20.08
X19.2523 Y20.135
X19.25 Y20.245
Y69.755
X19.2523 Y69.865
X19.2576 Y69.92
X19.2663 Y69.9751
X19.275 Y70.0165
X19.2938 Y70.0851
X19.313 Y70.1401
X19.3361 Y70.1951
X19.359 Y70.2417
X19.3852 Y70.2883
X19.3954 Y70.3051
X19.4327 Y70.3601
X19.4761 Y70.4151
X19.4953 Y70.437
X19.5408 Y70.484
X19.5863 Y70.5252
X19.6054 Y70.5409
X19.6604 Y70.5819
X19.7155 Y70.6171
X19.7473 Y70.6352
X19.7865 Y70.6553
X19.8256 Y70.6731
X19.8807 Y70.6947
X19.9357 Y70.7125
X19.9908 Y70.7267
X20.0458 Y70.7374
X20.1047 Y70.7452
X20.1559 Y70.749
X20.2661 Y70.75
X385.734
X385.8441 Y70.749
X385.8953 Y70.7452
X385.9542 Y70.7374
X386.0092 Y70.7267
X386.0643 Y70.7125
X386.1194 Y70.6947
X386.1744 Y70.6731
X386.2136 Y70.6553
X386.2527 Y70.6352
X386.2845 Y70.6171
X386.3396 Y70.5819
X386.3947 Y70.5409
X386.4137 Y70.5252
X386.4593 Y70.484
X386.5048 Y70.437
X386.524 Y70.4151
X386.5673 Y70.3601
X386.6046 Y70.3051
X386.6149 Y70.2884
X386.6411 Y70.2417
X386.664 Y70.1951
X386.6871 Y70.1401
X386.7062 Y70.0851
X386.725 Y70.0166
X386.7338 Y69.9751
X386.7424 Y69.92
X386.7478 Y69.865
X386.75 Y69.755
Y20.245
X386.7478 Y20.135
X386.7424 Y20.08
X386.7338 Y20.0249
X386.725 Y19.9834
X386.7062 Y19.9149
X386.6871 Y19.8599
X386.664 Y19.8049
X386.6411 Y19.7583
X386.6149 Y19.7116
X386.6046 Y19.6949
X386.5673 Y19.6399
X386.524 Y19.5849
X386.5048 Y19.5629
X386.4593 Y19.516
X386.4137 Y19.4748
X386.3947 Y19.4591
X386.3396 Y19.4181
X386.2845 Y19.3828
X386.2527 Y19.3648
X386.2136 Y19.3447
X386.1744 Y19.3269
X386.1194 Y19.3053
X386.0643 Y19.2875
X386.0092 Y19.2733
X385.9542 Y19.2626
X385.8954 Y19.2548
X385.8441 Y19.251
X385.734 Y19.25
X20.2661
X20.1559 Y19.251
X20.1047 Y19.2548
X20.0458 Y19.2626
X19.9908 Y19.2733
X19.9357 Y19.2875
X19.8807 Y19.3053
X19.8256 Y19.3269
X19.7864 Y19.3447
X19.7473 Y19.3648
X19.7155 Y19.3829
X19.6604 Y19.4181
X19.6054 Y19.4591
X19.5863 Y19.4748
X19.5408 Y19.516
X19.4953 Y19.563
X19.4761 Y19.5849
X19.4327 Y19.6399
X19.3954 Y19.6949
X19.3852 Y19.7117
X19.359 Y19.7583
X19.3361 Y19.8049
X19.313 Y19.8599
X19.2938 Y19.9149
X19.275 Y19.9835
X19.2652 Y20.0308
X19.2578 Y20.0787
X19.2529 Y20.1268 Z-1.0001
X19.2504 Y20.1751
X19.25 Y20.3687 Z-1.0004
Y20.5623 Z-1.0008
Y20.7559 Z-1.0015
Y20.9495 Z-1.0023
Y21.143 Z-1.0033
Y21.3366 Z-1.0045
Y21.5302 Z-1.0058
Y21.7238 Z-1.0073
Y21.9173 Z-1.009
Y22.1109 Z-1.0109
Y22.3045 Z-1.0129
Y22.4981 Z-1.0151
Y22.6916 Z-1.0174
Y22.8852 Z-1.0199
Y23.0788 Z-1.0225
Y23.2724 Z-1.0253
Y23.4659 Z-1.0283
Y23.6595 Z-1.0314
Y23.8531 Z-1.0347
Y24.0466 Z-1.0381
Y24.2402 Z-1.0416
Y24.4338 Z-1.0453
Y24.6274 Z-1.0491
Y24.8209 Z-1.0531
Y25.0145 Z-1.0572
Y25.2081 Z-1.0614
Y25.4017 Z-1.0658
Y25.5952 Z-1.0702
Y25.7888 Z-1.0749
Y25.9824 Z-1.0796
Y26.176 Z-1.0845
Y26.3695 Z-1.0894
Y26.4663 Z-1.092
Y26.5631 Z-1.0945
Y26.6599 Z-1.0971
Y26.7567 Z-1.0997
Y26.8535 Z-1.1024
Y26.9503 Z-1.1051
Y27.0471 Z-1.1078
Y27.1438 Z-1.1105
Y27.2406 Z-1.1133
Y27.3374 Z-1.1161
Y27.4342 Z-1.1189
Y27.531 Z-1.1217
Y27.6278 Z-1.1246
Y27.7246 Z-1.1275
Y27.8214 Z-1.1304
Y27.9181 Z-1.1334
Y28.0149 Z-1.1363
Y28.1117 Z-1.1393
Y28.2085 Z-1.1423
Y28.3053 Z-1.1454
Y28.4021 Z-1.1485
Y28.4989 Z-1.1516
Y28.5957 Z-1.1547
Y28.6924 Z-1.1578
Y28.7892 Z-1.161
Y28.886 Z-1.1642
Y28.9828 Z-1.1674
Y29.0796 Z-1.1706
Y29.1764 Z-1.1739
Y29.2732 Z-1.1772
Y29.37 Z-1.1805
Y29.4667 Z-1.1838
Y29.5635 Z-1.1871
Y29.7571 Z-1.1939
Y29.8539 Z-1.1972
Y29.9507 Z-1.2006
Y30.0475 Z-1.204
Y30.1443 Z-1.2074
Y30.241 Z-1.2108
Y30.3378 Z-1.2141
Y30.4346 Z-1.2175
Y30.5314 Z-1.2209
Y30.6282 Z-1.2243
Y30.725 Z-1.2277
Y30.8218 Z-1.231
Y30.9185 Z-1.2344
Y31.1121 Z-1.2412
Y31.4025 Z-1.2513
Y31.6928 Z-1.2614
Y31.9832 Z-1.2716
Y32.2736 Z-1.2817
Y32.5639 Z-1.2919
Y32.8543 Z-1.302
Y33.1447 Z-1.3121
Y33.435 Z-1.3223
Y33.7254 Z-1.3324
Y34.0157 Z-1.3426
Y34.4997 Z-1.3595
Y34.9836 Z-1.3764
Y35.4676 Z-1.3933
Y36.1451 Z-1.4169
Y37.0162 Z-1.4473
Y38.468 Z-1.498
Y45.4366 Z-1.7413
Y45.727 Z-1.7515
Y46.0174 Z-1.7616
Y46.1142 Z-1.765
Y46.2109 Z-1.7684
Y46.3077 Z-1.7717
Y46.4045 Z-1.7751
Y46.5013 Z-1.7785
Y46.5981 Z-1.7819
Y46.6949 Z-1.7853
Y46.7917 Z-1.7886
Y46.8885 Z-1.792
Y46.9852 Z-1.7954
Y47.082 Z-1.7988
Y47.1788 Z-1.8022
Y47.2756 Z-1.8055
Y47.3724 Z-1.8089
Y47.4692 Z-1.8123
Y47.566 Z-1.8156
Y47.6628 Z-1.819
Y47.7595 Z-1.8223
Y47.8563 Z-1.8255
Y47.9531 Z-1.8288
Y48.0499 Z-1.832
Y48.1467 Z-1.8353
Y48.2435 Z-1.8385
Y48.3403 Z-1.8416
Y48.4371 Z-1.8448
Y48.5338 Z-1.8479
Y48.6306 Z-1.851
Y48.7274 Z-1.8541
Y48.8242 Z-1.8571
Y48.921 Z-1.8601
Y49.0178 Z-1.8631
Y49.1146 Z-1.8661
Y49.2114 Z-1.8691
Y49.3081 Z-1.872
Y49.4049 Z-1.8749
Y49.5017 Z-1.8778
Y49.5985 Z-1.8806
Y49.6953 Z-1.8834
Y49.7921 Z-1.8862
Y49.8889 Z-1.889
Y49.9857 Z-1.8917
Y50.0824 Z-1.8945
Y50.1792 Z-1.8971
Y50.276 Z-1.8998
Y50.3728 Z-1.9024
Y50.4696 Z-1.905
Y50.5664 Z-1.9076
Y50.6632 Z-1.9101
Y50.76 Z-1.9126
Y50.9535 Z-1.9176
Y51.1471 Z-1.9224
Y51.3407 Z-1.9271
Y51.5343 Z-1.9316
Y51.7278 Z-1.9361
Y51.9214 Z-1.9404
Y52.115 Z-1.9445
Y52.3086 Z-1.9486
Y52.5021 Z-1.9525
Y52.6957 Z-1.9562
Y52.8893 Z-1.9599
Y53.0828 Z-1.9634
Y53.2764 Z-1.9667
Y53.47 Z-1.9699
Y53.6636 Z-1.9729
Y53.8571 Z-1.9758
Y54.0507 Z-1.9786
Y54.2443 Z-1.9812
Y54.4379 Z-1.9836
Y54.6314 Z-1.9859
Y54.825 Z-1.988
Y55.0186 Z-1.9899
Y55.2122 Z-1.9917
Y55.4057 Z-1.9933
Y55.5993 Z-1.9948
Y55.7929 Z-1.996
Y55.9865 Z-1.9971
Y56.18 Z-1.9981
Y56.3736 Z-1.9988
Y56.5672 Z-1.9994
Y56.7608 Z-1.9998
Y56.9543 Z-2
Y57.0681
Y69.755
X19.2523 Y69.865
X19.2576 Y69.92
X19.2663 Y69.9751
X19.275 Y70.0165
X19.2938 Y70.0851
X19.313 Y70.1401
X19.3361 Y70.1951
X19.359 Y70.2417
X19.3852 Y70.2883
X19.3954 Y70.3051
X19.4327 Y70.3601
X19.4761 Y70.4151
X19.4953 Y70.437
X19.5408 Y70.484
X19.5863 Y70.5252
X19.6054 Y70.5409
X19.6604 Y70.5819
X19.7155 Y70.6171
X19.7473 Y70.6352
X19.7865 Y70.6553
X19.8256 Y70.6731
X19.8807 Y70.6947
X19.9357 Y70.7125
X19.9908 Y70.7267
X20.0458 Y70.7374
X20.1047 Y70.7452
X20.1559 Y70.749
X20.2661 Y70.75
X385.734
X385.8441 Y70.749
X385.8953 Y70.7452
X385.9542 Y70.7374
X386.0092 Y70.7267
X386.0643 Y70.7125
X386.1194 Y70.6947
X386.1744 Y70.6731
X386.2136 Y70.6553
X386.2527 Y70.6352
X386.2845 Y70.6171
X386.3396 Y70.5819
X386.3947 Y70.5409
X386.4137 Y70.5252
X386.4593 Y70.484
X386.5048 Y70.437
X386.524 Y70.4151
X386.5673 Y70.3601
X386.6046 Y70.3051
X386.6149 Y70.2884
X386.6411 Y70.2417
X386.664 Y70.1951
X386.6871 Y70.1401
X386.7062 Y70.0851
X386.725 Y70.0166
X386.7338 Y69.9751
X386.7424 Y69.92
X386.7478 Y69.865
X386.75 Y69.755
Y20.245
X386.7478 Y20.135
X386.7424 Y20.08
X386.7338 Y20.0249
X386.725 Y19.9834
X386.7062 Y19.9149
X386.6871 Y19.8599
X386.664 Y19.8049
X386.6411 Y19.7583
X386.6149 Y19.7116
X386.6046 Y19.6949
X386.5673 Y19.6399
X386.524 Y19.5849
X386.5048 Y19.5629
X386.4593 Y19.516
X386.4137 Y19.4748
X386.3947 Y19.4591
X386.3396 Y19.4181
X386.2845 Y19.3828
X386.2527 Y19.3648
X386.2136 Y19.3447
X386.1744 Y19.3269
X386.1194 Y19.3053
X386.0643 Y19.2875
X386.0092 Y19.2733
X385.9542 Y19.2626
X385.8954 Y19.2548
X385.8441 Y19.251
X385.734 Y19.25
X20.2661
X20.1559 Y19.251
X20.1047 Y19.2548
X20.0458 Y19.2626
X19.9908 Y19.2733
X19.9357 Y19.2875
X19.8807 Y19.3053
X19.8256 Y19.3269
X19.7864 Y19.3447
X19.7473 Y19.3648
X19.7155 Y19.3829
X19.6604 Y19.4181
X19.6054 Y19.4591
X19.5863 Y19.4748
X19.5408 Y19.516
X19.4953 Y19.563
X19.4761 Y19.5849
X19.4327 Y19.6399
X19.3954 Y19.6949
X19.3852 Y19.7117
X19.359 Y19.7583
X19.3361 Y19.8049
X19.313 Y19.8599
X19.2938 Y19.9149
X19.275 Y19.9835
X19.2663 Y20.0249
X19.2576 Y20.08
X19.2523 Y20.135
X19.25 Y20.245
Y57.0681
Y57.2617 Z-2.0001
Y57.4553 Z-2.0004
Y57.6489 Z-2.0008
Y57.8424 Z-2.0015
Y58.036 Z-2.0023
Y58.2296 Z-2.0033
Y58.4232 Z-2.0045
Y58.6167 Z-2.0058
Y58.8103 Z-2.0073
Y59.0039 Z-2.009
Y59.1975 Z-2.0109
Y59.391 Z-2.0129
Y59.5846 Z-2.0151
Y59.7782 Z-2.0174
Y59.9718 Z-2.0199
Y60.1653 Z-2.0225
Y60.3589 Z-2.0253
Y60.5525 Z-2.0283
Y60.7461 Z-2.0314
Y60.9396 Z-2.0347
Y61.1332 Z-2.0381
Y61.3268 Z-2.0416
Y61.5204 Z-2.0453
Y61.7139 Z-2.0491
Y61.9075 Z-2.0531
Y62.1011 Z-2.0572
Y62.2947 Z-2.0614
Y62.4882 Z-2.0658
Y62.6818 Z-2.0702
Y62.8754 Z-2.0749
Y63.069 Z-2.0796
Y63.2625 Z-2.0845
Y63.4561 Z-2.0894
Y63.5529 Z-2.092
Y63.6497 Z-2.0945
Y63.7465 Z-2.0971
Y63.8433 Z-2.0997
Y63.94 Z-2.1024
Y64.0368 Z-2.1051
Y64.1336 Z-2.1078
Y64.2304 Z-2.1105
Y64.3272 Z-2.1133
Y64.424 Z-2.1161
Y64.5208 Z-2.1189
Y64.6176 Z-2.1217
Y64.7143 Z-2.1246
Y64.8111 Z-2.1275
Y64.9079 Z-2.1304
Y65.0047 Z-2.1334
Y65.1015 Z-2.1363
Y65.1983 Z-2.1393
Y65.2951 Z-2.1423
Y65.3919 Z-2.1454
Y65.4886 Z-2.1485
Y65.5854 Z-2.1516
Y65.6822 Z-2.1547
Y65.779 Z-2.1578
Y65.8758 Z-2.161
Y65.9726 Z-2.1642
Y66.0694 Z-2.1674
Y66.1662 Z-2.1706
Y66.2629 Z-2.1739
Y66.3597 Z-2.1772
Y66.4565 Z-2.1805
Y66.5533 Z-2.1838
Y66.6501 Z-2.1871
Y66.8437 Z-2.1939
Y66.9405 Z-2.1972
Y67.0372 Z-2.2006
Y67.134 Z-2.204
Y67.2308 Z-2.2074
Y67.3276 Z-2.2108
Y67.4244 Z-2.2141
Y67.5212 Z-2.2175
Y67.618 Z-2.2209
Y67.7148 Z-2.2243
Y67.8115 Z-2.2277
Y67.9083 Z-2.231
Y68.0051 Z-2.2344
Y68.1987 Z-2.2412
Y68.4891 Z-2.2513
Y68.7794 Z-2.2614
Y69.0698 Z-2.2716
Y69.3601 Z-2.2817
Y69.6505 Z-2.2919
Y69.7473 Z-2.2952
X19.2511 Y69.8441 Z-2.2986
X19.2545 Y69.8923 Z-2.3003
X19.2605 Y69.9404 Z-2.302
X19.2688 Y69.988 Z-2.3037
X19.2796 Y70.0352 Z-2.3054
X19.2928 Y70.0818 Z-2.3071
X19.3083 Y70.1276 Z-2.3087
X19.3262 Y70.1726 Z-2.3104
X19.3463 Y70.2166 Z-2.3121
X19.3686 Y70.2596 Z-2.3138
X19.3931 Y70.3013 Z-2.3155
X19.4197 Y70.3418 Z-2.3172
X19.4483 Y70.3808 Z-2.3189
X19.4788 Y70.4183 Z-2.3206
X19.5112 Y70.4543 Z-2.3222
X19.5455 Y70.4885 Z-2.3239
X19.5814 Y70.5209 Z-2.3256
X19.6189 Y70.5515 Z-2.3273
X19.6579 Y70.5801 Z-2.329
X19.6983 Y70.6067 Z-2.3307
X19.7401 Y70.6312 Z-2.3324
X19.783 Y70.6536 Z-2.3341
X19.827 Y70.6737 Z-2.3357
X19.872 Y70.6916 Z-2.3374
X19.9178 Y70.7071 Z-2.3391
X19.9644 Y70.7203 Z-2.3408
X20.0116 Y70.7311 Z-2.3425
X20.0592 Y70.7395 Z-2.3442
X20.1073 Y70.7455 Z-2.3459
X20.1555 Y70.749 Z-2.3476
X20.2039 Y70.75 Z-2.3492
X20.6878 Z-2.3661
X21.1718 Z-2.383
X21.7525 Z-2.4033
X22.43 Z-2.427
X23.4947 Z-2.4642
X25.4304 Z-2.5317
X27.6565 Z-2.6095
X28.334 Z-2.6331
X28.818 Z-2.65
X29.3019 Z-2.6669
X29.5923 Z-2.677
X29.8826 Z-2.6872
X30.173 Z-2.6973
X30.4634 Z-2.7075
X30.7537 Z-2.7176
X31.0441 Z-2.7277
X31.3344 Z-2.7379
X31.6248 Z-2.748
X31.9152 Z-2.7581
X32.2055 Z-2.7683
X32.3023 Z-2.7717
X32.3991 Z-2.7751
X32.4959 Z-2.7784
X32.5927 Z-2.7818
X32.6895 Z-2.7852
X32.7863 Z-2.7886
X32.883 Z-2.7919
X32.9798 Z-2.7953
X33.0766 Z-2.7987
X33.1734 Z-2.8021
X33.2702 Z-2.8055
X33.367 Z-2.8088
X33.4638 Z-2.8122
X33.5606 Z-2.8156
X33.6573 Z-2.8189
X33.7541 Z-2.8222
X33.8509 Z-2.8255
X33.9477 Z-2.8287
X34.0445 Z-2.832
X34.1413 Z-2.8352
X34.2381 Z-2.8384
X34.3349 Z-2.8415
X34.4316 Z-2.8447
X34.5284 Z-2.8478
X34.6252 Z-2.8509
X34.722 Z-2.854
X34.8188 Z-2.857
X34.9156 Z-2.8601
X35.0124 Z-2.8631
X35.1092 Z-2.8661
X35.2059 Z-2.869
X35.3027 Z-2.8719
X35.3995 Z-2.8748
X35.4963 Z-2.8777
X35.5931 Z-2.8806
X35.6899 Z-2.8834
X35.7867 Z-2.8862
X35.8835 Z-2.8889
X35.9802 Z-2.8917
X36.077 Z-2.8944
X36.1738 Z-2.8971
X36.2706 Z-2.8997
X36.3674 Z-2.9024
X36.4642 Z-2.905
X36.561 Z-2.9075
X36.6578 Z-2.9101
X36.7545 Z-2.9126
X36.9481 Z-2.9175
X37.1417 Z-2.9223
X37.3353 Z-2.927
X37.5288 Z-2.9316
X37.7224 Z-2.936
X37.916 Z-2.9403
X38.1096 Z-2.9445
X38.3031 Z-2.9485
X38.4967 Z-2.9524
X38.6903 Z-2.9562
X38.8839 Z-2.9598
X39.0774 Z-2.9633
X39.271 Z-2.9667
X39.4646 Z-2.9699
X39.6582 Z-2.9729
X39.8517 Z-2.9758
X40.0453 Z-2.9785
X40.2389 Z-2.9811
X40.4325 Z-2.9836
X40.626 Z-2.9858
X40.8196 Z-2.9879
X41.0132 Z-2.9899
X41.2068 Z-2.9917
X41.4003 Z-2.9933
X41.5939 Z-2.9947
X41.7875 Z-2.996
X41.9811 Z-2.9971
X42.1746 Z-2.9981
X42.3682 Z-2.9988
X42.5618 Z-2.9994
X42.7554 Z-2.9998
X42.9489 Z-3
X43.0649
X385.734
X385.8441 Y70.749
X385.8953 Y70.7452
X385.9542 Y70.7374
X386.0092 Y70.7267
X386.0643 Y70.7125
X386.1194 Y70.6947
X386.1744 Y70.6731
X386.2136 Y70.6553
X386.2527 Y70.6352
X386.2845 Y70.6171
X386.3396 Y70.5819
X386.3947 Y70.5409
X386.4137 Y70.5252
X386.4593 Y70.484
X386.5048 Y70.437
X386.524 Y70.4151
X386.5673 Y70.3601
X386.6046 Y70.3051
X386.6149 Y70.2884
X386.6411 Y70.2417
X386.664 Y70.1951
X386.6871 Y70.1401
X386.7062 Y70.0851
X386.725 Y70.0166
X386.7338 Y69.9751
X386.7424 Y69.92
X386.7478 Y69.865
X386.75 Y69.755
Y20.245
X386.7478 Y20.135
X386.7424 Y20.08
X386.7338 Y20.0249
X386.725 Y19.9834
X386.7062 Y19.9149
X386.6871 Y19.8599
X386.664 Y19.8049
X386.6411 Y19.7583
X386.6149 Y19.7116
X386.6046 Y19.6949
X386.5673 Y19.6399
X386.524 Y19.5849
X386.5048 Y19.5629
X386.4593 Y19.516
X386.4137 Y19.4748
X386.3947 Y19.4591
X386.3396 Y19.4181
X386.2845 Y19.3828
X386.2527 Y19.3648
X386.2136 Y19.3447
X386.1744 Y19.3269
X386.1194 Y19.3053
X386.0643 Y19.2875
X386.0092 Y19.2733
X385.9542 Y19.2626
X385.8954 Y19.2548
X385.8441 Y19.251
X385.734 Y19.25
X20.2661
X20.1559 Y19.251
X20.1047 Y19.2548
X20.0458 Y19.2626
X19.9908 Y19.2733
X19.9357 Y19.2875
X19.8807 Y19.3053
X19.8256 Y19.3269
X19.7864 Y19.3447
X19.7473 Y19.3648
X19.7155 Y19.3829
X19.6604 Y19.4181
X19.6054 Y19.4591
X19.5863 Y19.4748
X19.5408 Y19.516
X19.4953 Y19.563
X19.4761 Y19.5849
X19.4327 Y19.6399
X19.3954 Y19.6949
X19.3852 Y19.7117
X19.359 Y19.7583
X19.3361 Y19.8049
X19.313 Y19.8599
X19.2938 Y19.9149
X19.275 Y19.9835
X19.2663 Y20.0249
X19.2576 Y20.08
X19.2523 Y20.135
X19.25 Y20.245
Y57.0681
Y69.755
X19.2523 Y69.865
X19.2576 Y69.92
X19.2663 Y69.9751
X19.275 Y70.0165
X19.2938 Y70.0851
X19.313 Y70.1401
X19.3361 Y70.1951
X19.359 Y70.2417
X19.3852 Y70.2883
X19.3954 Y70.3051
X19.4327 Y70.3601
X19.4761 Y70.4151
X19.4953 Y70.437
X19.5408 Y70.484
X19.5863 Y70.5252
X19.6054 Y70.5409
X19.6604 Y70.5819
X19.7155 Y70.6171
X19.7473 Y70.6352
X19.7865 Y70.6553
X19.8256 Y70.6731
X19.8807 Y70.6947
X19.9357 Y70.7125
X19.9908 Y70.7267
X20.0458 Y70.7374
X20.1047 Y70.7452
X20.1559 Y70.749
X20.2661 Y70.75
X43.0649
X43.2585 Z-3.0001
X43.4521 Z-3.0004
X43.6456 Z-3.0008
X43.8392 Z-3.0015
X44.0328 Z-3.0023
X44.2264 Z-3.0033
X44.4199 Z-3.0045
X44.6135 Z-3.0058
X44.8071 Z-3.0073
X45.0007 Z-3.009
X45.1942 Z-3.0109
X45.3878 Z-3.0129
X45.5814 Z-3.0151
X45.775 Z-3.0174
X45.9685 Z-3.0199
X46.1621 Z-3.0225
X46.3557 Z-3.0253
X46.5493 Z-3.0283
X46.7428 Z-3.0314
X46.9364 Z-3.0347
X47.13 Z-3.0381
X47.3236 Z-3.0416
X47.5171 Z-3.0453
X47.7107 Z-3.0491
X47.9043 Z-3.0531
X48.0979 Z-3.0572
X48.2914 Z-3.0614
X48.485 Z-3.0658
X48.6786 Z-3.0702
X48.8722 Z-3.0749
X49.0657 Z-3.0796
X49.2593 Z-3.0845
X49.4529 Z-3.0894
X49.5497 Z-3.092
X49.6465 Z-3.0945
X49.7432 Z-3.0971
X49.84 Z-3.0997
X49.9368 Z-3.1024
X50.0336 Z-3.1051
X50.1304 Z-3.1078
X50.2272 Z-3.1105
X50.324 Z-3.1133
X50.4208 Z-3.1161
X50.5175 Z-3.1189
X50.6143 Z-3.1217
X50.7111 Z-3.1246
X50.8079 Z-3.1275
X50.9047 Z-3.1304
X51.0015 Z-3.1334
X51.0983 Z-3.1363
X51.1951 Z-3.1393
X51.2918 Z-3.1423
X51.3886 Z-3.1454
X51.4854 Z-3.1485
X51.5822 Z-3.1516
X51.679 Z-3.1547
X51.7758 Z-3.1578
X51.8726 Z-3.161
X51.9694 Z-3.1642
X52.0661 Z-3.1674
X52.1629 Z-3.1706
X52.2597 Z-3.1739
X52.3565 Z-3.1772
X52.4533 Z-3.1805
X52.5501 Z-3.1838
X52.6469 Z-3.1871
X52.8404 Z-3.1939
X52.9372 Z-3.1972
X53.034 Z-3.2006
X53.1308 Z-3.204
X53.2276 Z-3.2074
X53.3244 Z-3.2108
X53.4212 Z-3.2141
X53.518 Z-3.2175
X53.6147 Z-3.2209
X53.7115 Z-3.2243
X53.8083 Z-3.2277
X53.9051 Z-3.231
X54.0019 Z-3.2344
X54.1955 Z-3.2412
X54.4858 Z-3.2513
X54.7762 Z-3.2614
X55.0666 Z-3.2716
X55.3569 Z-3.2817
X55.6473 Z-3.2919
X55.9376 Z-3.302
X56.228 Z-3.3121
X56.5184 Z-3.3223
X56.8087 Z-3.3324
X57.0991 Z-3.3426
X57.583 Z-3.3595
X58.067 Z-3.3764
X58.5509 Z-3.3933
X59.2284 Z-3.4169
X60.0995 Z-3.4473
X61.5513 Z-3.498
X68.52 Z-3.7413
X68.8103 Z-3.7515
X69.1007 Z-3.7616
X69.1975 Z-3.765
X69.2943 Z-3.7684
X69.3911 Z-3.7717
X69.4879 Z-3.7751
X69.5846 Z-3.7785
X69.6814 Z-3.7819
X69.7782 Z-3.7853
X69.875 Z-3.7886
X69.9718 Z-3.792
X70.0686 Z-3.7954
X70.1654 Z-3.7988
X70.2622 Z-3.8022
X70.3589 Z-3.8055
X70.4557 Z-3.8089
X70.5525 Z-3.8123
X70.6493 Z-3.8156
X70.7461 Z-3.819
X70.8429 Z-3.8223
X70.9397 Z-3.8255
X71.0365 Z-3.8288
X71.1332 Z-3.832
X71.23 Z-3.8353
X71.3268 Z-3.8385
X71.4236 Z-3.8416
X71.5204 Z-3.8448
X71.6172 Z-3.8479
X71.714 Z-3.851
X71.8108 Z-3.8541
X71.9075 Z-3.8571
X72.0043 Z-3.8601
X72.1011 Z-3.8631
X72.1979 Z-3.8661
X72.2947 Z-3.8691
X72.3915 Z-3.872
X72.4883 Z-3.8749
X72.5851 Z-3.8778
X72.6818 Z-3.8806
X72.7786 Z-3.8834
X72.8754 Z-3.8862
X72.9722 Z-3.889
X73.069 Z-3.8917
X73.1658 Z-3.8945
X73.2626 Z-3.8971
X73.3594 Z-3.8998
X73.4561 Z-3.9024
X73.5529 Z-3.905
X73.6497 Z-3.9076
X73.7465 Z-3.9101
X73.8433 Z-3.9126
X74.0369 Z-3.9176
X74.2304 Z-3.9224
X74.424 Z-3.9271
X74.6176 Z-3.9316
X74.8112 Z-3.9361
X75.0047 Z-3.9404
X75.1983 Z-3.9445
X75.3919 Z-3.9486
X75.5855 Z-3.9525
X75.779 Z-3.9562
X75.9726 Z-3.9599
X76.1662 Z-3.9634
X76.3598 Z-3.9667
X76.5533 Z-3.9699
X76.7469 Z-3.9729
X76.9405 Z-3.9758
X77.1341 Z-3.9786
X77.3276 Z-3.9812
X77.5212 Z-3.9836
X77.7148 Z-3.9859
X77.9084 Z-3.988
X78.1019 Z-3.9899
X78.2955 Z-3.9917
X78.4891 Z-3.9933
X78.6827 Z-3.9948
X78.8762 Z-3.996
X79.0698 Z-3.9971
X79.2634 Z-3.9981
X79.457 Z-3.9988
X79.6505 Z-3.9994
X79.8441 Z-3.9998
X80.0377 Z-4
X80.1515
X385.734
X385.8441 Y70.749
X385.8953 Y70.7452
X385.9542 Y70.7374
X386.0092 Y70.7267
X386.0643 Y70.7125
X386.1194 Y70.6947
X386.1744 Y70.6731
X386.2136 Y70.6553
X386.2527 Y70.6352
X386.2845 Y70.6171
X386.3396 Y70.5819
X386.3947 Y70.5409
X386.4137 Y70.5252
X386.4593 Y70.484
X386.5048 Y70.437
X386.524 Y70.4151
X386.5673 Y70.3601
X386.6046 Y70.3051
X386.6149 Y70.2884
X386.6411 Y70.2417
X386.664 Y70.1951
X386.6871 Y70.1401
X386.7062 Y70.0851
X386.725 Y70.0166
X386.7338 Y69.9751
X386.7424 Y69.92
X386.7478 Y69.865
X386.75 Y69.755
Y20.245
X386.7478 Y20.135
X386.7424 Y20.08
X386.7338 Y20.0249
X386.725 Y19.9834
X386.7062 Y19.9149
X386.6871 Y19.8599
X386.664 Y19.8049
X386.6411 Y19.7583
X386.6149 Y19.7116
X386.6046 Y19.6949
X386.5673 Y19.6399
X386.524 Y19.5849
X386.5048 Y19.5629
X386.4593 Y19.516
X386.4137 Y19.4748
X386.3947 Y19.4591
X386.3396 Y19.4181
X386.2845 Y19.3828
X386.2527 Y19.3648
X386.2136 Y19.3447
X386.1744 Y19.3269
X386.1194 Y19.3053
X386.0643 Y19.2875
X386.0092 Y19.2733
X385.9542 Y19.2626
X385.8954 Y19.2548
X385.8441 Y19.251
X385.734 Y19.25
X20.2661
X20.1559 Y19.251
X20.1047 Y19.2548
X20.0458 Y19.2626
X19.9908 Y19.2733
X19.9357 Y19.2875
X19.8807 Y19.3053
X19.8256 Y19.3269
X19.7864 Y19.3447
X19.7473 Y19.3648
X19.7155 Y19.3829
X19.6604 Y19.4181
X19.6054 Y19.4591
X19.5863 Y19.4748
X19.5408 Y19.516
X19.4953 Y19.563
X19.4761 Y19.5849
X19.4327 Y19.6399
X19.3954 Y19.6949
X19.3852 Y19.7117
X19.359 Y19.7583
X19.3361 Y19.8049
X19.313 Y19.8599
X19.2938 Y19.9149
X19.275 Y19.9835
X19.2663 Y20.0249
X19.2576 Y20.08
X19.2523 Y20.135
X19.25 Y20.245
Y69.755
X19.2523 Y69.865
X19.2576 Y69.92
X19.2663 Y69.9751
X19.275 Y70.0165
X19.2938 Y70.0851
X19.313 Y70.1401
X19.3361 Y70.1951
X19.359 Y70.2417
X19.3852 Y70.2883
X19.3954 Y70.3051
X19.4327 Y70.3601
X19.4761 Y70.4151
X19.4953 Y70.437
X19.5408 Y70.484
X19.5863 Y70.5252
X19.6054 Y70.5409
X19.6604 Y70.5819
X19.7155 Y70.6171
X19.7473 Y70.6352
X19.7865 Y70.6553
X19.8256 Y70.6731
X19.8807 Y70.6947
X19.9357 Y70.7125
X19.9908 Y70.7267
X20.0458 Y70.7374
X20.1047 Y70.7452
X20.1559 Y70.749
X20.2661 Y70.75
X80.1515
X80.3451 Z-4.0001
X80.5386 Z-4.0004
X80.7322 Z-4.0008
X80.9258 Z-4.0015
X81.1194 Z-4.0023
X81.3129 Z-4.0033
X81.5065 Z-4.0045
X81.7001 Z-4.0058
X81.8937 Z-4.0073
X82.0872 Z-4.009
X82.2808 Z-4.0109
X82.4744 Z-4.0129
X82.668 Z-4.0151
X82.8615 Z-4.0174
X83.0551 Z-4.0199
X83.2487 Z-4.0225
X83.4423 Z-4.0253
X83.6358 Z-4.0283
X83.8294 Z-4.0314
X84.023 Z-4.0347
X84.2166 Z-4.0381
X84.4101 Z-4.0416
X84.6037 Z-4.0453
X84.7973 Z-4.0491
X84.9909 Z-4.0531
X85.1844 Z-4.0572
X85.378 Z-4.0614
X85.5716 Z-4.0658
X85.7652 Z-4.0702
X85.9587 Z-4.0749
X86.1523 Z-4.0796
X86.3459 Z-4.0845
X86.5395 Z-4.0894
X86.6362 Z-4.092
X86.733 Z-4.0945
X86.8298 Z-4.0971
X86.9266 Z-4.0997
X87.0234 Z-4.1024
X87.1202 Z-4.1051
X87.217 Z-4.1078
X87.3137 Z-4.1105
X87.4105 Z-4.1133
X87.5073 Z-4.1161
X87.6041 Z-4.1189
X87.7009 Z-4.1217
X87.7977 Z-4.1246
X87.8945 Z-4.1275
X87.9913 Z-4.1304
X88.088 Z-4.1334
X88.1848 Z-4.1363
X88.2816 Z-4.1393
X88.3784 Z-4.1423
X88.4752 Z-4.1454
X88.572 Z-4.1485
X88.6688 Z-4.1516
X88.7656 Z-4.1547
X88.8623 Z-4.1578
X88.9591 Z-4.161
X89.0559 Z-4.1642
X89.1527 Z-4.1674
X89.2495 Z-4.1706
X89.3463 Z-4.1739
X89.4431 Z-4.1772
X89.5399 Z-4.1805
X89.6366 Z-4.1838
X89.7334 Z-4.1871
X89.927 Z-4.1939
X90.0238 Z-4.1972
X90.1206 Z-4.2006
X90.2174 Z-4.204
X90.3142 Z-4.2074
X90.4109 Z-4.2108
X90.5077 Z-4.2141
X90.6045 Z-4.2175
X90.7013 Z-4.2209
X90.7981 Z-4.2243
X90.8949 Z-4.2277
X90.9917 Z-4.231
X91.0885 Z-4.2344
X91.282 Z-4.2412
X91.5724 Z-4.2513
X91.8628 Z-4.2614
X92.1531 Z-4.2716
X92.4435 Z-4.2817
X92.7338 Z-4.2919
X93.0242 Z-4.302
X93.3146 Z-4.3121
X93.6049 Z-4.3223
X93.8953 Z-4.3324
X94.1856 Z-4.3426
X94.6696 Z-4.3595
X95.1535 Z-4.3764
X95.6375 Z-4.3933
X96.315 Z-4.4169
X97.1861 Z-4.4473
X98.6379 Z-4.498
X105.6066 Z-4.7413
X105.8969 Z-4.7515
X106.1873 Z-4.7616
X106.2841 Z-4.765
X106.3809 Z-4.7684
X106.4776 Z-4.7717
X106.5744 Z-4.7751
X106.6712 Z-4.7785
X106.768 Z-4.7819
X106.8648 Z-4.7853
X106.9616 Z-4.7886
X107.0584 Z-4.792
X107.1552 Z-4.7954
X107.2519 Z-4.7988
X107.3487 Z-4.8022
X107.4455 Z-4.8055
X107.5423 Z-4.8089
X107.6391 Z-4.8123
X107.7359 Z-4.8156
X107.8327 Z-4.819
X107.9295 Z-4.8223
X108.0262 Z-4.8255
X108.123 Z-4.8288
X108.2198 Z-4.832
X108.3166 Z-4.8353
X108.4134 Z-4.8385
X108.5102 Z-4.8416
X108.607 Z-4.8448
X108.7038 Z-4.8479
X108.8005 Z-4.851
X108.8973 Z-4.8541
X108.9941 Z-4.8571
X109.0909 Z-4.8601
X109.1877 Z-4.8631
X109.2845 Z-4.8661
X109.3813 Z-4.8691
X109.4781 Z-4.872
X109.5748 Z-4.8749
X109.6716 Z-4.8778
X109.7684 Z-4.8806
X109.8652 Z-4.8834
X109.962 Z-4.8862
X110.0588 Z-4.889
X110.1556 Z-4.8917
X110.2523 Z-4.8945
X110.3491 Z-4.8971
X110.4459 Z-4.8998
X110.5427 Z-4.9024
X110.6395 Z-4.905
X110.7363 Z-4.9076
X110.8331 Z-4.9101
X110.9299 Z-4.9126
X111.1234 Z-4.9176
X111.317 Z-4.9224
X111.5106 Z-4.9271
X111.7042 Z-4.9316
X111.8977 Z-4.9361
X112.0913 Z-4.9404
X112.2849 Z-4.9445
X112.4785 Z-4.9486
X112.672 Z-4.9525
X112.8656 Z-4.9562
X113.0592 Z-4.9599
X113.2528 Z-4.9634
X113.4463 Z-4.9667
X113.6399 Z-4.9699
X113.8335 Z-4.9729
X114.0271 Z-4.9758
X114.2206 Z-4.9786
X114.4142 Z-4.9812
X114.6078 Z-4.9836
X114.8014 Z-4.9859
X114.9949 Z-4.988
X115.1885 Z-4.9899
X115.3821 Z-4.9917
X115.5757 Z-4.9933
X115.7692 Z-4.9948
X115.9628 Z-4.996
X116.1564 Z-4.9971
X116.3499 Z-4.9981
X116.5435 Z-4.9988
X116.7371 Z-4.9994
X116.9307 Z-4.9998
X117.1242 Z-5
X117.2381
X385.734
X385.8441 Y70.749
X385.8953 Y70.7452
X385.9542 Y70.7374
X386.0092 Y70.7267
X386.0643 Y70.7125
X386.1194 Y70.6947
X386.1744 Y70.6731
X386.2136 Y70.6553
X386.2527 Y70.6352
X386.2845 Y70.6171
X386.3396 Y70.5819
X386.3947 Y70.5409
X386.4137 Y70.5252
X386.4593 Y70.484
X386.5048 Y70.437
X386.524 Y70.4151
X386.5673 Y70.3601
X386.6046 Y70.3051
X386.6149 Y70.2884
X386.6411 Y70.2417
X386.664 Y70.1951
X386.6871 Y70.1401
X386.7062 Y70.0851
X386.725 Y70.0166
X386.7338 Y69.9751
X386.7424 Y69.92
X386.7478 Y69.865
X386.75 Y69.755
Y20.245
X386.7478 Y20.135
X386.7424 Y20.08
X386.7338 Y20.0249
X386.725 Y19.9834
X386.7062 Y19.9149
X386.6871 Y19.8599
X386.664 Y19.8049
X386.6411 Y19.7583
X386.6149 Y19.7116
X386.6046 Y19.6949
X386.5673 Y19.6399
X386.524 Y19.5849
X386.5048 Y19.5629
X386.4593 Y19.516
X386.4137 Y19.4748
X386.3947 Y19.4591
X386.3396 Y19.4181
X386.2845 Y19.3828
X386.2527 Y19.3648
X386.2136 Y19.3447
X386.1744 Y19.3269
X386.1194 Y19.3053
X386.0643 Y19.2875
X386.0092 Y19.2733
X385.9542 Y19.2626
X385.8954 Y19.2548
X385.8441 Y19.251
X385.734 Y19.25
X20.2661
X20.1559 Y19.251
X20.1047 Y19.2548
X20.0458 Y19.2626
X19.9908 Y19.2733
X19.9357 Y19.2875
X19.8807 Y19.3053
X19.8256 Y19.3269
X19.7864 Y19.3447
X19.7473 Y19.3648
X19.7155 Y19.3829
X19.6604 Y19.4181
X19.6054 Y19.4591
X19.5863 Y19.4748
X19.5408 Y19.516
X19.4953 Y19.563
X19.4761 Y19.5849
X19.4327 Y19.6399
X19.3954 Y19.6949
X19.3852 Y19.7117
X19.359 Y19.7583
X19.3361 Y19.8049
X19.313 Y19.8599
X19.2938 Y19.9149
X19.275 Y19.9835
X19.2663 Y20.0249
X19.2576 Y20.08
X19.2523 Y20.135
X19.25 Y20.245
Y69.755
X19.2523 Y69.865
X19.2576 Y69.92
X19.2663 Y69.9751
X19.275 Y70.0165
X19.2938 Y70.0851
X19.313 Y70.1401
X19.3361 Y70.1951
X19.359 Y70.2417
X19.3852 Y70.2883
X19.3954 Y70.3051
X19.4327 Y70.3601
X19.4761 Y70.4151
X19.4953 Y70.437
X19.5408 Y70.484
X19.5863 Y70.5252
X19.6054 Y70.5409
X19.6604 Y70.5819
X19.7155 Y70.6171
X19.7473 Y70.6352
X19.7865 Y70.6553
X19.8256 Y70.6731
X19.8807 Y70.6947
X19.9357 Y70.7125
X19.9908 Y70.7267
X20.0458 Y70.7374
X20.1047 Y70.7452
X20.1559 Y70.749
X20.2661 Y70.75
X80.1515
X117.2381
X117.4316 Z-5.0001
X117.6252 Z-5.0004
X117.8188 Z-5.0008
X118.0123 Z-5.0015
X118.2059 Z-5.0023
X118.3995 Z-5.0033
X118.5931 Z-5.0045
X118.7866 Z-5.0058
X118.9802 Z-5.0073
X119.1738 Z-5.009
X119.3674 Z-5.0109
X119.5609 Z-5.0129
X119.7545 Z-5.0151
X119.9481 Z-5.0174
X120.1417 Z-5.0199
X120.3352 Z-5.0225
X120.5288 Z-5.0253
X120.7224 Z-5.0283
X120.916 Z-5.0314
X121.1095 Z-5.0347
X121.3031 Z-5.0381
X121.4967 Z-5.0416
X121.6903 Z-5.0453
X121.8838 Z-5.0491
X122.0774 Z-5.0531
X122.271 Z-5.0572
X122.4646 Z-5.0614
X122.6581 Z-5.0658
X122.8517 Z-5.0702
X123.0453 Z-5.0749
X123.2389 Z-5.0796
X123.4324 Z-5.0845
X123.626 Z-5.0894
X123.7228 Z-5.092
X123.8196 Z-5.0945
X123.9164 Z-5.0971
X124.0132 Z-5.0997
X124.1099 Z-5.1024
X124.2067 Z-5.1051
X124.3035 Z-5.1078
X124.4003 Z-5.1105
X124.4971 Z-5.1133
X124.5939 Z-5.1161
X124.6907 Z-5.1189
X124.7875 Z-5.1217
X124.8842 Z-5.1246
X124.981 Z-5.1275
X125.0778 Z-5.1304
X125.1746 Z-5.1334
X125.2714 Z-5.1363
X125.3682 Z-5.1393
X125.465 Z-5.1423
X125.5618 Z-5.1454
X125.6585 Z-5.1485
X125.7553 Z-5.1516
X125.8521 Z-5.1547
X125.9489 Z-5.1578
X126.0457 Z-5.161
X126.1425 Z-5.1642
X126.2393 Z-5.1674
X126.3361 Z-5.1706
X126.4328 Z-5.1739
X126.5296 Z-5.1772
X126.6264 Z-5.1805
X126.7232 Z-5.1838
X126.82 Z-5.1871
X127.0136 Z-5.1939
X127.1104 Z-5.1972
X127.2071 Z-5.2006
X127.3039 Z-5.204
X127.4007 Z-5.2074
X127.4975 Z-5.2108
X127.5943 Z-5.2141
X127.6911 Z-5.2175
X127.7879 Z-5.2209
X127.8847 Z-5.2243
X127.9814 Z-5.2277
X128.0782 Z-5.231
X128.175 Z-5.2344
X128.3686 Z-5.2412
X128.659 Z-5.2513
X128.9493 Z-5.2614
X129.2397 Z-5.2716
X129.53 Z-5.2817
X129.8204 Z-5.2919
X130.1108 Z-5.302
X130.4011 Z-5.3121
X130.6915 Z-5.3223
X130.9819 Z-5.3324
X131.2722 Z-5.3426
X131.7561 Z-5.3595
X132.2401 Z-5.3764
X132.724 Z-5.3933
X133.4015 Z-5.4169
X134.2726 Z-5.4473
X135.7244 Z-5.498
X142.6931 Z-5.7413
X142.9835 Z-5.7515
X143.2738 Z-5.7616
X143.3706 Z-5.765
X143.4674 Z-5.7684
X143.5642 Z-5.7717
X143.661 Z-5.7751
X143.7578 Z-5.7785
X143.8546 Z-5.7819
X143.9514 Z-5.7853
X144.0481 Z-5.7886
X144.1449 Z-5.792
X144.2417 Z-5.7954
X144.3385 Z-5.7988
X144.4353 Z-5.8022
X144.5321 Z-5.8055
X144.6289 Z-5.8089
X144.7256 Z-5.8123
X144.8224 Z-5.8156
X144.9192 Z-5.819
X145.016 Z-5.8223
X145.1128 Z-5.8255
X145.2096 Z-5.8288
X145.3064 Z-5.832
X145.4032 Z-5.8353
X145.5 Z-5.8385
X145.5967 Z-5.8416
X145.6935 Z-5.8448
X145.7903 Z-5.8479
X145.8871 Z-5.851
X145.9839 Z-5.8541
X146.0807 Z-5.8571
X146.1775 Z-5.8601
X146.2742 Z-5.8631
X146.371 Z-5.8661
X146.4678 Z-5.8691
X146.5646 Z-5.872
X146.6614 Z-5.8749
X146.7582 Z-5.8778
X146.855 Z-5.8806
X146.9518 Z-5.8834
X147.0486 Z-5.8862
X147.1453 Z-5.889
X147.2421 Z-5.8917
X147.3389 Z-5.8945
X147.4357 Z-5.8971
X147.5325 Z-5.8998
X147.6293 Z-5.9024
X147.7261 Z-5.905
X147.8228 Z-5.9076
X147.9196 Z-5.9101
X148.0164 Z-5.9126
X148.21 Z-5.9176
X148.4036 Z-5.9224
X148.5972 Z-5.9271
X148.7907 Z-5.9316
X148.9843 Z-5.9361
X149.1779 Z-5.9404
X149.3714 Z-5.9445
X149.565 Z-5.9486
X149.7586 Z-5.9525
X149.9522 Z-5.9562
X150.1457 Z-5.9599
X150.3393 Z-5.9634
X150.5329 Z-5.9667
X150.7265 Z-5.9699
X150.92 Z-5.9729
X151.1136 Z-5.9758
X151.3072 Z-5.9786
X151.5008 Z-5.9812
X151.6943 Z-5.9836
X151.8879 Z-5.9859
X152.0815 Z-5.988
X152.2751 Z-5.9899
X152.4686 Z-5.9917
X152.6622 Z-5.9933
X152.8558 Z-5.9948
X153.0494 Z-5.996
X153.2429 Z-5.9971
X153.4365 Z-5.9981
X153.6301 Z-5.9988
X153.8237 Z-5.9994
X154.0172 Z-5.9998
X154.2108 Z-6
X154.3246
X385.734
X385.8441 Y70.749
X385.8953 Y70.7452
X385.9542 Y70.7374
X386.0092 Y70.7267
X386.0643 Y70.7125
X386.1194 Y70.6947
X386.1744 Y70.6731
X386.2136 Y70.6553
X386.2527 Y70.6352
X386.2845 Y70.6171
X386.3396 Y70.5819
X386.3947 Y70.5409
X386.4137 Y70.5252
X386.4593 Y70.484
X386.5048 Y70.437
X386.524 Y70.4151
X386.5673 Y70.3601
X386.6046 Y70.3051
X386.6149 Y70.2884
X386.6411 Y70.2417
X386.664 Y70.1951
X386.6871 Y70.1401
X386.7062 Y70.0851
X386.725 Y70.0166
X386.7338 Y69.9751
X386.7424 Y69.92
X386.7478 Y69.865
X386.75 Y69.755
Y20.245
X386.7478 Y20.135
X386.7424 Y20.08
X386.7338 Y20.0249
X386.725 Y19.9834
X386.7062 Y19.9149
X386.6871 Y19.8599
X386.664 Y19.8049
X386.6411 Y19.7583
X386.6149 Y19.7116
X386.6046 Y19.6949
X386.5673 Y19.6399
X386.524 Y19.5849
X386.5048 Y19.5629
X386.4593 Y19.516
X386.4137 Y19.4748
X386.3947 Y19.4591
X386.3396 Y19.4181
X386.2845 Y19.3828
X386.2527 Y19.3648
X386.2136 Y19.3447
X386.1744 Y19.3269
X386.1194 Y19.3053
X386.0643 Y19.2875
X386.0092 Y19.2733
X385.9542 Y19.2626
X385.8954 Y19.2548
X385.8441 Y19.251
X385.734 Y19.25
X20.2661
X20.1559 Y19.251
X20.1047 Y19.2548
X20.0458 Y19.2626
X19.9908 Y19.2733
X19.9357 Y19.2875
X19.8807 Y19.3053
X19.8256 Y19.3269
X19.7864 Y19.3447
X19.7473 Y19.3648
X19.7155 Y19.3829
X19.6604 Y19.4181
X19.6054 Y19.4591
X19.5863 Y19.4748
X19.5408 Y19.516
X19.4953 Y19.563
X19.4761 Y19.5849
X19.4327 Y19.6399
X19.3954 Y19.6949
X19.3852 Y19.7117
X19.359 Y19.7583
X19.3361 Y19.8049
X19.313 Y19.8599
X19.2938 Y19.9149
X19.275 Y19.9835
X19.2663 Y20.0249
X19.2576 Y20.08
X19.2523 Y20.135
X19.25 Y20.245
Y69.755
X19.2523 Y69.865
X19.2576 Y69.92
X19.2663 Y69.9751
X19.275 Y70.0165
X19.2938 Y70.0851
X19.313 Y70.1401
X19.3361 Y70.1951
X19.359 Y70.2417
X19.3852 Y70.2883
X19.3954 Y70.3051
X19.4327 Y70.3601
X19.4761 Y70.4151
X19.4953 Y70.437
X19.5408 Y70.484
X19.5863 Y70.5252
X19.6054 Y70.5409
X19.6604 Y70.5819
X19.7155 Y70.6171
X19.7473 Y70.6352
X19.7865 Y70.6553
X19.8256 Y70.6731
X19.8807 Y70.6947
X19.9357 Y70.7125
X19.9908 Y70.7267
X20.0458 Y70.7374
X20.1047 Y70.7452
X20.1559 Y70.749
X20.2661 Y70.75
X117.2381
X154.3246
X154.5182 Z-6.0001
X154.7118 Z-6.0004
X154.9053 Z-6.0008
X155.0989 Z-6.0015
X155.2925 Z-6.0023
X155.4861 Z-6.0033
X155.6796 Z-6.0045
X155.8732 Z-6.0058
X156.0668 Z-6.0073
X156.2604 Z-6.009
X156.4539 Z-6.0109
X156.6475 Z-6.0129
X156.8411 Z-6.0151
X157.0347 Z-6.0174
X157.2282 Z-6.0199
X157.4218 Z-6.0225
X157.6154 Z-6.0253
X157.809 Z-6.0283
X158.0025 Z-6.0314
X158.1961 Z-6.0347
X158.3897 Z-6.0381
X158.5833 Z-6.0416
X158.7768 Z-6.0453
X158.9704 Z-6.0491
X159.164 Z-6.0531
X159.3576 Z-6.0572
X159.5511 Z-6.0614
X159.7447 Z-6.0658
X159.9383 Z-6.0702
X160.1319 Z-6.0749
X160.3254 Z-6.0796
X160.519 Z-6.0845
X160.7126 Z-6.0894
X160.8094 Z-6.092
X160.9062 Z-6.0945
X161.0029 Z-6.0971
X161.0997 Z-6.0997
X161.1965 Z-6.1024
X161.2933 Z-6.1051
X161.3901 Z-6.1078
X161.4869 Z-6.1105
X161.5837 Z-6.1133
X161.6805 Z-6.1161
X161.7772 Z-6.1189
X161.874 Z-6.1217
X161.9708 Z-6.1246
X162.0676 Z-6.1275
X162.1644 Z-6.1304
X162.2612 Z-6.1334
X162.358 Z-6.1363
X162.4547 Z-6.1393
X162.5515 Z-6.1423
X162.6483 Z-6.1454
X162.7451 Z-6.1485
X162.8419 Z-6.1516
X162.9387 Z-6.1547
X163.0355 Z-6.1578
X163.1323 Z-6.161
X163.229 Z-6.1642
X163.3258 Z-6.1674
X163.4226 Z-6.1706
X163.5194 Z-6.1739
X163.6162 Z-6.1772
X163.713 Z-6.1805
X163.8098 Z-6.1838
X163.9066 Z-6.1871
X164.1001 Z-6.1939
X164.1969 Z-6.1972
X164.2937 Z-6.2006
X164.3905 Z-6.204
X164.4873 Z-6.2074
X164.5841 Z-6.2108
X164.6809 Z-6.2141
X164.7776 Z-6.2175
X164.8744 Z-6.2209
X164.9712 Z-6.2243
X165.068 Z-6.2277
X165.1648 Z-6.231
X165.2616 Z-6.2344
X165.4552 Z-6.2412
X165.7455 Z-6.2513
X166.0359 Z-6.2614
X166.3262 Z-6.2716
X166.6166 Z-6.2817
X166.907 Z-6.2919
X167.1973 Z-6.302
X167.4877 Z-6.3121
X167.778 Z-6.3223
X168.0684 Z-6.3324
X168.3588 Z-6.3426
X168.8427 Z-6.3595
X169.3266 Z-6.3764
X169.8106 Z-6.3933
X170.4881 Z-6.4169
X171.3592 Z-6.4473
X172.811 Z-6.498
X179.7797 Z-6.7413
X180.07 Z-6.7515
X180.3604 Z-6.7616
X180.4572 Z-6.765
X180.554 Z-6.7684
X180.6508 Z-6.7717
X180.7476 Z-6.7751
X180.8443 Z-6.7785
X180.9411 Z-6.7819
X181.0379 Z-6.7853
X181.1347 Z-6.7886
X181.2315 Z-6.792
X181.3283 Z-6.7954
X181.4251 Z-6.7988
X181.5219 Z-6.8022
X181.6186 Z-6.8055
X181.7154 Z-6.8089
X181.8122 Z-6.8123
X181.909 Z-6.8156
X182.0058 Z-6.819
X182.1026 Z-6.8223
X182.1994 Z-6.8255
X182.2962 Z-6.8288
X182.3929 Z-6.832
X182.4897 Z-6.8353
X182.5865 Z-6.8385
X182.6833 Z-6.8416
X182.7801 Z-6.8448
X182.8769 Z-6.8479
X182.9737 Z-6.851
X183.0704 Z-6.8541
X183.1672 Z-6.8571
X183.264 Z-6.8601
X183.3608 Z-6.8631
X183.4576 Z-6.8661
X183.5544 Z-6.8691
X183.6512 Z-6.872
X183.748 Z-6.8749
X183.8448 Z-6.8778
X183.9415 Z-6.8806
X184.0383 Z-6.8834
X184.1351 Z-6.8862
X184.2319 Z-6.889
X184.3287 Z-6.8917
X184.4255 Z-6.8945
X184.5223 Z-6.8971
X184.619 Z-6.8998
X184.7158 Z-6.9024
X184.8126 Z-6.905
X184.9094 Z-6.9076
X185.0062 Z-6.9101
X185.103 Z-6.9126
X185.2966 Z-6.9176
X185.4901 Z-6.9224
X185.6837 Z-6.9271
X185.8773 Z-6.9316
X186.0709 Z-6.9361
X186.2644 Z-6.9404
X186.458 Z-6.9445
X186.6516 Z-6.9486
X186.8452 Z-6.9525
X187.0387 Z-6.9562
X187.2323 Z-6.9599
X187.4259 Z-6.9634
X187.6195 Z-6.9667
X187.813 Z-6.9699
X188.0066 Z-6.9729
X188.2002 Z-6.9758
X188.3938 Z-6.9786
X188.5873 Z-6.9812
X188.7809 Z-6.9836
X188.9745 Z-6.9859
X189.1681 Z-6.988
X189.3616 Z-6.9899
X189.5552 Z-6.9917
X189.7488 Z-6.9933
X189.9424 Z-6.9948
X190.1359 Z-6.996
X190.3295 Z-6.9971
X190.5231 Z-6.9981
X190.7166 Z-6.9988
X190.9102 Z-6.9994
X191.1038 Z-6.9998
X191.2974 Z-7
X191.4112
X385.734
X385.8441 Y70.749
X385.8953 Y70.7452
X385.9542 Y70.7374
X386.0092 Y70.7267
X386.0643 Y70.7125
X386.1194 Y70.6947
X386.1744 Y70.6731
X386.2136 Y70.6553
X386.2527 Y70.6352
X386.2845 Y70.6171
X386.3396 Y70.5819
X386.3947 Y70.5409
X386.4137 Y70.5252
X386.4593 Y70.484
X386.5048 Y70.437
X386.524 Y70.4151
X386.5673 Y70.3601
X386.6046 Y70.3051
X386.6149 Y70.2884
X386.6411 Y70.2417
X386.664 Y70.1951
X386.6871 Y70.1401
X386.7062 Y70.0851
X386.725 Y70.0166
X386.7338 Y69.9751
X386.7424 Y69.92
X386.7478 Y69.865
X386.75 Y69.755
Y20.245
X386.7478 Y20.135
X386.7424 Y20.08
X386.7338 Y20.0249
X386.725 Y19.9834
X386.7062 Y19.9149
X386.6871 Y19.8599
X386.664 Y19.8049
X386.6411 Y19.7583
X386.6149 Y19.7116
X386.6046 Y19.6949
X386.5673 Y19.6399
X386.524 Y19.5849
X386.5048 Y19.5629
X386.4593 Y19.516
X386.4137 Y19.4748
X386.3947 Y19.4591
X386.3396 Y19.4181
X386.2845 Y19.3828
X386.2527 Y19.3648
X386.2136 Y19.3447
X386.1744 Y19.3269
X386.1194 Y19.3053
X386.0643 Y19.2875
X386.0092 Y19.2733
X385.9542 Y19.2626
X385.8954 Y19.2548
X385.8441 Y19.251
X385.734 Y19.25
X20.2661
X20.1559 Y19.251
X20.1047 Y19.2548
X20.0458 Y19.2626
X19.9908 Y19.2733
X19.9357 Y19.2875
X19.8807 Y19.3053
X19.8256 Y19.3269
X19.7864 Y19.3447
X19.7473 Y19.3648
X19.7155 Y19.3829
X19.6604 Y19.4181
X19.6054 Y19.4591
X19.5863 Y19.4748
X19.5408 Y19.516
X19.4953 Y19.563
X19.4761 Y19.5849
X19.4327 Y19.6399
X19.3954 Y19.6949
X19.3852 Y19.7117
X19.359 Y19.7583
X19.3361 Y19.8049
X19.313 Y19.8599
X19.2938 Y19.9149
X19.275 Y19.9835
X19.2663 Y20.0249
X19.2576 Y20.08
X19.2523 Y20.135
X19.25 Y20.245
Y69.755
X19.2523 Y69.865
X19.2576 Y69.92
X19.2663 Y69.9751
X19.275 Y70.0165
X19.2938 Y70.0851
X19.313 Y70.1401
X19.3361 Y70.1951
X19.359 Y70.2417
X19.3852 Y70.2883
X19.3954 Y70.3051
X19.4327 Y70.3601
X19.4761 Y70.4151
X19.4953 Y70.437
X19.5408 Y70.484
X19.5863 Y70.5252
X19.6054 Y70.5409
X19.6604 Y70.5819
X19.7155 Y70.6171
X19.7473 Y70.6352
X19.7865 Y70.6553
X19.8256 Y70.6731
X19.8807 Y70.6947
X19.9357 Y70.7125
X19.9908 Y70.7267
X20.0458 Y70.7374
X20.1047 Y70.7452
X20.1559 Y70.749
X20.2661 Y70.75
X154.3246
X191.4112
X191.6048 Z-7.0001
X191.7983 Z-7.0004
X191.9919 Z-7.0008
X192.1855 Z-7.0015
X192.379 Z-7.0023
X192.5726 Z-7.0033
X192.7662 Z-7.0045
X192.9598 Z-7.0058
X193.1534 Z-7.0073
X193.3469 Z-7.009
X193.5405 Z-7.0109
X193.7341 Z-7.0129
X193.9276 Z-7.0151
X194.1212 Z-7.0174
X194.3148 Z-7.0199
X194.5084 Z-7.0225
X194.702 Z-7.0253
X194.8955 Z-7.0283
X195.0891 Z-7.0314
X195.2827 Z-7.0347
X195.4762 Z-7.0381
X195.6698 Z-7.0416
X195.8634 Z-7.0453
X196.057 Z-7.0491
X196.2505 Z-7.0531
X196.4441 Z-7.0572
X196.6377 Z-7.0614
X196.8313 Z-7.0658
X197.0248 Z-7.0702
X197.2184 Z-7.0749
X197.412 Z-7.0796
X197.6056 Z-7.0845
X197.7991 Z-7.0894
X197.8959 Z-7.092
X197.9927 Z-7.0945
X198.0895 Z-7.0971
X198.1863 Z-7.0997
X198.2831 Z-7.1024
X198.3799 Z-7.1051
X198.4767 Z-7.1078
X198.5734 Z-7.1105
X198.6702 Z-7.1133
X198.767 Z-7.1161
X198.8638 Z-7.1189
X198.9606 Z-7.1217
X199.0574 Z-7.1246
X199.1542 Z-7.1275
X199.2509 Z-7.1304
X199.3477 Z-7.1334
X199.4445 Z-7.1363
X199.5413 Z-7.1393
X199.6381 Z-7.1423
X199.7349 Z-7.1454
X199.8317 Z-7.1485
X199.9285 Z-7.1516
X200.0253 Z-7.1547
X200.122 Z-7.1578
X200.2188 Z-7.161
X200.3156 Z-7.1642
X200.4124 Z-7.1674
X200.5092 Z-7.1706
X200.606 Z-7.1739
X200.7028 Z-7.1772
X200.7995 Z-7.1805
X200.8963 Z-7.1838
X200.9931 Z-7.1871
X201.1867 Z-7.1939
X201.2835 Z-7.1972
X201.3803 Z-7.2006
X201.4771 Z-7.204
X201.5739 Z-7.2074
X201.6706 Z-7.2108
X201.7674 Z-7.2141
X201.8642 Z-7.2175
X201.961 Z-7.2209
X202.0578 Z-7.2243
X202.1546 Z-7.2277
X202.2514 Z-7.231
X202.3481 Z-7.2344
X202.5417 Z-7.2412
X202.8321 Z-7.2513
X203.1225 Z-7.2614
X203.4128 Z-7.2716
X203.7032 Z-7.2817
X203.9935 Z-7.2919
X204.2839 Z-7.302
X204.5742 Z-7.3121
X204.8646 Z-7.3223
X205.155 Z-7.3324
X205.4453 Z-7.3426
X205.9293 Z-7.3595
X206.4132 Z-7.3764
X206.8972 Z-7.3933
X207.5747 Z-7.4169
X208.4458 Z-7.4473
X209.8976 Z-7.498
X216.8662 Z-7.7413
X217.1566 Z-7.7515
X217.447 Z-7.7616
X217.5438 Z-7.765
X217.6405 Z-7.7684
X217.7373 Z-7.7717
X217.8341 Z-7.7751
X217.9309 Z-7.7785
X218.0277 Z-7.7819
X218.1245 Z-7.7853
X218.2213 Z-7.7886
X218.3181 Z-7.792
X218.4148 Z-7.7954
X218.5116 Z-7.7988
X218.6084 Z-7.8022
X218.7052 Z-7.8055
X218.802 Z-7.8089
X218.8988 Z-7.8123
X218.9956 Z-7.8156
X219.0924 Z-7.819
X219.1891 Z-7.8223
X219.2859 Z-7.8255
X219.3827 Z-7.8288
X219.4795 Z-7.832
X219.5763 Z-7.8353
X219.6731 Z-7.8385
X219.7699 Z-7.8416
X219.8667 Z-7.8448
X219.9634 Z-7.8479
X220.0602 Z-7.851
X220.157 Z-7.8541
X220.2538 Z-7.8571
X220.3506 Z-7.8601
X220.4474 Z-7.8631
X220.5442 Z-7.8661
X220.6409 Z-7.8691
X220.7377 Z-7.872
X220.8345 Z-7.8749
X220.9313 Z-7.8778
X221.0281 Z-7.8806
X221.1249 Z-7.8834
X221.2217 Z-7.8862
X221.3185 Z-7.889
X221.4153 Z-7.8917
X221.512 Z-7.8945
X221.6088 Z-7.8971
X221.7056 Z-7.8998
X221.8024 Z-7.9024
X221.8992 Z-7.905
X221.996 Z-7.9076
X222.0928 Z-7.9101
X222.1895 Z-7.9126
X222.3831 Z-7.9176
X222.5767 Z-7.9224
X222.7703 Z-7.9271
X222.9639 Z-7.9316
X223.1574 Z-7.9361
X223.351 Z-7.9404
X223.5446 Z-7.9445
X223.7381 Z-7.9486
X223.9317 Z-7.9525
X224.1253 Z-7.9562
X224.3189 Z-7.9599
X224.5125 Z-7.9634
X224.706 Z-7.9667
X224.8996 Z-7.9699
X225.0932 Z-7.9729
X225.2867 Z-7.9758
X225.4803 Z-7.9786
X225.6739 Z-7.9812
X225.8675 Z-7.9836
X226.0611 Z-7.9859
X226.2546 Z-7.988
X226.4482 Z-7.9899
X226.6418 Z-7.9917
X226.8353 Z-7.9933
X227.0289 Z-7.9948
X227.2225 Z-7.996
X227.4161 Z-7.9971
X227.6096 Z-7.9981
X227.8032 Z-7.9988
X227.9968 Z-7.9994
X228.1904 Z-7.9998
X228.3839 Z-8
X228.4977
X385.734
X385.8441 Y70.749
X385.8953 Y70.7452
X385.9542 Y70.7374
X386.0092 Y70.7267
X386.0643 Y70.7125
X386.1194 Y70.6947
X386.1744 Y70.6731
X386.2136 Y70.6553
X386.2527 Y70.6352
X386.2845 Y70.6171
X386.3396 Y70.5819
X386.3947 Y70.5409
X386.4137 Y70.5252
X386.4593 Y70.484
X386.5048 Y70.437
X386.524 Y70.4151
X386.5673 Y70.3601
X386.6046 Y70.3051
X386.6149 Y70.2884
X386.6411 Y70.2417
X386.664 Y70.1951
X386.6871 Y70.1401
X386.7062 Y70.0851
X386.725 Y70.0166
X386.7338 Y69.9751
X386.7424 Y69.92
X386.7478 Y69.865
X386.75 Y69.755
Y20.245
X386.7478 Y20.135
X386.7424 Y20.08
X386.7338 Y20.0249
X386.725 Y19.9834
X386.7062 Y19.9149
X386.6871 Y19.8599
X386.664 Y19.8049
X386.6411 Y19.7583
X386.6149 Y19.7116
X386.6046 Y19.6949
X386.5673 Y19.6399
X386.524 Y19.5849
X386.5048 Y19.5629
X386.4593 Y19.516
X386.4137 Y19.4748
X386.3947 Y19.4591
X386.3396 Y19.4181
X386.2845 Y19.3828
X386.2527 Y19.3648
X386.2136 Y19.3447
X386.1744 Y19.3269
X386.1194 Y19.3053
X386.0643 Y19.2875
X386.0092 Y19.2733
X385.9542 Y19.2626
X385.8954 Y19.2548
X385.8441 Y19.251
X385.734 Y19.25
X20.2661
X20.1559 Y19.251
X20.1047 Y19.2548
X20.0458 Y19.2626
X19.9908 Y19.2733
X19.9357 Y19.2875
X19.8807 Y19.3053
X19.8256 Y19.3269
X19.7864 Y19.3447
X19.7473 Y19.3648
X19.7155 Y19.3829
X19.6604 Y19.4181
X19.6054 Y19.4591
X19.5863 Y19.4748
X19.5408 Y19.516
X19.4953 Y19.563
X19.4761 Y19.5849
X19.4327 Y19.6399
X19.3954 Y19.6949
X19.3852 Y19.7117
X19.359 Y19.7583
X19.3361 Y19.8049
X19.313 Y19.8599
X19.2938 Y19.9149
X19.275 Y19.9835
X19.2663 Y20.0249
X19.2576 Y20.08
X19.2523 Y20.135
X19.25 Y20.245
Y69.755
X19.2523 Y69.865
X19.2576 Y69.92
X19.2663 Y69.9751
X19.275 Y70.0165
X19.2938 Y70.0851
X19.313 Y70.1401
X19.3361 Y70.1951
X19.359 Y70.2417
X19.3852 Y70.2883
X19.3954 Y70.3051
X19.4327 Y70.3601
X19.4761 Y70.4151
X19.4953 Y70.437
X19.5408 Y70.484
X19.5863 Y70.5252
X19.6054 Y70.5409
X19.6604 Y70.5819
X19.7155 Y70.6171
X19.7473 Y70.6352
X19.7865 Y70.6553
X19.8256 Y70.6731
X19.8807 Y70.6947
X19.9357 Y70.7125
X19.9908 Y70.7267
X20.0458 Y70.7374
X20.1047 Y70.7452
X20.1559 Y70.749
X20.2661 Y70.75
X191.4112
X228.4977
X228.6913 Z-8.0001
X228.8849 Z-8.0004
X229.0785 Z-8.0008
X229.272 Z-8.0015
X229.4656 Z-8.0023
X229.6592 Z-8.0033
X229.8528 Z-8.0045
X230.0463 Z-8.0058
X230.2399 Z-8.0073
X230.4335 Z-8.009
X230.6271 Z-8.0109
X230.8206 Z-8.0129
X231.0142 Z-8.0151
X231.2078 Z-8.0174
X231.4014 Z-8.0199
X231.5949 Z-8.0225
X231.7885 Z-8.0253
X231.9821 Z-8.0283
X232.1757 Z-8.0314
X232.3692 Z-8.0347
X232.5628 Z-8.0381
X232.7564 Z-8.0416
X232.95 Z-8.0453
X233.1435 Z-8.0491
X233.3371 Z-8.0531
X233.5307 Z-8.0572
X233.7243 Z-8.0614
X233.9178 Z-8.0658
X234.1114 Z-8.0702
X234.305 Z-8.0749
X234.4986 Z-8.0796
X234.6921 Z-8.0845
X234.8857 Z-8.0894
X234.9825 Z-8.092
X235.0793 Z-8.0945
X235.1761 Z-8.0971
X235.2729 Z-8.0997
X235.3696 Z-8.1024
X235.4664 Z-8.1051
X235.5632 Z-8.1078
X235.66 Z-8.1105
X235.7568 Z-8.1133
X235.8536 Z-8.1161
X235.9504 Z-8.1189
X236.0471 Z-8.1217
X236.1439 Z-8.1246
X236.2407 Z-8.1275
X236.3375 Z-8.1304
X236.4343 Z-8.1334
X236.5311 Z-8.1363
X236.6279 Z-8.1393
X236.7247 Z-8.1424
X236.8215 Z-8.1454
X236.9182 Z-8.1485
X237.015 Z-8.1516
X237.1118 Z-8.1547
X237.2086 Z-8.1578
X237.3054 Z-8.161
X237.4022 Z-8.1642
X237.499 Z-8.1674
X237.5957 Z-8.1706
X237.6925 Z-8.1739
X237.7893 Z-8.1772
X237.8861 Z-8.1805
X237.9829 Z-8.1838
X238.0797 Z-8.1871
X238.2733 Z-8.1939
X238.3701 Z-8.1972
X238.4668 Z-8.2006
X238.5636 Z-8.204
X238.6604 Z-8.2074
X238.7572 Z-8.2108
X238.854 Z-8.2141
X238.9508 Z-8.2175
X239.0476 Z-8.2209
X239.1443 Z-8.2243
X239.2411 Z-8.2277
X239.3379 Z-8.231
X239.4347 Z-8.2344
X239.6283 Z-8.2412
X239.9186 Z-8.2513
X240.209 Z-8.2614
X240.4994 Z-8.2716
X240.7897 Z-8.2817
X241.0801 Z-8.2919
X241.3705 Z-8.302
X241.6608 Z-8.3121
X241.9512 Z-8.3223
X242.2415 Z-8.3324
X242.5319 Z-8.3426
X243.0158 Z-8.3595
X243.4998 Z-8.3764
X243.9837 Z-8.3933
X244.6612 Z-8.4169
X245.5323 Z-8.4473
X246.9841 Z-8.498
X253.9528 Z-8.7413
X254.2432 Z-8.7515
X254.5335 Z-8.7616
X254.6303 Z-8.765
X254.7271 Z-8.7684
X254.8239 Z-8.7717
X254.9207 Z-8.7751
X255.0175 Z-8.7785
X255.1143 Z-8.7819
X255.211 Z-8.7853
X255.3078 Z-8.7886
X255.4046 Z-8.792
X255.5014 Z-8.7954
X255.5982 Z-8.7988
X255.695 Z-8.8022
X255.7918 Z-8.8055
X255.8886 Z-8.8089
X255.9854 Z-8.8123
X256.0821 Z-8.8156
X256.1789 Z-8.819
X256.2757 Z-8.8223
X256.3725 Z-8.8255
X256.4693 Z-8.8288
X256.5661 Z-8.832
X256.6628 Z-8.8353
X256.7596 Z-8.8385
X256.8564 Z-8.8416
X256.9532 Z-8.8448
X257.05 Z-8.8479
X257.1468 Z-8.851
X257.2436 Z-8.8541
X257.3404 Z-8.8571
X257.4372 Z-8.8601
X257.5339 Z-8.8631
X257.6307 Z-8.8661
X257.7275 Z-8.8691
X257.8243 Z-8.872
X257.9211 Z-8.8749
X258.0179 Z-8.8778
X258.1147 Z-8.8806
X258.2115 Z-8.8834
X258.3082 Z-8.8862
X258.405 Z-8.889
X258.5018 Z-8.8917
X258.5986 Z-8.8945
X258.6954 Z-8.8971
X258.7922 Z-8.8998
X258.889 Z-8.9024
X258.9857 Z-8.905
X259.0826 Z-8.9076
X259.1793 Z-8.9101
X259.2761 Z-8.9126
X259.4697 Z-8.9176
X259.6633 Z-8.9224
X259.8568 Z-8.9271
X260.0504 Z-8.9316
X260.244 Z-8.9361
X260.4376 Z-8.9404
X260.6311 Z-8.9445
X260.8247 Z-8.9486
X261.0183 Z-8.9525
X261.2119 Z-8.9562
X261.4054 Z-8.9599
X261.599 Z-8.9634
X261.7926 Z-8.9667
X261.9861 Z-8.9699
X262.1797 Z-8.9729
X262.3733 Z-8.9758
X262.5669 Z-8.9786
X262.7605 Z-8.9812
X262.954 Z-8.9836
X263.1476 Z-8.9859
X263.3412 Z-8.988
X263.5348 Z-8.9899
X263.7283 Z-8.9917
X263.9219 Z-8.9933
X264.1155 Z-8.9948
X264.3091 Z-8.996
X264.5026 Z-8.9971
X264.6962 Z-8.9981
X264.8898 Z-8.9988
X265.0833 Z-8.9994
X265.2769 Z-8.9998
X265.4705 Z-9
X265.5843
X385.734
X385.8441 Y70.749
X385.8953 Y70.7452
X385.9542 Y70.7374
X386.0092 Y70.7267
X386.0643 Y70.7125
X386.1194 Y70.6947
X386.1744 Y70.6731
X386.2136 Y70.6553
X386.2527 Y70.6352
X386.2845 Y70.6171
X386.3396 Y70.5819
X386.3947 Y70.5409
X386.4137 Y70.5252
X386.4593 Y70.484
X386.5048 Y70.437
X386.524 Y70.4151
X386.5673 Y70.3601
X386.6046 Y70.3051
X386.6149 Y70.2884
X386.6411 Y70.2417
X386.664 Y70.1951
X386.6871 Y70.1401
X386.7062 Y70.0851
X386.725 Y70.0166
X386.7338 Y69.9751
X386.7424 Y69.92
X386.7478 Y69.865
X386.75 Y69.755
Y20.245
X386.7478 Y20.135
X386.7424 Y20.08
X386.7338 Y20.0249
X386.725 Y19.9834
X386.7062 Y19.9149
X386.6871 Y19.8599
X386.664 Y19.8049
X386.6411 Y19.7583
X386.6149 Y19.7116
X386.6046 Y19.6949
X386.5673 Y19.6399
X386.524 Y19.5849
X386.5048 Y19.5629
X386.4593 Y19.516
X386.4137 Y19.4748
X386.3947 Y19.4591
X386.3396 Y19.4181
X386.2845 Y19.3828
X386.2527 Y19.3648
X386.2136 Y19.3447
X386.1744 Y19.3269
X386.1194 Y19.3053
X386.0643 Y19.2875
X386.0092 Y19.2733
X385.9542 Y19.2626
X385.8954 Y19.2548
X385.8441 Y19.251
X385.734 Y19.25
X20.2661
X20.1559 Y19.251
X20.1047 Y19.2548
X20.0458 Y19.2626
X19.9908 Y19.2733
X19.9357 Y19.2875
X19.8807 Y19.3053
X19.8256 Y19.3269
X19.7864 Y19.3447
X19.7473 Y19.3648
X19.7155 Y19.3829
X19.6604 Y19.4181
X19.6054 Y19.4591
X19.5863 Y19.4748
X19.5408 Y19.516
X19.4953 Y19.563
X19.4761 Y19.5849
X19.4327 Y19.6399
X19.3954 Y19.6949
X19.3852 Y19.7117
X19.359 Y19.7583
X19.3361 Y19.8049
X19.313 Y19.8599
X19.2938 Y19.9149
X19.275 Y19.9835
X19.2663 Y20.0249
X19.2576 Y20.08
X19.2523 Y20.135
X19.25 Y20.245
Y69.755
X19.2523 Y69.865
X19.2576 Y69.92
X19.2663 Y69.9751
X19.275 Y70.0165
X19.2938 Y70.0851
X19.313 Y70.1401
X19.3361 Y70.1951
X19.359 Y70.2417
X19.3852 Y70.2883
X19.3954 Y70.3051
X19.4327 Y70.3601
X19.4761 Y70.4151
X19.4953 Y70.437
X19.5408 Y70.484
X19.5863 Y70.5252
X19.6054 Y70.5409
X19.6604 Y70.5819
X19.7155 Y70.6171
X19.7473 Y70.6352
X19.7865 Y70.6553
X19.8256 Y70.6731
X19.8807 Y70.6947
X19.9357 Y70.7125
X19.9908 Y70.7267
X20.0458 Y70.7374
X20.1047 Y70.7452
X20.1559 Y70.749
X20.2661 Y70.75
X228.4977
X265.5843
X265.6335 Y70.7565
X265.6793 Y70.7755
X265.7187 Y70.8057
X265.7488 Y70.845
X265.7678 Y70.8908
X265.7743 Y70.94
X265.7744 Y70.9464
X266.4813 Y91.9271
G3 X264.7267 Y92.2536 I-0.902 J0.0304
G1 X264.7246 Y92.2473 Z-9.0001 F1200
G3 X264.7879 Y92.3913 Z-9.1926 I0.8547 J-0.2898
X264.8753 Y92.5221 Z-9.385 I0.7914 J-0.4338
X264.984 Y92.6358 Z-9.5774 I0.7041 J-0.5647
X265.1108 Y92.7289 Z-9.7699 I0.5953 J-0.6783
X265.2519 Y92.7985 Z-9.9623 I0.4685 J-0.7714
X264.6768 Y91.9641 Z-9.9999 I0.3274 J-0.841
G1 Y91.9575 Z-10
Y91.8575 F3200
G3 X265.5843 Y90.95 I0.9075
G1 X405.9949
X406.05 Y90.9487
X406.105 Y90.9442
X406.1601 Y90.9364
X406.2151 Y90.9253
X406.2702 Y90.9108
X406.3253 Y90.8926
X406.3597 Y90.8793
X406.3976 Y90.8628
X406.4354 Y90.8444
X406.4904 Y90.8136
X406.5455 Y90.7778
X406.5575 Y90.7693
X406.6065 Y90.7312
X406.6556 Y90.6875
X406.6841 Y90.6592
X406.7277 Y90.6108
X406.7657 Y90.5623
X406.7752 Y90.5492
X406.8114 Y90.4942
X406.8424 Y90.4392
X406.8758 Y90.3681
X406.8912 Y90.3292
X406.9096 Y90.2742
X406.9244 Y90.2191
X406.9357 Y90.1641
X406.9438 Y90.1091
X406.9485 Y90.0541
X406.95 Y89.9991
Y0.0009
X406.9485 Y-0.0541
X406.9438 Y-0.1091
X406.9357 Y-0.1641
X406.9244 Y-0.2191
X406.9096 Y-0.2742
X406.8912 Y-0.3292
X406.8758 Y-0.3681
X406.8424 Y-0.4392
X406.8114 Y-0.4942
X406.7752 Y-0.5492
X406.7657 Y-0.5623
X406.7277 Y-0.6108
X406.6841 Y-0.6592
X406.6556 Y-0.6875
X406.6065 Y-0.7312
X406.5575 Y-0.7693
X406.5455 Y-0.7778
X406.4904 Y-0.8136
X406.4354 Y-0.8444
X406.3976 Y-0.8628
X406.3597 Y-0.8793
X406.3253 Y-0.8926
X406.2702 Y-0.9108
X406.2151 Y-0.9253
X406.1601 Y-0.9364
X406.105 Y-0.9442
X406.05 Y-0.9487
X405.9949 Y-0.95
X145.1352
X145.0251 Y-0.947
X144.97 Y-0.9411
X144.9149 Y-0.9318
X144.8599 Y-0.9192
X144.8048 Y-0.903
X144.7404 Y-0.8793
X144.6947 Y-0.8592
X144.6397 Y-0.831
X144.5846 Y-0.798
X144.5426 Y-0.7693
X144.5085 Y-0.7434
X144.4745 Y-0.715
X144.416 Y-0.6592
X144.3644 Y-0.6011
X144.3249 Y-0.5492
X144.2887 Y-0.4942
X144.2576 Y-0.4392
X144.2543 Y-0.4327
X144.2297 Y-0.3809
X144.2089 Y-0.3292
X144.1904 Y-0.2742
X144.1756 Y-0.2191
X144.1643 Y-0.1641
X144.1563 Y-0.1091
X144.1516 Y-0.0541
X144.15 Y0.0009
Y18.1484
X144.1486 Y18.15
X65.8516
X65.85 Y18.1484
Y0.0009
X65.8485 Y-0.0541
X65.8437 Y-0.1091
X65.8357 Y-0.1641
X65.8244 Y-0.2191
X65.8096 Y-0.2742
X65.7912 Y-0.3292
X65.7692 Y-0.3835
X65.7431 Y-0.4379
X65.7424 Y-0.4392
X65.7113 Y-0.4942
X65.6752 Y-0.5492
X65.633 Y-0.6044
X65.584 Y-0.6592
X65.5535 Y-0.6896
X65.5229 Y-0.7173
X65.4902 Y-0.7445
X65.4575 Y-0.7693
X65.4127 Y-0.7998
X65.3577 Y-0.8325
X65.3026 Y-0.8605
X65.2597 Y-0.8793
X65.1925 Y-0.9038
X65.1375 Y-0.9198
X65.0824 Y-0.9323
X65.0273 Y-0.9414
X64.9723 Y-0.9472
X64.8622 Y-0.95
X0.0051
X-0.0499 Y-0.9487
X-0.105 Y-0.9442
X-0.1601 Y-0.9364
X-0.2151 Y-0.9253
X-0.2702 Y-0.9108
X-0.3252 Y-0.8926
X-0.3597 Y-0.8793
X-0.3975 Y-0.8628
X-0.4353 Y-0.8444
X-0.4904 Y-0.8136
X-0.5455 Y-0.7778
X-0.5574 Y-0.7693
X-0.6065 Y-0.7312
X-0.6556 Y-0.6875
X-0.684 Y-0.6592
X-0.7276 Y-0.6108
X-0.7657 Y-0.5623
X-0.7752 Y-0.5492
X-0.8113 Y-0.4942
X-0.8424 Y-0.4392
X-0.8758 Y-0.3681
X-0.8911 Y-0.3292
X-0.9096 Y-0.2742
X-0.9244 Y-0.2191
X-0.9357 Y-0.1641
X-0.9437 Y-0.1091
X-0.9485 Y-0.0541
X-0.95 Y0.0009
Y89.9991
X-0.9485 Y90.0541
X-0.9437 Y90.1091
X-0.9357 Y90.1641
X-0.9244 Y90.2191
X-0.9096 Y90.2742
X-0.8911 Y90.3292
X-0.8758 Y90.3681
X-0.8424 Y90.4392
X-0.8113 Y90.4942
X-0.7752 Y90.5492
X-0.7657 Y90.5623
X-0.7276 Y90.6108
X-0.684 Y90.6592
X-0.6556 Y90.6875
X-0.6065 Y90.7312
X-0.5574 Y90.7693
X-0.5455 Y90.7778
X-0.4904 Y90.8136
X-0.4353 Y90.8444
X-0.3975 Y90.8628
X-0.3597 Y90.8793
X-0.3252 Y90.8926
X-0.2702 Y90.9108
X-0.2151 Y90.9253
X-0.1601 Y90.9364
X-0.105 Y90.9442
X-0.0499 Y90.9487
X0.0051 Y90.95
X265.5843
X265.7779 Z-10.0001
X265.9715 Z-10.0004
X266.165 Z-10.0008
X266.3586 Z-10.0015
X266.5522 Z-10.0023
X266.7458 Z-10.0033
X266.9393 Z-10.0045
X267.1329 Z-10.0058
X267.3265 Z-10.0073
X267.5201 Z-10.009
X267.7136 Z-10.0109
X267.9072 Z-10.0129
X268.1008 Z-10.0151
X268.2943 Z-10.0174
X268.4879 Z-10.0199
X268.6815 Z-10.0225
X268.8751 Z-10.0253
X269.0687 Z-10.0283
X269.2622 Z-10.0314
X269.4558 Z-10.0347
X269.6494 Z-10.0381
X269.843 Z-10.0416
X270.0365 Z-10.0453
X270.2301 Z-10.0491
X270.4237 Z-10.0531
X270.6172 Z-10.0572
X270.8108 Z-10.0614
X271.0044 Z-10.0658
X271.198 Z-10.0702
X271.3915 Z-10.0749
X271.5851 Z-10.0796
X271.7787 Z-10.0845
X271.9723 Z-10.0894
X272.0691 Z-10.092
X272.1658 Z-10.0945
X272.2626 Z-10.0971
X272.3594 Z-10.0997
X272.4562 Z-10.1024
X272.553 Z-10.1051
X272.6498 Z-10.1078
X272.7466 Z-10.1105
X272.8434 Z-10.1133
X272.9402 Z-10.1161
X273.0369 Z-10.1189
X273.1337 Z-10.1217
X273.2305 Z-10.1246
X273.3273 Z-10.1275
X273.4241 Z-10.1304
X273.5209 Z-10.1334
X273.6176 Z-10.1363
X273.7144 Z-10.1393
X273.8112 Z-10.1424
X273.908 Z-10.1454
X274.0048 Z-10.1485
X274.1016 Z-10.1516
X274.1984 Z-10.1547
X274.2952 Z-10.1578
X274.392 Z-10.161
X274.4887 Z-10.1642
X274.5855 Z-10.1674
X274.6823 Z-10.1706
X274.7791 Z-10.1739
X274.8759 Z-10.1772
X274.9727 Z-10.1805
X275.0695 Z-10.1838
X275.1663 Z-10.1871
X275.3598 Z-10.1939
X275.4566 Z-10.1972
X275.5534 Z-10.2006
X275.6502 Z-10.204
X275.747 Z-10.2074
X275.8438 Z-10.2108
X275.9406 Z-10.2141
X276.0373 Z-10.2175
X276.1341 Z-10.2209
X276.2309 Z-10.2243
X276.3277 Z-10.2277
X276.4245 Z-10.231
X276.5213 Z-10.2344
X276.7148 Z-10.2412
X277.0052 Z-10.2513
X277.2956 Z-10.2614
X277.5859 Z-10.2716
X277.8763 Z-10.2817
X278.1667 Z-10.2919
X278.457 Z-10.302
X278.7474 Z-10.3121
X279.0378 Z-10.3223
X279.3281 Z-10.3324
X279.6185 Z-10.3426
X280.1024 Z-10.3595
X280.5863 Z-10.3764
X281.0703 Z-10.3933
X281.7478 Z-10.4169
X282.6189 Z-10.4473
X284.0707 Z-10.498
X291.0394 Z-10.7413
X291.3297 Z-10.7515
X291.6201 Z-10.7616
X291.7169 Z-10.765
X291.8137 Z-10.7684
X291.9105 Z-10.7717
X292.0073 Z-10.7751
X292.104 Z-10.7785
X292.2008 Z-10.7819
X292.2976 Z-10.7853
X292.3944 Z-10.7886
X292.4912 Z-10.792
X292.588 Z-10.7954
X292.6848 Z-10.7988
X292.7816 Z-10.8022
X292.8783 Z-10.8055
X292.9751 Z-10.8089
X293.0719 Z-10.8123
X293.1687 Z-10.8156
X293.2655 Z-10.819
X293.3623 Z-10.8223
X293.459 Z-10.8255
X293.5558 Z-10.8288
X293.6526 Z-10.832
X293.7494 Z-10.8353
X293.8462 Z-10.8385
X293.943 Z-10.8416
X294.0398 Z-10.8448
X294.1366 Z-10.8479
X294.2334 Z-10.851
X294.3301 Z-10.8541
X294.4269 Z-10.8571
X294.5237 Z-10.8601
X294.6205 Z-10.8631
X294.7173 Z-10.8661
X294.8141 Z-10.8691
X294.9109 Z-10.872
X295.0077 Z-10.8749
X295.1044 Z-10.8778
X295.2012 Z-10.8806
X295.298 Z-10.8834
X295.3948 Z-10.8862
X295.4916 Z-10.889
X295.5884 Z-10.8917
X295.6852 Z-10.8945
X295.782 Z-10.8971
X295.8788 Z-10.8998
X295.9755 Z-10.9024
X296.0723 Z-10.905
X296.1691 Z-10.9076
X296.2659 Z-10.9101
X296.3627 Z-10.9126
X296.5562 Z-10.9176
X296.7498 Z-10.9224
X296.9434 Z-10.9271
X297.137 Z-10.9316
X297.3306 Z-10.9361
X297.5241 Z-10.9404
X297.7177 Z-10.9445
X297.9113 Z-10.9486
X298.1049 Z-10.9525
X298.2984 Z-10.9562
X298.492 Z-10.9599
X298.6856 Z-10.9634
X298.8792 Z-10.9667
X299.0727 Z-10.9699
X299.2663 Z-10.9729
X299.4599 Z-10.9758
X299.6534 Z-10.9786
X299.847 Z-10.9812
X300.0406 Z-10.9836
X300.2342 Z-10.9859
X300.4277 Z-10.988
X300.6213 Z-10.9899
X300.8149 Z-10.9917
X301.0085 Z-10.9933
X301.2021 Z-10.9948
X301.3956 Z-10.996
X301.5892 Z-10.9971
X301.7828 Z-10.9981
X301.9763 Z-10.9988
X302.1699 Z-10.9994
X302.3635 Z-10.9998
X302.5571 Z-11
X302.6709
X405.9949
X406.05 Y90.9487
X406.105 Y90.9442
X406.1601 Y90.9364
X406.2151 Y90.9253
X406.2702 Y90.9108
X406.3253 Y90.8926
X406.3597 Y90.8793
X406.3976 Y90.8628
X406.4354 Y90.8444
X406.4904 Y90.8136
X406.5455 Y90.7778
X406.5575 Y90.7693
X406.6065 Y90.7312
X406.6556 Y90.6875
X406.6841 Y90.6592
X406.7277 Y90.6108
X406.7657 Y90.5623
X406.7752 Y90.5492
X406.8114 Y90.4942
X406.8424 Y90.4392
X406.8758 Y90.3681
X406.8912 Y90.3292
X406.9096 Y90.2742
X406.9244 Y90.2191
X406.9357 Y90.1641
X406.9438 Y90.1091
X406.9485 Y90.0541
X406.95 Y89.9991
Y0.0009
X406.9485 Y-0.0541
X406.9438 Y-0.1091
X406.9357 Y-0.1641
X406.9244 Y-0.2191
X406.9096 Y-0.2742
X406.8912 Y-0.3292
X406.8758 Y-0.3681
X406.8424 Y-0.4392
X406.8114 Y-0.4942
X406.7752 Y-0.5492
X406.7657 Y-0.5623
X406.7277 Y-0.6108
X406.6841 Y-0.6592
X406.6556 Y-0.6875
X406.6065 Y-0.7312
X406.5575 Y-0.7693
X406.5455 Y-0.7778
X406.4904 Y-0.8136
X406.4354 Y-0.8444
X406.3976 Y-0.8628
X406.3597 Y-0.8793
X406.3253 Y-0.8926
X406.2702 Y-0.9108
X406.2151 Y-0.9253
X406.1601 Y-0.9364
X406.105 Y-0.9442
X406.05 Y-0.9487
X405.9949 Y-0.95
X145.1352
X145.0251 Y-0.947
X144.97 Y-0.9411
X144.9149 Y-0.9318
X144.8599 Y-0.9192
X144.8048 Y-0.903
X144.7404 Y-0.8793
X144.6947 Y-0.8592
X144.6397 Y-0.831
X144.5846 Y-0.798
X144.5426 Y-0.7693
X144.5085 Y-0.7434
X144.4745 Y-0.715
X144.416 Y-0.6592
X144.3644 Y-0.6011
X144.3249 Y-0.5492
X144.2887 Y-0.4942
X144.2576 Y-0.4392
X144.2543 Y-0.4327
X144.2297 Y-0.3809
X144.2089 Y-0.3292
X144.1904 Y-0.2742
X144.1756 Y-0.2191
X144.1643 Y-0.1641
X144.1563 Y-0.1091
X144.1516 Y-0.0541
X144.15 Y0.0009
Y18.1484
X144.1486 Y18.15
X65.8516
X65.85 Y18.1484
Y0.0009
X65.8485 Y-0.0541
X65.8437 Y-0.1091
X65.8357 Y-0.1641
X65.8244 Y-0.2191
X65.8096 Y-0.2742
X65.7912 Y-0.3292
X65.7692 Y-0.3835
X65.7431 Y-0.4379
X65.7424 Y-0.4392
X65.7113 Y-0.4942
X65.6752 Y-0.5492
X65.633 Y-0.6044
X65.584 Y-0.6592
X65.5535 Y-0.6896
X65.5229 Y-0.7173
X65.4902 Y-0.7445
X65.4575 Y-0.7693
X65.4127 Y-0.7998
X65.3577 Y-0.8325
X65.3026 Y-0.8605
X65.2597 Y-0.8793
X65.1925 Y-0.9038
X65.1375 Y-0.9198
X65.0824 Y-0.9323
X65.0273 Y-0.9414
X64.9723 Y-0.9472
X64.8622 Y-0.95
X0.0051
X-0.0499 Y-0.9487
X-0.105 Y-0.9442
X-0.1601 Y-0.9364
X-0.2151 Y-0.9253
X-0.2702 Y-0.9108
X-0.3252 Y-0.8926
X-0.3597 Y-0.8793
X-0.3975 Y-0.8628
X-0.4353 Y-0.8444
X-0.4904 Y-0.8136
X-0.5455 Y-0.7778
X-0.5574 Y-0.7693
X-0.6065 Y-0.7312
X-0.6556 Y-0.6875
X-0.684 Y-0.6592
X-0.7276 Y-0.6108
X-0.7657 Y-0.5623
X-0.7752 Y-0.5492
X-0.8113 Y-0.4942
X-0.8424 Y-0.4392
X-0.8758 Y-0.3681
X-0.8911 Y-0.3292
X-0.9096 Y-0.2742
X-0.9244 Y-0.2191
X-0.9357 Y-0.1641
X-0.9437 Y-0.1091
X-0.9485 Y-0.0541
X-0.95 Y0.0009
Y89.9991
X-0.9485 Y90.0541
X-0.9437 Y90.1091
X-0.9357 Y90.1641
X-0.9244 Y90.2191
X-0.9096 Y90.2742
X-0.8911 Y90.3292
X-0.8758 Y90.3681
X-0.8424 Y90.4392
X-0.8113 Y90.4942
X-0.7752 Y90.5492
X-0.7657 Y90.5623
X-0.7276 Y90.6108
X-0.684 Y90.6592
X-0.6556 Y90.6875
X-0.6065 Y90.7312
X-0.5574 Y90.7693
X-0.5455 Y90.7778
X-0.4904 Y90.8136
X-0.4353 Y90.8444
X-0.3975 Y90.8628
X-0.3597 Y90.8793
X-0.3252 Y90.8926
X-0.2702 Y90.9108
X-0.2151 Y90.9253
X-0.1601 Y90.9364
X-0.105 Y90.9442
X-0.0499 Y90.9487
X0.0051 Y90.95
X265.5843
X302.6709
X302.8644 Z-11.0001
X303.058 Z-11.0004
X303.2516 Z-11.0008
X303.4452 Z-11.0015
X303.6387 Z-11.0023
X303.8323 Z-11.0033
X304.0259 Z-11.0045
X304.2195 Z-11.0058
X304.4131 Z-11.0073
X304.6066 Z-11.009
X304.8002 Z-11.0109
X304.9938 Z-11.0129
X305.1873 Z-11.0151
X305.3809 Z-11.0174
X305.5745 Z-11.0199
X305.7681 Z-11.0225
X305.9616 Z-11.0253
X306.1552 Z-11.0283
X306.3488 Z-11.0314
X306.5424 Z-11.0347
X306.7359 Z-11.0381
X306.9295 Z-11.0416
X307.1231 Z-11.0453
X307.3167 Z-11.0491
X307.5102 Z-11.0531
X307.7038 Z-11.0572
X307.8974 Z-11.0614
X308.091 Z-11.0658
X308.2845 Z-11.0702
X308.4781 Z-11.0749
X308.6717 Z-11.0796
X308.8653 Z-11.0845
X309.0588 Z-11.0894
X309.1556 Z-11.092
X309.2524 Z-11.0945
X309.3492 Z-11.0971
X309.446 Z-11.0997
X309.5428 Z-11.1024
X309.6396 Z-11.1051
X309.7364 Z-11.1078
X309.8331 Z-11.1105
X309.9299 Z-11.1133
X310.0267 Z-11.1161
X310.1235 Z-11.1189
X310.2203 Z-11.1217
X310.3171 Z-11.1246
X310.4138 Z-11.1275
X310.5107 Z-11.1304
X310.6074 Z-11.1334
X310.7042 Z-11.1363
X310.801 Z-11.1393
X310.8978 Z-11.1424
X310.9946 Z-11.1454
X311.0914 Z-11.1485
X311.1881 Z-11.1516
X311.2849 Z-11.1547
X311.3817 Z-11.1578
X311.4785 Z-11.161
X311.5753 Z-11.1642
X311.6721 Z-11.1674
X311.7689 Z-11.1706
X311.8657 Z-11.1739
X311.9625 Z-11.1772
X312.0592 Z-11.1805
X312.156 Z-11.1838
X312.2528 Z-11.1871
X312.4464 Z-11.1939
X312.5432 Z-11.1972
X312.64 Z-11.2006
X312.7368 Z-11.204
X312.8335 Z-11.2074
X312.9303 Z-11.2108
X313.0271 Z-11.2141
X313.1239 Z-11.2175
X313.2207 Z-11.2209
X313.3175 Z-11.2243
X313.4143 Z-11.2277
X313.511 Z-11.231
X313.6078 Z-11.2344
X313.8014 Z-11.2412
X314.0918 Z-11.2513
X314.3821 Z-11.2614
X314.6725 Z-11.2716
X314.9629 Z-11.2817
X315.2532 Z-11.2919
X315.5436 Z-11.302
X315.834 Z-11.3121
X316.1243 Z-11.3223
X316.4147 Z-11.3324
X316.705 Z-11.3426
X317.189 Z-11.3595
X317.6729 Z-11.3764
X318.1568 Z-11.3933
X318.8344 Z-11.4169
X319.7054 Z-11.4473
X321.1573 Z-11.498
X328.1259 Z-11.7413
X328.4163 Z-11.7515
X328.7067 Z-11.7616
X328.8034 Z-11.765
X328.9002 Z-11.7684
X328.997 Z-11.7717
X329.0938 Z-11.7751
X329.1906 Z-11.7785
X329.2874 Z-11.7819
X329.3842 Z-11.7853
X329.481 Z-11.7886
X329.5778 Z-11.792
X329.6745 Z-11.7954
X329.7713 Z-11.7988
X329.8681 Z-11.8022
X329.9649 Z-11.8055
X330.0617 Z-11.8089
X330.1585 Z-11.8123
X330.2552 Z-11.8156
X330.3521 Z-11.819
X330.4488 Z-11.8223
X330.5456 Z-11.8255
X330.6424 Z-11.8288
X330.7392 Z-11.832
X330.836 Z-11.8353
X330.9328 Z-11.8385
X331.0296 Z-11.8416
X331.1263 Z-11.8448
X331.2231 Z-11.8479
X331.3199 Z-11.851
X331.4167 Z-11.8541
X331.5135 Z-11.8571
X331.6103 Z-11.8601
X331.7071 Z-11.8631
X331.8039 Z-11.8661
X331.9006 Z-11.8691
X331.9974 Z-11.872
X332.0942 Z-11.8749
X332.191 Z-11.8778
X332.2878 Z-11.8806
X332.3846 Z-11.8834
X332.4814 Z-11.8862
X332.5782 Z-11.889
X332.675 Z-11.8917
X332.7717 Z-11.8945
X332.8685 Z-11.8971
X332.9653 Z-11.8998
X333.0621 Z-11.9024
X333.1589 Z-11.905
X333.2557 Z-11.9076
X333.3524 Z-11.9101
X333.4492 Z-11.9126
X333.6428 Z-11.9176
X333.8364 Z-11.9224
X334.03 Z-11.9271
X334.2235 Z-11.9316
X334.4171 Z-11.9361
X334.6107 Z-11.9404
X334.8043 Z-11.9445
X334.9978 Z-11.9486
X335.1914 Z-11.9525
X335.385 Z-11.9562
X335.5786 Z-11.9599
X335.7721 Z-11.9634
X335.9657 Z-11.9667
X336.1593 Z-11.9699
X336.3529 Z-11.9729
X336.5464 Z-11.9758
X336.74 Z-11.9786
X336.9336 Z-11.9812
X337.1272 Z-11.9836
X337.3207 Z-11.9859
X337.5143 Z-11.988
X337.7079 Z-11.9899
X337.9015 Z-11.9917
X338.095 Z-11.9933
X338.2886 Z-11.9948
X338.4822 Z-11.996
X338.6758 Z-11.9971
X338.8693 Z-11.9981
X339.0629 Z-11.9988
X339.2565 Z-11.9994
X339.45 Z-11.9998
X339.6436 Z-12
X339.7574
X405.9949
X406.05 Y90.9487
X406.105 Y90.9442
X406.1601 Y90.9364
X406.2151 Y90.9253
X406.2702 Y90.9108
X406.3253 Y90.8926
X406.3597 Y90.8793
X406.3976 Y90.8628
X406.4354 Y90.8444
X406.4904 Y90.8136
X406.5455 Y90.7778
X406.5575 Y90.7693
X406.6065 Y90.7312
X406.6556 Y90.6875
X406.6841 Y90.6592
X406.7277 Y90.6108
X406.7657 Y90.5623
X406.7752 Y90.5492
X406.8114 Y90.4942
X406.8424 Y90.4392
X406.8758 Y90.3681
X406.8912 Y90.3292
X406.9096 Y90.2742
X406.9244 Y90.2191
X406.9357 Y90.1641
X406.9438 Y90.1091
X406.9485 Y90.0541
X406.95 Y89.9991
Y0.0009
X406.9485 Y-0.0541
X406.9438 Y-0.1091
X406.9357 Y-0.1641
X406.9244 Y-0.2191
X406.9096 Y-0.2742
X406.8912 Y-0.3292
X406.8758 Y-0.3681
X406.8424 Y-0.4392
X406.8114 Y-0.4942
X406.7752 Y-0.5492
X406.7657 Y-0.5623
X406.7277 Y-0.6108
X406.6841 Y-0.6592
X406.6556 Y-0.6875
X406.6065 Y-0.7312
X406.5575 Y-0.7693
X406.5455 Y-0.7778
X406.4904 Y-0.8136
X406.4354 Y-0.8444
X406.3976 Y-0.8628
X406.3597 Y-0.8793
X406.3253 Y-0.8926
X406.2702 Y-0.9108
X406.2151 Y-0.9253
X406.1601 Y-0.9364
X406.105 Y-0.9442
X406.05 Y-0.9487
X405.9949 Y-0.95
X145.1352
X145.0251 Y-0.947
X144.97 Y-0.9411
X144.9149 Y-0.9318
X144.8599 Y-0.9192
X144.8048 Y-0.903
X144.7404 Y-0.8793
X144.6947 Y-0.8592
X144.6397 Y-0.831
X144.5846 Y-0.798
X144.5426 Y-0.7693
X144.5085 Y-0.7434
X144.4745 Y-0.715
X144.416 Y-0.6592
X144.3644 Y-0.6011
X144.3249 Y-0.5492
X144.2887 Y-0.4942
X144.2576 Y-0.4392
X144.2543 Y-0.4327
X144.2297 Y-0.3809
X144.2089 Y-0.3292
X144.1904 Y-0.2742
X144.1756 Y-0.2191
X144.1643 Y-0.1641
X144.1563 Y-0.1091
X144.1516 Y-0.0541
X144.15 Y0.0009
Y18.1484
X144.1486 Y18.15
X65.8516
X65.85 Y18.1484
Y0.0009
X65.8485 Y-0.0541
X65.8437 Y-0.1091
X65.8357 Y-0.1641
X65.8244 Y-0.2191
X65.8096 Y-0.2742
X65.7912 Y-0.3292
X65.7692 Y-0.3835
X65.7431 Y-0.4379
X65.7424 Y-0.4392
X65.7113 Y-0.4942
X65.6752 Y-0.5492
X65.633 Y-0.6044
X65.584 Y-0.6592
X65.5535 Y-0.6896
X65.5229 Y-0.7173
X65.4902 Y-0.7445
X65.4575 Y-0.7693
X65.4127 Y-0.7998
X65.3577 Y-0.8325
X65.3026 Y-0.8605
X65.2597 Y-0.8793
X65.1925 Y-0.9038
X65.1375 Y-0.9198
X65.0824 Y-0.9323
X65.0273 Y-0.9414
X64.9723 Y-0.9472
X64.8622 Y-0.95
X0.0051
X-0.0499 Y-0.9487
X-0.105 Y-0.9442
X-0.1601 Y-0.9364
X-0.2151 Y-0.9253
X-0.2702 Y-0.9108
X-0.3252 Y-0.8926
X-0.3597 Y-0.8793
X-0.3975 Y-0.8628
X-0.4353 Y-0.8444
X-0.4904 Y-0.8136
X-0.5455 Y-0.7778
X-0.5574 Y-0.7693
X-0.6065 Y-0.7312
X-0.6556 Y-0.6875
X-0.684 Y-0.6592
X-0.7276 Y-0.6108
X-0.7657 Y-0.5623
X-0.7752 Y-0.5492
X-0.8113 Y-0.4942
X-0.8424 Y-0.4392
X-0.8758 Y-0.3681
X-0.8911 Y-0.3292
X-0.9096 Y-0.2742
X-0.9244 Y-0.2191
X-0.9357 Y-0.1641
X-0.9437 Y-0.1091
X-0.9485 Y-0.0541
X-0.95 Y0.0009
Y89.9991
X-0.9485 Y90.0541
X-0.9437 Y90.1091
X-0.9357 Y90.1641
X-0.9244 Y90.2191
X-0.9096 Y90.2742
X-0.8911 Y90.3292
X-0.8758 Y90.3681
X-0.8424 Y90.4392
X-0.8113 Y90.4942
X-0.7752 Y90.5492
X-0.7657 Y90.5623
X-0.7276 Y90.6108
X-0.684 Y90.6592
X-0.6556 Y90.6875
X-0.6065 Y90.7312
X-0.5574 Y90.7693
X-0.5455 Y90.7778
X-0.4904 Y90.8136
X-0.4353 Y90.8444
X-0.3975 Y90.8628
X-0.3597 Y90.8793
X-0.3252 Y90.8926
X-0.2702 Y90.9108
X-0.2151 Y90.9253
X-0.1601 Y90.9364
X-0.105 Y90.9442
X-0.0499 Y90.9487
X0.0051 Y90.95
X302.6709
X339.7574
X339.951 Z-12.0001
X340.1446 Z-12.0004
X340.3382 Z-12.0008
X340.5317 Z-12.0015
X340.7253 Z-12.0023
X340.9189 Z-12.0033
X341.1125 Z-12.0045
X341.306 Z-12.0058
X341.4996 Z-12.0073
X341.6932 Z-12.009
X341.8867 Z-12.0109
X342.0803 Z-12.0129
X342.2739 Z-12.0151
X342.4675 Z-12.0174
X342.661 Z-12.0199
X342.8546 Z-12.0225
X343.0482 Z-12.0253
X343.2418 Z-12.0283
X343.4354 Z-12.0314
X343.6289 Z-12.0347
X343.8225 Z-12.0381
X344.0161 Z-12.0416
X344.2097 Z-12.0453
X344.4032 Z-12.0491
X344.5968 Z-12.0531
X344.7904 Z-12.0572
X344.9839 Z-12.0614
X345.1775 Z-12.0658
X345.3711 Z-12.0702
X345.5647 Z-12.0749
X345.7582 Z-12.0796
X345.9518 Z-12.0845
X346.1454 Z-12.0894
X346.2422 Z-12.092
X346.339 Z-12.0945
X346.4358 Z-12.0971
X346.5326 Z-12.0997
X346.6293 Z-12.1024
X346.7261 Z-12.1051
X346.8229 Z-12.1078
X346.9197 Z-12.1105
X347.0165 Z-12.1133
X347.1133 Z-12.1161
X347.2101 Z-12.1189
X347.3069 Z-12.1217
X347.4036 Z-12.1246
X347.5004 Z-12.1275
X347.5972 Z-12.1304
X347.694 Z-12.1334
X347.7908 Z-12.1363
X347.8876 Z-12.1393
X347.9843 Z-12.1424
X348.0811 Z-12.1454
X348.1779 Z-12.1485
X348.2747 Z-12.1516
X348.3715 Z-12.1547
X348.4683 Z-12.1578
X348.5651 Z-12.161
X348.6619 Z-12.1642
X348.7587 Z-12.1674
X348.8554 Z-12.1706
X348.9522 Z-12.1739
X349.049 Z-12.1772
X349.1458 Z-12.1805
X349.2426 Z-12.1838
X349.3394 Z-12.1871
X349.533 Z-12.1939
X349.6297 Z-12.1972
X349.7265 Z-12.2006
X349.8233 Z-12.204
X349.9201 Z-12.2074
X350.0169 Z-12.2108
X350.1137 Z-12.2141
X350.2105 Z-12.2175
X350.3073 Z-12.2209
X350.4041 Z-12.2243
X350.5008 Z-12.2277
X350.5976 Z-12.231
X350.6944 Z-12.2344
X350.888 Z-12.2412
X351.1783 Z-12.2513
X351.4687 Z-12.2614
X351.7591 Z-12.2716
X352.0494 Z-12.2817
X352.3398 Z-12.2919
X352.6302 Z-12.302
X352.9205 Z-12.3121
X353.2109 Z-12.3223
X353.5013 Z-12.3324
X353.7916 Z-12.3426
X354.2755 Z-12.3595
X354.7595 Z-12.3764
X355.2434 Z-12.3933
X355.9209 Z-12.4169
X356.792 Z-12.4473
X358.2438 Z-12.498
X365.2125 Z-12.7413
X365.5029 Z-12.7515
X365.7932 Z-12.7616
X365.89 Z-12.765
X365.9868 Z-12.7684
X366.0836 Z-12.7717
X366.1804 Z-12.7751
X366.2772 Z-12.7785
X366.374 Z-12.7819
X366.4707 Z-12.7853
X366.5675 Z-12.7886
X366.6643 Z-12.792
X366.7611 Z-12.7954
X366.8579 Z-12.7988
X366.9547 Z-12.8022
X367.0515 Z-12.8055
X367.1483 Z-12.8089
X367.245 Z-12.8123
X367.3418 Z-12.8156
X367.4386 Z-12.819
X367.5354 Z-12.8223
X367.6322 Z-12.8255
X367.729 Z-12.8288
X367.8258 Z-12.832
X367.9225 Z-12.8353
X368.0193 Z-12.8385
X368.1161 Z-12.8416
X368.2129 Z-12.8448
X368.3097 Z-12.8479
X368.4065 Z-12.851
X368.5033 Z-12.8541
X368.6001 Z-12.8571
X368.6968 Z-12.8601
X368.7936 Z-12.8631
X368.8904 Z-12.8661
X368.9872 Z-12.8691
X369.084 Z-12.872
X369.1808 Z-12.8749
X369.2776 Z-12.8778
X369.3744 Z-12.8806
X369.4712 Z-12.8834
X369.5679 Z-12.8862
X369.6647 Z-12.889
X369.7615 Z-12.8917
X369.8583 Z-12.8945
X369.9551 Z-12.8971
X370.0519 Z-12.8998
X370.1487 Z-12.9024
X370.2455 Z-12.905
X370.3422 Z-12.9076
X370.439 Z-12.9101
X370.5358 Z-12.9126
X370.7294 Z-12.9176
X370.9229 Z-12.9224
X371.1165 Z-12.9271
X371.3101 Z-12.9316
X371.5037 Z-12.9361
X371.6973 Z-12.9404
X371.8908 Z-12.9445
X372.0844 Z-12.9486
X372.278 Z-12.9525
X372.4716 Z-12.9562
X372.6651 Z-12.9599
X372.8587 Z-12.9634
X373.0523 Z-12.9667
X373.2458 Z-12.9699
X373.4394 Z-12.9729
X373.633 Z-12.9758
X373.8266 Z-12.9786
X374.0201 Z-12.9812
X374.2137 Z-12.9836
X374.4073 Z-12.9859
X374.6009 Z-12.988
X374.7945 Z-12.9899
X374.988 Z-12.9917
X375.1816 Z-12.9933
X375.3752 Z-12.9948
X375.5688 Z-12.996
X375.7623 Z-12.9971
X375.9559 Z-12.9981
X376.1495 Z-12.9988
X376.343 Z-12.9994
X376.5366 Z-12.9998
X376.7302 Z-13
X376.844
X405.9949
X406.05 Y90.9487
X406.105 Y90.9442
X406.1601 Y90.9364
X406.2151 Y90.9253
X406.2702 Y90.9108
X406.3253 Y90.8926
X406.3597 Y90.8793
X406.3976 Y90.8628
X406.4354 Y90.8444
X406.4904 Y90.8136
X406.5455 Y90.7778
X406.5575 Y90.7693
X406.6065 Y90.7312
X406.6556 Y90.6875
X406.6841 Y90.6592
X406.7277 Y90.6108
X406.7657 Y90.5623
X406.7752 Y90.5492
X406.8114 Y90.4942
X406.8424 Y90.4392
X406.8758 Y90.3681
X406.8912 Y90.3292
X406.9096 Y90.2742
X406.9244 Y90.2191
X406.9357 Y90.1641
X406.9438 Y90.1091
X406.9485 Y90.0541
X406.95 Y89.9991
Y0.0009
X406.9485 Y-0.0541
X406.9438 Y-0.1091
X406.9357 Y-0.1641
X406.9244 Y-0.2191
X406.9096 Y-0.2742
X406.8912 Y-0.3292
X406.8758 Y-0.3681
X406.8424 Y-0.4392
X406.8114 Y-0.4942
X406.7752 Y-0.5492
X406.7657 Y-0.5623
X406.7277 Y-0.6108
X406.6841 Y-0.6592
X406.6556 Y-0.6875
X406.6065 Y-0.7312
X406.5575 Y-0.7693
X406.5455 Y-0.7778
X406.4904 Y-0.8136
X406.4354 Y-0.8444
X406.3976 Y-0.8628
X406.3597 Y-0.8793
X406.3253 Y-0.8926
X406.2702 Y-0.9108
X406.2151 Y-0.9253
X406.1601 Y-0.9364
X406.105 Y-0.9442
X406.05 Y-0.9487
X405.9949 Y-0.95
X145.1352
X145.0251 Y-0.947
X144.97 Y-0.9411
X144.9149 Y-0.9318
X144.8599 Y-0.9192
X144.8048 Y-0.903
X144.7404 Y-0.8793
X144.6947 Y-0.8592
X144.6397 Y-0.831
X144.5846 Y-0.798
X144.5426 Y-0.7693
X144.5085 Y-0.7434
X144.4745 Y-0.715
X144.416 Y-0.6592
X144.3644 Y-0.6011
X144.3249 Y-0.5492
X144.2887 Y-0.4942
X144.2576 Y-0.4392
X144.2543 Y-0.4327
X144.2297 Y-0.3809
X144.2089 Y-0.3292
X144.1904 Y-0.2742
X144.1756 Y-0.2191
X144.1643 Y-0.1641
X144.1563 Y-0.1091
X144.1516 Y-0.0541
X144.15 Y0.0009
Y18.1484
X144.1486 Y18.15
X65.8516
X65.85 Y18.1484
Y0.0009
X65.8485 Y-0.0541
X65.8437 Y-0.1091
X65.8357 Y-0.1641
X65.8244 Y-0.2191
X65.8096 Y-0.2742
X65.7912 Y-0.3292
X65.7692 Y-0.3835
X65.7431 Y-0.4379
X65.7424 Y-0.4392
X65.7113 Y-0.4942
X65.6752 Y-0.5492
X65.633 Y-0.6044
X65.584 Y-0.6592
X65.5535 Y-0.6896
X65.5229 Y-0.7173
X65.4902 Y-0.7445
X65.4575 Y-0.7693
X65.4127 Y-0.7998
X65.3577 Y-0.8325
X65.3026 Y-0.8605
X65.2597 Y-0.8793
X65.1925 Y-0.9038
X65.1375 Y-0.9198
X65.0824 Y-0.9323
X65.0273 Y-0.9414
X64.9723 Y-0.9472
X64.8622 Y-0.95
X0.0051
X-0.0499 Y-0.9487
X-0.105 Y-0.9442
X-0.1601 Y-0.9364
X-0.2151 Y-0.9253
X-0.2702 Y-0.9108
X-0.3252 Y-0.8926
X-0.3597 Y-0.8793
X-0.3975 Y-0.8628
X-0.4353 Y-0.8444
X-0.4904 Y-0.8136
X-0.5455 Y-0.7778
X-0.5574 Y-0.7693
X-0.6065 Y-0.7312
X-0.6556 Y-0.6875
X-0.684 Y-0.6592
X-0.7276 Y-0.6108
X-0.7657 Y-0.5623
X-0.7752 Y-0.5492
X-0.8113 Y-0.4942
X-0.8424 Y-0.4392
X-0.8758 Y-0.3681
X-0.8911 Y-0.3292
X-0.9096 Y-0.2742
X-0.9244 Y-0.2191
X-0.9357 Y-0.1641
X-0.9437 Y-0.1091
X-0.9485 Y-0.0541
X-0.95 Y0.0009
Y89.9991
X-0.9485 Y90.0541
X-0.9437 Y90.1091
X-0.9357 Y90.1641
X-0.9244 Y90.2191
X-0.9096 Y90.2742
X-0.8911 Y90.3292
X-0.8758 Y90.3681
X-0.8424 Y90.4392
X-0.8113 Y90.4942
X-0.7752 Y90.5492
X-0.7657 Y90.5623
X-0.7276 Y90.6108
X-0.684 Y90.6592
X-0.6556 Y90.6875
X-0.6065 Y90.7312
X-0.5574 Y90.7693
X-0.5455 Y90.7778
X-0.4904 Y90.8136
X-0.4353 Y90.8444
X-0.3975 Y90.8628
X-0.3597 Y90.8793
X-0.3252 Y90.8926
X-0.2702 Y90.9108
X-0.2151 Y90.9253
X-0.1601 Y90.9364
X-0.105 Y90.9442
X-0.0499 Y90.9487
X0.0051 Y90.95
X339.7574
X376.844
X377.0377 Z-13.0001
X377.2314 Z-13.0004
X377.4251 Z-13.0009
X377.6188 Z-13.0016
X377.8125 Z-13.0026
X378.0062 Z-13.0037
X378.1999 Z-13.005
X378.3936 Z-13.0064
X378.5872 Z-13.0081
X378.7809 Z-13.01
X378.9746 Z-13.012
X379.1683 Z-13.0143
X379.362 Z-13.0167
X379.5557 Z-13.0192
X379.7494 Z-13.022
X379.9431 Z-13.0249
X380.1368 Z-13.028
X380.3305 Z-13.0312
X380.5242 Z-13.0346
X380.7179 Z-13.0382
X380.9116 Z-13.0419
X381.1053 Z-13.0458
X381.299 Z-13.0499
X381.4927 Z-13.054
X381.6864 Z-13.0584
X381.8801 Z-13.0628
X382.0738 Z-13.0674
X382.2675 Z-13.0722
X382.4612 Z-13.0771
X382.558 Z-13.0796
X382.6548 Z-13.0821
X382.7517 Z-13.0847
X382.8485 Z-13.0873
X382.9454 Z-13.0899
X383.0422 Z-13.0925
X383.1391 Z-13.0952
X383.2359 Z-13.0979
X383.3328 Z-13.1007
X383.4296 Z-13.1035
X383.5265 Z-13.1063
X383.6233 Z-13.1091
X383.7202 Z-13.112
X383.817 Z-13.1149
X383.9138 Z-13.1178
X384.0107 Z-13.1208
X384.1075 Z-13.1237
X384.2044 Z-13.1267
X384.3012 Z-13.1298
X384.3981 Z-13.1328
X384.4949 Z-13.1359
X384.5918 Z-13.1391
X384.6886 Z-13.1422
X384.7855 Z-13.1454
X384.8823 Z-13.1486
X384.9792 Z-13.1518
X385.076 Z-13.155
X385.1729 Z-13.1583
X385.2697 Z-13.1616
X385.3666 Z-13.1649
X385.4634 Z-13.1683
X385.6571 Z-13.175
X385.754 Z-13.1784
X385.8508 Z-13.1818
X385.9477 Z-13.1852
X386.0445 Z-13.1885
X386.1414 Z-13.1919
X386.2382 Z-13.1953
X386.3351 Z-13.1987
X386.4319 Z-13.2021
X386.5287 Z-13.2054
X386.6256 Z-13.2088
X386.7224 Z-13.2122
X386.8193 Z-13.2156
X386.9161 Z-13.219
X387.013 Z-13.2223
X387.1098 Z-13.2257
X387.3035 Z-13.2325
X387.5941 Z-13.2426
X387.8846 Z-13.2528
X388.1751 Z-13.2629
X388.4657 Z-13.2731
X388.7562 Z-13.2832
X389.0468 Z-13.2934
X389.3373 Z-13.3035
X389.6279 Z-13.3137
X390.0153 Z-13.3272
X390.4995 Z-13.3441
X390.9837 Z-13.361
X391.6617 Z-13.3847
X392.5333 Z-13.4151
X394.4702 Z-13.4827
X395.9229 Z-13.5335
X396.6009 Z-13.5571
X397.0851 Z-13.574
X397.5694 Z-13.5909
X397.8599 Z-13.6011
X398.1505 Z-13.6112
X398.441 Z-13.6214
X398.7315 Z-13.6315
X399.0221 Z-13.6417
X399.3126 Z-13.6518
X399.6031 Z-13.6619
X399.8937 Z-13.6721
X399.9905 Z-13.6755
X400.0874 Z-13.6788
X400.1842 Z-13.6822
X400.2811 Z-13.6856
X400.3779 Z-13.689
X400.4748 Z-13.6924
X400.5716 Z-13.6958
X400.6685 Z-13.6991
X400.7653 Z-13.7025
X400.8622 Z-13.7059
X400.959 Z-13.7093
X401.0558 Z-13.7127
X401.1527 Z-13.7161
X401.2495 Z-13.7194
X401.3464 Z-13.7228
X401.6369 Z-13.7329
X401.7338 Z-13.7363
X401.8306 Z-13.7396
X401.9275 Z-13.7429
X402.0243 Z-13.7461
X402.1212 Z-13.7494
X402.218 Z-13.7526
X402.3149 Z-13.7558
X402.4117 Z-13.7589
X402.5086 Z-13.7621
X402.6054 Z-13.7652
X402.7023 Z-13.7682
X402.7991 Z-13.7713
X402.896 Z-13.7743
X402.9928 Z-13.7773
X403.0897 Z-13.7803
X403.1865 Z-13.7832
X403.2834 Z-13.7862
X403.3802 Z-13.789
X403.4771 Z-13.7919
X403.5739 Z-13.7947
X403.6707 Z-13.7975
X403.7676 Z-13.8003
X403.8644 Z-13.803
X403.9613 Z-13.8057
X404.0581 Z-13.8084
X404.155 Z-13.8111
X404.2518 Z-13.8137
X404.3487 Z-13.8162
X404.4455 Z-13.8188
X404.5424 Z-13.8213
X404.7361 Z-13.8262
X404.9297 Z-13.831
X405.1234 Z-13.8357
X405.3171 Z-13.8402
X405.5108 Z-13.8446
X405.7045 Z-13.8488
X405.8982 Z-13.8529
X405.9951 Z-13.8549
X406.0435 Y90.949 Z-13.8559
X406.0918 Y90.9456 Z-13.8568
X406.1399 Y90.9397 Z-13.8578
X406.1876 Y90.9313 Z-13.8587
X406.2348 Y90.9205 Z-13.8597
X406.2814 Y90.9074 Z-13.8606
X406.3272 Y90.8919 Z-13.8615
X406.3723 Y90.874 Z-13.8624
X406.4163 Y90.8539 Z-13.8633
X406.4593 Y90.8316 Z-13.8642
X406.5011 Y90.8071 Z-13.8651
X406.5416 Y90.7805 Z-13.866
X406.5806 Y90.7519 Z-13.8668
X406.6182 Y90.7214 Z-13.8677
X406.6541 Y90.6889 Z-13.8685
X406.6884 Y90.6547 Z-13.8694
X406.7209 Y90.6188 Z-13.8702
X406.7515 Y90.5812 Z-13.871
X406.7801 Y90.5422 Z-13.8718
X406.8067 Y90.5017 Z-13.8726
X406.8312 Y90.46 Z-13.8734
X406.8536 Y90.417 Z-13.8741
X406.8737 Y90.373 Z-13.8749
X406.8916 Y90.328 Z-13.8756
X406.9072 Y90.2821 Z-13.8764
X406.9204 Y90.2355 Z-13.8771
X406.9312 Y90.1883 Z-13.8778
X406.9396 Y90.1406 Z-13.8785
X406.9455 Y90.0926 Z-13.8792
X406.949 Y90.0443 Z-13.8799
X406.95 Y89.8506 Z-13.8825
Y89.6569 Z-13.885
Y89.4632 Z-13.8873
Y89.2695 Z-13.8894
Y89.0758 Z-13.8913
Y88.8821 Z-13.893
Y88.6884 Z-13.8946
Y88.4947 Z-13.8959
Y88.301 Z-13.8971
Y88.1073 Z-13.8981
Y87.9136 Z-13.8989
Y87.7199 Z-13.8994
Y87.5262 Z-13.8998
Y87.3325 Z-13.9
Y87.27
Y0.0009
X406.9485 Y-0.0541
X406.9438 Y-0.1091
X406.9357 Y-0.1641
X406.9244 Y-0.2191
X406.9096 Y-0.2742
X406.8912 Y-0.3292
X406.8758 Y-0.3681
X406.8424 Y-0.4392
X406.8114 Y-0.4942
X406.7752 Y-0.5492
X406.7657 Y-0.5623
X406.7277 Y-0.6108
X406.6841 Y-0.6592
X406.6556 Y-0.6875
X406.6065 Y-0.7312
X406.5575 Y-0.7693
X406.5455 Y-0.7778
X406.4904 Y-0.8136
X406.4354 Y-0.8444
X406.3976 Y-0.8628
X406.3597 Y-0.8793
X406.3253 Y-0.8926
X406.2702 Y-0.9108
X406.2151 Y-0.9253
X406.1601 Y-0.9364
X406.105 Y-0.9442
X406.05 Y-0.9487
X405.9949 Y-0.95
X145.1352
X145.0251 Y-0.947
X144.97 Y-0.9411
X144.9149 Y-0.9318
X144.8599 Y-0.9192
X144.8048 Y-0.903
X144.7404 Y-0.8793
X144.6947 Y-0.8592
X144.6397 Y-0.831
X144.5846 Y-0.798
X144.5426 Y-0.7693
X144.5085 Y-0.7434
X144.4745 Y-0.715
X144.416 Y-0.6592
X144.3644 Y-0.6011
X144.3249 Y-0.5492
X144.2887 Y-0.4942
X144.2576 Y-0.4392
X144.2543 Y-0.4327
X144.2297 Y-0.3809
X144.2089 Y-0.3292
X144.1904 Y-0.2742
X144.1756 Y-0.2191
X144.1643 Y-0.1641
X144.1563 Y-0.1091
X144.1516 Y-0.0541
X144.15 Y0.0009
Y18.1484
X144.1486 Y18.15
X65.8516
X65.85 Y18.1484
Y0.0009
X65.8485 Y-0.0541
X65.8437 Y-0.1091
X65.8357 Y-0.1641
X65.8244 Y-0.2191
X65.8096 Y-0.2742
X65.7912 Y-0.3292
X65.7692 Y-0.3835
X65.7431 Y-0.4379
X65.7424 Y-0.4392
X65.7113 Y-0.4942
X65.6752 Y-0.5492
X65.633 Y-0.6044
X65.584 Y-0.6592
X65.5535 Y-0.6896
X65.5229 Y-0.7173
X65.4902 Y-0.7445
X65.4575 Y-0.7693
X65.4127 Y-0.7998
X65.3577 Y-0.8325
X65.3026 Y-0.8605
X65.2597 Y-0.8793
X65.1925 Y-0.9038
X65.1375 Y-0.9198
X65.0824 Y-0.9323
X65.0273 Y-0.9414
X64.9723 Y-0.9472
X64.8622 Y-0.95
X0.0051
X-0.0499 Y-0.9487
X-0.105 Y-0.9442
X-0.1601 Y-0.9364
X-0.2151 Y-0.9253
X-0.2702 Y-0.9108
X-0.3252 Y-0.8926
X-0.3597 Y-0.8793
X-0.3975 Y-0.8628
X-0.4353 Y-0.8444
X-0.4904 Y-0.8136
X-0.5455 Y-0.7778
X-0.5574 Y-0.7693
X-0.6065 Y-0.7312
X-0.6556 Y-0.6875
X-0.684 Y-0.6592
X-0.7276 Y-0.6108
X-0.7657 Y-0.5623
X-0.7752 Y-0.5492
X-0.8113 Y-0.4942
X-0.8424 Y-0.4392
X-0.8758 Y-0.3681
X-0.8911 Y-0.3292
X-0.9096 Y-0.2742
X-0.9244 Y-0.2191
X-0.9357 Y-0.1641
X-0.9437 Y-0.1091
X-0.9485 Y-0.0541
X-0.95 Y0.0009
Y89.9991
X-0.9485 Y90.0541
X-0.9437 Y90.1091
X-0.9357 Y90.1641
X-0.9244 Y90.2191
X-0.9096 Y90.2742
X-0.8911 Y90.3292
X-0.8758 Y90.3681
X-0.8424 Y90.4392
X-0.8113 Y90.4942
X-0.7752 Y90.5492
X-0.7657 Y90.5623
X-0.7276 Y90.6108
X-0.684 Y90.6592
X-0.6556 Y90.6875
X-0.6065 Y90.7312
X-0.5574 Y90.7693
X-0.5455 Y90.7778
X-0.4904 Y90.8136
X-0.4353 Y90.8444
X-0.3975 Y90.8628
X-0.3597 Y90.8793
X-0.3252 Y90.8926
X-0.2702 Y90.9108
X-0.2151 Y90.9253
X-0.1601 Y90.9364
X-0.105 Y90.9442
X-0.0499 Y90.9487
X0.0051 Y90.95
X376.844
X405.9949
X406.05 Y90.9487
X406.105 Y90.9442
X406.1601 Y90.9364
X406.2151 Y90.9253
X406.2702 Y90.9108
X406.3253 Y90.8926
X406.3597 Y90.8793
X406.3976 Y90.8628
X406.4354 Y90.8444
X406.4904 Y90.8136
X406.5455 Y90.7778
X406.5575 Y90.7693
X406.6065 Y90.7312
X406.6556 Y90.6875
X406.6841 Y90.6592
X406.7277 Y90.6108
X406.7657 Y90.5623
X406.7752 Y90.5492
X406.8114 Y90.4942
X406.8424 Y90.4392
X406.8758 Y90.3681
X406.8912 Y90.3292
X406.9096 Y90.2742
X406.9244 Y90.2191
X406.9357 Y90.1641
X406.9438 Y90.1091
X406.9485 Y90.0541
X406.95 Y89.9991
Y87.27
X406.9574 Y87.2176
X406.9789 Y87.1693
X407.0129 Y87.1288
X407.0568 Y87.0992
X407.1071 Y87.0829
X407.16 Y87.081
X408.7637 Y87.2502
X408.8126 Y87.2554 Z-13.8935
X408.8582 Y87.2602 Z-13.8745
X408.8973 Y87.2643 Z-13.8444
X408.9274 Y87.2675 Z-13.805
X408.9463 Y87.2695 Z-13.7592
X408.9527 Y87.2701 Z-13.71
G0 Z5
X11.5868 Y10.1171
Z-7.9167
G1 Z-10 F3200
X11.6413 Y10.1122
X11.6949 Y10.1231
X11.7432 Y10.1487
X11.7822 Y10.1871
X11.8087 Y10.235
X11.8204 Y10.2884
X11.8164 Y10.343
X11.792 Y10.453
X11.7873 Y10.4718
X11.7606 Y10.563
X11.7214 Y10.6731
X11.6772 Y10.7783
X11.6748 Y10.7831
X11.6187 Y10.8931
X11.5671 Y10.9801
X11.5532 Y11.0031
X11.477 Y11.1131
X11.457 Y11.1379
X11.3864 Y11.2232
X11.3468 Y11.2657
X11.2806 Y11.3332
X11.2367 Y11.3741
X11.1548 Y11.4432
X11.1266 Y11.4659
X11.0165 Y11.5444
X11.0037 Y11.5532
X10.9064 Y11.6114
X10.8062 Y11.6633
X10.7963 Y11.6682
X10.6862 Y11.7164
X10.576 Y11.7563
X10.5249 Y11.7733
X10.4659 Y11.7886
X10.3558 Y11.8138
X10.2457 Y11.8324
X10.1356 Y11.8443
X10.0255 Y11.8485
X9.9154 Y11.8464
X9.8052 Y11.8379
X9.6951 Y11.823
X9.585 Y11.8015
X9.4753 Y11.7733
X9.3648 Y11.7364
X9.2547 Y11.6917
X9.1938 Y11.6633
X9.1446 Y11.6386
X9.0344 Y11.5763
X8.9963 Y11.5532
X8.9243 Y11.5032
X8.8452 Y11.4432
X8.8142 Y11.4183
X8.7194 Y11.3332
X8.7041 Y11.3189
X8.6136 Y11.2232
X8.594 Y11.2008
X8.523 Y11.1131
X8.4839 Y11.057
X8.4468 Y11.0031
X8.3814 Y10.8931
X8.3738 Y10.8794
X8.3252 Y10.7831
X8.2786 Y10.6731
X8.2636 Y10.6348
X8.2394 Y10.563
X8.208 Y10.453
X8.1841 Y10.343
X8.1665 Y10.233
X8.1549 Y10.1229
X8.151 Y10.0129
X8.1535 Y9.9161
X8.154 Y9.9029
X8.1636 Y9.7929
X8.1795 Y9.6829
X8.2014 Y9.5728
X8.2307 Y9.4628
X8.2636 Y9.3652
X8.268 Y9.3528
X8.3132 Y9.2428
X8.3676 Y9.1327
X8.3738 Y9.1206
X8.4313 Y9.0227
X8.4839 Y8.943
X8.5047 Y8.9127
X8.5912 Y8.8027
X8.594 Y8.7992
X8.6919 Y8.6927
X8.7041 Y8.6811
X8.8131 Y8.5826
X8.8142 Y8.5817
X8.9243 Y8.4968
X8.9591 Y8.4726
X9.0344 Y8.4237
X9.1421 Y8.3626
X9.1446 Y8.3614
X9.2547 Y8.3083
X9.3648 Y8.2636
X9.4749 Y8.2268
X9.585 Y8.1985
X9.6951 Y8.177
X9.8052 Y8.1621
X9.9154 Y8.1536
X10.0255 Y8.1515
X10.1356 Y8.1557
X10.2457 Y8.1676
X10.3558 Y8.1862
X10.4659 Y8.2114
X10.576 Y8.2437
X10.6028 Y8.2526
X10.6862 Y8.2836
X10.7963 Y8.3318
X10.8579 Y8.3626
X10.9064 Y8.3886
X11.0165 Y8.4556
X11.0409 Y8.4726
X11.1266 Y8.5341
X11.1869 Y8.5826
X11.2367 Y8.6259
X11.3082 Y8.6927
X11.3468 Y8.7343
X11.4088 Y8.8027
X11.457 Y8.8621
X11.4953 Y8.9127
X11.5671 Y9.0199
X11.5687 Y9.0227
X11.6324 Y9.1327
X11.6772 Y9.2217
X11.6868 Y9.2428
X11.732 Y9.3528
X11.7693 Y9.4628
X11.7873 Y9.5282
X11.7986 Y9.5728
X11.8211 Y9.6829
X11.837 Y9.7929
X11.846 Y9.9029
X11.849 Y10.0129
X11.8451 Y10.1229
X11.8342 Y10.233
X11.8164 Y10.343
X11.7959 Y10.4376
X11.7713 Y10.5312 Z-10.0001
X11.7404 Y10.6229 Z-10.0002
X11.705 Y10.713 Z-10.0004
X11.6655 Y10.8014 Z-10.0006
X11.6219 Y10.8877 Z-10.0008
X11.5725 Y10.971 Z-10.0011
X11.5196 Y11.052 Z-10.0015
X11.463 Y11.1305 Z-10.0019
X11.4021 Y11.2057 Z-10.0023
X11.3365 Y11.2769 Z-10.0028
X11.2678 Y11.3451 Z-10.0033
X11.1961 Y11.41 Z-10.0039
X11.1206 Y11.4707 Z-10.0045
X11.0418 Y11.5268 Z-10.0051
X10.9605 Y11.5793 Z-10.0058
X10.7903 Y11.6712 Z-10.0073
X10.7016 Y11.71 Z-10.0082
X10.6112 Y11.7446 Z-10.009
X10.4255 Y11.7989 Z-10.0109
X10.3307 Y11.8183 Z-10.0119
X10.2351 Y11.8336 Z-10.0129
X10.0422 Y11.8479 Z-10.0151
X9.9454 Y11.8475 Z-10.0162
X9.8488 Y11.8426 Z-10.0174
X9.7525 Y11.8322 Z-10.0186
X9.657 Y11.8161 Z-10.0199
X9.5624 Y11.7958 Z-10.0212
X9.4689 Y11.7711 Z-10.0225
X9.3771 Y11.7405 Z-10.0239
X9.287 Y11.7051 Z-10.0253
X9.1986 Y11.6657 Z-10.0268
X9.1121 Y11.6223 Z-10.0283
X9.0288 Y11.5729 Z-10.0298
X8.948 Y11.5197 Z-10.0314
X8.8697 Y11.4629 Z-10.033
X8.7942 Y11.4022 Z-10.0347
X8.7231 Y11.3366 Z-10.0363
X8.6551 Y11.2677 Z-10.0381
X8.5901 Y11.196 Z-10.0398
X8.5292 Y11.1208 Z-10.0416
X8.4734 Y11.0418 Z-10.0434
X8.4212 Y10.9603 Z-10.0453
X8.3724 Y10.8767 Z-10.0472
X8.3289 Y10.7903 Z-10.0491
X8.2903 Y10.7015 Z-10.0511
X8.2557 Y10.6112 Z-10.0531
X8.201 Y10.4255 Z-10.0572
X8.1819 Y10.3307 Z-10.0593
X8.1667 Y10.2351 Z-10.0614
X8.1521 Y10.0422 Z-10.0657
X8.1525 Y9.9454 Z-10.068
X8.1574 Y9.8488 Z-10.0702
X8.184 Y9.6571 Z-10.0748
X8.2041 Y9.5624 Z-10.0772
X8.2287 Y9.4688 Z-10.0796
X8.2597 Y9.3771 Z-10.082
X8.295 Y9.287 Z-10.0844
X8.3345 Y9.1986 Z-10.0869
X8.3782 Y9.1123 Z-10.0894
X8.4275 Y9.0291 Z-10.092
X8.4804 Y8.948 Z-10.0945
X8.5371 Y8.8695 Z-10.0971
X8.598 Y8.7943 Z-10.0997
X8.6635 Y8.7231 Z-10.1024
X8.7322 Y8.6549 Z-10.1051
X8.8039 Y8.59 Z-10.1078
X8.8794 Y8.5293 Z-10.1105
X8.9582 Y8.4732 Z-10.1133
X9.0396 Y8.4207 Z-10.1161
X9.1232 Y8.372 Z-10.1189
X9.2098 Y8.3287 Z-10.1217
X9.2986 Y8.2902 Z-10.1246
X9.3889 Y8.2556 Z-10.1275
X9.4808 Y8.225 Z-10.1304
X9.5746 Y8.2011 Z-10.1333
X9.6694 Y8.1817 Z-10.1363
X9.7649 Y8.1664 Z-10.1393
X9.8612 Y8.156 Z-10.1423
X9.9579 Y8.1521 Z-10.1454
X10.0547 Y8.1525 Z-10.1485
X10.1513 Y8.1574 Z-10.1516
X10.2476 Y8.1678 Z-10.1547
X10.343 Y8.1839 Z-10.1578
X10.4376 Y8.2042 Z-10.161
X10.5313 Y8.2288 Z-10.1642
X10.6231 Y8.2593 Z-10.1674
X10.7132 Y8.2948 Z-10.1706
X10.8015 Y8.3344 Z-10.1739
X10.888 Y8.3778 Z-10.1771
X10.9713 Y8.4271 Z-10.1804
X11.0521 Y8.4804 Z-10.1838
X11.1305 Y8.5372 Z-10.1871
X11.2059 Y8.5979 Z-10.1905
X11.277 Y8.6635 Z-10.1938
X11.345 Y8.7323 Z-10.1972
X11.41 Y8.8041 Z-10.2006
X11.4709 Y8.8793 Z-10.204
X11.5267 Y8.9583 Z-10.2074
X11.5789 Y9.0398 Z-10.2107
X11.6277 Y9.1234 Z-10.2141
X11.6712 Y9.2099 Z-10.2175
X11.7097 Y9.2986 Z-10.2209
X11.7444 Y9.389 Z-10.2242
X11.7753 Y9.4807 Z-10.2276
X11.799 Y9.5745 Z-10.231
X11.8186 Y9.6693 Z-10.2344
X11.834 Y9.7649 Z-10.2378
X11.8442 Y9.8612 Z-10.2411
X11.8479 Y9.9579 Z-10.2445
X11.8475 Y10.0547 Z-10.2479
X11.8429 Y10.1513 Z-10.2513
X11.8327 Y10.2476 Z-10.2546
X11.8164 Y10.343 Z-10.258
X11.7959 Y10.4376 Z-10.2614
X11.7713 Y10.5312 Z-10.2648
X11.7404 Y10.6229 Z-10.2682
X11.705 Y10.713 Z-10.2715
X11.6655 Y10.8014 Z-10.2749
X11.6219 Y10.8877 Z-10.2783
X11.5725 Y10.971 Z-10.2817
X11.5196 Y11.052 Z-10.2851
X11.463 Y11.1305 Z-10.2884
X11.4021 Y11.2057 Z-10.2918
X11.3365 Y11.2769 Z-10.2952
X11.2678 Y11.3451 Z-10.2986
X11.1961 Y11.41 Z-10.3019
X11.1206 Y11.4707 Z-10.3053
X11.0418 Y11.5268 Z-10.3087
X10.9605 Y11.5793 Z-10.3121
X10.8768 Y11.6279 Z-10.3155
X10.7903 Y11.6712 Z-10.3188
X10.7016 Y11.71 Z-10.3222
X10.6112 Y11.7446 Z-10.3256
X10.5193 Y11.775 Z-10.329
X10.4255 Y11.7989 Z-10.3324
X10.3307 Y11.8183 Z-10.3357
X10.2351 Y11.8336 Z-10.3391
X10.1389 Y11.844 Z-10.3425
X10.0422 Y11.8479 Z-10.3459
X9.9454 Y11.8475 Z-10.3492
X9.8488 Y11.8426 Z-10.3526
X9.7525 Y11.8322 Z-10.356
X9.657 Y11.8161 Z-10.3594
X9.5624 Y11.7958 Z-10.3628
X9.4689 Y11.7711 Z-10.3661
X9.3771 Y11.7405 Z-10.3695
X9.287 Y11.7051 Z-10.3729
X9.1986 Y11.6657 Z-10.3763
X9.1121 Y11.6223 Z-10.3797
X9.0288 Y11.5729 Z-10.383
X8.948 Y11.5197 Z-10.3864
X8.8697 Y11.4629 Z-10.3898
X8.7942 Y11.4022 Z-10.3932
X8.7231 Y11.3366 Z-10.3965
X8.6551 Y11.2677 Z-10.3999
X8.5901 Y11.196 Z-10.4033
X8.5292 Y11.1208 Z-10.4067
X8.4734 Y11.0418 Z-10.4101
X8.4212 Y10.9603 Z-10.4134
X8.3724 Y10.8767 Z-10.4168
X8.3289 Y10.7903 Z-10.4202
X8.2903 Y10.7015 Z-10.4236
X8.2557 Y10.6112 Z-10.4269
X8.2248 Y10.5194 Z-10.4303
X8.201 Y10.4255 Z-10.4337
X8.1819 Y10.3307 Z-10.4371
X8.1667 Y10.2351 Z-10.4405
X8.1561 Y10.1389 Z-10.4438
X8.1521 Y10.0422 Z-10.4472
X8.1525 Y9.9454 Z-10.4506
X8.1574 Y9.8488 Z-10.454
X8.1681 Y9.7525 Z-10.4573
X8.184 Y9.6571 Z-10.4607
X8.2041 Y9.5624 Z-10.4641
X8.2287 Y9.4688 Z-10.4675
X8.2597 Y9.3771 Z-10.4709
X8.295 Y9.287 Z-10.4742
X8.3345 Y9.1986 Z-10.4776
X8.3782 Y9.1123 Z-10.481
X8.4275 Y9.0291 Z-10.4844
X8.4804 Y8.948 Z-10.4878
X8.5371 Y8.8695 Z-10.4911
X8.598 Y8.7943 Z-10.4945
X8.6635 Y8.7231 Z-10.4979
X8.7322 Y8.6549 Z-10.5013
X8.8039 Y8.59 Z-10.5046
X8.8794 Y8.5293 Z-10.508
X8.9582 Y8.4732 Z-10.5114
X9.0396 Y8.4207 Z-10.5148
X9.1232 Y8.372 Z-10.5182
X9.2098 Y8.3287 Z-10.5215
X9.2986 Y8.2902 Z-10.5249
X9.3889 Y8.2556 Z-10.5283
X9.4808 Y8.225 Z-10.5317
X9.5746 Y8.2011 Z-10.535
X9.6694 Y8.1817 Z-10.5384
X9.7649 Y8.1664 Z-10.5418
X9.8612 Y8.156 Z-10.5452
X9.9579 Y8.1521 Z-10.5486
X10.0547 Y8.1525 Z-10.5519
X10.1513 Y8.1574 Z-10.5553
X10.2476 Y8.1678 Z-10.5587
X10.343 Y8.1839 Z-10.5621
X10.4376 Y8.2042 Z-10.5654
X10.5313 Y8.2288 Z-10.5688
X10.6231 Y8.2593 Z-10.5722
X10.7132 Y8.2948 Z-10.5756
X10.8015 Y8.3344 Z-10.579
X10.888 Y8.3778 Z-10.5823
X10.9713 Y8.4271 Z-10.5857
X11.0521 Y8.4804 Z-10.5891
X11.1305 Y8.5372 Z-10.5925
X11.2059 Y8.5979 Z-10.5959
X11.277 Y8.6635 Z-10.5992
X11.345 Y8.7323 Z-10.6026
X11.41 Y8.8041 Z-10.606
X11.4709 Y8.8793 Z-10.6094
X11.5267 Y8.9583 Z-10.6127
X11.5789 Y9.0398 Z-10.6161
X11.6277 Y9.1234 Z-10.6195
X11.6712 Y9.2099 Z-10.6229
X11.7097 Y9.2986 Z-10.6263
X11.7444 Y9.389 Z-10.6296
X11.7753 Y9.4807 Z-10.633
X11.799 Y9.5745 Z-10.6364
X11.8186 Y9.6693 Z-10.6398
X11.834 Y9.7649 Z-10.6431
X11.8442 Y9.8612 Z-10.6465
X11.8479 Y9.9579 Z-10.6499
X11.8475 Y10.0547 Z-10.6533
X11.8429 Y10.1513 Z-10.6566
X11.8327 Y10.2476 Z-10.66
X11.8164 Y10.343 Z-10.6634
X11.7959 Y10.4376 Z-10.6668
X11.7713 Y10.5312 Z-10.6702
X11.7404 Y10.6229 Z-10.6735
X11.705 Y10.713 Z-10.6769
X11.6655 Y10.8014 Z-10.6803
X11.6219 Y10.8877 Z-10.6837
X11.5725 Y10.971 Z-10.6871
X11.5196 Y11.052 Z-10.6904
X11.463 Y11.1305 Z-10.6938
X11.4021 Y11.2057 Z-10.6972
X11.3365 Y11.2769 Z-10.7006
X11.2678 Y11.3451 Z-10.7039
X11.1961 Y11.41 Z-10.7073
X11.1206 Y11.4707 Z-10.7107
X11.0418 Y11.5268 Z-10.7141
X10.9605 Y11.5793 Z-10.7175
X10.8768 Y11.6279 Z-10.7208
X10.7903 Y11.6712 Z-10.7242
X10.7016 Y11.71 Z-10.7276
X10.6112 Y11.7446 Z-10.731
X10.5193 Y11.775 Z-10.7343
X10.4255 Y11.7989 Z-10.7377
X10.3307 Y11.8183 Z-10.7411
X10.2351 Y11.8336 Z-10.7445
X10.1389 Y11.844 Z-10.7479
X10.0422 Y11.8479 Z-10.7512
X9.9454 Y11.8475 Z-10.7546
X9.8488 Y11.8426 Z-10.758
X9.7525 Y11.8322 Z-10.7614
X9.657 Y11.8161 Z-10.7647
X9.5624 Y11.7958 Z-10.7681
X9.4689 Y11.7711 Z-10.7715
X9.3771 Y11.7405 Z-10.7749
X9.287 Y11.7051 Z-10.7783
X9.1986 Y11.6657 Z-10.7816
X9.1121 Y11.6223 Z-10.785
X9.0288 Y11.5729 Z-10.7884
X8.948 Y11.5197 Z-10.7918
X8.8697 Y11.4629 Z-10.7952
X8.7942 Y11.4022 Z-10.7985
X8.7231 Y11.3366 Z-10.8019
X8.6551 Y11.2677 Z-10.8053
X8.5901 Y11.196 Z-10.8087
X8.5292 Y11.1208 Z-10.812
X8.4734 Y11.0418 Z-10.8154
X8.4212 Y10.9603 Z-10.8187
X8.3724 Y10.8767 Z-10.822
X8.3289 Y10.7903 Z-10.8253
X8.2903 Y10.7015 Z-10.8286
X8.2557 Y10.6112 Z-10.8318
X8.2248 Y10.5194 Z-10.835
X8.201 Y10.4255 Z-10.8382
X8.1819 Y10.3307 Z-10.8414
X8.1667 Y10.2351 Z-10.8445
X8.1561 Y10.1389 Z-10.8477
X8.1521 Y10.0422 Z-10.8508
X8.1525 Y9.9454 Z-10.8538
X8.1574 Y9.8488 Z-10.8569
X8.1681 Y9.7525 Z-10.8599
X8.184 Y9.6571 Z-10.8629
X8.2041 Y9.5624 Z-10.8659
X8.2287 Y9.4688 Z-10.8689
X8.2597 Y9.3771 Z-10.8718
X8.295 Y9.287 Z-10.8747
X8.3345 Y9.1986 Z-10.8776
X8.3782 Y9.1123 Z-10.8804
X8.4275 Y9.0291 Z-10.8832
X8.4804 Y8.948 Z-10.886
X8.5371 Y8.8695 Z-10.8888
X8.598 Y8.7943 Z-10.8915
X8.6635 Y8.7231 Z-10.8942
X8.7322 Y8.6549 Z-10.8969
X8.8039 Y8.59 Z-10.8996
X8.8794 Y8.5293 Z-10.9022
X8.9582 Y8.4732 Z-10.9048
X9.0396 Y8.4207 Z-10.9074
X9.1232 Y8.372 Z-10.9099
X9.2098 Y8.3287 Z-10.9124
X9.2986 Y8.2902 Z-10.9149
X9.3889 Y8.2556 Z-10.9174
X9.5746 Y8.2011 Z-10.9222
X9.6694 Y8.1817 Z-10.9246
X9.7649 Y8.1664 Z-10.9269
X9.9579 Y8.1521 Z-10.9315
X10.0547 Y8.1525 Z-10.9337
X10.1513 Y8.1574 Z-10.9359
X10.2476 Y8.1678 Z-10.9381
X10.343 Y8.1839 Z-10.9402
X10.4376 Y8.2042 Z-10.9423
X10.5313 Y8.2288 Z-10.9444
X10.6231 Y8.2593 Z-10.9464
X10.7132 Y8.2948 Z-10.9484
X10.8015 Y8.3344 Z-10.9504
X10.888 Y8.3778 Z-10.9523
X10.9713 Y8.4271 Z-10.9542
X11.0521 Y8.4804 Z-10.9561
X11.1305 Y8.5372 Z-10.9579
X11.2059 Y8.5979 Z-10.9597
X11.277 Y8.6635 Z-10.9615
X11.345 Y8.7323 Z-10.9632
X11.41 Y8.8041 Z-10.9649
X11.4709 Y8.8793 Z-10.9666
X11.5267 Y8.9583 Z-10.9682
X11.5789 Y9.0398 Z-10.9698
X11.6277 Y9.1234 Z-10.9713
X11.6712 Y9.2099 Z-10.9728
X11.7097 Y9.2986 Z-10.9743
X11.7444 Y9.389 Z-10.9757
X11.799 Y9.5745 Z-10.9785
X11.8186 Y9.6693 Z-10.9798
X11.834 Y9.7649 Z-10.9811
X11.8479 Y9.9579 Z-10.9835
X11.8475 Y10.0547 Z-10.9847
X11.8429 Y10.1513 Z-10.9858
X11.8327 Y10.2476 Z-10.9869
X11.8164 Y10.343 Z-10.9879
X11.7959 Y10.4376 Z-10.9889
X11.7713 Y10.5312 Z-10.9898
X11.7404 Y10.6229 Z-10.9908
X11.705 Y10.713 Z-10.9916
X11.6655 Y10.8014 Z-10.9925
X11.6219 Y10.8877 Z-10.9933
X11.5725 Y10.971 Z-10.994
X11.5196 Y11.052 Z-10.9947
X11.463 Y11.1305 Z-10.9954
X11.4021 Y11.2057 Z-10.996
X11.3365 Y11.2769 Z-10.9966
X11.2678 Y11.3451 Z-10.9971
X11.1961 Y11.41 Z-10.9976
X11.1206 Y11.4707 Z-10.998
X11.0418 Y11.5268 Z-10.9984
X10.9605 Y11.5793 Z-10.9988
X10.7903 Y11.6712 Z-10.9994
X10.7016 Y11.71 Z-10.9996
X10.6112 Y11.7446 Z-10.9998
X10.5193 Y11.775 Z-10.9999
X10.4255 Y11.7989 Z-11
X10.3064 Y11.8222
X10.2457 Y11.8324
X10.1356 Y11.8443
X10.0255 Y11.8485
X9.9154 Y11.8464
X9.8052 Y11.8379
X9.6951 Y11.823
X9.585 Y11.8015
X9.4753 Y11.7733
X9.3648 Y11.7364
X9.2547 Y11.6917
X9.1938 Y11.6633
X9.1446 Y11.6386
X9.0344 Y11.5763
X8.9963 Y11.5532
X8.9243 Y11.5032
X8.8452 Y11.4432
X8.8142 Y11.4183
X8.7194 Y11.3332
X8.7041 Y11.3189
X8.6136 Y11.2232
X8.594 Y11.2008
X8.523 Y11.1131
X8.4839 Y11.057
X8.4468 Y11.0031
X8.3814 Y10.8931
X8.3738 Y10.8794
X8.3252 Y10.7831
X8.2786 Y10.6731
X8.2636 Y10.6348
X8.2394 Y10.563
X8.208 Y10.453
X8.1841 Y10.343
X8.1665 Y10.233
X8.1549 Y10.1229
X8.151 Y10.0129
X8.1535 Y9.9161
X8.154 Y9.9029
X8.1636 Y9.7929
X8.1795 Y9.6829
X8.2014 Y9.5728
X8.2307 Y9.4628
X8.2636 Y9.3652
X8.268 Y9.3528
X8.3132 Y9.2428
X8.3676 Y9.1327
X8.3738 Y9.1206
X8.4313 Y9.0227
X8.4839 Y8.943
X8.5047 Y8.9127
X8.5912 Y8.8027
X8.594 Y8.7992
X8.6919 Y8.6927
X8.7041 Y8.6811
X8.8131 Y8.5826
X8.8142 Y8.5817
X8.9243 Y8.4968
X8.9591 Y8.4726
X9.0344 Y8.4237
X9.1421 Y8.3626
X9.1446 Y8.3614
X9.2547 Y8.3083
X9.3648 Y8.2636
X9.4749 Y8.2268
X9.585 Y8.1985
X9.6951 Y8.177
X9.8052 Y8.1621
X9.9154 Y8.1536
X10.0255 Y8.1515
X10.1356 Y8.1557
X10.2457 Y8.1676
X10.3558 Y8.1862
X10.4659 Y8.2114
X10.576 Y8.2437
X10.6028 Y8.2526
X10.6862 Y8.2836
X10.7963 Y8.3318
X10.8579 Y8.3626
X10.9064 Y8.3886
X11.0165 Y8.4556
X11.0409 Y8.4726
X11.1266 Y8.5341
X11.1869 Y8.5826
X11.2367 Y8.6259
X11.3082 Y8.6927
X11.3468 Y8.7343
X11.4088 Y8.8027
X11.457 Y8.8621
X11.4953 Y8.9127
X11.5671 Y9.0199
X11.5687 Y9.0227
X11.6324 Y9.1327
X11.6772 Y9.2217
X11.6868 Y9.2428
X11.732 Y9.3528
X11.7693 Y9.4628
X11.7873 Y9.5282
X11.7986 Y9.5728
X11.8211 Y9.6829
X11.837 Y9.7929
X11.846 Y9.9029
X11.849 Y10.0129
X11.8451 Y10.1229
X11.8342 Y10.233
X11.8164 Y10.343
X11.792 Y10.453
X11.7873 Y10.4718
X11.7606 Y10.563
X11.7214 Y10.6731
X11.6772 Y10.7783
X11.6748 Y10.7831
X11.6187 Y10.8931
X11.5671 Y10.9801
X11.5532 Y11.0031
X11.477 Y11.1131
X11.457 Y11.1379
X11.3864 Y11.2232
X11.3468 Y11.2657
X11.2806 Y11.3332
X11.2367 Y11.3741
X11.1548 Y11.4432
X11.1266 Y11.4659
X11.0165 Y11.5444
X11.0037 Y11.5532
X10.9064 Y11.6114
X10.8062 Y11.6633
X10.7963 Y11.6682
X10.6862 Y11.7164
X10.576 Y11.7563
X10.5249 Y11.7733
X10.4659 Y11.7886
X10.3558 Y11.8138
X10.3064 Y11.8222
X10.2106 Y11.8362
X10.1143 Y11.8453 Z-11.0001
X10.0176 Y11.8488 Z-11.0002
X9.9208 Y11.8466 Z-11.0004
X9.8243 Y11.84 Z-11.0006
X9.7281 Y11.8289 Z-11.0008
X9.6328 Y11.8118 Z-11.0011
X9.5386 Y11.7897 Z-11.0015
X9.4455 Y11.7633 Z-11.0019
X9.3537 Y11.7326 Z-11.0023
X9.2643 Y11.6957 Z-11.0028
X9.1766 Y11.6547 Z-11.0033
X9.0909 Y11.6097 Z-11.0039
X9.0076 Y11.5603 Z-11.0045
X8.9278 Y11.5056 Z-11.0051
X8.8505 Y11.4474 Z-11.0058
X8.7758 Y11.3858 Z-11.0065
X8.7051 Y11.3198 Z-11.0073
X8.6383 Y11.2497 Z-11.0082
X8.5746 Y11.1769 Z-11.009
X8.4594 Y11.0215 Z-11.0109
X8.4087 Y10.9391 Z-11.0119
X8.3613 Y10.8547 Z-11.0129
X8.281 Y10.6788 Z-11.0151
X8.2478 Y10.5878 Z-11.0162
X8.2187 Y10.4955 Z-11.0174
X8.195 Y10.4017 Z-11.0186
X8.1775 Y10.3064 Z-11.0199
X8.164 Y10.2106 Z-11.0212
X8.1546 Y10.1143 Z-11.0225
X8.1512 Y10.0176 Z-11.0239
X8.1534 Y9.9208 Z-11.0253
X8.1602 Y9.8243 Z-11.0268
X8.1714 Y9.7281 Z-11.0283
X8.2101 Y9.5385 Z-11.0314
X8.2366 Y9.4454 Z-11.033
X8.2676 Y9.3538 Z-11.0347
X8.3044 Y9.2643 Z-11.0363
X8.3455 Y9.1767 Z-11.0381
X8.4401 Y9.0079 Z-11.0416
X8.4944 Y8.9277 Z-11.0434
X8.5525 Y8.8504 Z-11.0453
X8.6803 Y8.7051 Z-11.0491
X8.7502 Y8.6381 Z-11.0511
X8.8231 Y8.5745 Z-11.0531
X8.9785 Y8.4591 Z-11.0572
X9.0607 Y8.4081 Z-11.0593
X9.1453 Y8.361 Z-11.0614
X9.3213 Y8.2807 Z-11.0657
X9.4123 Y8.2478 Z-11.068
X9.5046 Y8.2189 Z-11.0702
X9.6936 Y8.1773 Z-11.0748
X9.7894 Y8.1638 Z-11.0772
X9.8858 Y8.1547 Z-11.0796
X9.9825 Y8.1512 Z-11.082
X10.0793 Y8.1534 Z-11.0844
X10.1758 Y8.16 Z-11.0869
X10.272 Y8.1711 Z-11.0894
X10.3672 Y8.1883 Z-11.092
X10.4615 Y8.2103 Z-11.0945
X10.5547 Y8.2366 Z-11.0971
X10.6465 Y8.2671 Z-11.0997
X10.7359 Y8.3043 Z-11.1024
X10.8235 Y8.3454 Z-11.1051
X10.9092 Y8.3903 Z-11.1078
X10.9925 Y8.4397 Z-11.1105
X11.0723 Y8.4944 Z-11.1133
X11.1496 Y8.5526 Z-11.1161
X11.2243 Y8.6143 Z-11.1189
X11.295 Y8.6803 Z-11.1217
X11.3618 Y8.7503 Z-11.1246
X11.4255 Y8.8232 Z-11.1275
X11.4858 Y8.8989 Z-11.1304
X11.5407 Y8.9786 Z-11.1333
X11.5914 Y9.061 Z-11.1363
X11.6388 Y9.1454 Z-11.1393
X11.6823 Y9.2319 Z-11.1423
