%
(Made in : Autodesk CAM Post Processor)
(G Code optimized for OpenBuilds OX CNC 1000 x 750 with GRBL V0.9j controller)

(Program Name : 1001)
(2 Operations :)
(1 : Contour2)
(  Tool : Flat End Mill 2 Flutes, Diam = 1.9mm, Len = 12.7mm)
(  Spindle : RPM = 30000, set router dial to 6)
(  Machining time : 5 min 54 sec)
(2 : Horizontal1)
(  Tool : Flat End Mill 2 Flutes, Diam = 1.9mm, Len = 12.7mm)
(  Spindle : RPM = 30000, set router dial to 6)
(  Machining time : 5 min 50 sec)

G90 G94
G17
G21

(Operation 1 of 2 : Contour2)

G53 G0 Z5
G54
S30000 M3
G4 P1.0
X17.7785 Y19.3766
Z6
Z1.1897
G1 Z-0.81 F3200
X17.7847 Y19.3783 Z-0.8592
X17.803 Y19.3834 Z-0.905
X17.8322 Y19.3913 Z-0.9444
X17.8701 Y19.4017 Z-0.9745
X17.9143 Y19.4138 Z-0.9935
X17.9617 Y19.4268 Z-1
X19.142 Y19.7501
X19.1877 Y19.7693
X19.2269 Y19.7997
X19.2569 Y19.8392
X19.2756 Y19.8852
X19.2818 Y19.9344
X19.275 Y19.9835
X19.2663 Y20.0249
X19.2577 Y20.08
X19.2523 Y20.135
X19.25 Y20.245
Y69.755
X19.2523 Y69.865
X19.2577 Y69.92
X19.2663 Y69.9751
X19.275 Y70.0165
X19.2938 Y70.0851
X19.313 Y70.1401
X19.3361 Y70.1951
X19.359 Y70.2417
X19.3852 Y70.2883
X19.3955 Y70.3051
X19.4327 Y70.3601
X19.4761 Y70.4151
X19.4953 Y70.437
X19.5408 Y70.484
X19.5863 Y70.5252
X19.6054 Y70.5409
X19.6604 Y70.5819
X19.7155 Y70.6171
X19.7473 Y70.6352
X19.7865 Y70.6553
X19.8256 Y70.6731
X19.8807 Y70.6947
X19.9357 Y70.7125
X19.9908 Y70.7267
X20.0458 Y70.7374
X20.1048 Y70.7452
X20.1559 Y70.749
X20.2661 Y70.75
X385.734
X385.8441 Y70.749
X385.8953 Y70.7452
X385.9542 Y70.7374
X386.0092 Y70.7267
X386.0643 Y70.7125
X386.1194 Y70.6947
X386.1744 Y70.6731
X386.2136 Y70.6553
X386.2527 Y70.6352
X386.2845 Y70.6171
X386.3396 Y70.5819
X386.3947 Y70.5409
X386.4137 Y70.5252
X386.4593 Y70.484
X386.5048 Y70.437
X386.524 Y70.4151
X386.5673 Y70.3601
X386.6046 Y70.3051
X386.6149 Y70.2884
X386.6411 Y70.2417
X386.664 Y70.1951
X386.6871 Y70.1401
X386.7062 Y70.0851
X386.725 Y70.0166
X386.7338 Y69.9751
X386.7424 Y69.92
X386.7478 Y69.865
X386.75 Y69.755
Y20.245
X386.7478 Y20.135
X386.7424 Y20.08
X386.7338 Y20.0249
X386.725 Y19.9834
X386.7062 Y19.9149
X386.6871 Y19.8599
X386.664 Y19.8049
X386.6411 Y19.7583
X386.6149 Y19.7116
X386.6046 Y19.6949
X386.5673 Y19.6399
X386.524 Y19.5849
X386.5048 Y19.5629
X386.4593 Y19.516
X386.4137 Y19.4748
X386.3947 Y19.4591
X386.3396 Y19.4181
X386.2845 Y19.3828
X386.2527 Y19.3648
X386.2136 Y19.3447
X386.1744 Y19.3269
X386.1194 Y19.3053
X386.0643 Y19.2875
X386.0092 Y19.2733
X385.9542 Y19.2626
X385.8954 Y19.2548
X385.8441 Y19.251
X385.734 Y19.25
X20.2661
X20.1559 Y19.251
X20.1047 Y19.2548
X20.0458 Y19.2626
X19.9908 Y19.2733
X19.9357 Y19.2875
X19.8807 Y19.3053
X19.8256 Y19.3269
X19.7865 Y19.3448
X19.7473 Y19.3648
X19.7155 Y19.3829
X19.6604 Y19.4181
X19.6054 Y19.4591
X19.5863 Y19.4748
X19.5408 Y19.516
X19.4953 Y19.563
X19.4761 Y19.5849
X19.4327 Y19.6399
X19.3955 Y19.6949
X19.3852 Y19.7117
X19.359 Y19.7583
X19.3361 Y19.8049
X19.313 Y19.8599
X19.2938 Y19.9149
X19.275 Y19.9835
X19.2652 Y20.0309
X19.2578 Y20.0787
X19.2529 Y20.1269 Z-1.0001
X19.2504 Y20.1752
X19.25 Y20.3688 Z-1.0004
Y20.5624 Z-1.0008
Y20.7559 Z-1.0015
Y20.9495 Z-1.0023
Y21.1431 Z-1.0033
Y21.3367 Z-1.0045
Y21.5302 Z-1.0058
Y21.7238 Z-1.0073
Y21.9174 Z-1.009
Y22.111 Z-1.0109
Y22.3045 Z-1.0129
Y22.4981 Z-1.0151
Y22.6917 Z-1.0174
Y22.8853 Z-1.0199
Y23.0788 Z-1.0225
Y23.2724 Z-1.0253
Y23.466 Z-1.0283
Y23.6596 Z-1.0314
Y23.8531 Z-1.0347
Y24.0467 Z-1.0381
Y24.2403 Z-1.0416
Y24.4339 Z-1.0453
Y24.6274 Z-1.0491
Y24.821 Z-1.0531
Y25.0146 Z-1.0572
Y25.2082 Z-1.0614
Y25.4017 Z-1.0658
Y25.5953 Z-1.0702
Y25.7889 Z-1.0749
Y25.9825 Z-1.0796
Y26.176 Z-1.0845
Y26.3696 Z-1.0894
Y26.4664 Z-1.092
Y26.5632 Z-1.0945
Y26.66 Z-1.0971
Y26.7568 Z-1.0997
Y26.8535 Z-1.1024
Y26.9503 Z-1.1051
Y27.0471 Z-1.1078
Y27.1439 Z-1.1105
Y27.2407 Z-1.1133
Y27.3375 Z-1.1161
Y27.4343 Z-1.1189
Y27.5311 Z-1.1217
Y27.6278 Z-1.1246
Y27.7246 Z-1.1275
Y27.8214 Z-1.1304
Y27.9182 Z-1.1334
Y28.015 Z-1.1363
Y28.1118 Z-1.1393
Y28.2086 Z-1.1423
Y28.3054 Z-1.1454
Y28.4021 Z-1.1485
Y28.4989 Z-1.1516
Y28.5957 Z-1.1547
Y28.6925 Z-1.1578
Y28.7893 Z-1.161
Y28.8861 Z-1.1642
Y28.9829 Z-1.1674
Y29.0797 Z-1.1706
Y29.1764 Z-1.1739
Y29.2732 Z-1.1772
Y29.37 Z-1.1805
Y29.4668 Z-1.1838
Y29.5636 Z-1.1871
Y29.7572 Z-1.1939
Y29.854 Z-1.1972
Y29.9507 Z-1.2006
Y30.0475 Z-1.204
Y30.1443 Z-1.2074
Y30.2411 Z-1.2108
Y30.3379 Z-1.2141
Y30.4347 Z-1.2175
Y30.5315 Z-1.2209
Y30.6283 Z-1.2243
Y30.725 Z-1.2277
Y30.8218 Z-1.231
Y30.9186 Z-1.2344
Y31.1122 Z-1.2412
Y31.4026 Z-1.2513
Y31.6929 Z-1.2614
Y31.9833 Z-1.2716
Y32.2736 Z-1.2817
Y32.564 Z-1.2919
Y32.8544 Z-1.302
Y33.1447 Z-1.3121
Y33.4351 Z-1.3223
Y33.7254 Z-1.3324
Y34.0158 Z-1.3426
Y34.4997 Z-1.3595
Y34.9837 Z-1.3764
Y35.4676 Z-1.3933
Y36.1451 Z-1.4169
Y37.0162 Z-1.4473
Y38.468 Z-1.498
Y45.4367 Z-1.7413
Y45.7271 Z-1.7515
Y46.0174 Z-1.7616
Y46.1142 Z-1.765
Y46.211 Z-1.7684
Y46.3078 Z-1.7717
Y46.4046 Z-1.7751
Y46.5014 Z-1.7785
Y46.5982 Z-1.7819
Y46.695 Z-1.7853
Y46.7917 Z-1.7886
Y46.8885 Z-1.792
Y46.9853 Z-1.7954
Y47.0821 Z-1.7988
Y47.1789 Z-1.8022
Y47.2757 Z-1.8055
Y47.3725 Z-1.8089
Y47.4692 Z-1.8123
Y47.566 Z-1.8156
Y47.6628 Z-1.819
Y47.7596 Z-1.8223
Y47.8564 Z-1.8255
Y47.9532 Z-1.8288
Y48.05 Z-1.832
Y48.1468 Z-1.8353
Y48.2435 Z-1.8385
Y48.3403 Z-1.8416
Y48.4371 Z-1.8448
Y48.5339 Z-1.8479
Y48.6307 Z-1.851
Y48.7275 Z-1.8541
Y48.8243 Z-1.8571
Y48.9211 Z-1.8601
Y49.0178 Z-1.8631
Y49.1146 Z-1.8661
Y49.2114 Z-1.8691
Y49.3082 Z-1.872
Y49.405 Z-1.8749
Y49.5018 Z-1.8778
Y49.5986 Z-1.8806
Y49.6954 Z-1.8834
Y49.7921 Z-1.8862
Y49.8889 Z-1.889
Y49.9857 Z-1.8917
Y50.0825 Z-1.8945
Y50.1793 Z-1.8971
Y50.2761 Z-1.8998
Y50.3729 Z-1.9024
Y50.4697 Z-1.905
Y50.5664 Z-1.9076
Y50.6632 Z-1.9101
Y50.76 Z-1.9126
Y50.9536 Z-1.9176
Y51.1472 Z-1.9224
Y51.3407 Z-1.9271
Y51.5343 Z-1.9316
Y51.7279 Z-1.9361
Y51.9215 Z-1.9404
Y52.115 Z-1.9445
Y52.3086 Z-1.9486
Y52.5022 Z-1.9525
Y52.6958 Z-1.9562
Y52.8893 Z-1.9599
Y53.0829 Z-1.9634
Y53.2765 Z-1.9667
Y53.4701 Z-1.9699
Y53.6636 Z-1.9729
Y53.8572 Z-1.9758
Y54.0508 Z-1.9786
Y54.2444 Z-1.9812
Y54.4379 Z-1.9836
Y54.6315 Z-1.9859
Y54.8251 Z-1.988
Y55.0187 Z-1.9899
Y55.2122 Z-1.9917
Y55.4058 Z-1.9933
Y55.5994 Z-1.9948
Y55.793 Z-1.996
Y55.9865 Z-1.9971
Y56.1801 Z-1.9981
Y56.3737 Z-1.9988
Y56.5673 Z-1.9994
Y56.7608 Z-1.9998
Y56.9544 Z-2
Y57.0682
Y69.755
X19.2523 Y69.865
X19.2577 Y69.92
X19.2663 Y69.9751
X19.275 Y70.0165
X19.2938 Y70.0851
X19.313 Y70.1401
X19.3361 Y70.1951
X19.359 Y70.2417
X19.3852 Y70.2883
X19.3955 Y70.3051
X19.4327 Y70.3601
X19.4761 Y70.4151
X19.4953 Y70.437
X19.5408 Y70.484
X19.5863 Y70.5252
X19.6054 Y70.5409
X19.6604 Y70.5819
X19.7155 Y70.6171
X19.7473 Y70.6352
X19.7865 Y70.6553
X19.8256 Y70.6731
X19.8807 Y70.6947
X19.9357 Y70.7125
X19.9908 Y70.7267
X20.0458 Y70.7374
X20.1048 Y70.7452
X20.1559 Y70.749
X20.2661 Y70.75
X385.734
X385.8441 Y70.749
X385.8953 Y70.7452
X385.9542 Y70.7374
X386.0092 Y70.7267
X386.0643 Y70.7125
X386.1194 Y70.6947
X386.1744 Y70.6731
X386.2136 Y70.6553
X386.2527 Y70.6352
X386.2845 Y70.6171
X386.3396 Y70.5819
X386.3947 Y70.5409
X386.4137 Y70.5252
X386.4593 Y70.484
X386.5048 Y70.437
X386.524 Y70.4151
X386.5673 Y70.3601
X386.6046 Y70.3051
X386.6149 Y70.2884
X386.6411 Y70.2417
X386.664 Y70.1951
X386.6871 Y70.1401
X386.7062 Y70.0851
X386.725 Y70.0166
X386.7338 Y69.9751
X386.7424 Y69.92
X386.7478 Y69.865
X386.75 Y69.755
Y20.245
X386.7478 Y20.135
X386.7424 Y20.08
X386.7338 Y20.0249
X386.725 Y19.9834
X386.7062 Y19.9149
X386.6871 Y19.8599
X386.664 Y19.8049
X386.6411 Y19.7583
X386.6149 Y19.7116
X386.6046 Y19.6949
X386.5673 Y19.6399
X386.524 Y19.5849
X386.5048 Y19.5629
X386.4593 Y19.516
X386.4137 Y19.4748
X386.3947 Y19.4591
X386.3396 Y19.4181
X386.2845 Y19.3828
X386.2527 Y19.3648
X386.2136 Y19.3447
X386.1744 Y19.3269
X386.1194 Y19.3053
X386.0643 Y19.2875
X386.0092 Y19.2733
X385.9542 Y19.2626
X385.8954 Y19.2548
X385.8441 Y19.251
X385.734 Y19.25
X20.2661
X20.1559 Y19.251
X20.1047 Y19.2548
X20.0458 Y19.2626
X19.9908 Y19.2733
X19.9357 Y19.2875
X19.8807 Y19.3053
X19.8256 Y19.3269
X19.7865 Y19.3448
X19.7473 Y19.3648
X19.7155 Y19.3829
X19.6604 Y19.4181
X19.6054 Y19.4591
X19.5863 Y19.4748
X19.5408 Y19.516
X19.4953 Y19.563
X19.4761 Y19.5849
X19.4327 Y19.6399
X19.3955 Y19.6949
X19.3852 Y19.7117
X19.359 Y19.7583
X19.3361 Y19.8049
X19.313 Y19.8599
X19.2938 Y19.9149
X19.275 Y19.9835
X19.2663 Y20.0249
X19.2577 Y20.08
X19.2523 Y20.135
X19.25 Y20.245
Y57.0682
Y57.2618 Z-2.0001
Y57.4554 Z-2.0004
Y57.6489 Z-2.0008
Y57.8425 Z-2.0015
Y58.0361 Z-2.0023
Y58.2297 Z-2.0033
Y58.4232 Z-2.0045
Y58.6168 Z-2.0058
Y58.8104 Z-2.0073
Y59.004 Z-2.009
Y59.1975 Z-2.0109
Y59.3911 Z-2.0129
Y59.5847 Z-2.0151
Y59.7783 Z-2.0174
Y59.9718 Z-2.0199
Y60.1654 Z-2.0225
Y60.359 Z-2.0253
Y60.5526 Z-2.0283
Y60.7461 Z-2.0314
Y60.9397 Z-2.0347
Y61.1333 Z-2.0381
Y61.3269 Z-2.0416
Y61.5204 Z-2.0453
Y61.714 Z-2.0491
Y61.9076 Z-2.0531
Y62.1012 Z-2.0572
Y62.2947 Z-2.0614
Y62.4883 Z-2.0658
Y62.6819 Z-2.0702
Y62.8755 Z-2.0749
Y63.069 Z-2.0796
Y63.2626 Z-2.0845
Y63.4562 Z-2.0894
Y63.553 Z-2.092
Y63.6497 Z-2.0945
Y63.7465 Z-2.0971
Y63.8433 Z-2.0997
Y63.9401 Z-2.1024
Y64.0369 Z-2.1051
Y64.1337 Z-2.1078
Y64.2305 Z-2.1105
Y64.3273 Z-2.1133
Y64.424 Z-2.1161
Y64.5208 Z-2.1189
Y64.6176 Z-2.1217
Y64.7144 Z-2.1246
Y64.8112 Z-2.1275
Y64.908 Z-2.1304
Y65.0048 Z-2.1334
Y65.1016 Z-2.1363
Y65.1983 Z-2.1393
Y65.2951 Z-2.1423
Y65.3919 Z-2.1454
Y65.4887 Z-2.1485
Y65.5855 Z-2.1516
Y65.6823 Z-2.1547
Y65.7791 Z-2.1578
Y65.8759 Z-2.161
Y65.9726 Z-2.1642
Y66.0694 Z-2.1674
Y66.1662 Z-2.1706
Y66.263 Z-2.1739
Y66.3598 Z-2.1772
Y66.4566 Z-2.1805
Y66.5534 Z-2.1838
Y66.6502 Z-2.1871
Y66.8437 Z-2.1939
Y66.9405 Z-2.1972
Y67.0373 Z-2.2006
Y67.1341 Z-2.204
Y67.2309 Z-2.2074
Y67.3277 Z-2.2108
Y67.4245 Z-2.2141
Y67.5212 Z-2.2175
Y67.618 Z-2.2209
Y67.7148 Z-2.2243
Y67.8116 Z-2.2277
Y67.9084 Z-2.231
Y68.0052 Z-2.2344
Y68.1988 Z-2.2412
Y68.4891 Z-2.2513
Y68.7795 Z-2.2614
Y69.0698 Z-2.2716
Y69.3602 Z-2.2817
Y69.6506 Z-2.2919
Y69.7474 Z-2.2952
X19.2511 Y69.8441 Z-2.2986
X19.2545 Y69.8924 Z-2.3003
X19.2605 Y69.9404 Z-2.302
X19.2689 Y69.9881 Z-2.3037
X19.2796 Y70.0353 Z-2.3054
X19.2928 Y70.0819 Z-2.3071
X19.3084 Y70.1277 Z-2.3087
X19.3262 Y70.1727 Z-2.3104
X19.3463 Y70.2167 Z-2.3121
X19.3686 Y70.2596 Z-2.3138
X19.3931 Y70.3014 Z-2.3155
X19.4197 Y70.3418 Z-2.3172
X19.4483 Y70.3809 Z-2.3189
X19.4789 Y70.4184 Z-2.3206
X19.5113 Y70.4543 Z-2.3222
X19.5455 Y70.4885 Z-2.3239
X19.5814 Y70.521 Z-2.3256
X19.619 Y70.5516 Z-2.3273
X19.658 Y70.5802 Z-2.329
X19.6984 Y70.6068 Z-2.3307
X19.7402 Y70.6313 Z-2.3324
X19.7831 Y70.6536 Z-2.3341
X19.8271 Y70.6737 Z-2.3357
X19.8721 Y70.6916 Z-2.3374
X19.9179 Y70.7071 Z-2.3391
X19.9645 Y70.7203 Z-2.3408
X20.0116 Y70.7311 Z-2.3425
X20.0593 Y70.7395 Z-2.3442
X20.1073 Y70.7455 Z-2.3459
X20.1556 Y70.749 Z-2.3476
X20.204 Y70.75 Z-2.3492
X20.6879 Z-2.3661
X21.1719 Z-2.383
X21.7526 Z-2.4033
X22.4301 Z-2.427
X23.4948 Z-2.4642
X25.4305 Z-2.5317
X27.6566 Z-2.6095
X28.3341 Z-2.6331
X28.8181 Z-2.65
X29.302 Z-2.6669
X29.5924 Z-2.677
X29.8827 Z-2.6872
X30.1731 Z-2.6973
X30.4634 Z-2.7075
X30.7538 Z-2.7176
X31.0442 Z-2.7277
X31.3345 Z-2.7379
X31.6249 Z-2.748
X31.9153 Z-2.7581
X32.2056 Z-2.7683
X32.3024 Z-2.7717
X32.3992 Z-2.7751
X32.496 Z-2.7784
X32.5928 Z-2.7818
X32.6896 Z-2.7852
X32.7863 Z-2.7886
X32.8831 Z-2.7919
X32.9799 Z-2.7953
X33.0767 Z-2.7987
X33.1735 Z-2.8021
X33.2703 Z-2.8055
X33.3671 Z-2.8088
X33.4639 Z-2.8122
X33.5606 Z-2.8156
X33.6574 Z-2.8189
X33.7542 Z-2.8222
X33.851 Z-2.8255
X33.9478 Z-2.8287
X34.0446 Z-2.832
X34.1414 Z-2.8352
X34.2382 Z-2.8384
X34.3349 Z-2.8415
X34.4317 Z-2.8447
X34.5285 Z-2.8478
X34.6253 Z-2.8509
X34.7221 Z-2.854
X34.8189 Z-2.857
X34.9157 Z-2.8601
X35.0125 Z-2.8631
X35.1092 Z-2.8661
X35.206 Z-2.869
X35.3028 Z-2.8719
X35.3996 Z-2.8748
X35.4964 Z-2.8777
X35.5932 Z-2.8806
X35.69 Z-2.8834
X35.7868 Z-2.8862
X35.8835 Z-2.8889
X35.9803 Z-2.8917
X36.0771 Z-2.8944
X36.1739 Z-2.8971
X36.2707 Z-2.8997
X36.3675 Z-2.9024
X36.4643 Z-2.905
X36.561 Z-2.9075
X36.6578 Z-2.9101
X36.7546 Z-2.9126
X36.9482 Z-2.9175
X37.1418 Z-2.9223
X37.3353 Z-2.927
X37.5289 Z-2.9316
X37.7225 Z-2.936
X37.9161 Z-2.9403
X38.1096 Z-2.9445
X38.3032 Z-2.9485
X38.4968 Z-2.9524
X38.6904 Z-2.9562
X38.8839 Z-2.9598
X39.0775 Z-2.9633
X39.2711 Z-2.9667
X39.4647 Z-2.9699
X39.6582 Z-2.9729
X39.8518 Z-2.9758
X40.0454 Z-2.9785
X40.239 Z-2.9811
X40.4325 Z-2.9836
X40.6261 Z-2.9858
X40.8197 Z-2.9879
X41.0133 Z-2.9899
X41.2068 Z-2.9917
X41.4004 Z-2.9933
X41.594 Z-2.9947
X41.7876 Z-2.996
X41.9811 Z-2.9971
X42.1747 Z-2.9981
X42.3683 Z-2.9988
X42.5619 Z-2.9994
X42.7554 Z-2.9998
X42.949 Z-3
X43.065
X385.734
X385.8441 Y70.749
X385.8953 Y70.7452
X385.9542 Y70.7374
X386.0092 Y70.7267
X386.0643 Y70.7125
X386.1194 Y70.6947
X386.1744 Y70.6731
X386.2136 Y70.6553
X386.2527 Y70.6352
X386.2845 Y70.6171
X386.3396 Y70.5819
X386.3947 Y70.5409
X386.4137 Y70.5252
X386.4593 Y70.484
X386.5048 Y70.437
X386.524 Y70.4151
X386.5673 Y70.3601
X386.6046 Y70.3051
X386.6149 Y70.2884
X386.6411 Y70.2417
X386.664 Y70.1951
X386.6871 Y70.1401
X386.7062 Y70.0851
X386.725 Y70.0166
X386.7338 Y69.9751
X386.7424 Y69.92
X386.7478 Y69.865
X386.75 Y69.755
Y20.245
X386.7478 Y20.135
X386.7424 Y20.08
X386.7338 Y20.0249
X386.725 Y19.9834
X386.7062 Y19.9149
X386.6871 Y19.8599
X386.664 Y19.8049
X386.6411 Y19.7583
X386.6149 Y19.7116
X386.6046 Y19.6949
X386.5673 Y19.6399
X386.524 Y19.5849
X386.5048 Y19.5629
X386.4593 Y19.516
X386.4137 Y19.4748
X386.3947 Y19.4591
X386.3396 Y19.4181
X386.2845 Y19.3828
X386.2527 Y19.3648
X386.2136 Y19.3447
X386.1744 Y19.3269
X386.1194 Y19.3053
X386.0643 Y19.2875
X386.0092 Y19.2733
X385.9542 Y19.2626
X385.8954 Y19.2548
X385.8441 Y19.251
X385.734 Y19.25
X20.2661
X20.1559 Y19.251
X20.1047 Y19.2548
X20.0458 Y19.2626
X19.9908 Y19.2733
X19.9357 Y19.2875
X19.8807 Y19.3053
X19.8256 Y19.3269
X19.7865 Y19.3448
X19.7473 Y19.3648
X19.7155 Y19.3829
X19.6604 Y19.4181
X19.6054 Y19.4591
X19.5863 Y19.4748
X19.5408 Y19.516
X19.4953 Y19.563
X19.4761 Y19.5849
X19.4327 Y19.6399
X19.3955 Y19.6949
X19.3852 Y19.7117
X19.359 Y19.7583
X19.3361 Y19.8049
X19.313 Y19.8599
X19.2938 Y19.9149
X19.275 Y19.9835
X19.2663 Y20.0249
X19.2577 Y20.08
X19.2523 Y20.135
X19.25 Y20.245
Y57.0682
Y69.755
X19.2523 Y69.865
X19.2577 Y69.92
X19.2663 Y69.9751
X19.275 Y70.0165
X19.2938 Y70.0851
X19.313 Y70.1401
X19.3361 Y70.1951
X19.359 Y70.2417
X19.3852 Y70.2883
X19.3955 Y70.3051
X19.4327 Y70.3601
X19.4761 Y70.4151
X19.4953 Y70.437
X19.5408 Y70.484
X19.5863 Y70.5252
X19.6054 Y70.5409
X19.6604 Y70.5819
X19.7155 Y70.6171
X19.7473 Y70.6352
X19.7865 Y70.6553
X19.8256 Y70.6731
X19.8807 Y70.6947
X19.9357 Y70.7125
X19.9908 Y70.7267
X20.0458 Y70.7374
X20.1048 Y70.7452
X20.1559 Y70.749
X20.2661 Y70.75
X43.065
X43.2586 Z-3.0001
X43.4522 Z-3.0004
X43.6457 Z-3.0008
X43.8393 Z-3.0015
X44.0329 Z-3.0023
X44.2265 Z-3.0033
X44.42 Z-3.0045
X44.6136 Z-3.0058
X44.8072 Z-3.0073
X45.0007 Z-3.009
X45.1943 Z-3.0109
X45.3879 Z-3.0129
X45.5815 Z-3.0151
X45.775 Z-3.0174
X45.9686 Z-3.0199
X46.1622 Z-3.0225
X46.3558 Z-3.0253
X46.5493 Z-3.0283
X46.7429 Z-3.0314
X46.9365 Z-3.0347
X47.1301 Z-3.0381
X47.3236 Z-3.0416
X47.5172 Z-3.0453
X47.7108 Z-3.0491
X47.9044 Z-3.0531
X48.0979 Z-3.0572
X48.2915 Z-3.0614
X48.4851 Z-3.0658
X48.6787 Z-3.0702
X48.8722 Z-3.0749
X49.0658 Z-3.0796
X49.2594 Z-3.0845
X49.453 Z-3.0894
X49.5498 Z-3.092
X49.6465 Z-3.0945
X49.7433 Z-3.0971
X49.8401 Z-3.0997
X49.9369 Z-3.1024
X50.0337 Z-3.1051
X50.1305 Z-3.1078
X50.2273 Z-3.1105
X50.3241 Z-3.1133
X50.4208 Z-3.1161
X50.5176 Z-3.1189
X50.6144 Z-3.1217
X50.7112 Z-3.1246
X50.808 Z-3.1275
X50.9048 Z-3.1304
X51.0016 Z-3.1334
X51.0984 Z-3.1363
X51.1951 Z-3.1393
X51.2919 Z-3.1423
X51.3887 Z-3.1454
X51.4855 Z-3.1485
X51.5823 Z-3.1516
X51.6791 Z-3.1547
X51.7759 Z-3.1578
X51.8727 Z-3.161
X51.9694 Z-3.1642
X52.0662 Z-3.1674
X52.163 Z-3.1706
X52.2598 Z-3.1739
X52.3566 Z-3.1772
X52.4534 Z-3.1805
X52.5502 Z-3.1838
X52.6469 Z-3.1871
X52.8405 Z-3.1939
X52.9373 Z-3.1972
X53.0341 Z-3.2006
X53.1309 Z-3.204
X53.2277 Z-3.2074
X53.3245 Z-3.2108
X53.4212 Z-3.2141
X53.518 Z-3.2175
X53.6148 Z-3.2209
X53.7116 Z-3.2243
X53.8084 Z-3.2277
X53.9052 Z-3.231
X54.002 Z-3.2344
X54.1955 Z-3.2412
X54.4859 Z-3.2513
X54.7763 Z-3.2614
X55.0666 Z-3.2716
X55.357 Z-3.2817
X55.6474 Z-3.2919
X55.9377 Z-3.302
X56.2281 Z-3.3121
X56.5184 Z-3.3223
X56.8088 Z-3.3324
X57.0992 Z-3.3426
X57.5831 Z-3.3595
X58.067 Z-3.3764
X58.551 Z-3.3933
X59.2285 Z-3.4169
X60.0996 Z-3.4473
X61.5514 Z-3.498
X68.5201 Z-3.7413
X68.8104 Z-3.7515
X69.1008 Z-3.7616
X69.1976 Z-3.765
X69.2944 Z-3.7684
X69.3912 Z-3.7717
X69.4879 Z-3.7751
X69.5847 Z-3.7785
X69.6815 Z-3.7819
X69.7783 Z-3.7853
X69.8751 Z-3.7886
X69.9719 Z-3.792
X70.0687 Z-3.7954
X70.1655 Z-3.7988
X70.2622 Z-3.8022
X70.359 Z-3.8055
X70.4558 Z-3.8089
X70.5526 Z-3.8123
X70.6494 Z-3.8156
X70.7462 Z-3.819
X70.843 Z-3.8223
X70.9398 Z-3.8255
X71.0365 Z-3.8288
X71.1333 Z-3.832
X71.2301 Z-3.8353
X71.3269 Z-3.8385
X71.4237 Z-3.8416
X71.5205 Z-3.8448
X71.6173 Z-3.8479
X71.7141 Z-3.851
X71.8108 Z-3.8541
X71.9076 Z-3.8571
X72.0044 Z-3.8601
X72.1012 Z-3.8631
X72.198 Z-3.8661
X72.2948 Z-3.8691
X72.3916 Z-3.872
X72.4883 Z-3.8749
X72.5851 Z-3.8778
X72.6819 Z-3.8806
X72.7787 Z-3.8834
X72.8755 Z-3.8862
X72.9723 Z-3.889
X73.0691 Z-3.8917
X73.1659 Z-3.8945
X73.2626 Z-3.8971
X73.3594 Z-3.8998
X73.4562 Z-3.9024
X73.553 Z-3.905
X73.6498 Z-3.9076
X73.7466 Z-3.9101
X73.8434 Z-3.9126
X74.0369 Z-3.9176
X74.2305 Z-3.9224
X74.4241 Z-3.9271
X74.6177 Z-3.9316
X74.8112 Z-3.9361
X75.0048 Z-3.9404
X75.1984 Z-3.9445
X75.392 Z-3.9486
X75.5855 Z-3.9525
X75.7791 Z-3.9562
X75.9727 Z-3.9599
X76.1663 Z-3.9634
X76.3598 Z-3.9667
X76.5534 Z-3.9699
X76.747 Z-3.9729
X76.9406 Z-3.9758
X77.1341 Z-3.9786
X77.3277 Z-3.9812
X77.5213 Z-3.9836
X77.7149 Z-3.9859
X77.9084 Z-3.988
X78.102 Z-3.9899
X78.2956 Z-3.9917
X78.4892 Z-3.9933
X78.6827 Z-3.9948
X78.8763 Z-3.996
X79.0699 Z-3.9971
X79.2635 Z-3.9981
X79.457 Z-3.9988
X79.6506 Z-3.9994
X79.8442 Z-3.9998
X80.0378 Z-4
X80.1516
X385.734
X385.8441 Y70.749
X385.8953 Y70.7452
X385.9542 Y70.7374
X386.0092 Y70.7267
X386.0643 Y70.7125
X386.1194 Y70.6947
X386.1744 Y70.6731
X386.2136 Y70.6553
X386.2527 Y70.6352
X386.2845 Y70.6171
X386.3396 Y70.5819
X386.3947 Y70.5409
X386.4137 Y70.5252
X386.4593 Y70.484
X386.5048 Y70.437
X386.524 Y70.4151
X386.5673 Y70.3601
X386.6046 Y70.3051
X386.6149 Y70.2884
X386.6411 Y70.2417
X386.664 Y70.1951
X386.6871 Y70.1401
X386.7062 Y70.0851
X386.725 Y70.0166
X386.7338 Y69.9751
X386.7424 Y69.92
X386.7478 Y69.865
X386.75 Y69.755
Y20.245
X386.7478 Y20.135
X386.7424 Y20.08
X386.7338 Y20.0249
X386.725 Y19.9834
X386.7062 Y19.9149
X386.6871 Y19.8599
X386.664 Y19.8049
X386.6411 Y19.7583
X386.6149 Y19.7116
X386.6046 Y19.6949
X386.5673 Y19.6399
X386.524 Y19.5849
X386.5048 Y19.5629
X386.4593 Y19.516
X386.4137 Y19.4748
X386.3947 Y19.4591
X386.3396 Y19.4181
X386.2845 Y19.3828
X386.2527 Y19.3648
X386.2136 Y19.3447
X386.1744 Y19.3269
X386.1194 Y19.3053
X386.0643 Y19.2875
X386.0092 Y19.2733
X385.9542 Y19.2626
X385.8954 Y19.2548
X385.8441 Y19.251
X385.734 Y19.25
X20.2661
X20.1559 Y19.251
X20.1047 Y19.2548
X20.0458 Y19.2626
X19.9908 Y19.2733
X19.9357 Y19.2875
X19.8807 Y19.3053
X19.8256 Y19.3269
X19.7865 Y19.3448
X19.7473 Y19.3648
X19.7155 Y19.3829
X19.6604 Y19.4181
X19.6054 Y19.4591
X19.5863 Y19.4748
X19.5408 Y19.516
X19.4953 Y19.563
X19.4761 Y19.5849
X19.4327 Y19.6399
X19.3955 Y19.6949
X19.3852 Y19.7117
X19.359 Y19.7583
X19.3361 Y19.8049
X19.313 Y19.8599
X19.2938 Y19.9149
X19.275 Y19.9835
X19.2663 Y20.0249
X19.2577 Y20.08
X19.2523 Y20.135
X19.25 Y20.245
Y69.755
X19.2523 Y69.865
X19.2577 Y69.92
X19.2663 Y69.9751
X19.275 Y70.0165
X19.2938 Y70.0851
X19.313 Y70.1401
X19.3361 Y70.1951
X19.359 Y70.2417
X19.3852 Y70.2883
X19.3955 Y70.3051
X19.4327 Y70.3601
X19.4761 Y70.4151
X19.4953 Y70.437
X19.5408 Y70.484
X19.5863 Y70.5252
X19.6054 Y70.5409
X19.6604 Y70.5819
X19.7155 Y70.6171
X19.7473 Y70.6352
X19.7865 Y70.6553
X19.8256 Y70.6731
X19.8807 Y70.6947
X19.9357 Y70.7125
X19.9908 Y70.7267
X20.0458 Y70.7374
X20.1048 Y70.7452
X20.1559 Y70.749
X20.2661 Y70.75
X80.1516
X80.3451 Z-4.0001
X80.5387 Z-4.0004
X80.7323 Z-4.0008
X80.9259 Z-4.0015
X81.1194 Z-4.0023
X81.313 Z-4.0033
X81.5066 Z-4.0045
X81.7002 Z-4.0058
X81.8937 Z-4.0073
X82.0873 Z-4.009
X82.2809 Z-4.0109
X82.4745 Z-4.0129
X82.668 Z-4.0151
X82.8616 Z-4.0174
X83.0552 Z-4.0199
X83.2488 Z-4.0225
X83.4423 Z-4.0253
X83.6359 Z-4.0283
X83.8295 Z-4.0314
X84.0231 Z-4.0347
X84.2166 Z-4.0381
X84.4102 Z-4.0416
X84.6038 Z-4.0453
X84.7974 Z-4.0491
X84.9909 Z-4.0531
X85.1845 Z-4.0572
X85.3781 Z-4.0614
X85.5717 Z-4.0658
X85.7652 Z-4.0702
X85.9588 Z-4.0749
X86.1524 Z-4.0796
X86.346 Z-4.0845
X86.5395 Z-4.0894
X86.6363 Z-4.092
X86.7331 Z-4.0945
X86.8299 Z-4.0971
X86.9267 Z-4.0997
X87.0235 Z-4.1024
X87.1203 Z-4.1051
X87.217 Z-4.1078
X87.3138 Z-4.1105
X87.4106 Z-4.1133
X87.5074 Z-4.1161
X87.6042 Z-4.1189
X87.701 Z-4.1217
X87.7978 Z-4.1246
X87.8946 Z-4.1275
X87.9913 Z-4.1304
X88.0881 Z-4.1334
X88.1849 Z-4.1363
X88.2817 Z-4.1393
X88.3785 Z-4.1423
X88.4753 Z-4.1454
X88.5721 Z-4.1485
X88.6689 Z-4.1516
X88.7656 Z-4.1547
X88.8624 Z-4.1578
X88.9592 Z-4.161
X89.056 Z-4.1642
X89.1528 Z-4.1674
X89.2496 Z-4.1706
X89.3464 Z-4.1739
X89.4432 Z-4.1772
X89.5399 Z-4.1805
X89.6367 Z-4.1838
X89.7335 Z-4.1871
X89.9271 Z-4.1939
X90.0239 Z-4.1972
X90.1207 Z-4.2006
X90.2175 Z-4.204
X90.3142 Z-4.2074
X90.411 Z-4.2108
X90.5078 Z-4.2141
X90.6046 Z-4.2175
X90.7014 Z-4.2209
X90.7982 Z-4.2243
X90.895 Z-4.2277
X90.9917 Z-4.231
X91.0885 Z-4.2344
X91.2821 Z-4.2412
X91.5725 Z-4.2513
X91.8628 Z-4.2614
X92.1532 Z-4.2716
X92.4436 Z-4.2817
X92.7339 Z-4.2919
X93.0243 Z-4.302
X93.3146 Z-4.3121
X93.605 Z-4.3223
X93.8954 Z-4.3324
X94.1857 Z-4.3426
X94.6697 Z-4.3595
X95.1536 Z-4.3764
X95.6375 Z-4.3933
X96.315 Z-4.4169
X97.1861 Z-4.4473
X98.6379 Z-4.498
X105.6066 Z-4.7413
X105.897 Z-4.7515
X106.1874 Z-4.7616
X106.2841 Z-4.765
X106.3809 Z-4.7684
X106.4777 Z-4.7717
X106.5745 Z-4.7751
X106.6713 Z-4.7785
X106.7681 Z-4.7819
X106.8649 Z-4.7853
X106.9617 Z-4.7886
X107.0584 Z-4.792
X107.1552 Z-4.7954
X107.252 Z-4.7988
X107.3488 Z-4.8022
X107.4456 Z-4.8055
X107.5424 Z-4.8089
X107.6392 Z-4.8123
X107.736 Z-4.8156
X107.8327 Z-4.819
X107.9295 Z-4.8223
X108.0263 Z-4.8255
X108.1231 Z-4.8288
X108.2199 Z-4.832
X108.3167 Z-4.8353
X108.4135 Z-4.8385
X108.5103 Z-4.8416
X108.607 Z-4.8448
X108.7038 Z-4.8479
X108.8006 Z-4.851
X108.8974 Z-4.8541
X108.9942 Z-4.8571
X109.091 Z-4.8601
X109.1878 Z-4.8631
X109.2846 Z-4.8661
X109.3813 Z-4.8691
X109.4781 Z-4.872
X109.5749 Z-4.8749
X109.6717 Z-4.8778
X109.7685 Z-4.8806
X109.8653 Z-4.8834
X109.9621 Z-4.8862
X110.0589 Z-4.889
X110.1556 Z-4.8917
X110.2524 Z-4.8945
X110.3492 Z-4.8971
X110.446 Z-4.8998
X110.5428 Z-4.9024
X110.6396 Z-4.905
X110.7364 Z-4.9076
X110.8332 Z-4.9101
X110.9299 Z-4.9126
X111.1235 Z-4.9176
X111.3171 Z-4.9224
X111.5107 Z-4.9271
X111.7042 Z-4.9316
X111.8978 Z-4.9361
X112.0914 Z-4.9404
X112.285 Z-4.9445
X112.4785 Z-4.9486
X112.6721 Z-4.9525
X112.8657 Z-4.9562
X113.0593 Z-4.9599
X113.2528 Z-4.9634
X113.4464 Z-4.9667
X113.64 Z-4.9699
X113.8336 Z-4.9729
X114.0271 Z-4.9758
X114.2207 Z-4.9786
X114.4143 Z-4.9812
X114.6079 Z-4.9836
X114.8014 Z-4.9859
X114.995 Z-4.988
X115.1886 Z-4.9899
X115.3822 Z-4.9917
X115.5757 Z-4.9933
X115.7693 Z-4.9948
X115.9629 Z-4.996
X116.1565 Z-4.9971
X116.35 Z-4.9981
X116.5436 Z-4.9988
X116.7372 Z-4.9994
X116.9308 Z-4.9998
X117.1243 Z-5
X117.2381
X385.734
X385.8441 Y70.749
X385.8953 Y70.7452
X385.9542 Y70.7374
X386.0092 Y70.7267
X386.0643 Y70.7125
X386.1194 Y70.6947
X386.1744 Y70.6731
X386.2136 Y70.6553
X386.2527 Y70.6352
X386.2845 Y70.6171
X386.3396 Y70.5819
X386.3947 Y70.5409
X386.4137 Y70.5252
X386.4593 Y70.484
X386.5048 Y70.437
X386.524 Y70.4151
X386.5673 Y70.3601
X386.6046 Y70.3051
X386.6149 Y70.2884
X386.6411 Y70.2417
X386.664 Y70.1951
X386.6871 Y70.1401
X386.7062 Y70.0851
X386.725 Y70.0166
X386.7338 Y69.9751
X386.7424 Y69.92
X386.7478 Y69.865
X386.75 Y69.755
Y20.245
X386.7478 Y20.135
X386.7424 Y20.08
X386.7338 Y20.0249
X386.725 Y19.9834
X386.7062 Y19.9149
X386.6871 Y19.8599
X386.664 Y19.8049
X386.6411 Y19.7583
X386.6149 Y19.7116
X386.6046 Y19.6949
X386.5673 Y19.6399
X386.524 Y19.5849
X386.5048 Y19.5629
X386.4593 Y19.516
X386.4137 Y19.4748
X386.3947 Y19.4591
X386.3396 Y19.4181
X386.2845 Y19.3828
X386.2527 Y19.3648
X386.2136 Y19.3447
X386.1744 Y19.3269
X386.1194 Y19.3053
X386.0643 Y19.2875
X386.0092 Y19.2733
X385.9542 Y19.2626
X385.8954 Y19.2548
X385.8441 Y19.251
X385.734 Y19.25
X20.2661
X20.1559 Y19.251
X20.1047 Y19.2548
X20.0458 Y19.2626
X19.9908 Y19.2733
X19.9357 Y19.2875
X19.8807 Y19.3053
X19.8256 Y19.3269
X19.7865 Y19.3448
X19.7473 Y19.3648
X19.7155 Y19.3829
X19.6604 Y19.4181
X19.6054 Y19.4591
X19.5863 Y19.4748
X19.5408 Y19.516
X19.4953 Y19.563
X19.4761 Y19.5849
X19.4327 Y19.6399
X19.3955 Y19.6949
X19.3852 Y19.7117
X19.359 Y19.7583
X19.3361 Y19.8049
X19.313 Y19.8599
X19.2938 Y19.9149
X19.275 Y19.9835
X19.2663 Y20.0249
X19.2577 Y20.08
X19.2523 Y20.135
X19.25 Y20.245
Y69.755
X19.2523 Y69.865
X19.2577 Y69.92
X19.2663 Y69.9751
X19.275 Y70.0165
X19.2938 Y70.0851
X19.313 Y70.1401
X19.3361 Y70.1951
X19.359 Y70.2417
X19.3852 Y70.2883
X19.3955 Y70.3051
X19.4327 Y70.3601
X19.4761 Y70.4151
X19.4953 Y70.437
X19.5408 Y70.484
X19.5863 Y70.5252
X19.6054 Y70.5409
X19.6604 Y70.5819
X19.7155 Y70.6171
X19.7473 Y70.6352
X19.7865 Y70.6553
X19.8256 Y70.6731
X19.8807 Y70.6947
X19.9357 Y70.7125
X19.9908 Y70.7267
X20.0458 Y70.7374
X20.1048 Y70.7452
X20.1559 Y70.749
X20.2661 Y70.75
X80.1516
X117.2381
X117.4317 Z-5.0001
X117.6253 Z-5.0004
X117.8189 Z-5.0008
X118.0124 Z-5.0015
X118.206 Z-5.0023
X118.3996 Z-5.0033
X118.5932 Z-5.0045
X118.7867 Z-5.0058
X118.9803 Z-5.0073
X119.1739 Z-5.009
X119.3675 Z-5.0109
X119.561 Z-5.0129
X119.7546 Z-5.0151
X119.9482 Z-5.0174
X120.1418 Z-5.0199
X120.3353 Z-5.0225
X120.5289 Z-5.0253
X120.7225 Z-5.0283
X120.916 Z-5.0314
X121.1096 Z-5.0347
X121.3032 Z-5.0381
X121.4968 Z-5.0416
X121.6903 Z-5.0453
X121.8839 Z-5.0491
X122.0775 Z-5.0531
X122.2711 Z-5.0572
X122.4646 Z-5.0614
X122.6582 Z-5.0658
X122.8518 Z-5.0702
X123.0454 Z-5.0749
X123.2389 Z-5.0796
X123.4325 Z-5.0845
X123.6261 Z-5.0894
X123.7229 Z-5.092
X123.8197 Z-5.0945
X123.9165 Z-5.0971
X124.0132 Z-5.0997
X124.11 Z-5.1024
X124.2068 Z-5.1051
X124.3036 Z-5.1078
X124.4004 Z-5.1105
X124.4972 Z-5.1133
X124.594 Z-5.1161
X124.6908 Z-5.1189
X124.7875 Z-5.1217
X124.8843 Z-5.1246
X124.9811 Z-5.1275
X125.0779 Z-5.1304
X125.1747 Z-5.1334
X125.2715 Z-5.1363
X125.3683 Z-5.1393
X125.4651 Z-5.1423
X125.5618 Z-5.1454
X125.6586 Z-5.1485
X125.7554 Z-5.1516
X125.8522 Z-5.1547
X125.949 Z-5.1578
X126.0458 Z-5.161
X126.1426 Z-5.1642
X126.2393 Z-5.1674
X126.3361 Z-5.1706
X126.4329 Z-5.1739
X126.5297 Z-5.1772
X126.6265 Z-5.1805
X126.7233 Z-5.1838
X126.8201 Z-5.1871
X127.0136 Z-5.1939
X127.1104 Z-5.1972
X127.2072 Z-5.2006
X127.304 Z-5.204
X127.4008 Z-5.2074
X127.4976 Z-5.2108
X127.5944 Z-5.2141
X127.6912 Z-5.2175
X127.7879 Z-5.2209
X127.8847 Z-5.2243
X127.9815 Z-5.2277
X128.0783 Z-5.231
X128.1751 Z-5.2344
X128.3687 Z-5.2412
X128.659 Z-5.2513
X128.9494 Z-5.2614
X129.2398 Z-5.2716
X129.5301 Z-5.2817
X129.8205 Z-5.2919
X130.1108 Z-5.302
X130.4012 Z-5.3121
X130.6916 Z-5.3223
X130.9819 Z-5.3324
X131.2723 Z-5.3426
X131.7562 Z-5.3595
X132.2402 Z-5.3764
X132.7241 Z-5.3933
X133.4016 Z-5.4169
X134.2727 Z-5.4473
X135.7245 Z-5.498
X142.6932 Z-5.7413
X142.9836 Z-5.7515
X143.2739 Z-5.7616
X143.3707 Z-5.765
X143.4675 Z-5.7684
X143.5643 Z-5.7717
X143.6611 Z-5.7751
X143.7579 Z-5.7785
X143.8546 Z-5.7819
X143.9514 Z-5.7853
X144.0482 Z-5.7886
X144.145 Z-5.792
X144.2418 Z-5.7954
X144.3386 Z-5.7988
X144.4354 Z-5.8022
X144.5322 Z-5.8055
X144.629 Z-5.8089
X144.7257 Z-5.8123
X144.8225 Z-5.8156
X144.9193 Z-5.819
X145.0161 Z-5.8223
X145.1129 Z-5.8255
X145.2097 Z-5.8288
X145.3065 Z-5.832
X145.4032 Z-5.8353
X145.5 Z-5.8385
X145.5968 Z-5.8416
X145.6936 Z-5.8448
X145.7904 Z-5.8479
X145.8872 Z-5.851
X145.984 Z-5.8541
X146.0807 Z-5.8571
X146.1776 Z-5.8601
X146.2743 Z-5.8631
X146.3711 Z-5.8661
X146.4679 Z-5.8691
X146.5647 Z-5.872
X146.6615 Z-5.8749
X146.7583 Z-5.8778
X146.8551 Z-5.8806
X146.9518 Z-5.8834
X147.0486 Z-5.8862
X147.1454 Z-5.889
X147.2422 Z-5.8917
X147.339 Z-5.8945
X147.4358 Z-5.8971
X147.5326 Z-5.8998
X147.6293 Z-5.9024
X147.7261 Z-5.905
X147.8229 Z-5.9076
X147.9197 Z-5.9101
X148.0165 Z-5.9126
X148.2101 Z-5.9176
X148.4037 Z-5.9224
X148.5972 Z-5.9271
X148.7908 Z-5.9316
X148.9844 Z-5.9361
X149.1779 Z-5.9404
X149.3715 Z-5.9445
X149.5651 Z-5.9486
X149.7587 Z-5.9525
X149.9523 Z-5.9562
X150.1458 Z-5.9599
X150.3394 Z-5.9634
X150.533 Z-5.9667
X150.7265 Z-5.9699
X150.9201 Z-5.9729
X151.1137 Z-5.9758
X151.3073 Z-5.9786
X151.5009 Z-5.9812
X151.6944 Z-5.9836
X151.888 Z-5.9859
X152.0816 Z-5.988
X152.2751 Z-5.9899
X152.4687 Z-5.9917
X152.6623 Z-5.9933
X152.8559 Z-5.9948
X153.0494 Z-5.996
X153.243 Z-5.9971
X153.4366 Z-5.9981
X153.6302 Z-5.9988
X153.8237 Z-5.9994
X154.0173 Z-5.9998
X154.2109 Z-6
X154.3247
X385.734
X385.8441 Y70.749
X385.8953 Y70.7452
X385.9542 Y70.7374
X386.0092 Y70.7267
X386.0643 Y70.7125
X386.1194 Y70.6947
X386.1744 Y70.6731
X386.2136 Y70.6553
X386.2527 Y70.6352
X386.2845 Y70.6171
X386.3396 Y70.5819
X386.3947 Y70.5409
X386.4137 Y70.5252
X386.4593 Y70.484
X386.5048 Y70.437
X386.524 Y70.4151
X386.5673 Y70.3601
X386.6046 Y70.3051
X386.6149 Y70.2884
X386.6411 Y70.2417
X386.664 Y70.1951
X386.6871 Y70.1401
X386.7062 Y70.0851
X386.725 Y70.0166
X386.7338 Y69.9751
X386.7424 Y69.92
X386.7478 Y69.865
X386.75 Y69.755
Y20.245
X386.7478 Y20.135
X386.7424 Y20.08
X386.7338 Y20.0249
X386.725 Y19.9834
X386.7062 Y19.9149
X386.6871 Y19.8599
X386.664 Y19.8049
X386.6411 Y19.7583
X386.6149 Y19.7116
X386.6046 Y19.6949
X386.5673 Y19.6399
X386.524 Y19.5849
X386.5048 Y19.5629
X386.4593 Y19.516
X386.4137 Y19.4748
X386.3947 Y19.4591
X386.3396 Y19.4181
X386.2845 Y19.3828
X386.2527 Y19.3648
X386.2136 Y19.3447
X386.1744 Y19.3269
X386.1194 Y19.3053
X386.0643 Y19.2875
X386.0092 Y19.2733
X385.9542 Y19.2626
X385.8954 Y19.2548
X385.8441 Y19.251
X385.734 Y19.25
X20.2661
X20.1559 Y19.251
X20.1047 Y19.2548
X20.0458 Y19.2626
X19.9908 Y19.2733
X19.9357 Y19.2875
X19.8807 Y19.3053
X19.8256 Y19.3269
X19.7865 Y19.3448
X19.7473 Y19.3648
X19.7155 Y19.3829
X19.6604 Y19.4181
X19.6054 Y19.4591
X19.5863 Y19.4748
X19.5408 Y19.516
X19.4953 Y19.563
X19.4761 Y19.5849
X19.4327 Y19.6399
X19.3955 Y19.6949
X19.3852 Y19.7117
X19.359 Y19.7583
X19.3361 Y19.8049
X19.313 Y19.8599
X19.2938 Y19.9149
X19.275 Y19.9835
X19.2663 Y20.0249
X19.2577 Y20.08
X19.2523 Y20.135
X19.25 Y20.245
Y69.755
X19.2523 Y69.865
X19.2577 Y69.92
X19.2663 Y69.9751
X19.275 Y70.0165
X19.2938 Y70.0851
X19.313 Y70.1401
X19.3361 Y70.1951
X19.359 Y70.2417
X19.3852 Y70.2883
X19.3955 Y70.3051
X19.4327 Y70.3601
X19.4761 Y70.4151
X19.4953 Y70.437
X19.5408 Y70.484
X19.5863 Y70.5252
X19.6054 Y70.5409
X19.6604 Y70.5819
X19.7155 Y70.6171
X19.7473 Y70.6352
X19.7865 Y70.6553
X19.8256 Y70.6731
X19.8807 Y70.6947
X19.9357 Y70.7125
X19.9908 Y70.7267
X20.0458 Y70.7374
X20.1048 Y70.7452
X20.1559 Y70.749
X20.2661 Y70.75
X117.2381
X154.3247
X154.3739 Y70.7565
X154.4197 Y70.7755
X154.459 Y70.8057
X154.4892 Y70.845
X154.5082 Y70.8908
X154.5147 Y70.94
X154.5148 Y70.9464
X155.2217 Y91.9271
G3 X153.4671 Y92.2536 I-0.902 J0.0304
G1 X153.465 Y92.2473 Z-6.0001 F1200
G3 X153.5283 Y92.3913 Z-6.1926 I0.8547 J-0.2898
X153.6156 Y92.5221 Z-6.385 I0.7914 J-0.4338
X153.7244 Y92.6358 Z-6.5774 I0.7041 J-0.5646
X153.8512 Y92.7289 Z-6.7699 I0.5953 J-0.6783
X153.9923 Y92.7985 Z-6.9623 I0.4685 J-0.7714
X153.4172 Y91.9641 Z-6.9999 I0.3274 J-0.841
G1 Y91.9575 Z-7
Y91.8575 F3200
G3 X154.3247 Y90.95 I0.9075
G1 X405.9949
X406.05 Y90.9487
X406.105 Y90.9442
X406.1601 Y90.9364
X406.2151 Y90.9253
X406.2702 Y90.9108
X406.3253 Y90.8926
X406.3597 Y90.8793
X406.3976 Y90.8628
X406.4354 Y90.8444
X406.4904 Y90.8136
X406.5455 Y90.7778
X406.5575 Y90.7693
X406.6065 Y90.7312
X406.6556 Y90.6875
X406.6841 Y90.6592
X406.7277 Y90.6108
X406.7657 Y90.5623
X406.7752 Y90.5492
X406.8114 Y90.4942
X406.8424 Y90.4392
X406.8758 Y90.3681
X406.8912 Y90.3292
X406.9096 Y90.2742
X406.9244 Y90.2191
X406.9357 Y90.1641
X406.9438 Y90.1091
X406.9485 Y90.0541
X406.95 Y89.9991
Y0.0009
X406.9485 Y-0.0541
X406.9438 Y-0.1091
X406.9357 Y-0.1641
X406.9244 Y-0.2191
X406.9096 Y-0.2742
X406.8912 Y-0.3292
X406.8758 Y-0.3681
X406.8424 Y-0.4392
X406.8114 Y-0.4942
X406.7752 Y-0.5492
X406.7657 Y-0.5623
X406.7277 Y-0.6108
X406.6841 Y-0.6592
X406.6556 Y-0.6875
X406.6065 Y-0.7312
X406.5575 Y-0.7693
X406.5455 Y-0.7778
X406.4904 Y-0.8136
X406.4354 Y-0.8444
X406.3976 Y-0.8628
X406.3597 Y-0.8793
X406.3253 Y-0.8926
X406.2702 Y-0.9108
X406.2151 Y-0.9253
X406.1601 Y-0.9364
X406.105 Y-0.9442
X406.05 Y-0.9487
X405.9949 Y-0.95
X145.1352
X145.0251 Y-0.947
X144.97 Y-0.9411
X144.9149 Y-0.9318
X144.8599 Y-0.9192
X144.8048 Y-0.903
X144.7404 Y-0.8793
X144.6947 Y-0.8592
X144.6397 Y-0.831
X144.5846 Y-0.798
X144.5426 Y-0.7693
X144.5085 Y-0.7434
X144.4745 Y-0.715
X144.416 Y-0.6592
X144.3644 Y-0.6011
X144.3249 Y-0.5492
X144.2887 Y-0.4942
X144.2576 Y-0.4392
X144.2543 Y-0.4327
X144.2297 Y-0.3809
X144.2089 Y-0.3292
X144.1904 Y-0.2742
X144.1756 Y-0.2191
X144.1643 Y-0.1641
X144.1563 Y-0.1091
X144.1516 Y-0.0541
X144.15 Y0.0009
Y18.1484
X144.1486 Y18.15
X65.8516
X65.85 Y18.1484
Y0.0009
X65.8485 Y-0.0541
X65.8437 Y-0.1091
X65.8357 Y-0.1641
X65.8244 Y-0.2191
X65.8096 Y-0.2742
X65.7912 Y-0.3292
X65.7692 Y-0.3835
X65.7431 Y-0.4379
X65.7424 Y-0.4392
X65.7114 Y-0.4942
X65.6752 Y-0.5492
X65.633 Y-0.6044
X65.5841 Y-0.6592
X65.5535 Y-0.6896
X65.5229 Y-0.7173
X65.4902 Y-0.7445
X65.4575 Y-0.7693
X65.4127 Y-0.7998
X65.3577 Y-0.8325
X65.3026 Y-0.8605
X65.2597 Y-0.8793
X65.1925 Y-0.9039
X65.1375 Y-0.9199
X65.0824 Y-0.9323
X65.0273 Y-0.9414
X64.9723 Y-0.9472
X64.8622 Y-0.95
X0.0051
X-0.0499 Y-0.9487
X-0.105 Y-0.9442
X-0.1601 Y-0.9364
X-0.2151 Y-0.9253
X-0.2702 Y-0.9108
X-0.3252 Y-0.8926
X-0.3597 Y-0.8793
X-0.3975 Y-0.8628
X-0.4353 Y-0.8444
X-0.4904 Y-0.8136
X-0.5455 Y-0.7778
X-0.5574 Y-0.7693
X-0.6065 Y-0.7312
X-0.6556 Y-0.6875
X-0.684 Y-0.6592
X-0.7276 Y-0.6108
X-0.7657 Y-0.5623
X-0.7752 Y-0.5492
X-0.8113 Y-0.4942
X-0.8424 Y-0.4392
X-0.8758 Y-0.3681
X-0.8911 Y-0.3292
X-0.9096 Y-0.2742
X-0.9244 Y-0.2191
X-0.9357 Y-0.1641
X-0.9437 Y-0.1091
X-0.9485 Y-0.0541
X-0.95 Y0.0009
Y89.9991
X-0.9485 Y90.0541
X-0.9437 Y90.1091
X-0.9357 Y90.1641
X-0.9244 Y90.2191
X-0.9096 Y90.2742
X-0.8911 Y90.3292
X-0.8758 Y90.3681
X-0.8424 Y90.4392
X-0.8113 Y90.4942
X-0.7752 Y90.5492
X-0.7657 Y90.5623
X-0.7276 Y90.6108
X-0.684 Y90.6592
X-0.6556 Y90.6875
X-0.6065 Y90.7312
X-0.5574 Y90.7693
X-0.5455 Y90.7778
X-0.4904 Y90.8136
X-0.4353 Y90.8444
X-0.3975 Y90.8628
X-0.3597 Y90.8793
X-0.3252 Y90.8926
X-0.2702 Y90.9108
X-0.2151 Y90.9253
X-0.1601 Y90.9364
X-0.105 Y90.9442
X-0.0499 Y90.9487
X0.0051 Y90.95
X154.3247
X154.5183 Z-7.0001
X154.7118 Z-7.0004
X154.9054 Z-7.0008
X155.099 Z-7.0015
X155.2926 Z-7.0023
X155.4861 Z-7.0033
X155.6797 Z-7.0045
X155.8733 Z-7.0058
X156.0669 Z-7.0073
X156.2604 Z-7.009
X156.454 Z-7.0109
X156.6476 Z-7.0129
X156.8412 Z-7.0151
X157.0347 Z-7.0174
X157.2283 Z-7.0199
X157.4219 Z-7.0225
X157.6155 Z-7.0253
X157.809 Z-7.0283
X158.0026 Z-7.0314
X158.1962 Z-7.0347
X158.3898 Z-7.0381
X158.5833 Z-7.0416
X158.7769 Z-7.0453
X158.9705 Z-7.0491
X159.1641 Z-7.0531
X159.3576 Z-7.0572
X159.5512 Z-7.0614
X159.7448 Z-7.0658
X159.9384 Z-7.0702
X160.1319 Z-7.0749
X160.3255 Z-7.0796
X160.5191 Z-7.0845
X160.7127 Z-7.0894
X160.8094 Z-7.092
X160.9062 Z-7.0945
X161.003 Z-7.0971
X161.0998 Z-7.0997
X161.1966 Z-7.1024
X161.2934 Z-7.1051
X161.3902 Z-7.1078
X161.487 Z-7.1105
X161.5837 Z-7.1133
X161.6805 Z-7.1161
X161.7773 Z-7.1189
X161.8741 Z-7.1217
X161.9709 Z-7.1246
X162.0677 Z-7.1275
X162.1645 Z-7.1304
X162.2613 Z-7.1334
X162.358 Z-7.1363
X162.4548 Z-7.1393
X162.5516 Z-7.1423
X162.6484 Z-7.1454
X162.7452 Z-7.1485
X162.842 Z-7.1516
X162.9388 Z-7.1547
X163.0356 Z-7.1578
X163.1323 Z-7.161
X163.2291 Z-7.1642
X163.3259 Z-7.1674
X163.4227 Z-7.1706
X163.5195 Z-7.1739
X163.6163 Z-7.1772
X163.7131 Z-7.1805
X163.8099 Z-7.1838
X163.9066 Z-7.1871
X164.1002 Z-7.1939
X164.197 Z-7.1972
X164.2938 Z-7.2006
X164.3906 Z-7.204
X164.4874 Z-7.2074
X164.5842 Z-7.2108
X164.6809 Z-7.2141
X164.7777 Z-7.2175
X164.8745 Z-7.2209
X164.9713 Z-7.2243
X165.0681 Z-7.2277
X165.1649 Z-7.231
X165.2617 Z-7.2344
X165.4552 Z-7.2412
X165.7456 Z-7.2513
X166.036 Z-7.2614
X166.3263 Z-7.2716
X166.6167 Z-7.2817
X166.907 Z-7.2919
X167.1974 Z-7.302
X167.4878 Z-7.3121
X167.7781 Z-7.3223
X168.0685 Z-7.3324
X168.3589 Z-7.3426
X168.8428 Z-7.3595
X169.3267 Z-7.3764
X169.8107 Z-7.3933
X170.4882 Z-7.4169
X171.3593 Z-7.4473
X172.8111 Z-7.498
X179.7798 Z-7.7413
X180.0701 Z-7.7515
X180.3605 Z-7.7616
X180.4573 Z-7.765
X180.5541 Z-7.7684
X180.6508 Z-7.7717
X180.7476 Z-7.7751
X180.8444 Z-7.7785
X180.9412 Z-7.7819
X181.038 Z-7.7853
X181.1348 Z-7.7886
X181.2316 Z-7.792
X181.3284 Z-7.7954
X181.4252 Z-7.7988
X181.5219 Z-7.8022
X181.6187 Z-7.8055
X181.7155 Z-7.8089
X181.8123 Z-7.8123
X181.9091 Z-7.8156
X182.0059 Z-7.819
X182.1027 Z-7.8223
X182.1994 Z-7.8255
X182.2962 Z-7.8288
X182.393 Z-7.832
X182.4898 Z-7.8353
X182.5866 Z-7.8385
X182.6834 Z-7.8416
X182.7802 Z-7.8448
X182.877 Z-7.8479
X182.9737 Z-7.851
X183.0705 Z-7.8541
X183.1673 Z-7.8571
X183.2641 Z-7.8601
X183.3609 Z-7.8631
X183.4577 Z-7.8661
X183.5545 Z-7.8691
X183.6513 Z-7.872
X183.748 Z-7.8749
X183.8448 Z-7.8778
X183.9416 Z-7.8806
X184.0384 Z-7.8834
X184.1352 Z-7.8862
X184.232 Z-7.889
X184.3288 Z-7.8917
X184.4256 Z-7.8945
X184.5223 Z-7.8971
X184.6191 Z-7.8998
X184.7159 Z-7.9024
X184.8127 Z-7.905
X184.9095 Z-7.9076
X185.0063 Z-7.9101
X185.1031 Z-7.9126
X185.2966 Z-7.9176
X185.4902 Z-7.9224
X185.6838 Z-7.9271
X185.8774 Z-7.9316
X186.0709 Z-7.9361
X186.2645 Z-7.9404
X186.4581 Z-7.9445
X186.6517 Z-7.9486
X186.8452 Z-7.9525
X187.0388 Z-7.9562
X187.2324 Z-7.9599
X187.426 Z-7.9634
X187.6195 Z-7.9667
X187.8131 Z-7.9699
X188.0067 Z-7.9729
X188.2003 Z-7.9758
X188.3938 Z-7.9786
X188.5874 Z-7.9812
X188.781 Z-7.9836
X188.9746 Z-7.9859
X189.1681 Z-7.988
X189.3617 Z-7.9899
X189.5553 Z-7.9917
X189.7489 Z-7.9933
X189.9424 Z-7.9948
X190.136 Z-7.996
X190.3296 Z-7.9971
X190.5232 Z-7.9981
X190.7167 Z-7.9988
X190.9103 Z-7.9994
X191.1039 Z-7.9998
X191.2975 Z-8
X191.4113
X405.9949
X406.05 Y90.9487
X406.105 Y90.9442
X406.1601 Y90.9364
X406.2151 Y90.9253
X406.2702 Y90.9108
X406.3253 Y90.8926
X406.3597 Y90.8793
X406.3976 Y90.8628
X406.4354 Y90.8444
X406.4904 Y90.8136
X406.5455 Y90.7778
X406.5575 Y90.7693
X406.6065 Y90.7312
X406.6556 Y90.6875
X406.6841 Y90.6592
X406.7277 Y90.6108
X406.7657 Y90.5623
X406.7752 Y90.5492
X406.8114 Y90.4942
X406.8424 Y90.4392
X406.8758 Y90.3681
X406.8912 Y90.3292
X406.9096 Y90.2742
X406.9244 Y90.2191
X406.9357 Y90.1641
X406.9438 Y90.1091
X406.9485 Y90.0541
X406.95 Y89.9991
Y0.0009
X406.9485 Y-0.0541
X406.9438 Y-0.1091
X406.9357 Y-0.1641
X406.9244 Y-0.2191
X406.9096 Y-0.2742
X406.8912 Y-0.3292
X406.8758 Y-0.3681
X406.8424 Y-0.4392
X406.8114 Y-0.4942
X406.7752 Y-0.5492
X406.7657 Y-0.5623
X406.7277 Y-0.6108
X406.6841 Y-0.6592
X406.6556 Y-0.6875
X406.6065 Y-0.7312
X406.5575 Y-0.7693
X406.5455 Y-0.7778
X406.4904 Y-0.8136
X406.4354 Y-0.8444
X406.3976 Y-0.8628
X406.3597 Y-0.8793
X406.3253 Y-0.8926
X406.2702 Y-0.9108
X406.2151 Y-0.9253
X406.1601 Y-0.9364
X406.105 Y-0.9442
X406.05 Y-0.9487
X405.9949 Y-0.95
X145.1352
X145.0251 Y-0.947
X144.97 Y-0.9411
X144.9149 Y-0.9318
X144.8599 Y-0.9192
X144.8048 Y-0.903
X144.7404 Y-0.8793
X144.6947 Y-0.8592
X144.6397 Y-0.831
X144.5846 Y-0.798
X144.5426 Y-0.7693
X144.5085 Y-0.7434
X144.4745 Y-0.715
X144.416 Y-0.6592
X144.3644 Y-0.6011
X144.3249 Y-0.5492
X144.2887 Y-0.4942
X144.2576 Y-0.4392
X144.2543 Y-0.4327
X144.2297 Y-0.3809
X144.2089 Y-0.3292
X144.1904 Y-0.2742
X144.1756 Y-0.2191
X144.1643 Y-0.1641
X144.1563 Y-0.1091
X144.1516 Y-0.0541
X144.15 Y0.0009
Y18.1484
X144.1486 Y18.15
X65.8516
X65.85 Y18.1484
Y0.0009
X65.8485 Y-0.0541
X65.8437 Y-0.1091
X65.8357 Y-0.1641
X65.8244 Y-0.2191
X65.8096 Y-0.2742
X65.7912 Y-0.3292
X65.7692 Y-0.3835
X65.7431 Y-0.4379
X65.7424 Y-0.4392
X65.7114 Y-0.4942
X65.6752 Y-0.5492
X65.633 Y-0.6044
X65.5841 Y-0.6592
X65.5535 Y-0.6896
X65.5229 Y-0.7173
X65.4902 Y-0.7445
X65.4575 Y-0.7693
X65.4127 Y-0.7998
X65.3577 Y-0.8325
X65.3026 Y-0.8605
X65.2597 Y-0.8793
X65.1925 Y-0.9039
X65.1375 Y-0.9199
X65.0824 Y-0.9323
X65.0273 Y-0.9414
X64.9723 Y-0.9472
X64.8622 Y-0.95
X0.0051
X-0.0499 Y-0.9487
X-0.105 Y-0.9442
X-0.1601 Y-0.9364
X-0.2151 Y-0.9253
X-0.2702 Y-0.9108
X-0.3252 Y-0.8926
X-0.3597 Y-0.8793
X-0.3975 Y-0.8628
X-0.4353 Y-0.8444
X-0.4904 Y-0.8136
X-0.5455 Y-0.7778
X-0.5574 Y-0.7693
X-0.6065 Y-0.7312
X-0.6556 Y-0.6875
X-0.684 Y-0.6592
X-0.7276 Y-0.6108
X-0.7657 Y-0.5623
X-0.7752 Y-0.5492
X-0.8113 Y-0.4942
X-0.8424 Y-0.4392
X-0.8758 Y-0.3681
X-0.8911 Y-0.3292
X-0.9096 Y-0.2742
X-0.9244 Y-0.2191
X-0.9357 Y-0.1641
X-0.9437 Y-0.1091
X-0.9485 Y-0.0541
X-0.95 Y0.0009
Y89.9991
X-0.9485 Y90.0541
X-0.9437 Y90.1091
X-0.9357 Y90.1641
X-0.9244 Y90.2191
X-0.9096 Y90.2742
X-0.8911 Y90.3292
X-0.8758 Y90.3681
X-0.8424 Y90.4392
X-0.8113 Y90.4942
X-0.7752 Y90.5492
X-0.7657 Y90.5623
X-0.7276 Y90.6108
X-0.684 Y90.6592
X-0.6556 Y90.6875
X-0.6065 Y90.7312
X-0.5574 Y90.7693
X-0.5455 Y90.7778
X-0.4904 Y90.8136
X-0.4353 Y90.8444
X-0.3975 Y90.8628
X-0.3597 Y90.8793
X-0.3252 Y90.8926
X-0.2702 Y90.9108
X-0.2151 Y90.9253
X-0.1601 Y90.9364
X-0.105 Y90.9442
X-0.0499 Y90.9487
X0.0051 Y90.95
X154.3247
X191.4113
X191.6048 Z-8.0001
X191.7984 Z-8.0004
X191.992 Z-8.0008
X192.1856 Z-8.0015
X192.3791 Z-8.0023
X192.5727 Z-8.0033
X192.7663 Z-8.0045
X192.9599 Z-8.0058
X193.1534 Z-8.0073
X193.347 Z-8.009
X193.5406 Z-8.0109
X193.7342 Z-8.0129
X193.9277 Z-8.0151
X194.1213 Z-8.0174
X194.3149 Z-8.0199
X194.5085 Z-8.0225
X194.702 Z-8.0253
X194.8956 Z-8.0283
X195.0892 Z-8.0314
X195.2827 Z-8.0347
X195.4763 Z-8.0381
X195.6699 Z-8.0416
X195.8635 Z-8.0453
X196.0571 Z-8.0491
X196.2506 Z-8.0531
X196.4442 Z-8.0572
X196.6378 Z-8.0614
X196.8313 Z-8.0658
X197.0249 Z-8.0702
X197.2185 Z-8.0749
X197.4121 Z-8.0796
X197.6057 Z-8.0845
X197.7992 Z-8.0894
X197.896 Z-8.092
X197.9928 Z-8.0945
X198.0896 Z-8.0971
X198.1864 Z-8.0997
X198.2832 Z-8.1024
X198.3799 Z-8.1051
X198.4767 Z-8.1078
X198.5735 Z-8.1105
X198.6703 Z-8.1133
X198.7671 Z-8.1161
X198.8639 Z-8.1189
X198.9607 Z-8.1217
X199.0575 Z-8.1246
X199.1543 Z-8.1275
X199.251 Z-8.1304
X199.3478 Z-8.1334
X199.4446 Z-8.1363
X199.5414 Z-8.1393
X199.6382 Z-8.1424
X199.735 Z-8.1454
X199.8318 Z-8.1485
X199.9285 Z-8.1516
X200.0253 Z-8.1547
X200.1221 Z-8.1578
X200.2189 Z-8.161
X200.3157 Z-8.1642
X200.4125 Z-8.1674
X200.5093 Z-8.1706
X200.606 Z-8.1739
X200.7029 Z-8.1772
X200.7996 Z-8.1805
X200.8964 Z-8.1838
X200.9932 Z-8.1871
X201.1868 Z-8.1939
X201.2836 Z-8.1972
X201.3804 Z-8.2006
X201.4771 Z-8.204
X201.5739 Z-8.2074
X201.6707 Z-8.2108
X201.7675 Z-8.2141
X201.8643 Z-8.2175
X201.9611 Z-8.2209
X202.0579 Z-8.2243
X202.1546 Z-8.2277
X202.2514 Z-8.231
X202.3482 Z-8.2344
X202.5418 Z-8.2412
X202.8322 Z-8.2513
X203.1225 Z-8.2614
X203.4129 Z-8.2716
X203.7032 Z-8.2817
X203.9936 Z-8.2919
X204.284 Z-8.302
X204.5743 Z-8.3121
X204.8647 Z-8.3223
X205.1551 Z-8.3324
X205.4454 Z-8.3426
X205.9294 Z-8.3595
X206.4133 Z-8.3764
X206.8972 Z-8.3933
X207.5747 Z-8.4169
X208.4458 Z-8.4473
X209.8976 Z-8.498
X216.8663 Z-8.7413
X217.1567 Z-8.7515
X217.4471 Z-8.7616
X217.5438 Z-8.765
X217.6406 Z-8.7684
X217.7374 Z-8.7717
X217.8342 Z-8.7751
X217.931 Z-8.7785
X218.0278 Z-8.7819
X218.1246 Z-8.7853
X218.2213 Z-8.7886
X218.3181 Z-8.792
X218.4149 Z-8.7954
X218.5117 Z-8.7988
X218.6085 Z-8.8022
X218.7053 Z-8.8055
X218.8021 Z-8.8089
X218.8989 Z-8.8123
X218.9957 Z-8.8156
X219.0924 Z-8.819
X219.1892 Z-8.8223
X219.286 Z-8.8255
X219.3828 Z-8.8288
X219.4796 Z-8.832
X219.5764 Z-8.8353
X219.6732 Z-8.8385
X219.7699 Z-8.8416
X219.8667 Z-8.8448
X219.9635 Z-8.8479
X220.0603 Z-8.851
X220.1571 Z-8.8541
X220.2539 Z-8.8571
X220.3507 Z-8.8601
X220.4475 Z-8.8631
X220.5443 Z-8.8661
X220.641 Z-8.8691
X220.7378 Z-8.872
X220.8346 Z-8.8749
X220.9314 Z-8.8778
X221.0282 Z-8.8806
X221.125 Z-8.8834
X221.2218 Z-8.8862
X221.3185 Z-8.889
X221.4153 Z-8.8917
X221.5121 Z-8.8945
X221.6089 Z-8.8971
X221.7057 Z-8.8998
X221.8025 Z-8.9024
X221.8993 Z-8.905
X221.9961 Z-8.9076
X222.0928 Z-8.9101
X222.1896 Z-8.9126
X222.3832 Z-8.9176
X222.5768 Z-8.9224
X222.7704 Z-8.9271
X222.9639 Z-8.9316
X223.1575 Z-8.9361
X223.3511 Z-8.9404
X223.5447 Z-8.9445
X223.7382 Z-8.9486
X223.9318 Z-8.9525
X224.1254 Z-8.9562
X224.319 Z-8.9599
X224.5125 Z-8.9634
X224.7061 Z-8.9667
X224.8997 Z-8.9699
X225.0932 Z-8.9729
X225.2868 Z-8.9758
X225.4804 Z-8.9786
X225.674 Z-8.9812
X225.8676 Z-8.9836
X226.0611 Z-8.9859
X226.2547 Z-8.988
X226.4483 Z-8.9899
X226.6418 Z-8.9917
X226.8354 Z-8.9933
X227.029 Z-8.9948
X227.2226 Z-8.996
X227.4162 Z-8.9971
X227.6097 Z-8.9981
X227.8033 Z-8.9988
X227.9969 Z-8.9994
X228.1904 Z-8.9998
X228.384 Z-9
X228.4978
X405.9949
X406.05 Y90.9487
X406.105 Y90.9442
X406.1601 Y90.9364
X406.2151 Y90.9253
X406.2702 Y90.9108
X406.3253 Y90.8926
X406.3597 Y90.8793
X406.3976 Y90.8628
X406.4354 Y90.8444
X406.4904 Y90.8136
X406.5455 Y90.7778
X406.5575 Y90.7693
X406.6065 Y90.7312
X406.6556 Y90.6875
X406.6841 Y90.6592
X406.7277 Y90.6108
X406.7657 Y90.5623
X406.7752 Y90.5492
X406.8114 Y90.4942
X406.8424 Y90.4392
X406.8758 Y90.3681
X406.8912 Y90.3292
X406.9096 Y90.2742
X406.9244 Y90.2191
X406.9357 Y90.1641
X406.9438 Y90.1091
X406.9485 Y90.0541
X406.95 Y89.9991
Y0.0009
X406.9485 Y-0.0541
X406.9438 Y-0.1091
X406.9357 Y-0.1641
X406.9244 Y-0.2191
X406.9096 Y-0.2742
X406.8912 Y-0.3292
X406.8758 Y-0.3681
X406.8424 Y-0.4392
X406.8114 Y-0.4942
X406.7752 Y-0.5492
X406.7657 Y-0.5623
X406.7277 Y-0.6108
X406.6841 Y-0.6592
X406.6556 Y-0.6875
X406.6065 Y-0.7312
X406.5575 Y-0.7693
X406.5455 Y-0.7778
X406.4904 Y-0.8136
X406.4354 Y-0.8444
X406.3976 Y-0.8628
X406.3597 Y-0.8793
X406.3253 Y-0.8926
X406.2702 Y-0.9108
X406.2151 Y-0.9253
X406.1601 Y-0.9364
X406.105 Y-0.9442
X406.05 Y-0.9487
X405.9949 Y-0.95
X145.1352
X145.0251 Y-0.947
X144.97 Y-0.9411
X144.9149 Y-0.9318
X144.8599 Y-0.9192
X144.8048 Y-0.903
X144.7404 Y-0.8793
X144.6947 Y-0.8592
X144.6397 Y-0.831
X144.5846 Y-0.798
X144.5426 Y-0.7693
X144.5085 Y-0.7434
X144.4745 Y-0.715
X144.416 Y-0.6592
X144.3644 Y-0.6011
X144.3249 Y-0.5492
X144.2887 Y-0.4942
X144.2576 Y-0.4392
X144.2543 Y-0.4327
X144.2297 Y-0.3809
X144.2089 Y-0.3292
X144.1904 Y-0.2742
X144.1756 Y-0.2191
X144.1643 Y-0.1641
X144.1563 Y-0.1091
X144.1516 Y-0.0541
X144.15 Y0.0009
Y18.1484
X144.1486 Y18.15
X65.8516
X65.85 Y18.1484
Y0.0009
X65.8485 Y-0.0541
X65.8437 Y-0.1091
X65.8357 Y-0.1641
X65.8244 Y-0.2191
X65.8096 Y-0.2742
X65.7912 Y-0.3292
X65.7692 Y-0.3835
X65.7431 Y-0.4379
X65.7424 Y-0.4392
X65.7114 Y-0.4942
X65.6752 Y-0.5492
X65.633 Y-0.6044
X65.5841 Y-0.6592
X65.5535 Y-0.6896
X65.5229 Y-0.7173
X65.4902 Y-0.7445
X65.4575 Y-0.7693
X65.4127 Y-0.7998
X65.3577 Y-0.8325
X65.3026 Y-0.8605
X65.2597 Y-0.8793
X65.1925 Y-0.9039
X65.1375 Y-0.9199
X65.0824 Y-0.9323
X65.0273 Y-0.9414
X64.9723 Y-0.9472
X64.8622 Y-0.95
X0.0051
X-0.0499 Y-0.9487
X-0.105 Y-0.9442
X-0.1601 Y-0.9364
X-0.2151 Y-0.9253
X-0.2702 Y-0.9108
X-0.3252 Y-0.8926
X-0.3597 Y-0.8793
X-0.3975 Y-0.8628
X-0.4353 Y-0.8444
X-0.4904 Y-0.8136
X-0.5455 Y-0.7778
X-0.5574 Y-0.7693
X-0.6065 Y-0.7312
X-0.6556 Y-0.6875
X-0.684 Y-0.6592
X-0.7276 Y-0.6108
X-0.7657 Y-0.5623
X-0.7752 Y-0.5492
X-0.8113 Y-0.4942
X-0.8424 Y-0.4392
X-0.8758 Y-0.3681
X-0.8911 Y-0.3292
X-0.9096 Y-0.2742
X-0.9244 Y-0.2191
X-0.9357 Y-0.1641
X-0.9437 Y-0.1091
X-0.9485 Y-0.0541
X-0.95 Y0.0009
Y89.9991
X-0.9485 Y90.0541
X-0.9437 Y90.1091
X-0.9357 Y90.1641
X-0.9244 Y90.2191
X-0.9096 Y90.2742
X-0.8911 Y90.3292
X-0.8758 Y90.3681
X-0.8424 Y90.4392
X-0.8113 Y90.4942
X-0.7752 Y90.5492
X-0.7657 Y90.5623
X-0.7276 Y90.6108
X-0.684 Y90.6592
X-0.6556 Y90.6875
X-0.6065 Y90.7312
X-0.5574 Y90.7693
X-0.5455 Y90.7778
X-0.4904 Y90.8136
X-0.4353 Y90.8444
X-0.3975 Y90.8628
X-0.3597 Y90.8793
X-0.3252 Y90.8926
X-0.2702 Y90.9108
X-0.2151 Y90.9253
X-0.1601 Y90.9364
X-0.105 Y90.9442
X-0.0499 Y90.9487
X0.0051 Y90.95
X191.4113
X228.4978
X228.6914 Z-9.0001
X228.885 Z-9.0004
X229.0786 Z-9.0008
X229.2721 Z-9.0015
X229.4657 Z-9.0023
X229.6593 Z-9.0033
X229.8528 Z-9.0045
X230.0464 Z-9.0058
X230.24 Z-9.0073
X230.4336 Z-9.009
X230.6272 Z-9.0109
X230.8207 Z-9.0129
X231.0143 Z-9.0151
X231.2079 Z-9.0174
X231.4014 Z-9.0199
X231.595 Z-9.0225
X231.7886 Z-9.0253
X231.9822 Z-9.0283
X232.1757 Z-9.0314
X232.3693 Z-9.0347
X232.5629 Z-9.0381
X232.7565 Z-9.0416
X232.95 Z-9.0453
X233.1436 Z-9.0491
X233.3372 Z-9.0531
X233.5308 Z-9.0572
X233.7243 Z-9.0614
X233.9179 Z-9.0658
X234.1115 Z-9.0702
X234.3051 Z-9.0749
X234.4986 Z-9.0796
X234.6922 Z-9.0845
X234.8858 Z-9.0894
X234.9826 Z-9.092
X235.0794 Z-9.0945
X235.1761 Z-9.0971
X235.2729 Z-9.0997
X235.3697 Z-9.1024
X235.4665 Z-9.1051
X235.5633 Z-9.1078
X235.6601 Z-9.1105
X235.7569 Z-9.1133
X235.8537 Z-9.1161
X235.9505 Z-9.1189
X236.0472 Z-9.1217
X236.144 Z-9.1246
X236.2408 Z-9.1275
X236.3376 Z-9.1304
X236.4344 Z-9.1334
X236.5312 Z-9.1363
X236.628 Z-9.1393
X236.7247 Z-9.1424
X236.8215 Z-9.1454
X236.9183 Z-9.1485
X237.0151 Z-9.1516
X237.1119 Z-9.1547
X237.2087 Z-9.1578
X237.3055 Z-9.161
X237.4023 Z-9.1642
X237.499 Z-9.1674
X237.5958 Z-9.1706
X237.6926 Z-9.1739
X237.7894 Z-9.1772
X237.8862 Z-9.1805
X237.983 Z-9.1838
X238.0798 Z-9.1871
X238.2733 Z-9.1939
X238.3701 Z-9.1972
X238.4669 Z-9.2006
X238.5637 Z-9.204
X238.6605 Z-9.2074
X238.7573 Z-9.2108
X238.8541 Z-9.2141
X238.9509 Z-9.2175
X239.0476 Z-9.2209
X239.1444 Z-9.2243
X239.2412 Z-9.2277
X239.338 Z-9.231
X239.4348 Z-9.2344
X239.6284 Z-9.2412
X239.9187 Z-9.2513
X240.2091 Z-9.2614
X240.4995 Z-9.2716
X240.7898 Z-9.2817
X241.0802 Z-9.2919
X241.3705 Z-9.302
X241.6609 Z-9.3121
X241.9513 Z-9.3223
X242.2416 Z-9.3324
X242.532 Z-9.3426
X243.0159 Z-9.3595
X243.4999 Z-9.3764
X243.9838 Z-9.3933
X244.6613 Z-9.4169
X245.5324 Z-9.4473
X246.9842 Z-9.498
X253.9529 Z-9.7413
X254.2433 Z-9.7515
X254.5336 Z-9.7616
X254.6304 Z-9.765
X254.7272 Z-9.7684
X254.824 Z-9.7717
X254.9208 Z-9.7751
X255.0175 Z-9.7785
X255.1143 Z-9.7819
X255.2111 Z-9.7853
X255.3079 Z-9.7886
X255.4047 Z-9.792
X255.5015 Z-9.7954
X255.5983 Z-9.7988
X255.6951 Z-9.8022
X255.7919 Z-9.8055
X255.8886 Z-9.8089
X255.9854 Z-9.8123
X256.0822 Z-9.8156
X256.179 Z-9.819
X256.2758 Z-9.8223
X256.3726 Z-9.8255
X256.4694 Z-9.8288
X256.5662 Z-9.832
X256.6629 Z-9.8353
X256.7597 Z-9.8385
X256.8565 Z-9.8416
X256.9533 Z-9.8448
X257.0501 Z-9.8479
X257.1469 Z-9.851
X257.2437 Z-9.8541
X257.3405 Z-9.8571
X257.4372 Z-9.8601
X257.534 Z-9.8631
X257.6308 Z-9.8661
X257.7276 Z-9.8691
X257.8244 Z-9.872
X257.9212 Z-9.8749
X258.018 Z-9.8778
X258.1147 Z-9.8806
X258.2115 Z-9.8834
X258.3083 Z-9.8862
X258.4051 Z-9.889
X258.5019 Z-9.8917
X258.5987 Z-9.8945
X258.6955 Z-9.8971
X258.7923 Z-9.8998
X258.889 Z-9.9024
X258.9858 Z-9.905
X259.0826 Z-9.9076
X259.1794 Z-9.9101
X259.2762 Z-9.9126
X259.4698 Z-9.9176
X259.6634 Z-9.9224
X259.8569 Z-9.9271
X260.0505 Z-9.9316
X260.2441 Z-9.9361
X260.4377 Z-9.9404
X260.6312 Z-9.9445
X260.8248 Z-9.9486
X261.0184 Z-9.9525
X261.2119 Z-9.9562
X261.4055 Z-9.9599
X261.5991 Z-9.9634
X261.7927 Z-9.9667
X261.9862 Z-9.9699
X262.1798 Z-9.9729
X262.3734 Z-9.9758
X262.567 Z-9.9786
X262.7605 Z-9.9812
X262.9541 Z-9.9836
X263.1477 Z-9.9859
X263.3413 Z-9.988
X263.5349 Z-9.9899
X263.7284 Z-9.9917
X263.922 Z-9.9933
X264.1156 Z-9.9948
X264.3091 Z-9.996
X264.5027 Z-9.9971
X264.6963 Z-9.9981
X264.8899 Z-9.9988
X265.0834 Z-9.9994
X265.277 Z-9.9998
X265.4706 Z-10
X265.5844
X405.9949
X406.05 Y90.9487
X406.105 Y90.9442
X406.1601 Y90.9364
X406.2151 Y90.9253
X406.2702 Y90.9108
X406.3253 Y90.8926
X406.3597 Y90.8793
X406.3976 Y90.8628
X406.4354 Y90.8444
X406.4904 Y90.8136
X406.5455 Y90.7778
X406.5575 Y90.7693
X406.6065 Y90.7312
X406.6556 Y90.6875
X406.6841 Y90.6592
X406.7277 Y90.6108
X406.7657 Y90.5623
X406.7752 Y90.5492
X406.8114 Y90.4942
X406.8424 Y90.4392
X406.8758 Y90.3681
X406.8912 Y90.3292
X406.9096 Y90.2742
X406.9244 Y90.2191
X406.9357 Y90.1641
X406.9438 Y90.1091
X406.9485 Y90.0541
X406.95 Y89.9991
Y0.0009
X406.9485 Y-0.0541
X406.9438 Y-0.1091
X406.9357 Y-0.1641
X406.9244 Y-0.2191
X406.9096 Y-0.2742
X406.8912 Y-0.3292
X406.8758 Y-0.3681
X406.8424 Y-0.4392
X406.8114 Y-0.4942
X406.7752 Y-0.5492
X406.7657 Y-0.5623
X406.7277 Y-0.6108
X406.6841 Y-0.6592
X406.6556 Y-0.6875
X406.6065 Y-0.7312
X406.5575 Y-0.7693
X406.5455 Y-0.7778
X406.4904 Y-0.8136
X406.4354 Y-0.8444
X406.3976 Y-0.8628
X406.3597 Y-0.8793
X406.3253 Y-0.8926
X406.2702 Y-0.9108
X406.2151 Y-0.9253
X406.1601 Y-0.9364
X406.105 Y-0.9442
X406.05 Y-0.9487
X405.9949 Y-0.95
X145.1352
X145.0251 Y-0.947
X144.97 Y-0.9411
X144.9149 Y-0.9318
X144.8599 Y-0.9192
X144.8048 Y-0.903
X144.7404 Y-0.8793
X144.6947 Y-0.8592
X144.6397 Y-0.831
X144.5846 Y-0.798
X144.5426 Y-0.7693
X144.5085 Y-0.7434
X144.4745 Y-0.715
X144.416 Y-0.6592
X144.3644 Y-0.6011
X144.3249 Y-0.5492
X144.2887 Y-0.4942
X144.2576 Y-0.4392
X144.2543 Y-0.4327
X144.2297 Y-0.3809
X144.2089 Y-0.3292
X144.1904 Y-0.2742
X144.1756 Y-0.2191
X144.1643 Y-0.1641
X144.1563 Y-0.1091
X144.1516 Y-0.0541
X144.15 Y0.0009
Y18.1484
X144.1486 Y18.15
X65.8516
X65.85 Y18.1484
Y0.0009
X65.8485 Y-0.0541
X65.8437 Y-0.1091
X65.8357 Y-0.1641
X65.8244 Y-0.2191
X65.8096 Y-0.2742
X65.7912 Y-0.3292
X65.7692 Y-0.3835
X65.7431 Y-0.4379
X65.7424 Y-0.4392
X65.7114 Y-0.4942
X65.6752 Y-0.5492
X65.633 Y-0.6044
X65.5841 Y-0.6592
X65.5535 Y-0.6896
X65.5229 Y-0.7173
X65.4902 Y-0.7445
X65.4575 Y-0.7693
X65.4127 Y-0.7998
X65.3577 Y-0.8325
X65.3026 Y-0.8605
X65.2597 Y-0.8793
X65.1925 Y-0.9039
X65.1375 Y-0.9199
X65.0824 Y-0.9323
X65.0273 Y-0.9414
X64.9723 Y-0.9472
X64.8622 Y-0.95
X0.0051
X-0.0499 Y-0.9487
X-0.105 Y-0.9442
X-0.1601 Y-0.9364
X-0.2151 Y-0.9253
X-0.2702 Y-0.9108
X-0.3252 Y-0.8926
X-0.3597 Y-0.8793
X-0.3975 Y-0.8628
X-0.4353 Y-0.8444
X-0.4904 Y-0.8136
X-0.5455 Y-0.7778
X-0.5574 Y-0.7693
X-0.6065 Y-0.7312
X-0.6556 Y-0.6875
X-0.684 Y-0.6592
X-0.7276 Y-0.6108
X-0.7657 Y-0.5623
X-0.7752 Y-0.5492
X-0.8113 Y-0.4942
X-0.8424 Y-0.4392
X-0.8758 Y-0.3681
X-0.8911 Y-0.3292
X-0.9096 Y-0.2742
X-0.9244 Y-0.2191
X-0.9357 Y-0.1641
X-0.9437 Y-0.1091
X-0.9485 Y-0.0541
X-0.95 Y0.0009
Y89.9991
X-0.9485 Y90.0541
X-0.9437 Y90.1091
X-0.9357 Y90.1641
X-0.9244 Y90.2191
X-0.9096 Y90.2742
X-0.8911 Y90.3292
X-0.8758 Y90.3681
X-0.8424 Y90.4392
X-0.8113 Y90.4942
X-0.7752 Y90.5492
X-0.7657 Y90.5623
X-0.7276 Y90.6108
X-0.684 Y90.6592
X-0.6556 Y90.6875
X-0.6065 Y90.7312
X-0.5574 Y90.7693
X-0.5455 Y90.7778
X-0.4904 Y90.8136
X-0.4353 Y90.8444
X-0.3975 Y90.8628
X-0.3597 Y90.8793
X-0.3252 Y90.8926
X-0.2702 Y90.9108
X-0.2151 Y90.9253
X-0.1601 Y90.9364
X-0.105 Y90.9442
X-0.0499 Y90.9487
X0.0051 Y90.95
X228.4978
X265.5844
X265.778 Z-10.0001
X265.9715 Z-10.0004
X266.1651 Z-10.0008
X266.3587 Z-10.0015
X266.5522 Z-10.0023
X266.7458 Z-10.0033
X266.9394 Z-10.0045
X267.133 Z-10.0058
X267.3266 Z-10.0073
X267.5201 Z-10.009
X267.7137 Z-10.0109
X267.9073 Z-10.0129
X268.1009 Z-10.0151
X268.2944 Z-10.0174
X268.488 Z-10.0199
X268.6816 Z-10.0225
X268.8752 Z-10.0253
X269.0687 Z-10.0283
X269.2623 Z-10.0314
X269.4559 Z-10.0347
X269.6494 Z-10.0381
X269.843 Z-10.0416
X270.0366 Z-10.0453
X270.2302 Z-10.0491
X270.4238 Z-10.0531
X270.6173 Z-10.0572
X270.8109 Z-10.0614
X271.0045 Z-10.0658
X271.1981 Z-10.0702
X271.3916 Z-10.0749
X271.5852 Z-10.0796
X271.7788 Z-10.0845
X271.9724 Z-10.0894
X272.0692 Z-10.092
X272.1659 Z-10.0945
X272.2627 Z-10.0971
X272.3595 Z-10.0997
X272.4563 Z-10.1024
X272.5531 Z-10.1051
X272.6499 Z-10.1078
X272.7466 Z-10.1105
X272.8434 Z-10.1133
X272.9402 Z-10.1161
X273.037 Z-10.1189
X273.1338 Z-10.1217
X273.2306 Z-10.1246
X273.3274 Z-10.1275
X273.4242 Z-10.1304
X273.5209 Z-10.1334
X273.6177 Z-10.1363
X273.7145 Z-10.1393
X273.8113 Z-10.1424
X273.9081 Z-10.1454
X274.0049 Z-10.1485
X274.1017 Z-10.1516
X274.1985 Z-10.1547
X274.2953 Z-10.1578
X274.392 Z-10.161
X274.4888 Z-10.1642
X274.5856 Z-10.1674
X274.6824 Z-10.1706
X274.7792 Z-10.1739
X274.876 Z-10.1772
X274.9727 Z-10.1805
X275.0695 Z-10.1838
X275.1663 Z-10.1871
X275.3599 Z-10.1939
X275.4567 Z-10.1972
X275.5535 Z-10.2006
X275.6503 Z-10.204
X275.7471 Z-10.2074
X275.8438 Z-10.2108
X275.9406 Z-10.2141
X276.0374 Z-10.2175
X276.1342 Z-10.2209
X276.231 Z-10.2243
X276.3278 Z-10.2277
X276.4246 Z-10.231
X276.5214 Z-10.2344
X276.7149 Z-10.2412
X277.0053 Z-10.2513
X277.2957 Z-10.2614
X277.586 Z-10.2716
X277.8764 Z-10.2817
X278.1667 Z-10.2919
X278.4571 Z-10.302
X278.7475 Z-10.3121
X279.0378 Z-10.3223
X279.3282 Z-10.3324
X279.6186 Z-10.3426
X280.1025 Z-10.3595
X280.5864 Z-10.3764
X281.0704 Z-10.3933
X281.7479 Z-10.4169
X282.619 Z-10.4473
X284.0708 Z-10.498
X291.0395 Z-10.7413
X291.3298 Z-10.7515
X291.6202 Z-10.7616
X291.717 Z-10.765
X291.8138 Z-10.7684
X291.9106 Z-10.7717
X292.0073 Z-10.7751
X292.1041 Z-10.7785
X292.2009 Z-10.7819
X292.2977 Z-10.7853
X292.3945 Z-10.7886
X292.4913 Z-10.792
X292.588 Z-10.7954
X292.6848 Z-10.7988
X292.7816 Z-10.8022
X292.8784 Z-10.8055
X292.9752 Z-10.8089
X293.072 Z-10.8123
X293.1688 Z-10.8156
X293.2656 Z-10.819
X293.3624 Z-10.8223
X293.4591 Z-10.8255
X293.5559 Z-10.8288
X293.6527 Z-10.832
X293.7495 Z-10.8353
X293.8463 Z-10.8385
X293.9431 Z-10.8416
X294.0399 Z-10.8448
X294.1367 Z-10.8479
X294.2334 Z-10.851
X294.3302 Z-10.8541
X294.427 Z-10.8571
X294.5238 Z-10.8601
X294.6206 Z-10.8631
X294.7174 Z-10.8661
X294.8142 Z-10.8691
X294.9109 Z-10.872
X295.0078 Z-10.8749
X295.1045 Z-10.8778
X295.2013 Z-10.8806
X295.2981 Z-10.8834
X295.3949 Z-10.8862
X295.4917 Z-10.889
X295.5885 Z-10.8917
X295.6852 Z-10.8945
X295.782 Z-10.8971
X295.8788 Z-10.8998
X295.9756 Z-10.9024
X296.0724 Z-10.905
X296.1692 Z-10.9076
X296.266 Z-10.9101
X296.3628 Z-10.9126
X296.5563 Z-10.9176
X296.7499 Z-10.9224
X296.9435 Z-10.9271
X297.1371 Z-10.9316
X297.3306 Z-10.9361
X297.5242 Z-10.9404
X297.7178 Z-10.9445
X297.9113 Z-10.9486
X298.1049 Z-10.9525
X298.2985 Z-10.9562
X298.4921 Z-10.9599
X298.6857 Z-10.9634
X298.8792 Z-10.9667
X299.0728 Z-10.9699
X299.2664 Z-10.9729
X299.46 Z-10.9758
X299.6535 Z-10.9786
X299.8471 Z-10.9812
X300.0407 Z-10.9836
X300.2343 Z-10.9859
X300.4278 Z-10.988
X300.6214 Z-10.9899
X300.815 Z-10.9917
X301.0085 Z-10.9933
X301.2021 Z-10.9948
X301.3957 Z-10.996
X301.5893 Z-10.9971
X301.7828 Z-10.9981
X301.9764 Z-10.9988
X302.17 Z-10.9994
X302.3636 Z-10.9998
X302.5572 Z-11
X302.671
X405.9949
X406.05 Y90.9487
X406.105 Y90.9442
X406.1601 Y90.9364
X406.2151 Y90.9253
X406.2702 Y90.9108
X406.3253 Y90.8926
X406.3597 Y90.8793
X406.3976 Y90.8628
X406.4354 Y90.8444
X406.4904 Y90.8136
X406.5455 Y90.7778
X406.5575 Y90.7693
X406.6065 Y90.7312
X406.6556 Y90.6875
X406.6841 Y90.6592
X406.7277 Y90.6108
X406.7657 Y90.5623
X406.7752 Y90.5492
X406.8114 Y90.4942
X406.8424 Y90.4392
X406.8758 Y90.3681
X406.8912 Y90.3292
X406.9096 Y90.2742
X406.9244 Y90.2191
X406.9357 Y90.1641
X406.9438 Y90.1091
X406.9485 Y90.0541
X406.95 Y89.9991
Y0.0009
X406.9485 Y-0.0541
X406.9438 Y-0.1091
X406.9357 Y-0.1641
X406.9244 Y-0.2191
X406.9096 Y-0.2742
X406.8912 Y-0.3292
X406.8758 Y-0.3681
X406.8424 Y-0.4392
X406.8114 Y-0.4942
X406.7752 Y-0.5492
X406.7657 Y-0.5623
X406.7277 Y-0.6108
X406.6841 Y-0.6592
X406.6556 Y-0.6875
X406.6065 Y-0.7312
X406.5575 Y-0.7693
X406.5455 Y-0.7778
X406.4904 Y-0.8136
X406.4354 Y-0.8444
X406.3976 Y-0.8628
X406.3597 Y-0.8793
X406.3253 Y-0.8926
X406.2702 Y-0.9108
X406.2151 Y-0.9253
X406.1601 Y-0.9364
X406.105 Y-0.9442
X406.05 Y-0.9487
X405.9949 Y-0.95
X145.1352
X145.0251 Y-0.947
X144.97 Y-0.9411
X144.9149 Y-0.9318
X144.8599 Y-0.9192
X144.8048 Y-0.903
X144.7404 Y-0.8793
X144.6947 Y-0.8592
X144.6397 Y-0.831
X144.5846 Y-0.798
X144.5426 Y-0.7693
X144.5085 Y-0.7434
X144.4745 Y-0.715
X144.416 Y-0.6592
X144.3644 Y-0.6011
X144.3249 Y-0.5492
X144.2887 Y-0.4942
X144.2576 Y-0.4392
X144.2543 Y-0.4327
X144.2297 Y-0.3809
X144.2089 Y-0.3292
X144.1904 Y-0.2742
X144.1756 Y-0.2191
X144.1643 Y-0.1641
X144.1563 Y-0.1091
X144.1516 Y-0.0541
X144.15 Y0.0009
Y18.1484
X144.1486 Y18.15
X65.8516
X65.85 Y18.1484
Y0.0009
X65.8485 Y-0.0541
X65.8437 Y-0.1091
X65.8357 Y-0.1641
X65.8244 Y-0.2191
X65.8096 Y-0.2742
X65.7912 Y-0.3292
X65.7692 Y-0.3835
X65.7431 Y-0.4379
X65.7424 Y-0.4392
X65.7114 Y-0.4942
X65.6752 Y-0.5492
X65.633 Y-0.6044
X65.5841 Y-0.6592
X65.5535 Y-0.6896
X65.5229 Y-0.7173
X65.4902 Y-0.7445
X65.4575 Y-0.7693
X65.4127 Y-0.7998
X65.3577 Y-0.8325
X65.3026 Y-0.8605
X65.2597 Y-0.8793
X65.1925 Y-0.9039
X65.1375 Y-0.9199
X65.0824 Y-0.9323
X65.0273 Y-0.9414
X64.9723 Y-0.9472
X64.8622 Y-0.95
X0.0051
X-0.0499 Y-0.9487
X-0.105 Y-0.9442
X-0.1601 Y-0.9364
X-0.2151 Y-0.9253
X-0.2702 Y-0.9108
X-0.3252 Y-0.8926
X-0.3597 Y-0.8793
X-0.3975 Y-0.8628
X-0.4353 Y-0.8444
X-0.4904 Y-0.8136
X-0.5455 Y-0.7778
X-0.5574 Y-0.7693
X-0.6065 Y-0.7312
X-0.6556 Y-0.6875
X-0.684 Y-0.6592
X-0.7276 Y-0.6108
X-0.7657 Y-0.5623
X-0.7752 Y-0.5492
X-0.8113 Y-0.4942
X-0.8424 Y-0.4392
X-0.8758 Y-0.3681
X-0.8911 Y-0.3292
X-0.9096 Y-0.2742
X-0.9244 Y-0.2191
X-0.9357 Y-0.1641
X-0.9437 Y-0.1091
X-0.9485 Y-0.0541
X-0.95 Y0.0009
Y89.9991
X-0.9485 Y90.0541
X-0.9437 Y90.1091
X-0.9357 Y90.1641
X-0.9244 Y90.2191
X-0.9096 Y90.2742
X-0.8911 Y90.3292
X-0.8758 Y90.3681
X-0.8424 Y90.4392
X-0.8113 Y90.4942
X-0.7752 Y90.5492
X-0.7657 Y90.5623
X-0.7276 Y90.6108
X-0.684 Y90.6592
X-0.6556 Y90.6875
X-0.6065 Y90.7312
X-0.5574 Y90.7693
X-0.5455 Y90.7778
X-0.4904 Y90.8136
X-0.4353 Y90.8444
X-0.3975 Y90.8628
X-0.3597 Y90.8793
X-0.3252 Y90.8926
X-0.2702 Y90.9108
X-0.2151 Y90.9253
X-0.1601 Y90.9364
X-0.105 Y90.9442
X-0.0499 Y90.9487
X0.0051 Y90.95
X265.5844
X302.671
X302.8645 Z-11.0001
X303.0581 Z-11.0004
X303.2517 Z-11.0008
X303.4453 Z-11.0015
X303.6388 Z-11.0023
X303.8324 Z-11.0033
X304.026 Z-11.0045
X304.2195 Z-11.0058
X304.4131 Z-11.0073
X304.6067 Z-11.009
X304.8003 Z-11.0109
X304.9938 Z-11.0129
X305.1874 Z-11.0151
X305.381 Z-11.0174
X305.5746 Z-11.0199
X305.7682 Z-11.0225
X305.9617 Z-11.0253
X306.1553 Z-11.0283
X306.3489 Z-11.0314
X306.5424 Z-11.0347
X306.736 Z-11.0381
X306.9296 Z-11.0416
X307.1232 Z-11.0453
X307.3167 Z-11.0491
X307.5103 Z-11.0531
X307.7039 Z-11.0572
X307.8975 Z-11.0614
X308.091 Z-11.0658
X308.2846 Z-11.0702
X308.4782 Z-11.0749
X308.6718 Z-11.0796
X308.8654 Z-11.0845
X309.0589 Z-11.0894
X309.1557 Z-11.092
X309.2525 Z-11.0945
X309.3493 Z-11.0971
X309.4461 Z-11.0997
X309.5428 Z-11.1024
X309.6396 Z-11.1051
X309.7364 Z-11.1078
X309.8332 Z-11.1105
X309.93 Z-11.1133
X310.0268 Z-11.1161
X310.1236 Z-11.1189
X310.2204 Z-11.1217
X310.3171 Z-11.1246
X310.4139 Z-11.1275
X310.5107 Z-11.1304
X310.6075 Z-11.1334
X310.7043 Z-11.1363
X310.8011 Z-11.1393
X310.8979 Z-11.1424
X310.9947 Z-11.1454
X311.0915 Z-11.1485
X311.1882 Z-11.1516
X311.285 Z-11.1547
X311.3818 Z-11.1578
X311.4786 Z-11.161
X311.5754 Z-11.1642
X311.6722 Z-11.1674
X311.769 Z-11.1706
X311.8658 Z-11.1739
X311.9625 Z-11.1772
X312.0593 Z-11.1805
X312.1561 Z-11.1838
X312.2529 Z-11.1871
X312.4465 Z-11.1939
X312.5433 Z-11.1972
X312.64 Z-11.2006
X312.7368 Z-11.204
X312.8336 Z-11.2074
X312.9304 Z-11.2108
X313.0272 Z-11.2141
X313.124 Z-11.2175
X313.2208 Z-11.2209
X313.3176 Z-11.2243
X313.4143 Z-11.2277
X313.5111 Z-11.231
X313.6079 Z-11.2344
X313.8015 Z-11.2412
X314.0919 Z-11.2513
X314.3822 Z-11.2614
X314.6726 Z-11.2716
X314.963 Z-11.2817
X315.2533 Z-11.2919
X315.5437 Z-11.302
X315.834 Z-11.3121
X316.1244 Z-11.3223
X316.4148 Z-11.3324
X316.7051 Z-11.3426
X317.1891 Z-11.3595
X317.673 Z-11.3764
X318.1569 Z-11.3933
X318.8344 Z-11.4169
X319.7055 Z-11.4473
X321.1573 Z-11.498
X328.126 Z-11.7413
X328.4164 Z-11.7515
X328.7068 Z-11.7616
X328.8035 Z-11.765
X328.9003 Z-11.7684
X328.9971 Z-11.7717
X329.0939 Z-11.7751
X329.1907 Z-11.7785
X329.2875 Z-11.7819
X329.3842 Z-11.7853
X329.481 Z-11.7886
X329.5778 Z-11.792
X329.6746 Z-11.7954
X329.7714 Z-11.7988
X329.8682 Z-11.8022
X329.965 Z-11.8055
X330.0618 Z-11.8089
X330.1586 Z-11.8123
X330.2553 Z-11.8156
X330.3521 Z-11.819
X330.4489 Z-11.8223
X330.5457 Z-11.8255
X330.6425 Z-11.8288
X330.7393 Z-11.832
X330.8361 Z-11.8353
X330.9329 Z-11.8385
X331.0296 Z-11.8416
X331.1264 Z-11.8448
X331.2232 Z-11.8479
X331.32 Z-11.851
X331.4168 Z-11.8541
X331.5136 Z-11.8571
X331.6104 Z-11.8601
X331.7072 Z-11.8631
X331.804 Z-11.8661
X331.9007 Z-11.8691
X331.9975 Z-11.872
X332.0943 Z-11.8749
X332.1911 Z-11.8778
X332.2879 Z-11.8806
X332.3847 Z-11.8834
X332.4814 Z-11.8862
X332.5782 Z-11.889
X332.675 Z-11.8917
X332.7718 Z-11.8945
X332.8686 Z-11.8971
X332.9654 Z-11.8998
X333.0622 Z-11.9024
X333.159 Z-11.905
X333.2557 Z-11.9076
X333.3525 Z-11.9101
X333.4493 Z-11.9126
X333.6429 Z-11.9176
X333.8365 Z-11.9224
X334.0301 Z-11.9271
X334.2236 Z-11.9316
X334.4172 Z-11.9361
X334.6108 Z-11.9404
X334.8044 Z-11.9445
X334.9979 Z-11.9486
X335.1915 Z-11.9525
X335.3851 Z-11.9562
X335.5786 Z-11.9599
X335.7722 Z-11.9634
X335.9658 Z-11.9667
X336.1594 Z-11.9699
X336.3529 Z-11.9729
X336.5465 Z-11.9758
X336.7401 Z-11.9786
X336.9337 Z-11.9812
X337.1273 Z-11.9836
X337.3208 Z-11.9859
X337.5144 Z-11.988
X337.708 Z-11.9899
X337.9016 Z-11.9917
X338.0951 Z-11.9933
X338.2887 Z-11.9948
X338.4823 Z-11.996
X338.6758 Z-11.9971
X338.8694 Z-11.9981
X339.063 Z-11.9988
X339.2566 Z-11.9994
X339.4501 Z-11.9998
X339.6437 Z-12
X339.7575
X405.9949
X406.05 Y90.9487
X406.105 Y90.9442
X406.1601 Y90.9364
X406.2151 Y90.9253
X406.2702 Y90.9108
X406.3253 Y90.8926
X406.3597 Y90.8793
X406.3976 Y90.8628
X406.4354 Y90.8444
X406.4904 Y90.8136
X406.5455 Y90.7778
X406.5575 Y90.7693
X406.6065 Y90.7312
X406.6556 Y90.6875
X406.6841 Y90.6592
X406.7277 Y90.6108
X406.7657 Y90.5623
X406.7752 Y90.5492
X406.8114 Y90.4942
X406.8424 Y90.4392
X406.8758 Y90.3681
X406.8912 Y90.3292
X406.9096 Y90.2742
X406.9244 Y90.2191
X406.9357 Y90.1641
X406.9438 Y90.1091
X406.9485 Y90.0541
X406.95 Y89.9991
Y0.0009
X406.9485 Y-0.0541
X406.9438 Y-0.1091
X406.9357 Y-0.1641
X406.9244 Y-0.2191
X406.9096 Y-0.2742
X406.8912 Y-0.3292
X406.8758 Y-0.3681
X406.8424 Y-0.4392
X406.8114 Y-0.4942
X406.7752 Y-0.5492
X406.7657 Y-0.5623
X406.7277 Y-0.6108
X406.6841 Y-0.6592
X406.6556 Y-0.6875
X406.6065 Y-0.7312
X406.5575 Y-0.7693
X406.5455 Y-0.7778
X406.4904 Y-0.8136
X406.4354 Y-0.8444
X406.3976 Y-0.8628
X406.3597 Y-0.8793
X406.3253 Y-0.8926
X406.2702 Y-0.9108
X406.2151 Y-0.9253
X406.1601 Y-0.9364
X406.105 Y-0.9442
X406.05 Y-0.9487
X405.9949 Y-0.95
X145.1352
X145.0251 Y-0.947
X144.97 Y-0.9411
X144.9149 Y-0.9318
X144.8599 Y-0.9192
X144.8048 Y-0.903
X144.7404 Y-0.8793
X144.6947 Y-0.8592
X144.6397 Y-0.831
X144.5846 Y-0.798
X144.5426 Y-0.7693
X144.5085 Y-0.7434
X144.4745 Y-0.715
X144.416 Y-0.6592
X144.3644 Y-0.6011
X144.3249 Y-0.5492
X144.2887 Y-0.4942
X144.2576 Y-0.4392
X144.2543 Y-0.4327
X144.2297 Y-0.3809
X144.2089 Y-0.3292
X144.1904 Y-0.2742
X144.1756 Y-0.2191
X144.1643 Y-0.1641
X144.1563 Y-0.1091
X144.1516 Y-0.0541
X144.15 Y0.0009
Y18.1484
X144.1486 Y18.15
X65.8516
X65.85 Y18.1484
Y0.0009
X65.8485 Y-0.0541
X65.8437 Y-0.1091
X65.8357 Y-0.1641
X65.8244 Y-0.2191
X65.8096 Y-0.2742
X65.7912 Y-0.3292
X65.7692 Y-0.3835
X65.7431 Y-0.4379
X65.7424 Y-0.4392
X65.7114 Y-0.4942
X65.6752 Y-0.5492
X65.633 Y-0.6044
X65.5841 Y-0.6592
X65.5535 Y-0.6896
X65.5229 Y-0.7173
X65.4902 Y-0.7445
X65.4575 Y-0.7693
X65.4127 Y-0.7998
X65.3577 Y-0.8325
X65.3026 Y-0.8605
X65.2597 Y-0.8793
X65.1925 Y-0.9039
X65.1375 Y-0.9199
X65.0824 Y-0.9323
X65.0273 Y-0.9414
X64.9723 Y-0.9472
X64.8622 Y-0.95
X0.0051
X-0.0499 Y-0.9487
X-0.105 Y-0.9442
X-0.1601 Y-0.9364
X-0.2151 Y-0.9253
X-0.2702 Y-0.9108
X-0.3252 Y-0.8926
X-0.3597 Y-0.8793
X-0.3975 Y-0.8628
X-0.4353 Y-0.8444
X-0.4904 Y-0.8136
X-0.5455 Y-0.7778
X-0.5574 Y-0.7693
X-0.6065 Y-0.7312
X-0.6556 Y-0.6875
X-0.684 Y-0.6592
X-0.7276 Y-0.6108
X-0.7657 Y-0.5623
X-0.7752 Y-0.5492
X-0.8113 Y-0.4942
X-0.8424 Y-0.4392
X-0.8758 Y-0.3681
X-0.8911 Y-0.3292
X-0.9096 Y-0.2742
X-0.9244 Y-0.2191
X-0.9357 Y-0.1641
X-0.9437 Y-0.1091
X-0.9485 Y-0.0541
X-0.95 Y0.0009
Y89.9991
X-0.9485 Y90.0541
X-0.9437 Y90.1091
X-0.9357 Y90.1641
X-0.9244 Y90.2191
X-0.9096 Y90.2742
X-0.8911 Y90.3292
X-0.8758 Y90.3681
X-0.8424 Y90.4392
X-0.8113 Y90.4942
X-0.7752 Y90.5492
X-0.7657 Y90.5623
X-0.7276 Y90.6108
X-0.684 Y90.6592
X-0.6556 Y90.6875
X-0.6065 Y90.7312
X-0.5574 Y90.7693
X-0.5455 Y90.7778
X-0.4904 Y90.8136
X-0.4353 Y90.8444
X-0.3975 Y90.8628
X-0.3597 Y90.8793
X-0.3252 Y90.8926
X-0.2702 Y90.9108
X-0.2151 Y90.9253
X-0.1601 Y90.9364
X-0.105 Y90.9442
X-0.0499 Y90.9487
X0.0051 Y90.95
X302.671
X339.7575
X339.9511 Z-12.0001
X340.1447 Z-12.0004
X340.3382 Z-12.0008
X340.5318 Z-12.0015
X340.7254 Z-12.0023
X340.919 Z-12.0033
X341.1125 Z-12.0045
X341.3061 Z-12.0058
X341.4997 Z-12.0073
X341.6933 Z-12.009
X341.8868 Z-12.0109
X342.0804 Z-12.0129
X342.274 Z-12.0151
X342.4676 Z-12.0174
X342.6611 Z-12.0199
X342.8547 Z-12.0225
X343.0483 Z-12.0253
X343.2419 Z-12.0283
X343.4354 Z-12.0314
X343.629 Z-12.0347
X343.8226 Z-12.0381
X344.0162 Z-12.0416
X344.2097 Z-12.0453
X344.4033 Z-12.0491
X344.5969 Z-12.0531
X344.7905 Z-12.0572
X344.984 Z-12.0614
X345.1776 Z-12.0658
X345.3712 Z-12.0702
X345.5648 Z-12.0749
X345.7583 Z-12.0796
X345.9519 Z-12.0845
X346.1455 Z-12.0894
X346.2423 Z-12.092
X346.3391 Z-12.0945
X346.4359 Z-12.0971
X346.5326 Z-12.0997
X346.6294 Z-12.1024
X346.7262 Z-12.1051
X346.823 Z-12.1078
X346.9198 Z-12.1105
X347.0166 Z-12.1133
X347.1133 Z-12.1161
X347.2101 Z-12.1189
X347.3069 Z-12.1217
X347.4037 Z-12.1246
X347.5005 Z-12.1275
X347.5973 Z-12.1304
X347.6941 Z-12.1334
X347.7909 Z-12.1363
X347.8877 Z-12.1393
X347.9844 Z-12.1424
X348.0812 Z-12.1454
X348.178 Z-12.1485
X348.2748 Z-12.1516
X348.3716 Z-12.1547
X348.4684 Z-12.1578
X348.5652 Z-12.161
X348.662 Z-12.1642
X348.7587 Z-12.1674
X348.8555 Z-12.1706
X348.9523 Z-12.1739
X349.0491 Z-12.1772
X349.1459 Z-12.1805
X349.2427 Z-12.1838
X349.3395 Z-12.1871
X349.5331 Z-12.1939
X349.6298 Z-12.1972
X349.7266 Z-12.2006
X349.8234 Z-12.204
X349.9202 Z-12.2074
X350.017 Z-12.2108
X350.1138 Z-12.2141
X350.2105 Z-12.2175
X350.3073 Z-12.2209
X350.4041 Z-12.2243
X350.5009 Z-12.2277
X350.5977 Z-12.231
X350.6945 Z-12.2344
X350.8881 Z-12.2412
X351.1784 Z-12.2513
X351.4688 Z-12.2614
X351.7592 Z-12.2716
X352.0495 Z-12.2817
X352.3399 Z-12.2919
X352.6302 Z-12.302
X352.9206 Z-12.3121
X353.211 Z-12.3223
X353.5013 Z-12.3324
X353.7917 Z-12.3426
X354.2756 Z-12.3595
X354.7596 Z-12.3764
X355.2435 Z-12.3933
X355.921 Z-12.4169
X356.7921 Z-12.4473
X358.2439 Z-12.498
X365.2126 Z-12.7413
X365.503 Z-12.7515
X365.7933 Z-12.7616
X365.8901 Z-12.765
X365.9869 Z-12.7684
X366.0837 Z-12.7717
X366.1805 Z-12.7751
X366.2773 Z-12.7785
X366.374 Z-12.7819
X366.4708 Z-12.7853
X366.5676 Z-12.7886
X366.6644 Z-12.792
X366.7612 Z-12.7954
X366.858 Z-12.7988
X366.9548 Z-12.8022
X367.0515 Z-12.8055
X367.1483 Z-12.8089
X367.2451 Z-12.8123
X367.3419 Z-12.8156
X367.4387 Z-12.819
X367.5355 Z-12.8223
X367.6323 Z-12.8255
X367.7291 Z-12.8288
X367.8258 Z-12.832
X367.9226 Z-12.8353
X368.0194 Z-12.8385
X368.1162 Z-12.8416
X368.213 Z-12.8448
X368.3098 Z-12.8479
X368.4066 Z-12.851
X368.5034 Z-12.8541
X368.6001 Z-12.8571
X368.6969 Z-12.8601
X368.7937 Z-12.8631
X368.8905 Z-12.8661
X368.9873 Z-12.8691
X369.0841 Z-12.872
X369.1809 Z-12.8749
X369.2776 Z-12.8778
X369.3745 Z-12.8806
X369.4712 Z-12.8834
X369.568 Z-12.8862
X369.6648 Z-12.889
X369.7616 Z-12.8917
X369.8584 Z-12.8945
X369.9552 Z-12.8971
X370.0519 Z-12.8998
X370.1487 Z-12.9024
X370.2455 Z-12.905
X370.3423 Z-12.9076
X370.4391 Z-12.9101
X370.5359 Z-12.9126
X370.7295 Z-12.9176
X370.923 Z-12.9224
X371.1166 Z-12.9271
X371.3102 Z-12.9316
X371.5038 Z-12.9361
X371.6973 Z-12.9404
X371.8909 Z-12.9445
X372.0845 Z-12.9486
X372.2781 Z-12.9525
X372.4716 Z-12.9562
X372.6652 Z-12.9599
X372.8588 Z-12.9634
X373.0524 Z-12.9667
X373.2459 Z-12.9699
X373.4395 Z-12.9729
X373.6331 Z-12.9758
X373.8267 Z-12.9786
X374.0202 Z-12.9812
X374.2138 Z-12.9836
X374.4074 Z-12.9859
X374.601 Z-12.988
X374.7945 Z-12.9899
X374.9881 Z-12.9917
X375.1817 Z-12.9933
X375.3752 Z-12.9948
X375.5688 Z-12.996
X375.7624 Z-12.9971
X375.956 Z-12.9981
X376.1496 Z-12.9988
X376.3431 Z-12.9994
X376.5367 Z-12.9998
X376.7303 Z-13
X376.8441
X405.9949
X406.05 Y90.9487
X406.105 Y90.9442
X406.1601 Y90.9364
X406.2151 Y90.9253
X406.2702 Y90.9108
X406.3253 Y90.8926
X406.3597 Y90.8793
X406.3976 Y90.8628
X406.4354 Y90.8444
X406.4904 Y90.8136
X406.5455 Y90.7778
X406.5575 Y90.7693
X406.6065 Y90.7312
X406.6556 Y90.6875
X406.6841 Y90.6592
X406.7277 Y90.6108
X406.7657 Y90.5623
X406.7752 Y90.5492
X406.8114 Y90.4942
X406.8424 Y90.4392
X406.8758 Y90.3681
X406.8912 Y90.3292
X406.9096 Y90.2742
X406.9244 Y90.2191
X406.9357 Y90.1641
X406.9438 Y90.1091
X406.9485 Y90.0541
X406.95 Y89.9991
Y0.0009
X406.9485 Y-0.0541
X406.9438 Y-0.1091
X406.9357 Y-0.1641
X406.9244 Y-0.2191
X406.9096 Y-0.2742
X406.8912 Y-0.3292
X406.8758 Y-0.3681
X406.8424 Y-0.4392
X406.8114 Y-0.4942
X406.7752 Y-0.5492
X406.7657 Y-0.5623
X406.7277 Y-0.6108
X406.6841 Y-0.6592
X406.6556 Y-0.6875
X406.6065 Y-0.7312
X406.5575 Y-0.7693
X406.5455 Y-0.7778
X406.4904 Y-0.8136
X406.4354 Y-0.8444
X406.3976 Y-0.8628
X406.3597 Y-0.8793
X406.3253 Y-0.8926
X406.2702 Y-0.9108
X406.2151 Y-0.9253
X406.1601 Y-0.9364
X406.105 Y-0.9442
X406.05 Y-0.9487
X405.9949 Y-0.95
X145.1352
X145.0251 Y-0.947
X144.97 Y-0.9411
X144.9149 Y-0.9318
X144.8599 Y-0.9192
X144.8048 Y-0.903
X144.7404 Y-0.8793
X144.6947 Y-0.8592
X144.6397 Y-0.831
X144.5846 Y-0.798
X144.5426 Y-0.7693
X144.5085 Y-0.7434
X144.4745 Y-0.715
X144.416 Y-0.6592
X144.3644 Y-0.6011
X144.3249 Y-0.5492
X144.2887 Y-0.4942
X144.2576 Y-0.4392
X144.2543 Y-0.4327
X144.2297 Y-0.3809
X144.2089 Y-0.3292
X144.1904 Y-0.2742
X144.1756 Y-0.2191
X144.1643 Y-0.1641
X144.1563 Y-0.1091
X144.1516 Y-0.0541
X144.15 Y0.0009
Y18.1484
X144.1486 Y18.15
X65.8516
X65.85 Y18.1484
Y0.0009
X65.8485 Y-0.0541
X65.8437 Y-0.1091
X65.8357 Y-0.1641
X65.8244 Y-0.2191
X65.8096 Y-0.2742
X65.7912 Y-0.3292
X65.7692 Y-0.3835
X65.7431 Y-0.4379
X65.7424 Y-0.4392
X65.7114 Y-0.4942
X65.6752 Y-0.5492
X65.633 Y-0.6044
X65.5841 Y-0.6592
X65.5535 Y-0.6896
X65.5229 Y-0.7173
X65.4902 Y-0.7445
X65.4575 Y-0.7693
X65.4127 Y-0.7998
X65.3577 Y-0.8325
X65.3026 Y-0.8605
X65.2597 Y-0.8793
X65.1925 Y-0.9039
X65.1375 Y-0.9199
X65.0824 Y-0.9323
X65.0273 Y-0.9414
X64.9723 Y-0.9472
X64.8622 Y-0.95
X0.0051
X-0.0499 Y-0.9487
X-0.105 Y-0.9442
X-0.1601 Y-0.9364
X-0.2151 Y-0.9253
X-0.2702 Y-0.9108
X-0.3252 Y-0.8926
X-0.3597 Y-0.8793
X-0.3975 Y-0.8628
X-0.4353 Y-0.8444
X-0.4904 Y-0.8136
X-0.5455 Y-0.7778
X-0.5574 Y-0.7693
X-0.6065 Y-0.7312
X-0.6556 Y-0.6875
X-0.684 Y-0.6592
X-0.7276 Y-0.6108
X-0.7657 Y-0.5623
X-0.7752 Y-0.5492
X-0.8113 Y-0.4942
X-0.8424 Y-0.4392
X-0.8758 Y-0.3681
X-0.8911 Y-0.3292
X-0.9096 Y-0.2742
X-0.9244 Y-0.2191
X-0.9357 Y-0.1641
X-0.9437 Y-0.1091
X-0.9485 Y-0.0541
X-0.95 Y0.0009
Y89.9991
X-0.9485 Y90.0541
X-0.9437 Y90.1091
X-0.9357 Y90.1641
X-0.9244 Y90.2191
X-0.9096 Y90.2742
X-0.8911 Y90.3292
X-0.8758 Y90.3681
X-0.8424 Y90.4392
X-0.8113 Y90.4942
X-0.7752 Y90.5492
X-0.7657 Y90.5623
X-0.7276 Y90.6108
X-0.684 Y90.6592
X-0.6556 Y90.6875
X-0.6065 Y90.7312
X-0.5574 Y90.7693
X-0.5455 Y90.7778
X-0.4904 Y90.8136
X-0.4353 Y90.8444
X-0.3975 Y90.8628
X-0.3597 Y90.8793
X-0.3252 Y90.8926
X-0.2702 Y90.9108
X-0.2151 Y90.9253
X-0.1601 Y90.9364
X-0.105 Y90.9442
X-0.0499 Y90.9487
X0.0051 Y90.95
X339.7575
X376.8441
X377.0378 Z-13.0001
X377.2315 Z-13.0004
X377.4252 Z-13.0009
X377.6189 Z-13.0016
X377.8126 Z-13.0026
X378.0063 Z-13.0037
X378.2 Z-13.005
X378.3936 Z-13.0064
X378.5873 Z-13.0081
X378.781 Z-13.01
X378.9747 Z-13.012
X379.1684 Z-13.0143
X379.3621 Z-13.0167
X379.5558 Z-13.0192
X379.7495 Z-13.022
X379.9432 Z-13.0249
X380.1369 Z-13.028
X380.3306 Z-13.0312
X380.5243 Z-13.0346
X380.718 Z-13.0382
X380.9117 Z-13.0419
X381.1054 Z-13.0458
X381.2991 Z-13.0499
X381.4928 Z-13.054
X381.6865 Z-13.0584
X381.8802 Z-13.0628
X382.0739 Z-13.0674
X382.2675 Z-13.0722
X382.4612 Z-13.0771
X382.5581 Z-13.0796
X382.6549 Z-13.0821
X382.7518 Z-13.0847
X382.8486 Z-13.0873
X382.9455 Z-13.0899
X383.0423 Z-13.0925
X383.1392 Z-13.0952
X383.236 Z-13.0979
X383.3329 Z-13.1007
X383.4297 Z-13.1035
X383.5266 Z-13.1063
X383.6234 Z-13.1091
X383.7202 Z-13.112
X383.8171 Z-13.1149
X383.9139 Z-13.1178
X384.0108 Z-13.1208
X384.1076 Z-13.1237
X384.2045 Z-13.1267
X384.3013 Z-13.1298
X384.3982 Z-13.1328
X384.495 Z-13.1359
X384.5919 Z-13.1391
X384.6887 Z-13.1422
X384.7856 Z-13.1454
X384.8824 Z-13.1486
X384.9793 Z-13.1518
X385.0761 Z-13.155
X385.173 Z-13.1583
X385.2698 Z-13.1616
X385.3667 Z-13.1649
X385.4635 Z-13.1683
X385.6572 Z-13.175
X385.7541 Z-13.1784
X385.8509 Z-13.1818
X385.9478 Z-13.1852
X386.0446 Z-13.1885
X386.1414 Z-13.1919
X386.2383 Z-13.1953
X386.3351 Z-13.1987
X386.432 Z-13.2021
X386.5288 Z-13.2054
X386.6257 Z-13.2088
X386.7225 Z-13.2122
X386.8194 Z-13.2156
X386.9162 Z-13.219
X387.0131 Z-13.2223
X387.1099 Z-13.2257
X387.3036 Z-13.2325
X387.5941 Z-13.2426
X387.8847 Z-13.2528
X388.1752 Z-13.2629
X388.4658 Z-13.2731
X388.7563 Z-13.2832
X389.0468 Z-13.2934
X389.3374 Z-13.3035
X389.6279 Z-13.3137
X390.0153 Z-13.3272
X390.4996 Z-13.3441
X390.9838 Z-13.361
X391.6617 Z-13.3847
X392.5334 Z-13.4151
X394.4703 Z-13.4827
X395.923 Z-13.5335
X396.601 Z-13.5571
X397.0852 Z-13.574
X397.5694 Z-13.5909
X397.86 Z-13.6011
X398.1505 Z-13.6112
X398.4411 Z-13.6214
X398.7316 Z-13.6315
X399.0222 Z-13.6417
X399.3127 Z-13.6518
X399.6032 Z-13.6619
X399.8938 Z-13.6721
X399.9906 Z-13.6755
X400.0875 Z-13.6788
X400.1843 Z-13.6822
X400.2812 Z-13.6856
X400.378 Z-13.689
X400.4749 Z-13.6924
X400.5717 Z-13.6958
X400.6685 Z-13.6991
X400.7654 Z-13.7025
X400.8622 Z-13.7059
X400.9591 Z-13.7093
X401.0559 Z-13.7127
X401.1528 Z-13.7161
X401.2496 Z-13.7194
X401.3465 Z-13.7228
X401.637 Z-13.7329
X401.7339 Z-13.7363
X401.8307 Z-13.7396
X401.9276 Z-13.7429
X402.0244 Z-13.7461
X402.1213 Z-13.7494
X402.2181 Z-13.7526
X402.315 Z-13.7558
X402.4118 Z-13.7589
X402.5087 Z-13.7621
X402.6055 Z-13.7652
X402.7024 Z-13.7682
X402.7992 Z-13.7713
X402.8961 Z-13.7743
X402.9929 Z-13.7773
X403.0898 Z-13.7803
X403.1866 Z-13.7832
X403.2834 Z-13.7862
X403.3803 Z-13.789
X403.4771 Z-13.7919
X403.574 Z-13.7947
X403.6708 Z-13.7975
X403.7677 Z-13.8003
X403.8645 Z-13.803
X403.9614 Z-13.8057
X404.0582 Z-13.8084
X404.1551 Z-13.8111
X404.2519 Z-13.8137
X404.3488 Z-13.8162
X404.4456 Z-13.8188
X404.5424 Z-13.8213
X404.7361 Z-13.8262
X404.9298 Z-13.831
X405.1235 Z-13.8357
X405.3172 Z-13.8402
X405.5109 Z-13.8446
X405.7046 Z-13.8488
X405.8983 Z-13.8529
X405.9951 Z-13.8549
X406.0436 Y90.949 Z-13.8559
X406.0919 Y90.9455 Z-13.8568
X406.14 Y90.9396 Z-13.8578
X406.1877 Y90.9313 Z-13.8587
X406.2349 Y90.9205 Z-13.8597
X406.2815 Y90.9074 Z-13.8606
X406.3273 Y90.8918 Z-13.8615
X406.3723 Y90.874 Z-13.8624
X406.4164 Y90.8539 Z-13.8633
X406.4594 Y90.8316 Z-13.8642
X406.5012 Y90.8071 Z-13.8651
X406.5416 Y90.7805 Z-13.866
X406.5807 Y90.7519 Z-13.8668
X406.6183 Y90.7213 Z-13.8677
X406.6542 Y90.6889 Z-13.8685
X406.6885 Y90.6546 Z-13.8694
X406.7209 Y90.6187 Z-13.8702
X406.7515 Y90.5812 Z-13.871
X406.7802 Y90.5421 Z-13.8718
X406.8068 Y90.5017 Z-13.8726
X406.8313 Y90.4599 Z-13.8734
X406.8536 Y90.4169 Z-13.8741
X406.8738 Y90.3729 Z-13.8749
X406.8917 Y90.3279 Z-13.8756
X406.9072 Y90.282 Z-13.8764
X406.9204 Y90.2354 Z-13.8771
X406.9312 Y90.1882 Z-13.8778
X406.9396 Y90.1405 Z-13.8785
X406.9455 Y90.0925 Z-13.8792
X406.949 Y90.0442 Z-13.8799
X406.95 Y89.8505 Z-13.8825
Y89.6568 Z-13.885
Y89.4631 Z-13.8873
Y89.2694 Z-13.8894
Y89.0757 Z-13.8913
Y88.882 Z-13.893
Y88.6883 Z-13.8946
Y88.4946 Z-13.8959
Y88.3009 Z-13.8971
Y88.1072 Z-13.8981
Y87.9135 Z-13.8989
Y87.7198 Z-13.8994
Y87.5261 Z-13.8998
Y87.3325 Z-13.9
Y87.2699
Y0.0009
X406.9485 Y-0.0541
X406.9438 Y-0.1091
X406.9357 Y-0.1641
X406.9244 Y-0.2191
X406.9096 Y-0.2742
X406.8912 Y-0.3292
X406.8758 Y-0.3681
X406.8424 Y-0.4392
X406.8114 Y-0.4942
X406.7752 Y-0.5492
X406.7657 Y-0.5623
X406.7277 Y-0.6108
X406.6841 Y-0.6592
X406.6556 Y-0.6875
X406.6065 Y-0.7312
X406.5575 Y-0.7693
X406.5455 Y-0.7778
X406.4904 Y-0.8136
X406.4354 Y-0.8444
X406.3976 Y-0.8628
X406.3597 Y-0.8793
X406.3253 Y-0.8926
X406.2702 Y-0.9108
X406.2151 Y-0.9253
X406.1601 Y-0.9364
X406.105 Y-0.9442
X406.05 Y-0.9487
X405.9949 Y-0.95
X145.1352
X145.0251 Y-0.947
X144.97 Y-0.9411
X144.9149 Y-0.9318
X144.8599 Y-0.9192
X144.8048 Y-0.903
X144.7404 Y-0.8793
X144.6947 Y-0.8592
X144.6397 Y-0.831
X144.5846 Y-0.798
X144.5426 Y-0.7693
X144.5085 Y-0.7434
X144.4745 Y-0.715
X144.416 Y-0.6592
X144.3644 Y-0.6011
X144.3249 Y-0.5492
X144.2887 Y-0.4942
X144.2576 Y-0.4392
X144.2543 Y-0.4327
X144.2297 Y-0.3809
X144.2089 Y-0.3292
X144.1904 Y-0.2742
X144.1756 Y-0.2191
X144.1643 Y-0.1641
X144.1563 Y-0.1091
X144.1516 Y-0.0541
X144.15 Y0.0009
Y18.1484
X144.1486 Y18.15
X65.8516
X65.85 Y18.1484
Y0.0009
X65.8485 Y-0.0541
X65.8437 Y-0.1091
X65.8357 Y-0.1641
X65.8244 Y-0.2191
X65.8096 Y-0.2742
X65.7912 Y-0.3292
X65.7692 Y-0.3835
X65.7431 Y-0.4379
X65.7424 Y-0.4392
X65.7114 Y-0.4942
X65.6752 Y-0.5492
X65.633 Y-0.6044
X65.5841 Y-0.6592
X65.5535 Y-0.6896
X65.5229 Y-0.7173
X65.4902 Y-0.7445
X65.4575 Y-0.7693
X65.4127 Y-0.7998
X65.3577 Y-0.8325
X65.3026 Y-0.8605
X65.2597 Y-0.8793
X65.1925 Y-0.9039
X65.1375 Y-0.9199
X65.0824 Y-0.9323
X65.0273 Y-0.9414
X64.9723 Y-0.9472
X64.8622 Y-0.95
X0.0051
X-0.0499 Y-0.9487
X-0.105 Y-0.9442
X-0.1601 Y-0.9364
X-0.2151 Y-0.9253
X-0.2702 Y-0.9108
X-0.3252 Y-0.8926
X-0.3597 Y-0.8793
X-0.3975 Y-0.8628
X-0.4353 Y-0.8444
X-0.4904 Y-0.8136
X-0.5455 Y-0.7778
X-0.5574 Y-0.7693
X-0.6065 Y-0.7312
X-0.6556 Y-0.6875
X-0.684 Y-0.6592
X-0.7276 Y-0.6108
X-0.7657 Y-0.5623
X-0.7752 Y-0.5492
X-0.8113 Y-0.4942
X-0.8424 Y-0.4392
X-0.8758 Y-0.3681
X-0.8911 Y-0.3292
X-0.9096 Y-0.2742
X-0.9244 Y-0.2191
X-0.9357 Y-0.1641
X-0.9437 Y-0.1091
X-0.9485 Y-0.0541
X-0.95 Y0.0009
Y89.9991
X-0.9485 Y90.0541
X-0.9437 Y90.1091
X-0.9357 Y90.1641
X-0.9244 Y90.2191
X-0.9096 Y90.2742
X-0.8911 Y90.3292
X-0.8758 Y90.3681
X-0.8424 Y90.4392
X-0.8113 Y90.4942
X-0.7752 Y90.5492
X-0.7657 Y90.5623
X-0.7276 Y90.6108
X-0.684 Y90.6592
X-0.6556 Y90.6875
X-0.6065 Y90.7312
X-0.5574 Y90.7693
X-0.5455 Y90.7778
X-0.4904 Y90.8136
X-0.4353 Y90.8444
X-0.3975 Y90.8628
X-0.3597 Y90.8793
X-0.3252 Y90.8926
X-0.2702 Y90.9108
X-0.2151 Y90.9253
X-0.1601 Y90.9364
X-0.105 Y90.9442
X-0.0499 Y90.9487
X0.0051 Y90.95
X376.8441
X405.9949
X406.05 Y90.9487
X406.105 Y90.9442
X406.1601 Y90.9364
X406.2151 Y90.9253
X406.2702 Y90.9108
X406.3253 Y90.8926
X406.3597 Y90.8793
X406.3976 Y90.8628
X406.4354 Y90.8444
X406.4904 Y90.8136
X406.5455 Y90.7778
X406.5575 Y90.7693
X406.6065 Y90.7312
X406.6556 Y90.6875
X406.6841 Y90.6592
X406.7277 Y90.6108
X406.7657 Y90.5623
X406.7752 Y90.5492
X406.8114 Y90.4942
X406.8424 Y90.4392
X406.8758 Y90.3681
X406.8912 Y90.3292
X406.9096 Y90.2742
X406.9244 Y90.2191
X406.9357 Y90.1641
X406.9438 Y90.1091
X406.9485 Y90.0541
X406.95 Y89.9991
Y87.2699
X406.9574 Y87.2175
X406.9789 Y87.1692
X407.0129 Y87.1287
X407.0568 Y87.0991
X407.1071 Y87.0828
X407.16 Y87.081
X408.7637 Y87.2501
X408.8126 Y87.2553 Z-13.8935
X408.8582 Y87.2601 Z-13.8745
X408.8973 Y87.2642 Z-13.8444
X408.9274 Y87.2674 Z-13.805
X408.9463 Y87.2694 Z-13.7592
X408.9527 Y87.2701 Z-13.71
G0 Z5
X11.5885 Y10.1169
Z-4.9166
G1 Z-7 F3200
X11.643 Y10.112
X11.6967 Y10.1229
X11.745 Y10.1486
X11.7839 Y10.187
X11.8103 Y10.235
X11.822 Y10.2884
X11.8179 Y10.343
X11.7934 Y10.453
X11.7873 Y10.4766
X11.7622 Y10.563
X11.7225 Y10.6731
X11.6772 Y10.7801
X11.6758 Y10.7831
X11.6195 Y10.8931
X11.5671 Y10.982
X11.5538 Y11.0031
X11.4777 Y11.1131
X11.457 Y11.1395
X11.3873 Y11.2232
X11.3468 Y11.2677
X11.2821 Y11.3332
X11.2367 Y11.3755
X11.1572 Y11.4432
X11.1266 Y11.4669
X11.0165 Y11.5454
X11.0047 Y11.5532
X10.9064 Y11.6123
X10.8088 Y11.6633
X10.7963 Y11.6693
X10.6862 Y11.7178
X10.576 Y11.7577
X10.5265 Y11.7733
X10.4659 Y11.79
X10.3558 Y11.815
X10.2457 Y11.8332
X10.1356 Y11.8449
X10.0255 Y11.8494
X9.9154 Y11.8477
X9.8052 Y11.8395
X9.6951 Y11.8242
X9.585 Y11.8023
X9.4749 Y11.7737
X9.4735 Y11.7733
X9.3648 Y11.737
X9.2547 Y11.6928
X9.1912 Y11.6633
X9.1446 Y11.6398
X9.0344 Y11.5776
X8.9953 Y11.5532
X8.9243 Y11.5047
X8.8429 Y11.4432
X8.8142 Y11.4196
X8.718 Y11.3332
X8.7041 Y11.3198
X8.6127 Y11.2232
X8.594 Y11.2016
X8.5224 Y11.1131
X8.4839 Y11.0598
X8.4462 Y11.0031
X8.3806 Y10.8931
X8.3738 Y10.8807
X8.3242 Y10.7831
X8.2775 Y10.6731
X8.2636 Y10.6367
X8.2379 Y10.563
X8.2066 Y10.453
X8.1821 Y10.343
X8.1654 Y10.233
X8.1544 Y10.1229
X8.1535 Y10.1065
X8.1505 Y10.0129
X8.1531 Y9.9029
X8.1535 Y9.8935
X8.1621 Y9.7929
X8.1776 Y9.6829
X8.2005 Y9.5728
X8.2297 Y9.4628
X8.2636 Y9.3633
X8.2675 Y9.3528
X8.3124 Y9.2428
X8.3666 Y9.1327
X8.3738 Y9.1193
X8.43 Y9.0227
X8.4839 Y8.9402
X8.5035 Y8.9127
X8.5904 Y8.8027
X8.594 Y8.7984
X8.6913 Y8.6927
X8.7041 Y8.6802
X8.8115 Y8.5826
X8.8142 Y8.5804
X8.9243 Y8.4953
X8.9567 Y8.4726
X9.0344 Y8.4224
X9.1401 Y8.3626
X9.1446 Y8.3602
X9.2547 Y8.3072
X9.3648 Y8.263
X9.3942 Y8.2526
X9.4749 Y8.2263
X9.585 Y8.1977
X9.6951 Y8.1758
X9.8052 Y8.1605
X9.9154 Y8.1523
X10.0255 Y8.1506
X10.1356 Y8.1551
X10.2457 Y8.1668
X10.3558 Y8.185
X10.4659 Y8.21
X10.576 Y8.2423
X10.6062 Y8.2526
X10.6862 Y8.2822
X10.7963 Y8.3307
X10.86 Y8.3626
X10.9064 Y8.3877
X11.0165 Y8.4546
X11.0434 Y8.4726
X11.1266 Y8.5331
X11.1885 Y8.5826
X11.2367 Y8.6245
X11.3088 Y8.6927
X11.3468 Y8.7323
X11.4097 Y8.8027
X11.457 Y8.8605
X11.4965 Y8.9127
X11.5671 Y9.018
X11.57 Y9.0227
X11.6334 Y9.1327
X11.6772 Y9.2199
X11.6876 Y9.2428
X11.7325 Y9.3528
X11.7703 Y9.4628
X11.7873 Y9.5234
X11.7996 Y9.5728
X11.8228 Y9.6829
X11.8382 Y9.7929
X11.847 Y9.9029
X11.8495 Y10.0129
X11.8457 Y10.1229
X11.8351 Y10.233
X11.8179 Y10.343
X11.7975 Y10.436
X11.7732 Y10.5281 Z-7.0001
X11.7092 Y10.7075 Z-7.0004
X11.6703 Y10.7945 Z-7.0006
X11.627 Y10.8793 Z-7.0008
X11.5796 Y10.9619 Z-7.0011
X11.528 Y11.042 Z-7.0014
X11.4727 Y11.1195 Z-7.0018
X11.4128 Y11.1936 Z-7.0022
X11.3496 Y11.2648 Z-7.0027
X11.2827 Y11.3326 Z-7.0032
X11.2127 Y11.3972 Z-7.0037
X11.1389 Y11.4574 Z-7.0043
X11.0624 Y11.5142 Z-7.005
X10.983 Y11.5669 Z-7.0056
X10.901 Y11.6154 Z-7.0063
X10.8166 Y11.6595 Z-7.0071
X10.7302 Y11.6995 Z-7.0079
X10.6418 Y11.735 Z-7.0087
X10.4599 Y11.7916 Z-7.0105
X10.3671 Y11.8127 Z-7.0115
X10.2733 Y11.8293 Z-7.0125
X10.1788 Y11.841 Z-7.0135
X10.0837 Y11.8477 Z-7.0146
X9.9885 Y11.8496 Z-7.0157
X9.8933 Y11.8465 Z-7.0169
X9.7984 Y11.8387 Z-7.0181
X9.704 Y11.8257 Z-7.0193
X9.6104 Y11.8082 Z-7.0205
X9.5179 Y11.7856 Z-7.0219
X9.4266 Y11.7585 Z-7.0232
X9.3368 Y11.7266 Z-7.0246
X9.2488 Y11.6902 Z-7.026
X9.1628 Y11.6492 Z-7.0274
X9.079 Y11.604 Z-7.0289
X8.9975 Y11.5547 Z-7.0305
X8.843 Y11.4433 Z-7.0336
X8.7703 Y11.3818 Z-7.0352
X8.7008 Y11.3166 Z-7.0369
X8.6349 Y11.2478 Z-7.0386
X8.5725 Y11.1759 Z-7.0403
X8.5134 Y11.1012 Z-7.0421
X8.4593 Y11.0228 Z-7.0439
X8.4083 Y10.9423 Z-7.0458
X8.3622 Y10.859 Z-7.0476
X8.3198 Y10.7737 Z-7.0495
X8.2825 Y10.6861 Z-7.0515
X8.2492 Y10.5968 Z-7.0534
X8.2206 Y10.506 Z-7.0555
X8.1973 Y10.4136 Z-7.0575
X8.178 Y10.3203 Z-7.0596
X8.1645 Y10.226 Z-7.0617
X8.1548 Y10.1313 Z-7.0638
X8.1514 Y9.9409 Z-7.0682
X8.1568 Y9.8458 Z-7.0704
X8.1675 Y9.7511 Z-7.0726
X8.1821 Y9.657 Z-7.0749
X8.2026 Y9.564 Z-7.0772
X8.2269 Y9.4719 Z-7.0796
X8.2571 Y9.3815 Z-7.082
X8.2908 Y9.2925 Z-7.0844
X8.3297 Y9.2055 Z-7.0868
X8.373 Y9.1207 Z-7.0893
X8.4204 Y9.0381 Z-7.0918
X8.472 Y8.958 Z-7.0943
X8.5274 Y8.8805 Z-7.0968
X8.5873 Y8.8064 Z-7.0994
X8.6505 Y8.7352 Z-7.102
X8.7174 Y8.6674 Z-7.1046
X8.7874 Y8.6028 Z-7.1073
X8.8612 Y8.5426 Z-7.11
X8.9377 Y8.4857 Z-7.1127
X9.0171 Y8.4331 Z-7.1154
X9.099 Y8.3846 Z-7.1182
X9.1835 Y8.3405 Z-7.121
X9.2699 Y8.3005 Z-7.1238
X9.3584 Y8.2652 Z-7.1266
X9.4486 Y8.2346 Z-7.1295
X9.5402 Y8.2084 Z-7.1324
X9.633 Y8.1873 Z-7.1353
X9.7268 Y8.1707 Z-7.1383
X9.8214 Y8.159 Z-7.1412
X9.9164 Y8.1523 Z-7.1442
X10.0116 Y8.1504 Z-7.1472
X10.1068 Y8.1535 Z-7.1503
X10.2017 Y8.1613 Z-7.1533
X10.2961 Y8.1744 Z-7.1564
X10.3897 Y8.1918 Z-7.1595
X10.4822 Y8.2145 Z-7.1626
X10.5736 Y8.2415 Z-7.1658
X10.6634 Y8.2732 Z-7.169
X10.7513 Y8.3098 Z-7.1722
X10.8373 Y8.3508 Z-7.1754
X10.9211 Y8.396 Z-7.1786
X11.0026 Y8.4454 Z-7.1819
X11.0811 Y8.4993 Z-7.1851
X11.1571 Y8.5567 Z-7.1884
X11.2298 Y8.6183 Z-7.1918
X11.2993 Y8.6834 Z-7.1951
X11.3651 Y8.7522 Z-7.1984
X11.4276 Y8.8241 Z-7.2017
X11.4866 Y8.8989 Z-7.2051
X11.5408 Y8.9772 Z-7.2084
X11.5917 Y9.0577 Z-7.2117
X11.6378 Y9.1411 Z-7.215
X11.6803 Y9.2263 Z-7.2184
X11.7175 Y9.314 Z-7.2217
X11.7508 Y9.4033 Z-7.225
X11.7794 Y9.4941 Z-7.2283
X11.8028 Y9.5864 Z-7.2317
X11.8223 Y9.6797 Z-7.235
X11.836 Y9.7739 Z-7.2383
X11.8453 Y9.8687 Z-7.2416
X11.8491 Y9.9639 Z-7.2449
X11.8486 Y10.0592 Z-7.2483
X11.8433 Y10.1543 Z-7.2516
X11.8332 Y10.249 Z-7.2549
X11.8179 Y10.343 Z-7.2582
X11.7975 Y10.436 Z-7.2616
X11.7732 Y10.5281 Z-7.2649
X11.743 Y10.6184 Z-7.2682
X11.7092 Y10.7075 Z-7.2715
X11.6703 Y10.7945 Z-7.2749
X11.627 Y10.8793 Z-7.2782
X11.5796 Y10.9619 Z-7.2815
X11.528 Y11.042 Z-7.2848
X11.4727 Y11.1195 Z-7.2882
X11.4128 Y11.1936 Z-7.2915
X11.3496 Y11.2648 Z-7.2948
X11.2827 Y11.3326 Z-7.2981
X11.2127 Y11.3972 Z-7.3015
X11.1389 Y11.4574 Z-7.3048
X11.0624 Y11.5142 Z-7.3081
X10.983 Y11.5669 Z-7.3114
X10.901 Y11.6154 Z-7.3148
X10.8166 Y11.6595 Z-7.3181
X10.7302 Y11.6995 Z-7.3214
X10.6418 Y11.735 Z-7.3247
X10.5515 Y11.7654 Z-7.3281
X10.4599 Y11.7916 Z-7.3314
X10.3671 Y11.8127 Z-7.3347
X10.2733 Y11.8293 Z-7.338
X10.1788 Y11.841 Z-7.3414
X10.0837 Y11.8477 Z-7.3447
X9.9885 Y11.8496 Z-7.348
X9.8933 Y11.8465 Z-7.3513
X9.7984 Y11.8387 Z-7.3547
X9.704 Y11.8257 Z-7.358
X9.6104 Y11.8082 Z-7.3613
X9.5179 Y11.7856 Z-7.3646
X9.4266 Y11.7585 Z-7.368
X9.3368 Y11.7266 Z-7.3713
X9.2488 Y11.6902 Z-7.3746
X9.1628 Y11.6492 Z-7.3779
X9.079 Y11.604 Z-7.3813
X8.9975 Y11.5547 Z-7.3846
X8.919 Y11.5008 Z-7.3879
X8.843 Y11.4433 Z-7.3912
X8.7703 Y11.3818 Z-7.3946
X8.7008 Y11.3166 Z-7.3979
X8.6349 Y11.2478 Z-7.4012
X8.5725 Y11.1759 Z-7.4045
X8.5134 Y11.1012 Z-7.4079
X8.4593 Y11.0228 Z-7.4112
X8.4083 Y10.9423 Z-7.4145
X8.3622 Y10.859 Z-7.4178
X8.3198 Y10.7737 Z-7.4212
X8.2825 Y10.6861 Z-7.4245
X8.2492 Y10.5968 Z-7.4278
X8.2206 Y10.506 Z-7.4311
X8.1973 Y10.4136 Z-7.4345
X8.178 Y10.3203 Z-7.4378
X8.1645 Y10.226 Z-7.4411
X8.1548 Y10.1313 Z-7.4444
X8.1509 Y10.0361 Z-7.4478
X8.1514 Y9.9409 Z-7.4511
X8.1568 Y9.8458 Z-7.4544
X8.1675 Y9.7511 Z-7.4577
X8.1821 Y9.657 Z-7.4611
X8.2026 Y9.564 Z-7.4644
X8.2269 Y9.4719 Z-7.4677
X8.2571 Y9.3815 Z-7.471
X8.2908 Y9.2925 Z-7.4744
X8.3297 Y9.2055 Z-7.4777
X8.373 Y9.1207 Z-7.481
X8.4204 Y9.0381 Z-7.4843
X8.472 Y8.958 Z-7.4877
X8.5274 Y8.8805 Z-7.491
X8.5873 Y8.8064 Z-7.4943
X8.6505 Y8.7352 Z-7.4976
X8.7174 Y8.6674 Z-7.501
X8.7874 Y8.6028 Z-7.5043
X8.8612 Y8.5426 Z-7.5076
X8.9377 Y8.4857 Z-7.5109
X9.0171 Y8.4331 Z-7.5143
X9.099 Y8.3846 Z-7.5176
X9.1835 Y8.3405 Z-7.5209
X9.2699 Y8.3005 Z-7.5242
X9.3584 Y8.2652 Z-7.5276
X9.4486 Y8.2346 Z-7.5309
X9.5402 Y8.2084 Z-7.5342
X9.633 Y8.1873 Z-7.5375
X9.7268 Y8.1707 Z-7.5408
X9.8214 Y8.159 Z-7.5442
X9.9164 Y8.1523 Z-7.5475
X10.0116 Y8.1504 Z-7.5508
X10.1068 Y8.1535 Z-7.5541
X10.2017 Y8.1613 Z-7.5575
X10.2961 Y8.1744 Z-7.5608
X10.3897 Y8.1918 Z-7.5641
X10.4822 Y8.2145 Z-7.5674
X10.5736 Y8.2415 Z-7.5708
X10.6634 Y8.2732 Z-7.5741
X10.7513 Y8.3098 Z-7.5774
X10.8373 Y8.3508 Z-7.5807
X10.9211 Y8.396 Z-7.5841
X11.0026 Y8.4454 Z-7.5874
X11.0811 Y8.4993 Z-7.5907
X11.1571 Y8.5567 Z-7.594
X11.2298 Y8.6183 Z-7.5974
X11.2993 Y8.6834 Z-7.6007
X11.3651 Y8.7522 Z-7.604
X11.4276 Y8.8241 Z-7.6073
X11.4866 Y8.8989 Z-7.6107
X11.5408 Y8.9772 Z-7.614
X11.5917 Y9.0577 Z-7.6173
X11.6378 Y9.1411 Z-7.6206
X11.6803 Y9.2263 Z-7.624
X11.7175 Y9.314 Z-7.6273
X11.7508 Y9.4033 Z-7.6306
X11.7794 Y9.4941 Z-7.6339
X11.8028 Y9.5864 Z-7.6373
X11.8223 Y9.6797 Z-7.6406
X11.836 Y9.7739 Z-7.6439
X11.8453 Y9.8687 Z-7.6472
X11.8491 Y9.9639 Z-7.6506
X11.8486 Y10.0592 Z-7.6539
X11.8433 Y10.1543 Z-7.6572
X11.8332 Y10.249 Z-7.6605
X11.8179 Y10.343 Z-7.6639
X11.7975 Y10.436 Z-7.6672
X11.7732 Y10.5281 Z-7.6705
X11.743 Y10.6184 Z-7.6738
X11.7092 Y10.7075 Z-7.6772
X11.6703 Y10.7945 Z-7.6805
X11.627 Y10.8793 Z-7.6838
X11.5796 Y10.9619 Z-7.6871
X11.528 Y11.042 Z-7.6904
X11.4727 Y11.1195 Z-7.6938
X11.4128 Y11.1936 Z-7.6971
X11.3496 Y11.2648 Z-7.7004
X11.2827 Y11.3326 Z-7.7037
X11.2127 Y11.3972 Z-7.7071
X11.1389 Y11.4574 Z-7.7104
X11.0624 Y11.5142 Z-7.7137
X10.983 Y11.5669 Z-7.717
X10.901 Y11.6154 Z-7.7204
X10.8166 Y11.6595 Z-7.7237
X10.7302 Y11.6995 Z-7.727
X10.6418 Y11.735 Z-7.7303
X10.5515 Y11.7654 Z-7.7337
X10.4599 Y11.7916 Z-7.737
X10.3671 Y11.8127 Z-7.7403
X10.2733 Y11.8293 Z-7.7436
X10.1788 Y11.841 Z-7.747
X10.0837 Y11.8477 Z-7.7503
X9.9885 Y11.8496 Z-7.7536
X9.8933 Y11.8465 Z-7.7569
X9.7984 Y11.8387 Z-7.7603
X9.704 Y11.8257 Z-7.7636
X9.6104 Y11.8082 Z-7.7669
X9.5179 Y11.7856 Z-7.7702
X9.4266 Y11.7585 Z-7.7736
X9.3368 Y11.7266 Z-7.7769
X9.2488 Y11.6902 Z-7.7802
X9.1628 Y11.6492 Z-7.7835
X9.079 Y11.604 Z-7.7869
X8.9975 Y11.5547 Z-7.7902
X8.919 Y11.5008 Z-7.7935
X8.843 Y11.4433 Z-7.7968
X8.7703 Y11.3818 Z-7.8002
X8.7008 Y11.3166 Z-7.8035
X8.6349 Y11.2478 Z-7.8068
X8.5725 Y11.1759 Z-7.8101
X8.5134 Y11.1012 Z-7.8134
X8.4593 Y11.0228 Z-7.8167
X8.4083 Y10.9423 Z-7.82
X8.3622 Y10.859 Z-7.8232
X8.3198 Y10.7737 Z-7.8265
X8.2825 Y10.6861 Z-7.8297
X8.2492 Y10.5968 Z-7.8328
X8.2206 Y10.506 Z-7.836
X8.1973 Y10.4136 Z-7.8391
X8.178 Y10.3203 Z-7.8422
X8.1645 Y10.226 Z-7.8453
X8.1548 Y10.1313 Z-7.8484
X8.1509 Y10.0361 Z-7.8515
X8.1514 Y9.9409 Z-7.8545
X8.1568 Y9.8458 Z-7.8575
X8.1675 Y9.7511 Z-7.8605
X8.1821 Y9.657 Z-7.8634
X8.2026 Y9.564 Z-7.8663
X8.2269 Y9.4719 Z-7.8692
X8.2571 Y9.3815 Z-7.8721
X8.2908 Y9.2925 Z-7.875
X8.3297 Y9.2055 Z-7.8778
X8.373 Y9.1207 Z-7.8806
X8.4204 Y9.0381 Z-7.8834
X8.472 Y8.958 Z-7.8861
X8.5274 Y8.8805 Z-7.8888
X8.5873 Y8.8064 Z-7.8915
X8.6505 Y8.7352 Z-7.8942
X8.7174 Y8.6674 Z-7.8969
X8.7874 Y8.6028 Z-7.8995
X8.8612 Y8.5426 Z-7.9021
X8.9377 Y8.4857 Z-7.9046
X9.0171 Y8.4331 Z-7.9072
X9.099 Y8.3846 Z-7.9097
X9.1835 Y8.3405 Z-7.9121
X9.2699 Y8.3005 Z-7.9146
X9.3584 Y8.2652 Z-7.917
X9.4486 Y8.2346 Z-7.9194
X9.5402 Y8.2084 Z-7.9218
X9.633 Y8.1873 Z-7.9241
X9.7268 Y8.1707 Z-7.9264
X9.8214 Y8.159 Z-7.9287
X9.9164 Y8.1523 Z-7.9309
X10.0116 Y8.1504 Z-7.9331
X10.1068 Y8.1535 Z-7.9353
X10.2017 Y8.1613 Z-7.9374
X10.3897 Y8.1918 Z-7.9416
X10.4822 Y8.2145 Z-7.9437
X10.5736 Y8.2415 Z-7.9457
X10.6634 Y8.2732 Z-7.9477
X10.7513 Y8.3098 Z-7.9496
X10.8373 Y8.3508 Z-7.9515
X10.9211 Y8.396 Z-7.9534
X11.0026 Y8.4454 Z-7.9553
X11.0811 Y8.4993 Z-7.9571
X11.1571 Y8.5567 Z-7.9589
X11.2298 Y8.6183 Z-7.9606
X11.2993 Y8.6834 Z-7.9624
X11.3651 Y8.7522 Z-7.964
X11.4276 Y8.8241 Z-7.9657
X11.4866 Y8.8989 Z-7.9673
X11.5408 Y8.9772 Z-7.9689
X11.5917 Y9.0577 Z-7.9704
X11.6803 Y9.2263 Z-7.9734
X11.7175 Y9.314 Z-7.9748
X11.7508 Y9.4033 Z-7.9762
X11.7794 Y9.4941 Z-7.9776
X11.8028 Y9.5864 Z-7.9789
X11.8223 Y9.6797 Z-7.9802
X11.836 Y9.7739 Z-7.9814
X11.8453 Y9.8687 Z-7.9826
X11.8491 Y9.9639 Z-7.9838
X11.8486 Y10.0592 Z-7.9849
X11.8433 Y10.1543 Z-7.986
X11.8332 Y10.249 Z-7.9871
X11.8179 Y10.343 Z-7.9881
X11.7975 Y10.436 Z-7.9891
X11.7732 Y10.5281 Z-7.99
X11.7092 Y10.7075 Z-7.9917
X11.6703 Y10.7945 Z-7.9926
X11.627 Y10.8793 Z-7.9933
X11.5796 Y10.9619 Z-7.9941
X11.528 Y11.042 Z-7.9948
X11.4727 Y11.1195 Z-7.9954
X11.4128 Y11.1936 Z-7.996
X11.3496 Y11.2648 Z-7.9966
X11.2827 Y11.3326 Z-7.9971
X11.2127 Y11.3972 Z-7.9976
X11.1389 Y11.4574 Z-7.998
X11.0624 Y11.5142 Z-7.9984
X10.983 Y11.5669 Z-7.9988
X10.901 Y11.6154 Z-7.9991
X10.8166 Y11.6595 Z-7.9993
X10.7302 Y11.6995 Z-7.9996
X10.6418 Y11.735 Z-7.9997
X10.5515 Y11.7654 Z-7.9999
X10.4599 Y11.7916 Z-8
X10.3286 Y11.8195
X10.2457 Y11.8332
X10.1356 Y11.8449
X10.0255 Y11.8494
X9.9154 Y11.8477
X9.8052 Y11.8395
X9.6951 Y11.8242
X9.585 Y11.8023
X9.4749 Y11.7737
X9.4735 Y11.7733
X9.3648 Y11.737
X9.2547 Y11.6928
X9.1912 Y11.6633
X9.1446 Y11.6398
X9.0344 Y11.5776
X8.9953 Y11.5532
X8.9243 Y11.5047
X8.8429 Y11.4432
X8.8142 Y11.4196
X8.718 Y11.3332
X8.7041 Y11.3198
X8.6127 Y11.2232
X8.594 Y11.2016
X8.5224 Y11.1131
X8.4839 Y11.0598
X8.4462 Y11.0031
X8.3806 Y10.8931
X8.3738 Y10.8807
X8.3242 Y10.7831
X8.2775 Y10.6731
X8.2636 Y10.6367
X8.2379 Y10.563
X8.2066 Y10.453
X8.1821 Y10.343
X8.1654 Y10.233
X8.1544 Y10.1229
X8.1535 Y10.1065
X8.1505 Y10.0129
X8.1531 Y9.9029
X8.1535 Y9.8935
X8.1621 Y9.7929
X8.1776 Y9.6829
X8.2005 Y9.5728
X8.2297 Y9.4628
X8.2636 Y9.3633
X8.2675 Y9.3528
X8.3124 Y9.2428
X8.3666 Y9.1327
X8.3738 Y9.1193
X8.43 Y9.0227
X8.4839 Y8.9402
X8.5035 Y8.9127
X8.5904 Y8.8027
X8.594 Y8.7984
X8.6913 Y8.6927
X8.7041 Y8.6802
X8.8115 Y8.5826
X8.8142 Y8.5804
X8.9243 Y8.4953
X8.9567 Y8.4726
X9.0344 Y8.4224
X9.1401 Y8.3626
X9.1446 Y8.3602
X9.2547 Y8.3072
X9.3648 Y8.263
X9.3942 Y8.2526
