%
(Made in : Autodesk CAM Post Processor)
(G Code optimized for OpenBuilds OX CNC 1000 x 750 with GRBL V0.9j controller)

(Program Name : 1001)
(1 Operation :)
(1 : Pocket2)
(  Tool : Flat End Mill 3 Flutes, Diam = 3.175mm, Len = 20mm)
(  Spindle : RPM = 30000, set router dial to 6)
(  Machining time : 52 min 24 sec)

G90 G94
G17
G21

(Operation 1 of 1 : Pocket2)

G53 G0 Z5
G54
S30000 M3
G4 P1.0
X297.9515 Y331.0576
Z6
Z3
G1 Z2.4173 F1200
X297.9646 Y331.0646 Z2.3213
X298.0023 Y331.0857 Z2.2343
X298.06 Y331.1208 Z2.1644
X298.1306 Y331.1689 Z2.1182
X298.2061 Y331.2271 Z2.1
G3 X297.9895 Y331.0783 Z1.7783 I-0.9589 J1.164
X297.7502 Y330.9694 Z1.4566 I-0.7422 J1.3128
X297.4957 Y330.9036 Z1.1349 I-0.503 J1.4218
X297.2336 Y330.8831 Z0.8132 I-0.2485 J1.4875
X296.9719 Y330.9084 Z0.4914 I0.0136 J1.5081
X296.7186 Y330.9787 Z0.1697 I0.2753 J1.4828
X296.4814 Y331.0919 Z-0.152 I0.5286 J1.4125
X296.2674 Y331.2446 Z-0.4737 I0.7658 J1.2992
X296.0832 Y331.4322 Z-0.7954 I0.9798 J1.1465
X295.9344 Y331.6489 Z-1.1171 I1.164 J0.9589
X295.8254 Y331.8882 Z-1.4388 I1.3129 J0.7422
X295.7597 Y332.1427 Z-1.7605 I1.4218 J0.503
X297.2472 Y333.8993 Z-2 I1.4875 J0.2485
G1 X256.2428 Y333.899 F3500
G3 X255.6452 Y333.0326 J-0.6393
G2 X255.8219 Y332.5482 I-17.9415 J-6.8192
X255.9881 Y332.0602 I-29.7087 J-10.3874
G3 X257.1967 Y331.1874 I1.2087 J0.4005
G1 X297.2868
G3 X298.2802 Y331.6642 J1.2733
G2 X299.5918 Y333.1374 I14.9351 J-11.9759
G3 X299.2733 Y333.8993 I-0.3185 J0.3144
G1 X297.2472
G2 X295.8918 Y334.8029 J1.4683
G3 X294.5364 Y335.7064 I-1.3554 J-0.5648
G1 X253.2654 Y335.7061
G3 X252.7811 Y334.8768 J-0.5561
G2 X254.533 Y330.6319 I-16.4122 J-9.2576
G3 X256.175 Y329.3802 I1.6419 J0.4511
G1 X297.4815
G3 X299.5863 Y330.4029 J2.6774
G2 X304.2504 Y334.6068 I14.5051 J-11.4034
X304.619 Y334.8182 I2.6158 J-4.1351
G3 X304.9928 Y335.0205 I-5.1481 J9.9576
X304.8121 Y335.7065 I-0.1807 J0.3192
G1 X294.5364 Y335.7064
X294.4876 Y335.7027 Z-1.9922
X294.4399 Y335.6914 Z-1.9845
X294.3988 Y335.675 Z-1.9619
X294.3604 Y335.6531 Z-1.9394
X294.3067 Y335.6081 Z-1.8691
X294.278 Y335.5733 Z-1.7806
X294.2693 Y335.5605 Z-1.6825
G0 Z5
X355.5479 Y335.0299
Z2.4173
G1 X355.5339 Y335.0349 Z2.3213 F1200
X355.493 Y335.0485 Z2.2343
X355.4282 Y335.0674 Z2.1644
X355.345 Y335.0872 Z2.1182
X355.2511 Y335.1037 Z2.1
G3 X355.5071 Y335.044 Z1.7783 I-0.2133 J-1.493
X355.7488 Y334.9407 Z1.4566 I-0.4693 J-1.4332
X355.969 Y334.797 Z1.1349 I-0.711 J-1.33
X356.1608 Y334.6173 Z0.8132 I-0.9312 J-1.1863
X356.3186 Y334.407 Z0.4914 I-1.123 J-1.0066
X356.4374 Y334.1725 Z0.1697 I-1.2808 J-0.7963
X356.5137 Y333.9209 Z-0.152 I-1.3996 J-0.5618
X356.5451 Y333.6599 Z-0.4737 I-1.4759 J-0.3102
X356.5308 Y333.3975 Z-0.7954 I-1.5073 J-0.0492
X356.4711 Y333.1414 Z-1.1171 I-1.493 J0.2133
X356.3678 Y332.8997 Z-1.4388 I-1.4333 J0.4693
X356.2241 Y332.6795 Z-1.7605 I-1.33 J0.711
X353.9239 Y332.594 Z-2 I-1.1863 J0.9312
G1 X353.974 Y332.5389 F3500
G3 X355.026 I0.526 J0.4764
G2 X355.5924 Y333.1379 I14.1893 J-12.8506
G3 X355.274 Y333.8998 I-0.3185 J0.3144
G1 X353.726
G3 X353.4076 Y333.1379 J-0.4475
G2 X353.9239 Y332.594 I-13.6229 J-13.4496
X354.3163 Y331.1554 I-1.2074 J-1.1021
G3 X355.6741 Y330.5392 I0.7474 J-0.1572
G2 X356.1441 Y331.1542 I38.5654 J-28.9889
X357.3978 Y332.5324 I9.5028 J-7.3846
X358.8088 Y333.6624 I7.7581 J-8.2412
X360.3235 Y334.6492 I28.2729 J-41.7437
X360.6567 Y334.8387 I2.4088 J-3.8466
G3 X360.994 Y335.0209 I-4.3487 J8.4565
X360.8132 Y335.7069 I-0.1808 J0.3192
G1 X348.1878 Y335.7068
G3 X348.0075 Y335.0211 J-0.3666
G2 X353.9705 Y329.6612 I-9.1214 J-16.1447
G3 X355.0295 I0.5295 J0.3796
G2 X355.6741 Y330.5392 I39.2101 J-28.1109
X357.1123 Y331.0027 I1.0476 J-0.7874
G3 X358.5846 Y331.3431 I0.4456 J1.4268
G2 X359.9863 Y332.5338 I11.9474 J-12.6443
X367.2677 Y335.6955 I10.0547 J-13.1907
X371.9263 Y335.935 I3.3518 J-19.7641
G3 X376.5886 Y335.7827 I4.6681 J71.4577
X377.2983 Y336.4924 I0.0001 J0.7096
G1 Y336.5915
G3 X376.5887 Y337.3012 I-0.7096
G1 X250.088 Y337.3002
G3 X249.7173 Y336.5158 J-0.4797
G2 X253.0996 Y329.8119 I-13.2475 J-10.8887
G3 X253.4814 Y329.0013 I2.2091 J0.5453
G2 X253.6329 Y328.7936 I-12.6417 J-9.3814
G3 X255.5952 Y327.7861 I1.9623 J1.4071
G1 X298.3958
G3 X300.3691 Y328.7935 J2.4365
G2 X306.2871 Y333.9854 I14.3599 J-10.3994
X313.9186 Y335.9186 I7.6309 J-14.0934
G1 X339.095 Y335.9176
G2 X347.9352 Y333.2979 I-0.0007 J-16.2276
X354.0624 Y326.408 I-9.4932 J-14.6118
G3 X354.9376 I0.4376 J0.2163
G2 X358.5846 Y331.3431 I15.5945 J-7.7092
X359.947 Y331.5504 I0.8308 J-0.8792
G3 X361.3212 Y331.6537 I0.599 J1.2243
G2 X362.0806 Y332.1469 I8.8846 J-12.848
X369.9225 Y334.347 I7.842 J-12.8763
G1 X377.9071 Y334.2106
G3 X378.8704 Y335.1737 I0.0001 J0.9631
G1 X378.8703 Y337.91
G3 X377.9071 Y338.8732 I-0.9633
G1 X245.9043 Y338.8722
G3 X245.6743 Y338.1577 J-0.3942
G2 X251.5655 Y329.4668 I-8.8707 J-12.3551
G3 X252.2385 Y328.0381 I3.9364 J0.9814
G2 X252.7935 Y327.2295 I-11.3987 J-8.4183
G3 X254.6437 Y326.2141 I1.8502 J1.1779
G1 X299.3629
G3 X301.1943 Y327.2147 J2.1762
G2 X306.6457 Y332.4055 I13.3674 J-8.5807
X313.9186 Y334.3466 I7.2722 J-12.6517
G1 X339.095 Y334.3456
G2 X349.149 Y330.5097 I-0.0006 J-15.0956
X354.2127 Y321.0147 I-10.396 J-11.6421
G1 X354.2136 Y312.787
G3 X354.7864 I0.2864
G1 X354.787 Y319.6042
G2 X356.4694 Y326.2434 I13.9463 J-0.0012
X361.3212 Y331.6537 I13.7364 J-7.4378
G1 X361.3595 Y331.6842 Z-1.9922
X361.3926 Y331.7204 Z-1.9845
X361.4174 Y331.757 Z-1.9619
X361.4368 Y331.7967 Z-1.9394
X361.4559 Y331.8642 Z-1.8691
X361.4601 Y331.909 Z-1.7806
Y331.9246 Z-1.6825
G0 Z5
X361.0843 Y191.3362
Z2.4173
G1 X361.0913 Y191.323 Z2.3213 F1200
X361.1124 Y191.2854 Z2.2343
X361.1475 Y191.2277 Z2.1644
X361.1956 Y191.1571 Z2.1182
X361.2538 Y191.0815 Z2.1
G3 X361.105 Y191.2982 Z1.7783 I1.164 J0.9589
X360.9961 Y191.5375 Z1.4566 I1.3129 J0.7422
X360.9303 Y191.792 Z1.1349 I1.4218 J0.503
X360.9098 Y192.0541 Z0.8132 I1.4875 J0.2484
X360.9351 Y192.3158 Z0.4914 I1.5081 J-0.0136
X361.0054 Y192.5691 Z0.1697 I1.4828 J-0.2753
X361.1187 Y192.8063 Z-0.152 I1.4125 J-0.5286
X361.2714 Y193.0203 Z-0.4737 I1.2992 J-0.7659
X361.459 Y193.2045 Z-0.7954 I1.1465 J-0.9798
X361.6757 Y193.3533 Z-1.1171 I0.9589 J-1.164
X361.9149 Y193.4622 Z-1.4388 I0.7422 J-1.3128
X362.1694 Y193.528 Z-1.7605 I0.503 J-1.4218
X363.926 Y192.0405 Z-2 I0.2484 J-1.4875
G1 X363.9258 Y214.9136 F3500
G3 X362.1597 I-0.883
G1 Y191.867
G3 X362.8693 Y191.1573 I0.7097
G1 X363.2163
G3 X363.926 Y191.867 I0.0001 J0.7096
G1 Y192.0405
G2 X365.0963 Y193.7959 I1.9017
G3 X366.2666 Y195.5514 I-0.7314 J1.7554
G1 X366.2664 Y217.2203
G3 X365.3031 Y218.1835 I-0.9632
G1 X360.7823 Y218.1831
G3 X359.8191 Y217.2198 I0.0001 J-0.9633
G1 Y189.7802
G3 X360.7823 Y188.8169 I0.9633
G1 X365.3034 Y188.8165
G3 X366.2666 Y189.7797 I0.0001 J0.9631
G1 Y195.5514
G2 X367.4369 Y197.3069 I1.9017
G3 X368.6071 Y199.0623 I-0.7314 J1.7554
G1 X368.607 Y219.5611
G3 X367.6437 Y220.5243 I-0.9632
G1 X358.4417 Y220.5235
G3 X357.4785 Y219.5602 I0.0001 J-0.9633
G1 Y187.4398
G3 X358.4417 Y186.4765 I0.9633
G1 X367.644 Y186.4758
G3 X368.6072 Y187.4389 I0.0001 J0.9631
G1 X368.6071 Y199.0623
G2 X369.7774 Y200.8178 I1.9017
G3 X370.9477 Y202.5733 I-0.7314 J1.7554
G1 X370.9475 Y221.9019
G3 X369.9843 Y222.8651 I-0.9631
G1 X356.1011 Y222.864
G3 X355.1379 Y221.9006 I0.0001 J-0.9633
G1 Y185.0994
G3 X356.1011 Y184.1361 I0.9633
G1 X369.9846 Y184.135
G3 X370.9479 Y185.0981 I0.0001 J0.9631
G1 X370.9477 Y202.5733
G2 X372.118 Y204.3288 I1.9017
G3 X373.2883 Y206.0842 I-0.7314 J1.7554
G1 X373.2881 Y224.2427
G3 X372.3249 Y225.2059 I-0.9632
G1 X353.7605 Y225.2044
G3 X352.7973 Y224.2411 I0.0001 J-0.9633
G1 Y182.759
G3 X353.7605 Y181.7956 I0.9633
G1 X372.3253 Y181.7942
G3 X373.2885 Y182.7573 I0.0001 J0.9631
G1 X373.2883 Y206.0842
G2 X374.4586 Y207.8397 I1.9017
G3 X375.6289 Y209.5951 I-0.7314 J1.7554
G1 X375.6287 Y226.5835
G3 X374.6655 Y227.5467 I-0.9632
G1 X351.4199 Y227.5448
G3 X350.4567 Y226.5815 I0.0001 J-0.9633
G1 Y180.4185
G3 X351.4199 Y179.4552 I0.9633
G1 X374.6659 Y179.4534
G3 X375.6291 Y180.4165 I0.0001 J0.9631
G1 X375.6289 Y209.5951
G2 X376.7992 Y211.3506 I1.9017
G3 X377.9695 Y213.1061 I-0.7314 J1.7554
G1 X377.9693 Y228.9243
G3 X377.0061 Y229.8875 I-0.9632
G1 X349.0793 Y229.8852
G3 X348.1161 Y228.9219 I0.0001 J-0.9633
G1 Y178.0781
G3 X349.0793 Y177.1148 I0.9633
G1 X377.0066 Y177.1126
G3 X377.9698 Y178.0757 I0.0001 J0.9631
G1 X377.9695 Y213.1061
G2 X379.1397 Y214.8615 I1.9017
G3 X380.31 Y216.617 I-0.7314 J1.7554
G1 X380.3099 Y231.2651
G3 X379.3467 Y232.2282 I-0.9632
G1 X346.7387 Y232.2257
G3 X345.7755 Y231.2623 I0.0001 J-0.9633
G1 Y175.7377
G3 X346.7387 Y174.7744 I0.9633
G1 X379.3472 Y174.7718
G3 X380.3104 Y175.7349 I0.0001 J0.9631
G1 X380.31 Y216.617
G2 X381.4803 Y218.3725 I1.9017
G3 X382.6506 Y220.1279 I-0.7314 J1.7554
G1 X382.6505 Y233.6059
G3 X381.6873 Y234.569 I-0.9631
G1 X344.3981 Y234.5661
G3 X343.4348 Y233.6028 I0.0001 J-0.9633
G1 Y173.3973
G3 X344.3981 Y172.4339 I0.9633
G1 X381.6878 Y172.431
G3 X382.651 Y173.3941 I0.0001 J0.9631
G1 X382.6506 Y220.1279
G2 X383.8209 Y221.8834 I1.9018
G3 X384.9912 Y223.6389 I-0.7314 J1.7554
G1 X384.9911 Y235.9467
G3 X384.0278 Y236.9098 I-0.9632
G1 X342.0575 Y236.9065
G3 X341.0942 Y235.9432 I0.0001 J-0.9633
G1 Y171.0569
G3 X342.0575 Y170.0935 I0.9633
G1 X384.0284 Y170.0902
G3 X384.9916 Y171.0533 I0.0001 J0.9632
G1 X384.9912 Y223.6389
G2 X386.1615 Y225.3943 I1.9018
G3 X387.3318 Y227.1498 I-0.7314 J1.7554
G1 X387.3317 Y238.2875
G3 X386.3684 Y239.2506 I-0.9632
G1 X339.7169 Y239.2469
G3 X338.7536 Y238.2836 I0.0001 J-0.9633
G1 Y168.7164
G3 X339.7169 Y167.7531 I0.9633
G1 X386.369 Y167.7494
G3 X387.3323 Y168.7126 I0.0001 J0.9631
G1 X387.3318 Y227.1498
G2 X388.502 Y228.9053 I1.9018
G3 X389.6723 Y230.6607 I-0.7314 J1.7554
G1 X389.6722 Y240.6283
G3 X388.709 Y241.5914 I-0.9631
G1 X337.3763 Y241.5874
G3 X336.413 Y240.624 I0.0001 J-0.9633
G1 Y166.376
G3 X337.3763 Y165.4127 I0.9633
G1 X388.7097 Y165.4086
G3 X389.6729 Y166.3718 I0.0001 J0.9631
G1 X389.6723 Y230.6607
X389.6685 Y230.7096 Z-1.9922
X389.6573 Y230.7573 Z-1.9845
X389.6409 Y230.7984 Z-1.9619
X389.619 Y230.8368 Z-1.9394
X389.574 Y230.8905 Z-1.8691
X389.5392 Y230.9192 Z-1.7806
X389.5264 Y230.9279 Z-1.6825
G0 Z5
X357.4604 Y15.8313
Z2.4173
G1 X357.4665 Y15.8449 Z2.3213 F1200
X357.4832 Y15.8847 Z2.2343
X357.5071 Y15.9478 Z2.1644
X357.5333 Y16.0292 Z2.1182
X357.557 Y16.1216 Z2.1
G3 X357.4776 Y15.871 Z1.7783 I-1.4719 J0.3287
X357.3558 Y15.638 Z1.4566 I-1.3924 J0.5793
X357.1955 Y15.4297 Z1.1349 I-1.2707 J0.8123
X357.0014 Y15.2524 Z0.8132 I-1.1103 J1.0206
X356.7795 Y15.1115 Z0.4914 I-0.9162 J1.1979
X356.5364 Y15.0112 Z0.1697 I-0.6943 J1.3388
X356.2797 Y14.9547 Z-0.152 I-0.4513 J1.439
X356.017 Y14.9437 Z-0.4737 I-0.1945 J1.4955
X355.7565 Y14.9784 Z-0.7954 I0.0681 J1.5066
X355.5059 Y15.0578 Z-1.1171 I0.3287 J1.4719
X355.2729 Y15.1796 Z-1.4388 I0.5793 J1.3924
X355.0646 Y15.34 Z-1.7605 I0.8123 J1.2707
X355.1581 Y17.6398 Z-2 I1.0206 J1.1103
G2 X355.067 Y17.5734 I-1.0743 J1.3786 F3500
X354.786 Y17.3903 I-4.7294 J6.9509
G1 X354.4766 Y17.1974
G3 X354.6763 Y16.4996 I0.1997 J-0.3203
G1 X356.4283
G3 X356.6278 Y17.1986 J0.378
G2 X356.2339 Y17.4476 I16.0357 J25.7986
X355.8456 Y17.7054 I8.5636 J13.3172
G3 X355.2493 Y17.7063 I-0.2988 J-0.4359
X355.1581 Y17.6398 I1.0052 J-1.4752
G1 X355.1199 Y17.6092 Z-1.9922
X355.0868 Y17.5731 Z-1.9845
X355.062 Y17.5365 Z-1.9619
X355.0425 Y17.4967 Z-1.9394
X355.0235 Y17.4293 Z-1.8691
X355.0193 Y17.3844 Z-1.7806
Y17.3689 Z-1.6825
G0 Z5
X256.5515 Y21.5432
Z2.4173
G1 X256.5385 Y21.5362 Z2.3213 F1200
X256.5007 Y21.5152 Z2.2343
X256.4431 Y21.4801 Z2.1644
X256.3725 Y21.432 Z2.1182
X256.2969 Y21.3737 Z2.1
G3 X256.5136 Y21.5225 Z1.7783 I0.9589 J-1.164
X256.7529 Y21.6315 Z1.4566 I0.7422 J-1.3128
X257.0074 Y21.6972 Z1.1349 I0.503 J-1.4218
X257.2695 Y21.7178 Z0.8132 I0.2484 J-1.4875
X257.5312 Y21.6925 Z0.4914 I-0.0136 J-1.5081
X257.7845 Y21.6221 Z0.1697 I-0.2753 J-1.4828
X258.0217 Y21.5089 Z-0.152 I-0.5286 J-1.4125
X258.2357 Y21.3562 Z-0.4737 I-0.7658 J-1.2992
X258.4199 Y21.1686 Z-0.7954 I-0.9798 J-1.1465
X258.5687 Y20.9519 Z-1.1171 I-1.164 J-0.9589
X258.6776 Y20.7127 Z-1.4388 I-1.3128 J-0.7422
X258.7434 Y20.4581 Z-1.7605 I-1.4218 J-0.503
X257.2559 Y18.7016 Z-2 I-1.4875 J-0.2484
G1 X297.8482 Y18.7019 F3500
G3 X298.2081 Y19.4829 J0.4734
G2 X297.8229 Y19.9478 I15.0072 J12.8289
G3 X297.2696 Y20.213 I-0.5533 J-0.4444
G1 X257.2227
G3 X256.5493 Y19.7274 J-0.7096
G1 X256.5007 Y19.5831
G3 X257.1317 Y18.7016 I0.631 J-0.2149
G1 X257.2559
G2 X258.6463 Y17.7746 J-1.5063
G3 X260.0368 Y16.8476 I1.3905 J0.5794
G1 X302.8159 Y16.848
G3 X303.0424 Y17.5616 J0.3927
G2 X299.192 Y21.2044 I10.7096 J15.176
G3 X297.4084 Y22.067 I-1.7837 J-1.4128
G1 X256.2687
G3 X255.0426 Y21.137 J-1.2733
G2 X253.7108 Y17.6882 I-18.6734 J5.2295
G3 X254.2274 Y16.8476 I0.5166 J-0.2615
G1 X260.0368
G2 X261.2927 Y16.0104 J-1.3605
G3 X262.5485 Y15.1732 I1.2559 J0.5233
G1 X376.2639 Y15.174
G3 Y15.7432 J0.2846
X366.6362 Y15.6787 I-0.0641 J-709.0128
G2 X357.3605 Y18.259 I-0.2311 J17.1314
X356.8536 Y18.604 I3.9006 J6.2754
G3 X356.3577 Y18.9648 I-17.9556 J-24.1591
X354.7407 Y18.9671 I-0.8101 J-1.1377
G2 X351.5597 Y17.1059 I-12.3098 J17.3899
X348.0631 Y15.9411 I-6.5281 J13.7667
X344.7459 Y15.608 I-3.3152 J16.3289
G1 X313.916 Y15.6116
G2 X306.1711 Y17.5474 I0.002 J16.4696
X300.1173 Y22.7513 I8.5905 J16.1167
G3 X298.1447 Y23.7414 I-1.9726 J-1.4699
G1 X255.7384
G3 X253.9428 Y22.8338 J-2.2299
G1 X253.9131 Y22.7935
G3 X253.5419 Y22.0092 I1.7915 J-1.3278
G2 X250.6884 Y15.955 I-16.815 J4.2258
G3 X251.0825 Y15.1731 I0.3941 J-0.2916
G1 X262.5485 Y15.1732
G2 X263.8073 Y14.334 J-1.3636
G3 X265.066 Y13.4949 I1.2587 J0.5245
G1 X377.5437 Y13.4958
G3 X378.507 Y14.459 J0.9632
G1 X378.5069 Y16.458
G3 X377.5437 Y17.4213 I-0.9633
G1 X366.3246 Y17.2866
G2 X360.9472 Y18.3223 I0.0013 J14.4854
X356.2675 Y21.1665 I6.1643 J15.4143
G3 X354.837 Y21.1685 I-0.7164 J-0.8304
G2 X351.5126 Y18.9214 I-11.4194 J13.3119
X347.7297 Y17.5832 I-6.6493 J12.7803
X344.4463 Y17.2686 I-3.1378 J15.4551
G3 X341.1479 Y17.284 I-3.3413 J-361.7674
G1 X313.9162 Y17.2872
G2 X306.5595 Y19.2269 I0.0018 J14.9277
X300.997 Y24.4174 I8.0419 J14.1942
G3 X299.1317 Y25.4197 I-1.8653 J-1.2345
G1 X254.8697
G3 X253.0027 Y24.4174 J-2.2398
G2 X252.7372 Y24.032 I-10.871 J7.2056
X252.4617 Y23.6538 I-22.3043 J15.9644
G3 X251.948 Y22.5553 I2.4406 J-1.8106
G2 X250.0927 Y18.0849 I-15.0592 J3.6295
X246.9672 Y14.3894 I-13.6424 J8.3688
X246.8685 Y14.3094 I-1.172 J1.3444
G3 X246.7691 Y14.2302 I1.4217 J-1.8869
X247.0373 Y13.4948 I0.2682 J-0.3188
G1 X265.066 Y13.4949
X265.1148 Y13.4987 Z-1.9922
X265.1625 Y13.51 Z-1.9845
X265.2036 Y13.5263 Z-1.9619
X265.242 Y13.5482 Z-1.9394
X265.2957 Y13.5933 Z-1.8691
X265.3244 Y13.628 Z-1.7806
X265.3331 Y13.6409 Z-1.6825
G0 Z5
X16.3376 Y15.1867
Z2.4173
G1 X16.3306 Y15.1998 Z2.3213 F1200
X16.3095 Y15.2375 Z2.2343
X16.2744 Y15.2951 Z2.1644
X16.2263 Y15.3658 Z2.1182
X16.168 Y15.4413 Z2.1
G3 X16.3169 Y15.2246 Z1.7783 I-1.164 J-0.9589
X16.4258 Y14.9853 Z1.4566 I-1.3128 J-0.7422
X16.4915 Y14.7308 Z1.1349 I-1.4218 J-0.503
X16.5121 Y14.4687 Z0.8132 I-1.4875 J-0.2484
X16.4868 Y14.2071 Z0.4914 I-1.5081 J0.0136
X16.4165 Y13.9538 Z0.1697 I-1.4828 J0.2753
X16.3032 Y13.7165 Z-0.152 I-1.4125 J0.5286
X16.1505 Y13.5026 Z-0.4737 I-1.2992 J0.7658
X15.9629 Y13.3184 Z-0.7954 I-1.1465 J0.9798
X15.7462 Y13.1695 Z-1.1171 I-0.9589 J1.164
X15.507 Y13.0606 Z-1.4388 I-0.7422 J1.3128
X15.2525 Y12.9948 Z-1.7605 I-0.503 J1.4218
X13.4959 Y14.4823 Z-2 I-0.2484 J1.4875
G1 Y14.4562 F3500
G3 X14.4591 Y13.493 I0.9632
G1 X15.9646
G3 X16.2325 Y14.2283 J0.4165
G2 X15.1849 Y15.1845 I11.1558 J13.2736
X14.2287 Y16.2321 I9.9539 J10.0469
G3 X13.4959 Y15.9688 I-0.3191 J-0.2632
G1 Y14.4823
X13.4997 Y14.4335 Z-1.9922
X13.5109 Y14.3858 Z-1.9845
X13.5273 Y14.3447 Z-1.9619
X13.5492 Y14.3063 Z-1.9394
X13.5943 Y14.2526 Z-1.8691
X13.629 Y14.2239 Z-1.7806
X13.6419 Y14.2152 Z-1.6825
G0 Z5
X15.1871 Y335.6623
Z2.4173
G1 X15.2002 Y335.6693 Z2.3213 F1200
X15.2379 Y335.6904 Z2.2343
X15.2955 Y335.7255 Z2.1644
X15.3662 Y335.7736 Z2.1182
X15.4417 Y335.8319 Z2.1
G3 X15.225 Y335.683 Z1.7783 I-0.9589 J1.164
X14.9857 Y335.5741 Z1.4566 I-0.7422 J1.3128
X14.7312 Y335.5084 Z1.1349 I-0.503 J1.4218
X14.4691 Y335.4878 Z0.8132 I-0.2484 J1.4875
X14.2075 Y335.5131 Z0.4914 I0.0136 J1.5081
X13.9542 Y335.5834 Z0.1697 I0.2753 J1.4828
X13.7169 Y335.6967 Z-0.152 I0.5286 J1.4125
X13.5029 Y335.8494 Z-0.4737 I0.7658 J1.2992
X13.3187 Y336.0369 Z-0.7954 I0.9798 J1.1465
X13.1699 Y336.2536 Z-1.1171 I1.164 J0.9589
X13.061 Y336.4929 Z-1.4388 I1.3129 J0.7422
X12.9952 Y336.7474 Z-1.7605 I1.4218 J0.503
X14.4827 Y338.504 Z-2 I1.4875 J0.2485
G1 X14.4565 F3500
G3 X13.4933 Y337.5408 J-0.9633
G1 Y336.036
G3 X14.2287 Y335.768 I0.4165
G2 X15.1837 Y336.8145 I13.3711 J-11.2434
X16.2292 Y337.7708 I10.1502 J-10.0472
G3 X15.9652 Y338.504 I-0.264 J0.3191
G1 X14.4827
G2 X13.3927 Y339.4722 J1.0977
G3 X11.9975 Y339.8951 I-0.7902 J-0.0939
X11.7713 Y339.282 I0.7178 J-0.613
G1 X11.7741 Y12.7152
G3 X12.7181 Y11.7712 I0.944
G1 X379.2848 Y11.774
G3 X380.2287 Y12.718 J0.944
G1 Y18.1989
G3 X379.2847 Y19.1429 I-0.9441
G1 X366.3248 Y19.0111
G2 X360.7415 Y20.2718 I0.0012 J12.9995
X356.1433 Y23.6805 I6.3813 J13.4138
G3 X354.9568 I-0.5933 J-0.5406
G2 X351.5225 Y20.8743 I-11.2127 J10.2175
X347.3866 Y19.2732 I-6.7583 J11.3157
X344.274 Y18.9844 I-2.8907 J14.2383
G3 X341.148 Y19.0085 I-3.1504 J-206.2384
G1 X313.9164 Y19.0117
G2 X306.9666 Y20.9629 I0.0016 J13.3583
X301.9515 Y26.155 I7.4334 J12.1981
G3 X300.2643 Y27.1415 I-1.6872 J-0.9496
G1 X253.7339
G3 X252.0507 Y26.1579 J-1.932
G2 X251.1445 Y24.7682 I-11.1773 J6.2979
G3 X250.2554 Y22.8819 I4.2613 J-3.1613
G2 X245.3912 Y15.2342 I-13.8253 J3.4226
X236.8473 Y12.2096 I-8.5438 J10.5547
G1 X26.1235 Y12.2113
G2 X16.9927 Y15.6633 I0.0001 J13.8018
X12.3468 Y24.2484 I9.3692 J10.62
X12.2125 Y26.1088 I12.8134 J1.8604
G1 Y325.8912
G2 X15.8697 Y335.2291 I13.7496
X24.8362 Y339.7207 I10.4531 J-9.6718
G1 X56.0532 Y339.7902
G2 X58.4496 Y339.5035 I-0.0004 J-10.1621
X60.7615 Y338.8108 I-5.3709 J-22.1294
G3 X61.2376 Y338.8133 I0.2346 J0.6547
G2 X63.7076 Y339.5258 I6.0592 J-16.3674
X66.2646 Y339.7915 I2.5569 J-12.1678
G1 X238.6385 Y339.666
G2 X246.0605 Y336.174 I-1.9136 J-13.7007
X250.2538 Y329.1244 I-9.5689 J-10.4638
G3 X251.1392 Y327.2448 I5.1498 J1.2776
G2 X252.056 Y325.8332 I-11.0458 J-8.1776
G3 X253.7343 Y324.8585 I1.6783 J0.9575
G1 X300.2643
G3 X301.9515 Y325.845 J1.9361
G2 X306.9674 Y331.0377 I12.4485 J-7.006
X313.9185 Y332.9883 I6.9505 J-11.4074
G1 X339.0949 Y332.9873
G2 X348.257 Y329.4854 I-0.0006 J-13.7378
X352.8674 Y320.8279 I-9.5045 J-10.6178
G1 X352.8581 Y311.8028
G3 X353.8022 Y310.8589 I0.944 J0.0001
G1 X355.1978
G3 X356.1419 Y311.8029 J0.9441
X356.0429 Y318.7947 I-245.5104 J0.021
G2 X357.6638 Y325.5967 I13.4761 J0.3828
X362.7757 Y330.98 I12.5424 J-6.7913
X369.9225 Y332.9887 I7.1469 J-11.7098
G1 X379.282 Y332.8549
G3 X380.2259 Y333.7988 I0.0001 J0.9439
G1 Y339.2848
G3 X379.2819 Y340.2288 I-0.944
G1 X12.7153 Y340.226
G3 X11.9975 Y339.8951 J-0.944
G2 X11.1049 Y339.2785 I-1.6081 J1.3735
G3 X10.4809 Y338.391 I0.3191 J-0.8875
G1 X10.4838 Y11.4441
G3 X11.447 Y10.4809 I0.9632
G1 X380.5559 Y10.4837
G3 X381.5191 Y11.4469 J0.9632
G1 X381.519 Y19.4698
G3 X380.5558 Y20.4332 I-0.9633
X373.4403 Y20.366 I-0.0337 J-373.0444
G2 X366.3249 Y20.2987 I-7.0817 J372.9772
X360.5136 Y21.8166 I0.0011 J11.8876
X356.0641 Y25.8512 I6.563 J11.7087
G3 X355.036 I-0.514 J-0.3582
G2 X352.5912 Y23.1484 I-11.8319 J8.2452
X349.4877 Y21.238 I-7.5857 J8.847
X345.3646 Y20.3541 I-4.4418 J10.6605
X341.1482 Y20.2961 I-4.1984 J152.0901
G1 X313.9166 Y20.2993
G2 X307.3032 Y22.279 I0.0014 J12.0416
X302.7259 Y27.4467 I7.2571 J11.0388
G3 X301.1374 Y28.4319 I-1.5885 J-0.7881
G1 X252.8647
G3 X251.2731 Y27.4466 J-1.7781
G2 X249.9889 Y25.3768 I-11.7218 J5.8394
G3 X249.04 Y23.3469 I4.3241 J-3.2581
G2 X244.6608 Y16.2964 I-12.5845 J2.9313
X236.8473 Y13.4972 I-7.8134 J9.505
G1 X26.1235 Y13.4989
G2 X17.8353 Y16.6371 I0.0001 J12.5144
X13.6211 Y24.4334 I8.527 J9.6463
X13.5001 Y26.1088 I11.5391 J1.6754
G1 Y325.8912
G2 X16.8266 Y334.3674 I12.4624
X24.9706 Y338.4401 I9.4963 J-8.8106
G1 X56.0532 Y338.5026
G2 X58.2733 Y338.2261 I-0.0004 J-9.0574
X60.4107 Y337.5654 I-5.2632 J-20.8133
G3 X61.6013 Y337.5716 I0.587 J1.5984
G2 X63.8906 Y338.2495 I5.6893 J-15.0073
X66.2646 Y338.5039 I2.3739 J-10.9518
G1 X238.653 Y338.3638
G2 X245.351 Y335.1209 I-1.6761 J-12.0007
X249.039 Y328.6573 I-9.0144 J-9.4274
G3 X250.0055 Y326.6056 I5.2726 J1.2302
G2 X251.2743 Y324.5534 I-9.8564 J-7.5122
G3 X252.8541 Y323.5681 I1.5798 J0.774
G1 X301.1374
G3 X302.7259 Y324.5533 J1.7733
G2 X306.4884 Y329.138 I11.8197 J-5.8638
X311.9166 Y331.5276 I7.5505 J-9.7913
X313.9185 Y331.7007 I2.0013 J-11.4871
G1 X339.0948 Y331.6996
G2 X347.4114 Y328.5143 I-0.0005 J-12.4507
X351.592 Y320.6508 I-8.6595 J-9.6468
G1 X351.5678 Y310.5316
G3 X352.5312 Y309.5684 I0.9633 J0.0001
G1 X356.4688 Y309.5686
G3 X357.4322 Y310.5319 J0.9634
G1 X357.4348 Y320.8432
G2 X369.9236 Y331.701 I12.47 J-1.7319
G1 X380.5531 Y331.5645
G3 X381.5163 Y332.5276 I0.0001 J0.9631
G1 X381.5162 Y340.5559
G3 X380.553 Y341.5192 I-0.9633
G1 X11.4441 Y341.5164
G3 X10.4809 Y340.5531 J-0.9632
G1 Y338.391
G2 X9.4785 Y336.8873 I-1.629
G3 X8.4761 Y335.3836 I0.6265 J-1.5037
G1 X8.4789 Y9.4392
G3 X9.4422 Y8.4759 I0.9632
G1 X382.5608 Y8.4788
G3 X383.524 Y9.442 J0.9632
G1 X383.5239 Y21.4746
G3 X382.5606 Y22.4379 I-0.9633
X374.4429 Y22.3708 I-0.0439 J-485.5387
G2 X366.3251 Y22.3036 I-8.0739 J485.4716
X359.3148 Y24.9933 I0.0009 J10.4829
X355.7939 Y31.6251 I7.321 J8.1375
G1 X355.8364 Y42.7637
G3 X355.2635 I-0.2864
G1 X355.2794 Y31.4327
G2 X353.1057 Y26.3895 I-10.2345 J1.4213
X348.7166 Y23.0887 I-8.6572 J6.9429
X344.9715 Y22.32 I-3.8458 J9.23
X341.1484 Y22.301 I-3.7786 J375.1729
G1 X313.9168 Y22.3042
G2 X307.8458 Y24.3011 I0.0012 J10.2311
X304.0563 Y29.4475 I6.4037 J8.6836
G3 X302.6659 Y30.4368 I-1.3904 J-0.4825
G1 X251.3324
G3 X249.9471 Y29.4525 J-1.4671
G2 X249.2916 Y27.9817 I-9.0764 J3.1632
X248.4207 Y26.6273 I-10.3159 J5.6768
G3 X247.0747 Y23.7481 I6.3335 J-4.7149
G2 X243.3919 Y17.8504 I-10.6347 J2.5421
X236.8473 Y15.5021 I-6.5445 J7.9453
G1 X26.1235 Y15.5038
G2 X19.1472 Y18.1532 I0.0001 J10.5101
X15.6052 Y24.7215 I7.2156 J8.1302
X15.505 Y26.1087 I9.555 J1.3873
G1 Y325.8912
G2 X18.3164 Y333.0258 I10.4585
X25.1799 Y336.4462 I8.0066 J-7.47
G1 X56.0531 Y336.4825
G2 X57.9806 Y336.2346 I-0.0003 J-7.6206
X59.8314 Y335.6415 I-4.5246 J-17.3032
G3 X62.2007 Y335.6539 I1.1688 J3.0634
G2 X64.1932 Y336.2643 I4.9202 J-12.5035
X66.2646 Y336.4927 I2.0713 J-9.278
G1 X238.3757 Y336.3782
G2 X243.9776 Y333.6588 I-1.398 J-10.0094
X247.0738 Y328.256 I-7.6618 J-7.9794
G3 X248.4446 Y325.3459 I7.678 J1.8389
G2 X249.3044 Y323.9949 I-8.1456 J-6.1332
X249.9538 Y322.5311 I-10.0177 J-5.3198
G3 X251.3327 Y321.5633 I1.379 J0.4985
G1 X302.6659
G3 X304.0563 Y322.5525 J1.4717
G2 X312.2607 Y329.5525 I10.0698 J-3.4944
X313.9184 Y329.6958 I1.6572 J-9.5119
G1 X339.0948 Y329.6947
G2 X346.0948 Y327.0022 I-0.0004 J-10.4469
X349.6061 Y320.375 I-7.344 J-8.1349
G1 X349.5631 Y308.5267
G3 X350.5264 Y307.5634 I0.9633 J0.0001
G1 X358.4736 Y307.5638
G3 X359.4369 Y308.527 J0.9634
G1 X359.4206 Y320.5674
G2 X369.9234 Y329.6961 I10.4842 J-1.4561
G1 X382.558 Y329.5594
G3 X383.5212 Y330.5225 I0.0001 J0.9631
G1 X383.5211 Y342.5609
G3 X382.5579 Y343.5241 I-0.9633
G1 X9.4392 Y343.5212
G3 X8.476 Y342.558 J-0.9632
G1 X8.4761 Y335.3836
G2 X7.6747 Y334.1816 I-1.3022
G3 X6.8734 Y332.9796 I0.5009 J-1.202
G1 X6.8762 Y7.8365
G3 X7.8395 Y6.8732 I0.9632
G1 X384.1635 Y6.8761
G3 X385.1267 Y7.8393 J0.9632
G1 X385.1266 Y23.0771
G3 X384.1633 Y24.0405 I-0.9633
G1 X366.3253 Y23.9063
G2 X360.3673 Y26.202 I0.0008 J8.8811
X357.3813 Y31.8456 I6.2695 J6.929
G1 X357.439 Y43.9758
G3 X356.4756 Y44.939 I-0.9633 J-0.0001
G1 X354.6245 Y44.9389
G3 X353.661 Y43.9755 I0.0001 J-0.9635
G1 X353.692 Y31.6532
G2 X351.8366 Y27.3683 I-8.6494 J1.2012
X348.1002 Y24.5681 I-7.3892 J5.9666
X344.6573 Y23.8916 I-3.3834 J8.1202
G3 X341.1486 Y23.9037 I-3.5713 J-527.801
G1 X313.917 Y23.9069
G2 X308.3123 Y25.9676 I0.001 J8.6554
X305.2453 Y31.0913 I6.0221 J7.0846
G3 X304.0708 Y32.0394 I-1.1745 J-0.2534
G1 X249.9294
G3 X248.7549 Y31.0918 J-1.2017
G2 X246.7868 Y27.1493 I-8.7022 J1.8818
G3 X245.6264 Y24.667 I3.8518 J-3.313
G2 X242.6241 Y19.2754 I-9.0296 J1.4964
X236.8474 Y17.1048 I-5.7767 J6.6015
G1 X26.1236 Y17.1065
G2 X20.1959 Y19.3651 I0.0001 J8.908
X17.1913 Y24.9518 I6.1675 J6.9184
X17.1077 Y26.1087 I7.969 J1.157
G1 Y325.8912
G2 X19.5074 Y331.9533 I8.8569
X25.3472 Y334.8522 I6.8158 J-6.3987
G1 X56.053 Y334.8874
G2 X58.0988 Y334.5817 I-0.0003 J-6.9983
X60.0175 Y333.8088 I-3.5111 J-11.4847
G3 X61.9684 Y333.8014 I0.9829 J1.9391
G2 X64.0531 Y334.5978 I5.1525 J-10.3602
X66.2646 Y334.8963 I2.2115 J-8.0422
G1 X238.154 Y334.7909
G2 X243.115 Y332.2859 I-1.1904 J-8.5225
X245.6271 Y327.3286 I-6.6069 J-6.4632
G3 X246.7718 Y324.8646 I5.0025 J0.826
G2 X248.0066 Y323.0194 I-7.2746 J-6.204
X248.748 Y320.9268 I-7.4567 J-3.8196
G3 X249.9389 Y319.9606 I1.1909 J0.2509
G1 X304.0708
G3 X305.2453 Y320.9087 J1.2015
G2 X308.3127 Y326.0329 I9.0892 J-1.9608
X313.9183 Y328.0931 I5.6052 J-6.595
G1 X339.0947 Y328.092
G2 X345.0424 Y325.7935 I-0.0004 J-8.8454
X348.0187 Y320.1545 I-6.2928 J-6.9264
G1 X347.9605 Y306.9239
G3 X348.9239 Y305.9607 I0.9633 J0.0001
G1 X360.0761 Y305.9611
G3 X361.0395 Y306.9244 J0.9634
G1 X361.0081 Y320.3469
G2 X369.9232 Y328.0934 I8.8967 J-1.2356
X377.042 Y328.025 I-0.0302 J-373.392
G3 X384.1607 Y327.9565 I7.1489 J373.3236
X385.1239 Y328.9197 I0.0001 J0.9631
G1 X385.1238 Y344.1635
G3 X384.1605 Y345.1268 I-0.9632
G1 X7.8365 Y345.1239
G3 X6.8733 Y344.1607 J-0.9632
G1 X6.8734 Y332.9796
G2 X5.7031 Y331.2241 I-1.9017
G3 X4.5328 Y329.4687 I0.7315 J-1.7554
G1 X4.5356 Y5.4959
G3 X5.4989 Y4.5326 I0.9632
G1 X386.5041 Y4.5355
G3 X387.4673 Y5.4988 J0.9632
G1 X387.4672 Y25.4175
G3 X386.5039 Y26.3809 I-0.9634
G1 X366.3255 Y26.2469
G2 X361.9044 Y27.9672 I0.0006 J6.5427
X359.6997 Y32.1676 I4.7349 J5.1641
G1 X359.7792 Y46.3166
G3 X358.8159 Y47.2798 I-0.9633 J-0.0001
G1 X352.2841 Y47.2793
G3 X351.3207 Y46.316 I0.0001 J-0.9635
G1 X351.3737 Y31.9751
G2 X349.9832 Y28.7979 I-6.3364 J0.88
X347.2 Y26.7287 I-5.5384 J4.5432
X344.1984 Y26.1868 I-2.7344 J6.5626
G3 X341.1489 Y26.2443 I-3.0592 J-81.3452
G1 X313.9173 Y26.2475
G2 X309.5462 Y27.9937 I0.0008 J6.346
X307.396 Y32.1809 I4.9119 J5.168
X307.3672 Y32.7986 I3.3549 J0.4659
G3 X307.381 Y33.4168 I-13.7377 J0.6161
X306.4176 Y34.38 I-0.9634 J-0.0001
G1 X247.5824
G3 X246.619 Y33.4168 J-0.9634
G2 X246.5027 Y31.6493 I-13.5251 J0.002
X245.9676 Y29.9607 I-5.0236 J0.6629
X245.2434 Y28.906 I-4.7684 J2.4981
X244.3388 Y28.0011 I-7.469 J6.5617
G3 X243.4174 Y26.0252 I1.7922 J-2.0385
G2 X241.7267 Y21.7005 I-6.7759 J0.1562
X237.6375 Y19.5003 I-5.0135 J4.4178
G1 X26.1236 Y19.4471
G2 X21.7275 Y21.1351 I0.0001 J6.5687
X19.5076 Y25.2881 I4.6375 J5.1486
X19.4483 Y26.1088 I5.6527 J0.8207
G1 Y325.8912
G2 X21.2467 Y330.387 I6.5188
X25.5916 Y332.5244 I5.0768 J-4.8352
G1 X56.0529 Y332.5544
G2 X58.3453 Y332.0602 I-0.0002 J-5.5649
X60.326 Y330.8048 I-3.4546 J-7.6409
G3 X61.6827 Y330.8158 I0.672 J0.7896
G2 X66.1606 Y332.5547 I4.6137 J-5.2458
G1 X236.8474 Y332.5546
G2 X241.4711 Y330.6049 J-6.4572
X243.4173 Y325.9797 I-4.9128 J-4.7893
G3 X244.3663 Y323.9715 I2.7381 J0.0656
G2 X245.745 Y322.3633 I-4.6223 J-5.3576
X246.5256 Y320.3941 I-4.9893 J-3.1173
X246.6147 Y319.4901 I-4.541 J-0.9036
G3 X246.6174 Y318.5816 I145.5349 J-0.015
X247.585 Y317.62 I0.9676 J0.006
G1 X306.4176
G3 X307.381 Y318.5832 J0.9634
G2 X307.4921 Y320.4034 I15.0014 J-0.0023
X308.0468 Y322.1406 I4.8618 J-0.595
X310.4852 Y324.7546 I6.246 J-3.382
X313.9179 Y325.7525 I3.4328 J-5.4059
G1 X339.0946 Y325.7514
G2 X343.5053 Y324.0284 I-0.0003 J-6.5074
X345.7003 Y319.8325 I-4.7588 J-5.1616
G1 X345.6201 Y304.5832
G3 X346.5835 Y303.62 I0.9633 J0.0001
G1 X362.4165 Y303.6206
G3 X363.3799 Y304.5839 J0.9634
G1 X363.3264 Y320.0249
G2 X369.9231 Y325.7528 I6.5784 J-0.9136
G1 X386.5013 Y325.6158
G3 X387.4645 Y326.5789 I0.0001 J0.9631
G1 X387.4644 Y346.5042
G3 X386.5011 Y347.4674 I-0.9633
G1 X5.4959 Y347.4645
G3 X4.5327 Y346.5013 J-0.9632
G1 X4.5328 Y329.4687
G2 X3.4293 Y327.8134 I-1.7932
G3 X2.3259 Y326.1582 I0.6897 J-1.6552
G1 X2.3287 Y3.2889
G3 X3.292 Y2.3256 I0.9632
G1 X388.7111 Y2.3286
G3 X389.6743 Y3.2918 J0.9632
G1 X389.6741 Y27.6243
G3 X388.7108 Y28.5876 I-0.9634
X377.5182 Y28.5208 I-0.0834 J-922.9909
G2 X366.3257 Y28.4539 I-11.1092 J922.924
X363.3538 Y29.6315 I0.0004 J4.3398
X361.8857 Y32.4711 I3.2902 J3.5004
G1 X361.9859 Y48.5238
G3 X361.0225 Y49.4869 I-0.9633 J-0.0001
G1 X350.0775 Y49.4861
G3 X349.1141 Y48.5227 I0.0001 J-0.9635
G1 X349.1877 Y32.2787
G2 X348.2357 Y30.1457 I-4.1601 J0.5777
X346.3512 Y28.7659 I-3.7958 J3.2073
X343.7657 Y28.3509 I-2.1567 J5.1761
G3 X341.1492 Y28.4513 I-2.6206 J-34.1744
G1 X313.9176 Y28.4545
G2 X310.9676 Y29.643 I0.0005 J4.2566
X309.5231 Y32.4763 I3.3673 J3.5016
X309.5011 Y34.0512 I6.3046 J0.8755
G3 X309.5876 Y35.6237 I-14.2084 J1.5704
X308.6242 Y36.587 I-0.9634 J-0.0001
G1 X245.3758
G3 X244.4124 Y35.6237 J-0.9634
X244.447 Y32.952 I101.8279 J-0.0153
G2 X243.6418 Y30.4042 I-4.0953 J-0.1069
X242.9489 Y29.6854 I-3.1219 J2.3161
X242.1196 Y29.1296 I-3.6965 J4.6184
G3 X241.2122 Y27.5897 I0.8535 J-1.5402
X241.224 Y25.7876 I134.118 J-0.0239
G2 X240.7733 Y24.0428 I-3.4267 J-0.0454
X239.1321 Y22.3191 I-4.3116 J2.462
X236.8474 Y21.6524 I-2.2847 J3.5812
G1 X26.1236 Y21.6541
G2 X23.1716 Y22.804 J4.3643
X21.6916 Y25.6052 I3.1962 J3.4801
X21.6553 Y26.1088 I3.4686 J0.5036
G1 Y325.8912
G2 X22.8867 Y328.9102 I4.3164
X25.822 Y330.3295 I3.4373 J-3.3638
G1 X56.0528 Y330.3474
G2 X59.0364 Y329.1725 I-0.0002 J-4.3764
X60.5146 Y326.327 I-3.2639 J-3.5021
G1 X60.5574 Y305.9234
G3 X60.9253 Y305.5481 I0.4568 J0.0799
X61.394 Y305.7858 I0.0819 J0.4195
G1 X61.4274 Y305.8673
X61.4396 Y305.9097
X61.4468 Y305.9532
X61.5121 Y326.5194
G2 X63.1494 Y329.2995 I4.1558 J-0.5753
X66.2008 Y330.3481 I3.1467 J-4.1927
G1 X236.8474 Y330.3477
G2 X239.798 Y329.1543 J-4.2445
X241.239 Y326.3165 I-3.3913 J-3.5068
X241.2585 Y325.36 I-4.0507 J-0.5608
G3 X241.2122 Y324.4044 I9.8101 J-0.9538
X242.1031 Y322.877 I1.7552 J0.0003
G2 X243.6117 Y321.5888 I-2.5605 J-4.5256
X244.4463 Y319.7891 I-3.2947 J-2.6213
X244.5135 Y318.0818 I-5.3565 J-1.0658
G3 X244.413 Y316.3763 I14.4223 J-1.7056
X245.3762 Y315.413 I0.9632
G1 X308.6242
G3 X309.5876 Y316.3763 J0.9634
X309.5225 Y319.0779 I-55.6962 J0.0084
G2 X310.3143 Y321.6618 I3.9826 J0.1928
X311.5472 Y322.8293 I4.0263 J-3.0171
X313.1237 Y323.4599 I2.282 J-3.4185
X313.5191 Y323.5199 I1.557 J-8.9367
X313.9181 Y323.5455 I0.3989 J-3.0896
G1 X339.0945 Y323.5445
G2 X342.056 Y322.364 I-0.0002 J-4.3054
X343.5143 Y319.5289 I-3.3154 J-3.498
G1 X343.4134 Y302.3812
G3 X344.3772 Y301.4151 I0.9661 J0.0001
G1 X364.6233 Y301.4137
G3 X365.5866 Y302.377 J0.9634
G1 X365.5124 Y319.7213
G2 X369.9229 Y323.5459 I4.3924 J-0.61
G1 X388.7083 Y323.4086
G3 X389.6715 Y324.3718 I0.0001 J0.9631
G1 X389.6713 Y348.7112
G3 X388.7081 Y349.6744 I-0.9632
G1 X3.2889 Y349.6714
G3 X2.3257 Y348.7082 J-0.9632
G1 X2.3259 Y326.1582
G2 X1.1631 Y324.4141 I-1.8895
G3 X0.0004 Y322.67 I0.7267 J-1.7441
G1 X0.0032 Y0.0081
X0.0405 Y0.0001
X391.991 Y0.0031
X391.9959 Y0.004
X391.9998 Y0.0395
X391.9968 Y351.9919
X391.9595 Y351.9999
X0.009 Y351.9969
X0.0041 Y351.9961
X0.0002 Y351.9605
X0.0004 Y322.67
X0.0042 Y322.6211 Z-1.9922
X0.0155 Y322.5734 Z-1.9845
X0.0318 Y322.5323 Z-1.9619
X0.0537 Y322.4939 Z-1.9394
X0.0988 Y322.4402 Z-1.8691
X0.1335 Y322.4115 Z-1.7806
X0.1464 Y322.4028 Z-1.6825
G0 Z5
X20.618 Y322.0853
Z3
G1 Z-1.6825 F3500
G18 G2 X20.9355 Z-2 I0.3175
G1 X23.799
G17 G3 X24.1165 Y322.4028 J0.3175
G1 Y325.8912
G2 X24.1321 Y326.0709 I1.0437
G1 X24.1628 Y326.2465
G2 X24.2098 Y326.4228 I1.0282 J-0.1797
G1 X24.2735 Y326.5984
G2 X24.3553 Y326.7721 I0.9812 J-0.356
G1 X24.4554 Y326.9421
G2 X24.5763 Y327.1076 I0.8993 J-0.5297
G1 X24.718 Y327.2663
G2 X24.8574 Y327.3962 I0.7785 J-0.6953
G1 X24.9906 Y327.4994
G2 X25.1436 Y327.5978 I0.639 J-0.8253
G1 X25.3164 Y327.6888
G2 X25.4999 Y327.764 I0.4861 J-0.9236
G1 X25.6926 Y327.8224
G2 X25.8862 Y327.8615 I0.3026 J-0.9989
G1 X26.0789 Y327.8817
G2 X26.1879 Y327.8874 I0.109 J-1.0381
G1 X56.0527 Y327.8862
G2 X56.2024 Y327.8754 J-1.0438
G1 X56.3951 Y327.8475
G2 X56.5887 Y327.8002 I-0.1497 J-1.033
G1 X56.7814 Y327.733
G2 X56.9576 Y327.6526 I-0.3434 J-0.9857
G1 X57.1165 Y327.5614
G2 X57.2735 Y327.451 I-0.5195 J-0.9053
G1 X57.4263 Y327.3209
G2 X57.5695 Y327.1722 I-0.6765 J-0.7948
G1 X57.7009 Y327.0056
G2 X57.8074 Y326.8405 I-0.8197 J-0.6461
G1 X57.8907 Y326.6802
G2 X57.9579 Y326.5191 I-0.9263 J-0.4811
G1 X58.0096 Y326.3587
G2 X58.05 Y326.1819 I-0.9935 J-0.32
G1 X58.0766 Y325.9894
G2 X58.0865 Y325.8465 I-1.0339 J-0.1432
G1 X58.0912 Y305.8717
X58.1049 Y305.6883
X58.1317 Y305.4993
X58.1711 Y305.31
X58.2237 Y305.1221
X58.2909 Y304.9331
X58.3702 Y304.7507
X58.5209 Y304.4728
X58.5874 Y304.3698
X58.6933 Y304.2237
X58.9005 Y303.9832
X59.0501 Y303.838
X59.2054 Y303.7067
X59.3266 Y303.6171
X59.5861 Y303.4549
X59.7693 Y303.3614
X59.9646 Y303.2788
X60.0854 Y303.2355
X60.3413 Y303.1639
X60.5261 Y303.1273
X60.7161 Y303.1021
X60.9045 Y303.0896
X61.0927 Y303.0895
X61.2809 Y303.1018
X61.4711 Y303.1269
X61.6556 Y303.1632
X61.913 Y303.2351
X62.0662 Y303.2905
X62.225 Y303.3586
X62.4108 Y303.4532
X62.6707 Y303.6154
X62.8229 Y303.7295
X62.9866 Y303.8712
X63.1025 Y303.9857
X63.2377 Y304.1377
X63.4124 Y304.3706
X63.5283 Y304.5561
X63.6235 Y304.7376
X63.7459 Y305.0306
X63.774 Y305.1139
X63.8289 Y305.31
X63.8683 Y305.4993
X63.8951 Y305.6883
X63.9088 Y305.8717
X63.9135 Y325.8465
G2 X63.9234 Y325.9894 I1.0437 J-0.0002
G1 X63.95 Y326.1819
G2 X63.9959 Y326.3753 I1.0339 J-0.1431
G1 X64.0615 Y326.5677
G2 X64.1425 Y326.7477 I0.988 J-0.3365
G1 X64.2373 Y326.9142
G2 X64.3329 Y327.0542 I0.907 J-0.5166
G1 X64.4255 Y327.1687
G2 X64.5357 Y327.2852 I0.8114 J-0.6565
G1 X64.6641 Y327.4017
G2 X64.7934 Y327.5018 I0.7013 J-0.7731
G1 X64.9219 Y327.5859
G2 X65.0819 Y327.6718 I0.5719 J-0.8731
G1 X65.2746 Y327.7546
G2 X65.4684 Y327.8163 I0.4119 J-0.959
G1 X65.6611 Y327.8575
G2 X65.8602 Y327.8803 I0.2181 J-1.0207
G1 X66.2455 Y327.8873
X66.2645 Y327.8875
X236.8474 Y327.8864
G2 X236.9918 Y327.8764 J-1.0437
G1 X237.1845 Y327.8495
G2 X237.3781 Y327.8033 I-0.1444 J-1.0337
G1 X237.5708 Y327.7373
G2 X237.7566 Y327.6526 I-0.338 J-0.9875
G1 X237.9337 Y327.5498
G2 X238.0957 Y327.4338 I-0.5239 J-0.9028
G1 X238.2417 Y327.3065
G2 X238.3783 Y327.1624 I-0.6859 J-0.7868
G1 X238.5036 Y327.0021
G2 X238.5992 Y326.856 I-0.8224 J-0.6427
G1 X238.6686 Y326.7277
G2 X238.7385 Y326.5677 I-0.9181 J-0.4965
G1 X238.8041 Y326.3753
G2 X238.85 Y326.1819 I-0.988 J-0.3365
G1 X238.8766 Y325.9894
G2 X238.8865 Y325.8465 I-1.0339 J-0.1431
G1 X238.8873 Y321.0868
X240.0595 Y321.0859
G2 X240.2144 Y321.0742 I-0.0008 J-1.0438
G1 X240.4071 Y321.0451
G2 X240.6008 Y320.9966 I-0.1557 J-1.0321
G1 X240.7934 Y320.9281
G2 X240.9756 Y320.8428 I-0.3494 J-0.9835
G1 X241.146 Y320.742
G2 X241.2962 Y320.6341 I-0.5316 J-0.8982
G1 X241.4264 Y320.5217
G2 X241.5388 Y320.4087 I-0.6818 J-0.7903
G1 X241.6339 Y320.2971
G2 X241.7249 Y320.1729 I-0.7942 J-0.6773
G1 X241.8104 Y320.0362
G2 X241.8931 Y319.8739 I-0.8852 J-0.5531
G1 X241.9691 Y319.6857
G2 X242.0249 Y319.4986 I-0.9678 J-0.3908
G1 X242.0615 Y319.3146
G2 X242.0816 Y319.1173 I-1.0237 J-0.2037
G1 X242.0875 Y318.1551
Y318.1487
Y313.0875
X311.9127
X311.9135 Y319.0469
G2 X311.9235 Y319.1903 I1.0438 J-0.0002
G1 X311.9502 Y319.3828
G2 X311.9962 Y319.5762 I1.0338 J-0.1436
G1 X312.0618 Y319.7686
G2 X312.1318 Y319.9286 I0.9879 J-0.337
G1 X312.2013 Y320.0569
G2 X312.2839 Y320.1859 I0.9178 J-0.497
G1 X312.38 Y320.3141
G2 X312.4983 Y320.4467 I0.8352 J-0.6259
G1 X312.6399 Y320.5806
G2 X312.799 Y320.7042 I0.717 J-0.7585
G1 X312.9746 Y320.8154
G2 X313.1598 Y320.9082 I0.558 J-0.8821
G1 X313.3524 Y320.9818
G2 X313.5461 Y321.0352 I0.3729 J-0.9749
G1 X313.7388 Y321.0688
G2 X313.918 Y321.0843 I0.1791 J-1.0283
G1 X339.0944 Y321.0833
G2 X339.2859 Y321.0655 I-0.0001 J-1.0438
G1 X339.4786 Y321.0295
G2 X339.6723 Y320.9735 I-0.1916 J-1.026
G1 X339.865 Y320.897
G2 X340.0485 Y320.8022 I-0.3853 J-0.97
G1 X340.2211 Y320.69
G2 X340.3736 Y320.5692 I-0.5688 J-0.8752
G1 X340.506 Y320.4426
G2 X340.62 Y320.3141 I-0.7213 J-0.7544
G1 X340.7161 Y320.1859
G2 X340.7987 Y320.0569 I-0.8353 J-0.6259
G1 X340.8682 Y319.9286
G2 X340.9382 Y319.7686 I-0.9178 J-0.497
G1 X341.0038 Y319.5762
G2 X341.0498 Y319.3828 I-0.9879 J-0.337
G1 X341.0765 Y319.1903
G2 X341.0865 Y319.0468 I-1.0338 J-0.1436
G1 X341.088 Y300.9879
X341.0988 Y300.8016
X341.1147 Y300.6851
X341.1394 Y300.5603
X341.1587 Y300.4873
X341.2185 Y300.3093
X341.2932 Y300.1405
X341.3687 Y300.0049
X341.506 Y299.8091
X341.6454 Y299.6517
X341.7166 Y299.5833
X341.8396 Y299.4812
X341.9894 Y299.378
X342.1339 Y299.2966
X342.3022 Y299.2212
X342.4652 Y299.1659
X342.6636 Y299.1192
X342.8826 Y299.0931
X345.2612 Y299.0875
X366.0332 Y299.0883
X366.2151 Y299.1008
X366.3297 Y299.1174
X366.5465 Y299.1693
X366.7086 Y299.2256
X366.8779 Y299.3026
X367.0162 Y299.3815
X367.1587 Y299.4799
X367.2828 Y299.5835
X367.4396 Y299.743
X367.5396 Y299.8673
X367.6323 Y300.0055
X367.7069 Y300.1404
X367.7822 Y300.3092
X367.8388 Y300.4795
X367.8706 Y300.6065
X367.9017 Y300.8102
X367.912 Y300.9879
X367.9136 Y319.0468
G2 X367.9235 Y319.1903 I1.0437 J-0.0001
G1 X367.9502 Y319.3828
G2 X367.9962 Y319.5762 I1.0338 J-0.1436
G1 X368.0618 Y319.7686
G2 X368.1318 Y319.9286 I0.9879 J-0.337
G1 X368.2013 Y320.0569
G2 X368.2839 Y320.1859 I0.9178 J-0.497
G1 X368.38 Y320.3141
G2 X368.4999 Y320.4482 I0.8353 J-0.6259
G1 X368.645 Y320.5848
G2 X368.8065 Y320.7095 I0.7154 J-0.76
G1 X368.9833 Y320.8202
G2 X369.169 Y320.9122 I0.554 J-0.8846
G1 X369.3617 Y320.9849
G2 X369.5554 Y321.0373 I0.3682 J-0.9767
G1 X369.7481 Y321.0699
G2 X369.9227 Y321.0847 I0.1745 J-1.0291
G1 X389.8968 Y321.083
G2 X390.0906 Y321.0648 I-0.0001 J-1.0438
G1 X390.2833 Y321.0284
G2 X390.4771 Y320.972 I-0.1939 J-1.0256
G1 X390.6697 Y320.8949
G2 X390.8298 Y320.8143 I-0.3877 J-0.9691
G1 X390.9583 Y320.7351
G2 X391.0825 Y320.6452 I-0.5477 J-0.8885
G1 X391.2018 Y320.5449
G2 X391.3153 Y320.4335 I-0.672 J-0.7986
G1 X391.4222 Y320.3113
G2 X391.5165 Y320.1855 I-0.7856 J-0.6872
G1 X391.5984 Y320.0572
G2 X391.6819 Y319.8973 I-0.8799 J-0.5614
G1 X391.7621 Y319.7049
G2 X391.8215 Y319.5114 I-0.9634 J-0.4016
G1 X391.8607 Y319.3189
G2 X391.8816 Y319.1173 I-1.0228 J-0.208
G1 X391.8875 Y318.1551
Y318.1487
X391.8844 Y245.9197
G2 X391.8692 Y245.7424 I-1.0437
G1 X391.8361 Y245.55
G2 X391.7832 Y245.3565 I-1.0286 J0.1773
G1 X391.7101 Y245.1641
G2 X391.6331 Y245.0042 I-0.9757 J0.3708
G1 X391.5574 Y244.8759
G2 X391.4675 Y244.7469 I-0.8988 J0.5307
G1 X391.3628 Y244.6186
G2 X391.2391 Y244.4908 I-0.8088 J0.6597
G1 X391.0956 Y244.366
G2 X390.9583 Y244.265 I-0.6851 J0.7874
G1 X390.8298 Y244.1858
G2 X390.6697 Y244.1052 I-0.5477 J0.8885
G1 X390.4771 Y244.0281
G2 X390.2833 Y243.9716 I-0.3877 J0.9691
G1 X390.0906 Y243.9352
G2 X389.8968 Y243.917 I-0.1939 J1.0256
G1 X334.0875 Y243.9126
Y163.0874
X389.8968 Y163.083
G2 X390.0906 Y163.0648 I-0.0001 J-1.0437
G1 X390.2833 Y163.0284
G2 X390.4771 Y162.9719 I-0.1939 J-1.0256
G1 X390.6697 Y162.8949
G2 X390.8298 Y162.8143 I-0.3877 J-0.9691
G1 X390.9583 Y162.7351
G2 X391.0998 Y162.6304 I-0.5477 J-0.8885
G1 X391.2508 Y162.4976
G2 X391.3838 Y162.3567 I-0.6893 J-0.7838
G1 X391.4985 Y162.21
G2 X391.5902 Y162.0712 I-0.8222 J-0.643
G1 X391.661 Y161.9429
G2 X391.7325 Y161.7829 I-0.9139 J-0.5041
G1 X391.7997 Y161.5905
G2 X391.8471 Y161.397 I-0.9854 J-0.3442
G1 X391.8752 Y161.2046
G2 X391.8861 Y161.0539 I-1.0328 J-0.1507
G1 X391.8864 Y32.9533
G2 X391.8765 Y32.8097 I-1.0437
G1 X391.8498 Y32.6173
G2 X391.8038 Y32.4238 I-1.0338 J0.1436
G1 X391.7382 Y32.2314
G2 X391.6682 Y32.0714 I-0.9879 J0.337
G1 X391.5987 Y31.9431
G2 X391.5161 Y31.8142 I-0.9178 J0.497
G1 X391.42 Y31.6859
G2 X391.3165 Y31.5675 I-0.8352 J0.6259
G1 X391.2065 Y31.4594
G2 X391.087 Y31.3584 I-0.7317 J0.7443
G1 X390.9586 Y31.2653
G2 X390.7986 Y31.17 I-0.6123 J0.8453
G1 X390.606 Y31.0773
G2 X390.4121 Y31.0067 I-0.4523 J0.9406
G1 X390.2194 Y30.9575
G2 X390.0579 Y30.9295 I-0.2585 J1.0112
G1 X389.9294 Y30.9175
X389.8324 Y30.913
X366.3259 Y30.9151
G2 X366.1548 Y30.9293 I0.0001 J1.0438
G1 X365.9622 Y30.9613
G2 X365.7685 Y31.013 I0.1711 J1.0296
G1 X365.5758 Y31.0849
G2 X365.3896 Y31.1763 I0.3648 J0.9779
G1 X365.2119 Y31.2868
G2 X365.0487 Y31.4121 I0.551 J0.8865
G1 X364.901 Y31.5507
G2 X364.78 Y31.6859 I0.7143 J0.7611
G1 X364.6839 Y31.8142
G2 X364.6013 Y31.9431 I0.8353 J0.6259
G1 X364.5318 Y32.0714
G2 X364.4618 Y32.2314 I0.9178 J0.497
G1 X364.3962 Y32.4238
G2 X364.3502 Y32.6173 I0.9879 J0.337
G1 X364.3235 Y32.8097
G2 X364.3136 Y32.9531 I1.0338 J0.1436
G1 X364.311 Y51.1108
X364.2975 Y51.2276
X364.267 Y51.3427
X364.2421 Y51.4025
X364.1694 Y51.5224
X364.1093 Y51.5937
X364.0221 Y51.6706
X363.9472 Y51.7196
X363.8728 Y51.7558
X363.7846 Y51.7858
X363.688 Y51.8056
X362.2131 Y51.8125
X347.4889 Y51.8114
X347.4066 Y51.8043
X347.31 Y51.784
X347.2143 Y51.7502
X347.1417 Y51.7132
X347.062 Y51.6589
X346.9941 Y51.5978
X346.9306 Y51.5224
X346.8624 Y51.41
X346.8185 Y51.2994
X346.8034 Y51.237
X346.7889 Y51.111
X346.7865 Y32.9531
G2 X346.7766 Y32.8097 I-1.0437 J0.0001
G1 X346.7498 Y32.6173
G2 X346.7039 Y32.4238 I-1.0338 J0.1436
G1 X346.6382 Y32.2314
G2 X346.5682 Y32.0714 I-0.9879 J0.337
G1 X346.4987 Y31.9431
G2 X346.4162 Y31.8142 I-0.9178 J0.497
G1 X346.32 Y31.6859
G2 X346.2154 Y31.5664 I-0.8352 J0.6259
G1 X346.103 Y31.4563
G2 X345.9595 Y31.3387 I-0.7306 J0.7454
G1 X345.7829 Y31.2186
G2 X345.5972 Y31.118 I-0.5871 J0.8629
G1 X345.4045 Y31.0378
G2 X345.2108 Y30.9783 I-0.4014 J0.9635
G1 X345.0181 Y30.9392
G2 X344.8121 Y30.9184 I-0.2077 J1.0229
G1 X341.1512 Y30.9125
X313.9178 Y30.9157
G2 X313.7388 Y30.9312 I0.0001 J1.0438
G1 X313.5461 Y30.9648
G2 X313.3524 Y31.0182 I0.1792 J1.0283
G1 X313.1598 Y31.0919
G2 X312.9746 Y31.1847 I0.3729 J0.9749
G1 X312.799 Y31.2958
G2 X312.6399 Y31.4194 I0.558 J0.8821
G1 X312.4983 Y31.5533
G2 X312.38 Y31.6859 I0.717 J0.7585
G1 X312.2839 Y31.8142
G2 X312.2013 Y31.9431 I0.8353 J0.6259
G1 X312.1318 Y32.0714
G2 X312.0618 Y32.2314 I0.9178 J0.497
G1 X311.9962 Y32.4238
G2 X311.9502 Y32.6173 I0.9879 J0.337
G1 X311.9235 Y32.8097
G2 X311.9135 Y32.9531 I1.0338 J0.1436
G1 X311.9127 Y38.9125
X242.0873
X242.0864 Y32.9531
G2 X242.0768 Y32.8119 I-1.0437 J0.0002
G1 X242.0511 Y32.6236
G2 X242.0085 Y32.4389 I-1.0341 J0.1414
G1 X241.9493 Y32.2592
G2 X241.8824 Y32.101 I-0.9915 J0.3261
G1 X241.8107 Y31.9642
G2 X241.7244 Y31.8267 I-0.9246 J0.4844
G1 X241.623 Y31.6899
G2 X241.5082 Y31.5595 I-0.8383 J0.6219
G1 X241.3804 Y31.4366
G2 X241.2315 Y31.3176 I-0.7235 J0.7523
G1 X241.0612 Y31.2053
G2 X240.8893 Y31.1137 I-0.5746 J0.8714
G1 X240.7183 Y31.0422
G2 X240.5358 Y30.9849 I-0.4027 J0.9629
G1 X240.3432 Y30.9433
G2 X240.1622 Y30.9205 I-0.2202 J1.0202
G1 X239.9695 Y30.9132
X239.9302 Y30.9125
X238.8873
X238.8865 Y26.1536
G2 X238.8766 Y26.0106 I-1.0437 J0.0002
G1 X238.85 Y25.8182
G2 X238.8041 Y25.6248 I-1.0339 J0.1431
G1 X238.7385 Y25.4323
G2 X238.6569 Y25.2513 I-0.988 J0.3365
G1 X238.5608 Y25.0829
G2 X238.4618 Y24.939 I-0.9064 J0.5176
G1 X238.3633 Y24.8188
G2 X238.2418 Y24.6935 I-0.8074 J0.6615
G1 X238.0957 Y24.5662
G2 X237.9337 Y24.4502 I-0.6859 J0.7868
G1 X237.7566 Y24.3474
G2 X237.5708 Y24.2627 I-0.5239 J0.9028
G1 X237.3781 Y24.1968
G2 X237.1845 Y24.1505 I-0.338 J0.9875
G1 X236.9918 Y24.1236
G2 X236.8474 Y24.1136 I-0.1444 J1.0337
G1 X26.1236 Y24.1153
G2 X25.9501 Y24.1298 J1.0437
G1 X25.7575 Y24.1623
G2 X25.5638 Y24.2145 I0.1735 J1.0292
G1 X25.3711 Y24.2869
G2 X25.198 Y24.3709 I0.3672 J0.977
G1 X25.045 Y24.4634
G2 X24.8963 Y24.5725 I0.5402 J0.8931
G1 X24.7536 Y24.6979
G2 X24.6194 Y24.8401 I0.689 J0.7841
G1 X24.4957 Y24.9988
G2 X24.3888 Y25.1668 I0.8231 J0.6418
G1 X24.2994 Y25.3424
G2 X24.2289 Y25.519 I0.93 J0.4738
G1 X24.1767 Y25.6945
G2 X24.1443 Y25.8418 I1.0005 J0.2972
G1 X24.1273 Y25.9588
G2 X24.1165 Y26.1088 I1.0329 J0.15
G1 Y322.4028
X24.1127 Y322.4516 Z-1.9922
X24.1014 Y322.4993 Z-1.9845
X24.0851 Y322.5404 Z-1.9619
X24.0632 Y322.5788 Z-1.9394
X24.0181 Y322.6325 Z-1.8691
X23.9834 Y322.6612 Z-1.7806
X23.9705 Y322.67 Z-1.6825
G0 Z5
X15.1871 Y335.6623
Z0.4173
G1 X15.2002 Y335.6693 Z0.3213 F1200
X15.2379 Y335.6904 Z0.2343
X15.2955 Y335.7255 Z0.1644
X15.3662 Y335.7736 Z0.1182
X15.4417 Y335.8319 Z0.1
G3 X15.225 Y335.683 Z-0.2217 I-0.9589 J1.164
X14.9857 Y335.5741 Z-0.5434 I-0.7422 J1.3128
X14.7312 Y335.5084 Z-0.8651 I-0.503 J1.4218
X14.4691 Y335.4878 Z-1.1868 I-0.2484 J1.4875
X14.2075 Y335.5131 Z-1.5086 I0.0136 J1.5081
X13.9542 Y335.5834 Z-1.8303 I0.2753 J1.4828
X13.7169 Y335.6967 Z-2.152 I0.5286 J1.4125
X13.5029 Y335.8494 Z-2.4737 I0.7658 J1.2992
X13.3187 Y336.0369 Z-2.7954 I0.9798 J1.1465
X13.1699 Y336.2536 Z-3.1171 I1.164 J0.9589
X13.061 Y336.4929 Z-3.4388 I1.3129 J0.7422
X12.9952 Y336.7474 Z-3.7605 I1.4218 J0.503
X14.4827 Y338.504 Z-4 I1.4875 J0.2485
G1 X14.4565 F3500
G3 X13.4933 Y337.5408 J-0.9633
G1 Y336.036
G3 X14.2287 Y335.768 I0.4165
G2 X15.1837 Y336.8145 I13.3711 J-11.2434
X16.2292 Y337.7708 I10.1502 J-10.0472
G3 X15.9652 Y338.504 I-0.264 J0.3191
G1 X14.4827
X14.4339 Y338.5002 Z-3.9922
X14.3862 Y338.489 Z-3.9845
X14.3451 Y338.4726 Z-3.9619
X14.3067 Y338.4507 Z-3.9394
X14.253 Y338.4056 Z-3.8691
X14.2243 Y338.3709 Z-3.7806
X14.2156 Y338.3581 Z-3.6825
G0 Z5
X297.9515 Y331.0576
Z0.4173
G1 X297.9646 Y331.0646 Z0.3213 F1200
X298.0023 Y331.0857 Z0.2343
X298.06 Y331.1208 Z0.1644
X298.1306 Y331.1689 Z0.1182
X298.2061 Y331.2271 Z0.1
G3 X297.9895 Y331.0783 Z-0.2217 I-0.9589 J1.164
X297.7502 Y330.9694 Z-0.5434 I-0.7422 J1.3128
X297.4957 Y330.9036 Z-0.8651 I-0.503 J1.4218
X297.2336 Y330.8831 Z-1.1868 I-0.2485 J1.4875
X296.9719 Y330.9084 Z-1.5086 I0.0136 J1.5081
X296.7186 Y330.9787 Z-1.8303 I0.2753 J1.4828
X296.4814 Y331.0919 Z-2.152 I0.5286 J1.4125
X296.2674 Y331.2446 Z-2.4737 I0.7658 J1.2992
X296.0832 Y331.4322 Z-2.7954 I0.9798 J1.1465
X295.9344 Y331.6489 Z-3.1171 I1.164 J0.9589
X295.8254 Y331.8882 Z-3.4388 I1.3129 J0.7422
X295.7597 Y332.1427 Z-3.7605 I1.4218 J0.503
X297.2472 Y333.8993 Z-4 I1.4875 J0.2485
G1 X256.2428 Y333.899 F3500
G3 X255.6452 Y333.0326 J-0.6393
G2 X255.8219 Y332.5482 I-17.9415 J-6.8192
X255.9881 Y332.0602 I-29.7087 J-10.3874
G3 X257.1967 Y331.1874 I1.2087 J0.4005
G1 X297.2868
G3 X298.2802 Y331.6642 J1.2733
G2 X299.5918 Y333.1374 I14.9351 J-11.9759
G3 X299.2733 Y333.8993 I-0.3185 J0.3144
G1 X297.2472
G2 X295.8918 Y334.8029 J1.4683
G3 X294.5364 Y335.7064 I-1.3554 J-0.5648
G1 X253.2654 Y335.7061
G3 X252.7811 Y334.8768 J-0.5561
G2 X254.533 Y330.6319 I-16.4122 J-9.2576
G3 X256.175 Y329.3802 I1.6419 J0.4511
G1 X297.4815
G3 X299.5863 Y330.4029 J2.6774
G2 X304.2504 Y334.6068 I14.5051 J-11.4034
X304.619 Y334.8182 I2.6158 J-4.1351
G3 X304.9928 Y335.0205 I-5.1481 J9.9576
X304.8121 Y335.7065 I-0.1807 J0.3192
G1 X294.5364 Y335.7064
X294.4876 Y335.7027 Z-3.9922
X294.4399 Y335.6914 Z-3.9845
X294.3988 Y335.675 Z-3.9619
X294.3604 Y335.6531 Z-3.9394
X294.3067 Y335.6081 Z-3.8691
X294.278 Y335.5733 Z-3.7806
X294.2693 Y335.5605 Z-3.6825
G0 Z5
X355.5479 Y335.0299
Z0.4173
G1 X355.5339 Y335.0349 Z0.3213 F1200
X355.493 Y335.0485 Z0.2343
X355.4282 Y335.0674 Z0.1644
X355.345 Y335.0872 Z0.1182
X355.2511 Y335.1037 Z0.1
G3 X355.5071 Y335.044 Z-0.2217 I-0.2133 J-1.493
X355.7488 Y334.9407 Z-0.5434 I-0.4693 J-1.4332
X355.969 Y334.797 Z-0.8651 I-0.711 J-1.33
X356.1608 Y334.6173 Z-1.1868 I-0.9312 J-1.1863
X356.3186 Y334.407 Z-1.5086 I-1.123 J-1.0066
X356.4374 Y334.1725 Z-1.8303 I-1.2808 J-0.7963
X356.5137 Y333.9209 Z-2.152 I-1.3996 J-0.5618
X356.5451 Y333.6599 Z-2.4737 I-1.4759 J-0.3102
X356.5308 Y333.3975 Z-2.7954 I-1.5073 J-0.0492
X356.4711 Y333.1414 Z-3.1171 I-1.493 J0.2133
X356.3678 Y332.8997 Z-3.4388 I-1.4333 J0.4693
X356.2241 Y332.6795 Z-3.7605 I-1.33 J0.711
X353.9239 Y332.594 Z-4 I-1.1863 J0.9312
G1 X353.974 Y332.5389 F3500
G3 X355.026 I0.526 J0.4764
G2 X355.5924 Y333.1379 I14.1893 J-12.8506
G3 X355.274 Y333.8998 I-0.3185 J0.3144
G1 X353.726
G3 X353.4076 Y333.1379 J-0.4475
G2 X353.9239 Y332.594 I-13.6229 J-13.4496
X354.3163 Y331.1554 I-1.2074 J-1.1021
G3 X355.6741 Y330.5392 I0.7474 J-0.1572
G2 X356.1441 Y331.1542 I38.5654 J-28.9889
X357.3978 Y332.5324 I9.5028 J-7.3846
X358.8088 Y333.6624 I7.7581 J-8.2412
X360.3235 Y334.6492 I28.2729 J-41.7437
X360.6567 Y334.8387 I2.4088 J-3.8466
G3 X360.994 Y335.0209 I-4.3487 J8.4565
X360.8132 Y335.7069 I-0.1808 J0.3192
G1 X348.1878 Y335.7068
G3 X348.0075 Y335.0211 J-0.3666
G2 X353.9705 Y329.6612 I-9.1214 J-16.1447
G3 X355.0295 I0.5295 J0.3796
G2 X355.6741 Y330.5392 I39.2101 J-28.1109
X357.1123 Y331.0027 I1.0476 J-0.7874
G3 X358.5846 Y331.3431 I0.4456 J1.4268
G2 X359.9863 Y332.5338 I11.9474 J-12.6443
X367.2677 Y335.6955 I10.0547 J-13.1907
X371.9263 Y335.935 I3.3518 J-19.7641
G3 X376.5886 Y335.7827 I4.6681 J71.4577
X377.2983 Y336.4924 I0.0001 J0.7096
G1 Y336.5915
G3 X376.5887 Y337.3012 I-0.7096
G1 X250.088 Y337.3002
G3 X249.7173 Y336.5158 J-0.4797
G2 X253.0996 Y329.8119 I-13.2475 J-10.8887
G3 X253.4814 Y329.0013 I2.2091 J0.5453
G2 X253.6329 Y328.7936 I-12.6417 J-9.3814
G3 X255.5952 Y327.7861 I1.9623 J1.4071
G1 X298.3958
G3 X300.3691 Y328.7935 J2.4365
G2 X306.2871 Y333.9854 I14.3599 J-10.3994
X313.9186 Y335.9186 I7.6309 J-14.0934
G1 X339.095 Y335.9176
G2 X347.9352 Y333.2979 I-0.0007 J-16.2276
X354.0624 Y326.408 I-9.4932 J-14.6118
G3 X354.9376 I0.4376 J0.2163
G2 X358.5846 Y331.3431 I15.5945 J-7.7092
X359.947 Y331.5504 I0.8308 J-0.8792
G3 X361.3212 Y331.6537 I0.599 J1.2243
G2 X362.0806 Y332.1469 I8.8846 J-12.848
X369.9225 Y334.347 I7.842 J-12.8763
G1 X377.9071 Y334.2106
G3 X378.8704 Y335.1737 I0.0001 J0.9631
G1 X378.8703 Y337.91
G3 X377.9071 Y338.8732 I-0.9633
G1 X245.9043 Y338.8722
G3 X245.6743 Y338.1577 J-0.3942
G2 X251.5655 Y329.4668 I-8.8707 J-12.3551
G3 X252.2385 Y328.0381 I3.9364 J0.9814
G2 X252.7935 Y327.2295 I-11.3987 J-8.4183
G3 X254.6437 Y326.2141 I1.8502 J1.1779
G1 X299.3629
G3 X301.1943 Y327.2147 J2.1762
G2 X306.6457 Y332.4055 I13.3674 J-8.5807
X313.9186 Y334.3466 I7.2722 J-12.6517
G1 X339.095 Y334.3456
G2 X349.149 Y330.5097 I-0.0006 J-15.0956
X354.2127 Y321.0147 I-10.396 J-11.6421
G1 X354.2136 Y312.787
G3 X354.7864 I0.2864
G1 X354.787 Y319.6042
G2 X356.4694 Y326.2434 I13.9463 J-0.0012
X361.3212 Y331.6537 I13.7364 J-7.4378
G1 X361.3595 Y331.6842 Z-3.9922
X361.3926 Y331.7204 Z-3.9845
X361.4174 Y331.757 Z-3.9619
X361.4368 Y331.7967 Z-3.9394
X361.4559 Y331.8642 Z-3.8691
X361.4601 Y331.909 Z-3.7806
Y331.9246 Z-3.6825
G0 Z5
X361.0843 Y191.3362
Z0.4173
G1 X361.0913 Y191.323 Z0.3213 F1200
X361.1124 Y191.2854 Z0.2343
X361.1475 Y191.2277 Z0.1644
X361.1956 Y191.1571 Z0.1182
X361.2538 Y191.0815 Z0.1
G3 X361.105 Y191.2982 Z-0.2217 I1.164 J0.9589
X360.9961 Y191.5375 Z-0.5434 I1.3129 J0.7422
X360.9303 Y191.792 Z-0.8651 I1.4218 J0.503
X360.9098 Y192.0541 Z-1.1868 I1.4875 J0.2484
X360.9351 Y192.3158 Z-1.5086 I1.5081 J-0.0136
X361.0054 Y192.5691 Z-1.8303 I1.4828 J-0.2753
X361.1187 Y192.8063 Z-2.152 I1.4125 J-0.5286
X361.2714 Y193.0203 Z-2.4737 I1.2992 J-0.7659
X361.459 Y193.2045 Z-2.7954 I1.1465 J-0.9798
X361.6757 Y193.3533 Z-3.1171 I0.9589 J-1.164
X361.9149 Y193.4622 Z-3.4388 I0.7422 J-1.3128
X362.1694 Y193.528 Z-3.7605 I0.503 J-1.4218
X363.926 Y192.0405 Z-4 I0.2484 J-1.4875
G1 X363.9258 Y214.9136 F3500
G3 X362.1597 I-0.883
G1 Y191.867
G3 X362.8693 Y191.1573 I0.7097
G1 X363.2163
G3 X363.926 Y191.867 I0.0001 J0.7096
G1 Y192.0405
G2 X365.0963 Y193.7959 I1.9017
G3 X366.2666 Y195.5514 I-0.7314 J1.7554
G1 X366.2664 Y217.2203
G3 X365.3031 Y218.1835 I-0.9632
G1 X360.7823 Y218.1831
G3 X359.8191 Y217.2198 I0.0001 J-0.9633
G1 Y189.7802
G3 X360.7823 Y188.8169 I0.9633
G1 X365.3034 Y188.8165
G3 X366.2666 Y189.7797 I0.0001 J0.9631
G1 Y195.5514
G2 X367.4369 Y197.3069 I1.9017
G3 X368.6071 Y199.0623 I-0.7314 J1.7554
G1 X368.607 Y219.5611
G3 X367.6437 Y220.5243 I-0.9632
G1 X358.4417 Y220.5235
G3 X357.4785 Y219.5602 I0.0001 J-0.9633
G1 Y187.4398
G3 X358.4417 Y186.4765 I0.9633
G1 X367.644 Y186.4758
G3 X368.6072 Y187.4389 I0.0001 J0.9631
G1 X368.6071 Y199.0623
G2 X369.7774 Y200.8178 I1.9017
G3 X370.9477 Y202.5733 I-0.7314 J1.7554
G1 X370.9475 Y221.9019
G3 X369.9843 Y222.8651 I-0.9631
G1 X356.1011 Y222.864
G3 X355.1379 Y221.9006 I0.0001 J-0.9633
G1 Y185.0994
G3 X356.1011 Y184.1361 I0.9633
G1 X369.9846 Y184.135
G3 X370.9479 Y185.0981 I0.0001 J0.9631
G1 X370.9477 Y202.5733
G2 X372.118 Y204.3288 I1.9017
G3 X373.2883 Y206.0842 I-0.7314 J1.7554
G1 X373.2881 Y224.2427
G3 X372.3249 Y225.2059 I-0.9632
G1 X353.7605 Y225.2044
G3 X352.7973 Y224.2411 I0.0001 J-0.9633
G1 Y182.759
G3 X353.7605 Y181.7956 I0.9633
G1 X372.3253 Y181.7942
G3 X373.2885 Y182.7573 I0.0001 J0.9631
G1 X373.2883 Y206.0842
G2 X374.4586 Y207.8397 I1.9017
G3 X375.6289 Y209.5951 I-0.7314 J1.7554
G1 X375.6287 Y226.5835
G3 X374.6655 Y227.5467 I-0.9632
G1 X351.4199 Y227.5448
G3 X350.4567 Y226.5815 I0.0001 J-0.9633
G1 Y180.4185
G3 X351.4199 Y179.4552 I0.9633
G1 X374.6659 Y179.4534
G3 X375.6291 Y180.4165 I0.0001 J0.9631
G1 X375.6289 Y209.5951
G2 X376.7992 Y211.3506 I1.9017
G3 X377.9695 Y213.1061 I-0.7314 J1.7554
G1 X377.9693 Y228.9243
G3 X377.0061 Y229.8875 I-0.9632
G1 X349.0793 Y229.8852
G3 X348.1161 Y228.9219 I0.0001 J-0.9633
G1 Y178.0781
G3 X349.0793 Y177.1148 I0.9633
G1 X377.0066 Y177.1126
G3 X377.9698 Y178.0757 I0.0001 J0.9631
G1 X377.9695 Y213.1061
G2 X379.1397 Y214.8615 I1.9017
G3 X380.31 Y216.617 I-0.7314 J1.7554
G1 X380.3099 Y231.2651
G3 X379.3467 Y232.2282 I-0.9632
G1 X346.7387 Y232.2257
G3 X345.7755 Y231.2623 I0.0001 J-0.9633
G1 Y175.7377
G3 X346.7387 Y174.7744 I0.9633
G1 X379.3472 Y174.7718
G3 X380.3104 Y175.7349 I0.0001 J0.9631
G1 X380.31 Y216.617
G2 X381.4803 Y218.3725 I1.9017
G3 X382.6506 Y220.1279 I-0.7314 J1.7554
G1 X382.6505 Y233.6059
G3 X381.6873 Y234.569 I-0.9631
G1 X344.3981 Y234.5661
G3 X343.4348 Y233.6028 I0.0001 J-0.9633
G1 Y173.3973
G3 X344.3981 Y172.4339 I0.9633
G1 X381.6878 Y172.431
G3 X382.651 Y173.3941 I0.0001 J0.9631
G1 X382.6506 Y220.1279
G2 X383.8209 Y221.8834 I1.9018
G3 X384.9912 Y223.6389 I-0.7314 J1.7554
G1 X384.9911 Y235.9467
G3 X384.0278 Y236.9098 I-0.9632
G1 X342.0575 Y236.9065
G3 X341.0942 Y235.9432 I0.0001 J-0.9633
G1 Y171.0569
G3 X342.0575 Y170.0935 I0.9633
G1 X384.0284 Y170.0902
G3 X384.9916 Y171.0533 I0.0001 J0.9632
G1 X384.9912 Y223.6389
G2 X386.1615 Y225.3943 I1.9018
G3 X387.3318 Y227.1498 I-0.7314 J1.7554
G1 X387.3317 Y238.2875
G3 X386.3684 Y239.2506 I-0.9632
G1 X339.7169 Y239.2469
G3 X338.7536 Y238.2836 I0.0001 J-0.9633
G1 Y168.7164
G3 X339.7169 Y167.7531 I0.9633
G1 X386.369 Y167.7494
G3 X387.3323 Y168.7126 I0.0001 J0.9631
G1 X387.3318 Y227.1498
G2 X388.502 Y228.9053 I1.9018
G3 X389.6723 Y230.6607 I-0.7314 J1.7554
G1 X389.6722 Y240.6283
G3 X388.709 Y241.5914 I-0.9631
G1 X337.3763 Y241.5874
G3 X336.413 Y240.624 I0.0001 J-0.9633
G1 Y166.376
G3 X337.3763 Y165.4127 I0.9633
G1 X388.7097 Y165.4086
G3 X389.6729 Y166.3718 I0.0001 J0.9631
G1 X389.6723 Y230.6607
X389.6685 Y230.7096 Z-3.9922
X389.6573 Y230.7573 Z-3.9845
X389.6409 Y230.7984 Z-3.9619
X389.619 Y230.8368 Z-3.9394
X389.574 Y230.8905 Z-3.8691
X389.5392 Y230.9192 Z-3.7806
X389.5264 Y230.9279 Z-3.6825
G0 Z5
X357.4604 Y15.8313
Z0.4173
G1 X357.4665 Y15.8449 Z0.3213 F1200
X357.4832 Y15.8847 Z0.2343
X357.5071 Y15.9478 Z0.1644
X357.5333 Y16.0292 Z0.1182
X357.557 Y16.1216 Z0.1
G3 X357.4776 Y15.871 Z-0.2217 I-1.4719 J0.3287
X357.3558 Y15.638 Z-0.5434 I-1.3924 J0.5793
X357.1955 Y15.4297 Z-0.8651 I-1.2707 J0.8123
X357.0014 Y15.2524 Z-1.1868 I-1.1103 J1.0206
X356.7795 Y15.1115 Z-1.5086 I-0.9162 J1.1979
X356.5364 Y15.0112 Z-1.8303 I-0.6943 J1.3388
X356.2797 Y14.9547 Z-2.152 I-0.4513 J1.439
X356.017 Y14.9437 Z-2.4737 I-0.1945 J1.4955
X355.7565 Y14.9784 Z-2.7954 I0.0681 J1.5066
X355.5059 Y15.0578 Z-3.1171 I0.3287 J1.4719
X355.2729 Y15.1796 Z-3.4388 I0.5793 J1.3924
X355.0646 Y15.34 Z-3.7605 I0.8123 J1.2707
X355.1581 Y17.6398 Z-4 I1.0206 J1.1103
G2 X355.067 Y17.5734 I-1.0743 J1.3786 F3500
X354.786 Y17.3903 I-4.7294 J6.9509
G1 X354.4766 Y17.1974
G3 X354.6763 Y16.4996 I0.1997 J-0.3203
G1 X356.4283
G3 X356.6278 Y17.1986 J0.378
G2 X356.2339 Y17.4476 I16.0357 J25.7986
X355.8456 Y17.7054 I8.5636 J13.3172
G3 X355.2493 Y17.7063 I-0.2988 J-0.4359
X355.1581 Y17.6398 I1.0052 J-1.4752
G1 X355.1199 Y17.6092 Z-3.9922
X355.0868 Y17.5731 Z-3.9845
X355.062 Y17.5365 Z-3.9619
X355.0425 Y17.4967 Z-3.9394
X355.0235 Y17.4293 Z-3.8691
X355.0193 Y17.3844 Z-3.7806
Y17.3689 Z-3.6825
G0 Z5
X256.5515 Y21.5432
Z0.4173
G1 X256.5385 Y21.5362 Z0.3213 F1200
X256.5007 Y21.5152 Z0.2343
X256.4431 Y21.4801 Z0.1644
X256.3725 Y21.432 Z0.1182
X256.2969 Y21.3737 Z0.1
G3 X256.5136 Y21.5225 Z-0.2217 I0.9589 J-1.164
X256.7529 Y21.6315 Z-0.5434 I0.7422 J-1.3128
X257.0074 Y21.6972 Z-0.8651 I0.503 J-1.4218
X257.2695 Y21.7178 Z-1.1868 I0.2484 J-1.4875
X257.5312 Y21.6925 Z-1.5086 I-0.0136 J-1.5081
X257.7845 Y21.6221 Z-1.8303 I-0.2753 J-1.4828
X258.0217 Y21.5089 Z-2.152 I-0.5286 J-1.4125
X258.2357 Y21.3562 Z-2.4737 I-0.7658 J-1.2992
X258.4199 Y21.1686 Z-2.7954 I-0.9798 J-1.1465
X258.5687 Y20.9519 Z-3.1171 I-1.164 J-0.9589
X258.6776 Y20.7127 Z-3.4388 I-1.3128 J-0.7422
X258.7434 Y20.4581 Z-3.7605 I-1.4218 J-0.503
X257.2559 Y18.7016 Z-4 I-1.4875 J-0.2484
G1 X297.8482 Y18.7019 F3500
G3 X298.2081 Y19.4829 J0.4734
G2 X297.8229 Y19.9478 I15.0072 J12.8289
G3 X297.2696 Y20.213 I-0.5533 J-0.4444
G1 X257.2227
G3 X256.5493 Y19.7274 J-0.7096
G1 X256.5007 Y19.5831
G3 X257.1317 Y18.7016 I0.631 J-0.2149
G1 X257.2559
G2 X258.6463 Y17.7746 J-1.5063
G3 X260.0368 Y16.8476 I1.3905 J0.5794
G1 X302.8159 Y16.848
G3 X303.0424 Y17.5616 J0.3927
G2 X299.192 Y21.2044 I10.7096 J15.176
G3 X297.4084 Y22.067 I-1.7837 J-1.4128
G1 X256.2687
G3 X255.0426 Y21.137 J-1.2733
G2 X253.7108 Y17.6882 I-18.6734 J5.2295
G3 X254.2274 Y16.8476 I0.5166 J-0.2615
G1 X260.0368
G2 X261.2927 Y16.0104 J-1.3605
G3 X262.5485 Y15.1732 I1.2559 J0.5233
G1 X376.2639 Y15.174
G3 Y15.7432 J0.2846
X366.6362 Y15.6787 I-0.0641 J-709.0128
G2 X357.3605 Y18.259 I-0.2311 J17.1314
X356.8536 Y18.604 I3.9006 J6.2754
G3 X356.3577 Y18.9648 I-17.9556 J-24.1591
X354.7407 Y18.9671 I-0.8101 J-1.1377
G2 X351.5597 Y17.1059 I-12.3098 J17.3899
X348.0631 Y15.9411 I-6.5281 J13.7667
X344.7459 Y15.608 I-3.3152 J16.3289
G1 X313.916 Y15.6116
G2 X306.1711 Y17.5474 I0.002 J16.4696
X300.1173 Y22.7513 I8.5905 J16.1167
G3 X298.1447 Y23.7414 I-1.9726 J-1.4699
G1 X255.7384
G3 X253.9428 Y22.8338 J-2.2299
G1 X253.9131 Y22.7935
G3 X253.5419 Y22.0092 I1.7915 J-1.3278
G2 X250.6884 Y15.955 I-16.815 J4.2258
G3 X251.0825 Y15.1731 I0.3941 J-0.2916
G1 X262.5485 Y15.1732
G2 X263.8073 Y14.334 J-1.3636
G3 X265.066 Y13.4949 I1.2587 J0.5245
G1 X377.5437 Y13.4958
G3 X378.507 Y14.459 J0.9632
G1 X378.5069 Y16.458
G3 X377.5437 Y17.4213 I-0.9633
G1 X366.3246 Y17.2866
G2 X360.9472 Y18.3223 I0.0013 J14.4854
X356.2675 Y21.1665 I6.1643 J15.4143
G3 X354.837 Y21.1685 I-0.7164 J-0.8304
G2 X351.5126 Y18.9214 I-11.4194 J13.3119
X347.7297 Y17.5832 I-6.6493 J12.7803
X344.4463 Y17.2686 I-3.1378 J15.4551
G3 X341.1479 Y17.284 I-3.3413 J-361.7674
G1 X313.9162 Y17.2872
G2 X306.5595 Y19.2269 I0.0018 J14.9277
X300.997 Y24.4174 I8.0419 J14.1942
G3 X299.1317 Y25.4197 I-1.8653 J-1.2345
G1 X254.8697
G3 X253.0027 Y24.4174 J-2.2398
G2 X252.7372 Y24.032 I-10.871 J7.2056
X252.4617 Y23.6538 I-22.3043 J15.9644
G3 X251.948 Y22.5553 I2.4406 J-1.8106
G2 X250.0927 Y18.0849 I-15.0592 J3.6295
X246.9672 Y14.3894 I-13.6424 J8.3688
X246.8685 Y14.3094 I-1.172 J1.3444
G3 X246.7691 Y14.2302 I1.4217 J-1.8869
X247.0373 Y13.4948 I0.2682 J-0.3188
G1 X265.066 Y13.4949
X265.1148 Y13.4987 Z-3.9922
X265.1625 Y13.51 Z-3.9845
X265.2036 Y13.5263 Z-3.9619
X265.242 Y13.5482 Z-3.9394
X265.2957 Y13.5933 Z-3.8691
X265.3244 Y13.628 Z-3.7806
X265.3331 Y13.6409 Z-3.6825
G0 Z5
X16.3376 Y15.1867
Z0.4173
G1 X16.3306 Y15.1998 Z0.3213 F1200
X16.3095 Y15.2375 Z0.2343
X16.2744 Y15.2951 Z0.1644
X16.2263 Y15.3658 Z0.1182
X16.168 Y15.4413 Z0.1
G3 X16.3169 Y15.2246 Z-0.2217 I-1.164 J-0.9589
X16.4258 Y14.9853 Z-0.5434 I-1.3128 J-0.7422
X16.4915 Y14.7308 Z-0.8651 I-1.4218 J-0.503
X16.5121 Y14.4687 Z-1.1868 I-1.4875 J-0.2484
X16.4868 Y14.2071 Z-1.5086 I-1.5081 J0.0136
X16.4165 Y13.9538 Z-1.8303 I-1.4828 J0.2753
X16.3032 Y13.7165 Z-2.152 I-1.4125 J0.5286
X16.1505 Y13.5026 Z-2.4737 I-1.2992 J0.7658
X15.9629 Y13.3184 Z-2.7954 I-1.1465 J0.9798
X15.7462 Y13.1695 Z-3.1171 I-0.9589 J1.164
X15.507 Y13.0606 Z-3.4388 I-0.7422 J1.3128
X15.2525 Y12.9948 Z-3.7605 I-0.503 J1.4218
X13.4959 Y14.4823 Z-4 I-0.2484 J1.4875
G1 Y14.4562 F3500
G3 X14.4591 Y13.493 I0.9632
G1 X15.9646
G3 X16.2325 Y14.2283 J0.4165
G2 X15.1849 Y15.1845 I11.1558 J13.2736
X14.2287 Y16.2321 I9.9539 J10.0469
G3 X13.4959 Y15.9688 I-0.3191 J-0.2632
G1 Y14.4823
G2 X12.5279 Y13.3925 I-1.0975
G3 X12.1051 Y11.9974 I0.0939 J-0.7901
X12.7181 Y11.7712 I0.6131 J0.7178
G1 X379.2848 Y11.774
G3 X380.2287 Y12.718 J0.944
G1 Y18.1989
G3 X379.2847 Y19.1429 I-0.9441
G1 X366.3248 Y19.0111
G2 X360.7415 Y20.2718 I0.0012 J12.9995
X356.1433 Y23.6805 I6.3813 J13.4138
G3 X354.9568 I-0.5933 J-0.5406
G2 X351.5225 Y20.8743 I-11.2127 J10.2175
X347.3866 Y19.2732 I-6.7583 J11.3157
X344.274 Y18.9844 I-2.8907 J14.2383
G3 X341.148 Y19.0085 I-3.1504 J-206.2384
G1 X313.9164 Y19.0117
G2 X306.9666 Y20.9629 I0.0016 J13.3583
X301.9515 Y26.155 I7.4334 J12.1981
G3 X300.2643 Y27.1415 I-1.6872 J-0.9496
G1 X253.7339
G3 X252.0507 Y26.1579 J-1.932
G2 X251.1445 Y24.7682 I-11.1773 J6.2979
G3 X250.2554 Y22.8819 I4.2613 J-3.1613
G2 X245.3912 Y15.2342 I-13.8253 J3.4226
X236.8473 Y12.2096 I-8.5438 J10.5547
G1 X26.1235 Y12.2113
G2 X16.9927 Y15.6633 I0.0001 J13.8018
X12.3468 Y24.2484 I9.3692 J10.62
X12.2125 Y26.1088 I12.8134 J1.8604
G1 Y325.8912
G2 X15.8697 Y335.2291 I13.7496
X24.8362 Y339.7207 I10.4531 J-9.6718
G1 X56.0532 Y339.7902
G2 X58.4496 Y339.5035 I-0.0004 J-10.1621
X60.7615 Y338.8108 I-5.3709 J-22.1294
G3 X61.2376 Y338.8133 I0.2346 J0.6547
G2 X63.7076 Y339.5258 I6.0592 J-16.3674
X66.2646 Y339.7915 I2.5569 J-12.1678
G1 X238.6385 Y339.666
G2 X246.0605 Y336.174 I-1.9136 J-13.7007
X250.2538 Y329.1244 I-9.5689 J-10.4638
G3 X251.1392 Y327.2448 I5.1498 J1.2776
G2 X252.056 Y325.8332 I-11.0458 J-8.1776
G3 X253.7343 Y324.8585 I1.6783 J0.9575
G1 X300.2643
G3 X301.9515 Y325.845 J1.9361
G2 X306.9674 Y331.0377 I12.4485 J-7.006
X313.9185 Y332.9883 I6.9505 J-11.4074
G1 X339.0949 Y332.9873
G2 X348.257 Y329.4854 I-0.0006 J-13.7378
X352.8674 Y320.8279 I-9.5045 J-10.6178
G1 X352.8581 Y311.8028
G3 X353.8022 Y310.8589 I0.944 J0.0001
G1 X355.1978
G3 X356.1419 Y311.8029 J0.9441
X356.0429 Y318.7947 I-245.5104 J0.021
G2 X357.6638 Y325.5967 I13.4761 J0.3828
X362.7757 Y330.98 I12.5424 J-6.7913
X369.9225 Y332.9887 I7.1469 J-11.7098
G1 X379.282 Y332.8549
G3 X380.2259 Y333.7988 I0.0001 J0.9439
G1 Y339.2848
G3 X379.2819 Y340.2288 I-0.944
G1 X12.7153 Y340.226
G3 X11.7713 Y339.282 J-0.944
G1 X11.7741 Y12.7152
G3 X12.1051 Y11.9974 I0.944
G2 X12.7217 Y11.1049 I-1.3735 J-1.6081
G3 X13.6091 Y10.4809 I0.8874 J0.3191
G1 X380.5559 Y10.4837
G3 X381.5191 Y11.4469 J0.9632
G1 X381.519 Y19.4698
G3 X380.5558 Y20.4332 I-0.9633
X373.4403 Y20.366 I-0.0337 J-373.0444
G2 X366.3249 Y20.2987 I-7.0817 J372.9772
X360.5136 Y21.8166 I0.0011 J11.8876
X356.0641 Y25.8512 I6.563 J11.7087
G3 X355.036 I-0.514 J-0.3582
G2 X352.5912 Y23.1484 I-11.8319 J8.2452
X349.4877 Y21.238 I-7.5857 J8.847
X345.3646 Y20.3541 I-4.4418 J10.6605
X341.1482 Y20.2961 I-4.1984 J152.0901
G1 X313.9166 Y20.2993
G2 X307.3032 Y22.279 I0.0014 J12.0416
X302.7259 Y27.4467 I7.2571 J11.0388
G3 X301.1374 Y28.4319 I-1.5885 J-0.7881
G1 X252.8647
G3 X251.2731 Y27.4466 J-1.7781
G2 X249.9889 Y25.3768 I-11.7218 J5.8394
G3 X249.04 Y23.3469 I4.3241 J-3.2581
G2 X244.6608 Y16.2964 I-12.5845 J2.9313
X236.8473 Y13.4972 I-7.8134 J9.505
G1 X26.1235 Y13.4989
G2 X17.8353 Y16.6371 I0.0001 J12.5144
X13.6211 Y24.4334 I8.527 J9.6463
X13.5001 Y26.1088 I11.5391 J1.6754
G1 Y325.8912
G2 X16.8266 Y334.3674 I12.4624
X24.9706 Y338.4401 I9.4963 J-8.8106
G1 X56.0532 Y338.5026
G2 X58.2733 Y338.2261 I-0.0004 J-9.0574
X60.4107 Y337.5654 I-5.2632 J-20.8133
G3 X61.6013 Y337.5716 I0.587 J1.5984
G2 X63.8906 Y338.2495 I5.6893 J-15.0073
X66.2646 Y338.5039 I2.3739 J-10.9518
G1 X238.653 Y338.3638
G2 X245.351 Y335.1209 I-1.6761 J-12.0007
X249.039 Y328.6573 I-9.0144 J-9.4274
G3 X250.0055 Y326.6056 I5.2726 J1.2302
G2 X251.2743 Y324.5534 I-9.8564 J-7.5122
G3 X252.8541 Y323.5681 I1.5798 J0.774
G1 X301.1374
G3 X302.7259 Y324.5533 J1.7733
G2 X306.4884 Y329.138 I11.8197 J-5.8638
X311.9166 Y331.5276 I7.5505 J-9.7913
X313.9185 Y331.7007 I2.0013 J-11.4871
G1 X339.0948 Y331.6996
G2 X347.4114 Y328.5143 I-0.0005 J-12.4507
X351.592 Y320.6508 I-8.6595 J-9.6468
G1 X351.5678 Y310.5316
G3 X352.5312 Y309.5684 I0.9633 J0.0001
G1 X356.4688 Y309.5686
G3 X357.4322 Y310.5319 J0.9634
G1 X357.4348 Y320.8432
G2 X369.9236 Y331.701 I12.47 J-1.7319
G1 X380.5531 Y331.5645
G3 X381.5163 Y332.5276 I0.0001 J0.9631
G1 X381.5162 Y340.5559
G3 X380.553 Y341.5192 I-0.9633
G1 X11.4441 Y341.5164
G3 X10.4809 Y340.5531 J-0.9632
G1 X10.4838 Y11.4441
G3 X11.447 Y10.4809 I0.9632
G1 X13.6091
G2 X15.1128 Y9.4784 J-1.629
G3 X16.6165 Y8.476 I1.5037 J0.6265
G1 X382.5608 Y8.4788
G3 X383.524 Y9.442 J0.9632
G1 X383.5239 Y21.4746
G3 X382.5606 Y22.4379 I-0.9633
X374.4429 Y22.3708 I-0.0439 J-485.5387
G2 X366.3251 Y22.3036 I-8.0739 J485.4716
X359.3148 Y24.9933 I0.0009 J10.4829
X355.7939 Y31.6251 I7.321 J8.1375
G1 X355.8364 Y42.7637
G3 X355.2635 I-0.2864
G1 X355.2794 Y31.4327
G2 X353.1057 Y26.3895 I-10.2345 J1.4213
X348.7166 Y23.0887 I-8.6572 J6.9429
X344.9715 Y22.32 I-3.8458 J9.23
X341.1484 Y22.301 I-3.7786 J375.1729
G1 X313.9168 Y22.3042
G2 X307.8458 Y24.3011 I0.0012 J10.2311
X304.0563 Y29.4475 I6.4037 J8.6836
G3 X302.6659 Y30.4368 I-1.3904 J-0.4825
G1 X251.3324
G3 X249.9471 Y29.4525 J-1.4671
G2 X249.2916 Y27.9817 I-9.0764 J3.1632
X248.4207 Y26.6273 I-10.3159 J5.6768
G3 X247.0747 Y23.7481 I6.3335 J-4.7149
G2 X243.3919 Y17.8504 I-10.6347 J2.5421
X236.8473 Y15.5021 I-6.5445 J7.9453
G1 X26.1235 Y15.5038
G2 X19.1472 Y18.1532 I0.0001 J10.5101
X15.6052 Y24.7215 I7.2156 J8.1302
X15.505 Y26.1087 I9.555 J1.3873
G1 Y325.8912
G2 X18.3164 Y333.0258 I10.4585
X25.1799 Y336.4462 I8.0066 J-7.47
G1 X56.0531 Y336.4825
G2 X57.9806 Y336.2346 I-0.0003 J-7.6206
X59.8314 Y335.6415 I-4.5246 J-17.3032
G3 X62.2007 Y335.6539 I1.1688 J3.0634
G2 X64.1932 Y336.2643 I4.9202 J-12.5035
X66.2646 Y336.4927 I2.0713 J-9.278
G1 X238.3757 Y336.3782
G2 X243.9776 Y333.6588 I-1.398 J-10.0094
X247.0738 Y328.256 I-7.6618 J-7.9794
G3 X248.4446 Y325.3459 I7.678 J1.8389
G2 X249.3044 Y323.9949 I-8.1456 J-6.1332
X249.9538 Y322.5311 I-10.0177 J-5.3198
G3 X251.3327 Y321.5633 I1.379 J0.4985
G1 X302.6659
G3 X304.0563 Y322.5525 J1.4717
G2 X312.2607 Y329.5525 I10.0698 J-3.4944
X313.9184 Y329.6958 I1.6572 J-9.5119
G1 X339.0948 Y329.6947
G2 X346.0948 Y327.0022 I-0.0004 J-10.4469
X349.6061 Y320.375 I-7.344 J-8.1349
G1 X349.5631 Y308.5267
G3 X350.5264 Y307.5634 I0.9633 J0.0001
G1 X358.4736 Y307.5638
G3 X359.4369 Y308.527 J0.9634
G1 X359.4206 Y320.5674
G2 X369.9234 Y329.6961 I10.4842 J-1.4561
G1 X382.558 Y329.5594
G3 X383.5212 Y330.5225 I0.0001 J0.9631
G1 X383.5211 Y342.5609
G3 X382.5579 Y343.5241 I-0.9633
G1 X9.4392 Y343.5212
G3 X8.476 Y342.558 J-0.9632
G1 X8.4789 Y9.4392
G3 X9.4422 Y8.4759 I0.9632
G1 X16.6165 Y8.476
G2 X17.8185 Y7.6747 J-1.3022
G3 X19.0205 Y6.8733 I1.202 J0.5009
G1 X384.1635 Y6.8761
G3 X385.1267 Y7.8393 J0.9632
G1 X385.1266 Y23.0771
G3 X384.1633 Y24.0405 I-0.9633
G1 X366.3253 Y23.9063
G2 X360.3673 Y26.202 I0.0008 J8.8811
X357.3813 Y31.8456 I6.2695 J6.929
G1 X357.439 Y43.9758
G3 X356.4756 Y44.939 I-0.9633 J-0.0001
G1 X354.6245 Y44.9389
G3 X353.661 Y43.9755 I0.0001 J-0.9635
G1 X353.692 Y31.6532
G2 X351.8366 Y27.3683 I-8.6494 J1.2012
X348.1002 Y24.5681 I-7.3892 J5.9666
X344.6573 Y23.8916 I-3.3834 J8.1202
G3 X341.1486 Y23.9037 I-3.5713 J-527.801
G1 X313.917 Y23.9069
G2 X308.3123 Y25.9676 I0.001 J8.6554
X305.2453 Y31.0913 I6.0221 J7.0846
G3 X304.0708 Y32.0394 I-1.1745 J-0.2534
G1 X249.9294
G3 X248.7549 Y31.0918 J-1.2017
G2 X246.7868 Y27.1493 I-8.7022 J1.8818
G3 X245.6264 Y24.667 I3.8518 J-3.313
G2 X242.6241 Y19.2754 I-9.0296 J1.4964
X236.8474 Y17.1048 I-5.7767 J6.6015
G1 X26.1236 Y17.1065
G2 X20.1959 Y19.3651 I0.0001 J8.908
X17.1913 Y24.9518 I6.1675 J6.9184
X17.1077 Y26.1087 I7.969 J1.157
G1 Y325.8912
G2 X19.5074 Y331.9533 I8.8569
X25.3472 Y334.8522 I6.8158 J-6.3987
G1 X56.053 Y334.8874
G2 X58.0988 Y334.5817 I-0.0003 J-6.9983
X60.0175 Y333.8088 I-3.5111 J-11.4847
G3 X61.9684 Y333.8014 I0.9829 J1.9391
G2 X64.0531 Y334.5978 I5.1525 J-10.3602
X66.2646 Y334.8963 I2.2115 J-8.0422
G1 X238.154 Y334.7909
G2 X243.115 Y332.2859 I-1.1904 J-8.5225
X245.6271 Y327.3286 I-6.6069 J-6.4632
G3 X246.7718 Y324.8646 I5.0025 J0.826
G2 X248.0066 Y323.0194 I-7.2746 J-6.204
X248.748 Y320.9268 I-7.4567 J-3.8196
G3 X249.9389 Y319.9606 I1.1909 J0.2509
G1 X304.0708
G3 X305.2453 Y320.9087 J1.2015
G2 X308.3127 Y326.0329 I9.0892 J-1.9608
X313.9183 Y328.0931 I5.6052 J-6.595
G1 X339.0947 Y328.092
G2 X345.0424 Y325.7935 I-0.0004 J-8.8454
X348.0187 Y320.1545 I-6.2928 J-6.9264
G1 X347.9605 Y306.9239
G3 X348.9239 Y305.9607 I0.9633 J0.0001
G1 X360.0761 Y305.9611
G3 X361.0395 Y306.9244 J0.9634
G1 X361.0081 Y320.3469
G2 X369.9232 Y328.0934 I8.8967 J-1.2356
X377.042 Y328.025 I-0.0302 J-373.392
G3 X384.1607 Y327.9565 I7.1489 J373.3236
X385.1239 Y328.9197 I0.0001 J0.9631
G1 X385.1238 Y344.1635
G3 X384.1605 Y345.1268 I-0.9632
G1 X7.8365 Y345.1239
G3 X6.8733 Y344.1607 J-0.9632
G1 X6.8762 Y7.8365
G3 X7.8395 Y6.8732 I0.9632
G1 X19.0205 Y6.8733
G2 X20.776 Y5.703 J-1.9017
G3 X22.5314 Y4.5327 I1.7554 J0.7315
G1 X386.5041 Y4.5355
G3 X387.4673 Y5.4988 J0.9632
G1 X387.4672 Y25.4175
G3 X386.5039 Y26.3809 I-0.9634
G1 X366.3255 Y26.2469
G2 X361.9044 Y27.9672 I0.0006 J6.5427
X359.6997 Y32.1676 I4.7349 J5.1641
G1 X359.7792 Y46.3166
G3 X358.8159 Y47.2798 I-0.9633 J-0.0001
G1 X352.2841 Y47.2793
G3 X351.3207 Y46.316 I0.0001 J-0.9635
G1 X351.3737 Y31.9751
G2 X349.9832 Y28.7979 I-6.3364 J0.88
X347.2 Y26.7287 I-5.5384 J4.5432
X344.1984 Y26.1868 I-2.7344 J6.5626
G3 X341.1489 Y26.2443 I-3.0592 J-81.3452
G1 X313.9173 Y26.2475
G2 X309.5462 Y27.9937 I0.0008 J6.346
X307.396 Y32.1809 I4.9119 J5.168
X307.3672 Y32.7986 I3.3549 J0.4659
G3 X307.381 Y33.4168 I-13.7377 J0.6161
X306.4176 Y34.38 I-0.9634 J-0.0001
G1 X247.5824
G3 X246.619 Y33.4168 J-0.9634
G2 X246.5027 Y31.6493 I-13.5251 J0.002
X245.9676 Y29.9607 I-5.0236 J0.6629
X245.2434 Y28.906 I-4.7684 J2.4981
X244.3388 Y28.0011 I-7.469 J6.5617
G3 X243.4174 Y26.0252 I1.7922 J-2.0385
G2 X241.7267 Y21.7005 I-6.7759 J0.1562
X237.6375 Y19.5003 I-5.0135 J4.4178
G1 X26.1236 Y19.4471
G2 X21.7275 Y21.1351 I0.0001 J6.5687
X19.5076 Y25.2881 I4.6375 J5.1486
X19.4483 Y26.1088 I5.6527 J0.8207
G1 Y325.8912
G2 X21.2467 Y330.387 I6.5188
X25.5916 Y332.5244 I5.0768 J-4.8352
G1 X56.0529 Y332.5544
G2 X58.3453 Y332.0602 I-0.0002 J-5.5649
X60.326 Y330.8048 I-3.4546 J-7.6409
G3 X61.6827 Y330.8158 I0.672 J0.7896
G2 X66.1606 Y332.5547 I4.6137 J-5.2458
G1 X236.8474 Y332.5546
G2 X241.4711 Y330.6049 J-6.4572
X243.4173 Y325.9797 I-4.9128 J-4.7893
G3 X244.3663 Y323.9715 I2.7381 J0.0656
G2 X245.745 Y322.3633 I-4.6223 J-5.3576
X246.5256 Y320.3941 I-4.9893 J-3.1173
X246.6147 Y319.4901 I-4.541 J-0.9036
G3 X246.6174 Y318.5816 I145.5349 J-0.015
X247.585 Y317.62 I0.9676 J0.006
G1 X306.4176
G3 X307.381 Y318.5832 J0.9634
G2 X307.4921 Y320.4034 I15.0014 J-0.0023
X308.0468 Y322.1406 I4.8618 J-0.595
X310.4852 Y324.7546 I6.246 J-3.382
X313.9179 Y325.7525 I3.4328 J-5.4059
G1 X339.0946 Y325.7514
G2 X343.5053 Y324.0284 I-0.0003 J-6.5074
X345.7003 Y319.8325 I-4.7588 J-5.1616
G1 X345.6201 Y304.5832
G3 X346.5835 Y303.62 I0.9633 J0.0001
G1 X362.4165 Y303.6206
G3 X363.3799 Y304.5839 J0.9634
G1 X363.3264 Y320.0249
G2 X369.9231 Y325.7528 I6.5784 J-0.9136
G1 X386.5013 Y325.6158
G3 X387.4645 Y326.5789 I0.0001 J0.9631
G1 X387.4644 Y346.5042
G3 X386.5011 Y347.4674 I-0.9633
G1 X5.4959 Y347.4645
G3 X4.5327 Y346.5013 J-0.9632
G1 X4.5356 Y5.4959
G3 X5.4989 Y4.5326 I0.9632
G1 X22.5314 Y4.5327
G2 X24.1867 Y3.4293 J-1.7932
G3 X25.8419 Y2.3258 I1.6552 J0.6897
G1 X388.7111 Y2.3286
G3 X389.6743 Y3.2918 J0.9632
G1 X389.6741 Y27.6243
G3 X388.7108 Y28.5876 I-0.9634
X377.5182 Y28.5208 I-0.0834 J-922.9909
G2 X366.3257 Y28.4539 I-11.1092 J922.924
X363.3538 Y29.6315 I0.0004 J4.3398
X361.8857 Y32.4711 I3.2902 J3.5004
G1 X361.9859 Y48.5238
G3 X361.0225 Y49.4869 I-0.9633 J-0.0001
G1 X350.0775 Y49.4861
G3 X349.1141 Y48.5227 I0.0001 J-0.9635
G1 X349.1877 Y32.2787
G2 X348.2357 Y30.1457 I-4.1601 J0.5777
X346.3512 Y28.7659 I-3.7958 J3.2073
X343.7657 Y28.3509 I-2.1567 J5.1761
G3 X341.1492 Y28.4513 I-2.6206 J-34.1744
G1 X313.9176 Y28.4545
G2 X310.9676 Y29.643 I0.0005 J4.2566
X309.5231 Y32.4763 I3.3673 J3.5016
X309.5011 Y34.0512 I6.3046 J0.8755
G3 X309.5876 Y35.6237 I-14.2084 J1.5704
X308.6242 Y36.587 I-0.9634 J-0.0001
G1 X245.3758
G3 X244.4124 Y35.6237 J-0.9634
X244.447 Y32.952 I101.8279 J-0.0153
G2 X243.6418 Y30.4042 I-4.0953 J-0.1069
X242.9489 Y29.6854 I-3.1219 J2.3161
X242.1196 Y29.1296 I-3.6965 J4.6184
G3 X241.2122 Y27.5897 I0.8535 J-1.5402
X241.224 Y25.7876 I134.118 J-0.0239
G2 X240.7733 Y24.0428 I-3.4267 J-0.0454
X239.1321 Y22.3191 I-4.3116 J2.462
X236.8474 Y21.6524 I-2.2847 J3.5812
G1 X26.1236 Y21.6541
G2 X23.1716 Y22.804 J4.3643
X21.6916 Y25.6052 I3.1962 J3.4801
X21.6553 Y26.1088 I3.4686 J0.5036
G1 Y325.8912
G2 X22.8867 Y328.9102 I4.3164
X25.822 Y330.3295 I3.4373 J-3.3638
G1 X56.0528 Y330.3474
G2 X59.0364 Y329.1725 I-0.0002 J-4.3764
X60.5146 Y326.327 I-3.2639 J-3.5021
G1 X60.5574 Y305.9234
G3 X60.9253 Y305.5481 I0.4568 J0.0799
X61.394 Y305.7858 I0.0819 J0.4195
G1 X61.4274 Y305.8673
X61.4396 Y305.9097
X61.4468 Y305.9532
X61.5121 Y326.5194
G2 X63.1494 Y329.2995 I4.1558 J-0.5753
X66.2008 Y330.3481 I3.1467 J-4.1927
G1 X236.8474 Y330.3477
G2 X239.798 Y329.1543 J-4.2445
X241.239 Y326.3165 I-3.3913 J-3.5068
X241.2585 Y325.36 I-4.0507 J-0.5608
G3 X241.2122 Y324.4044 I9.8101 J-0.9538
X242.1031 Y322.877 I1.7552 J0.0003
G2 X243.6117 Y321.5888 I-2.5605 J-4.5256
X244.4463 Y319.7891 I-3.2947 J-2.6213
X244.5135 Y318.0818 I-5.3565 J-1.0658
G3 X244.413 Y316.3763 I14.4223 J-1.7056
X245.3762 Y315.413 I0.9632
G1 X308.6242
G3 X309.5876 Y316.3763 J0.9634
X309.5225 Y319.0779 I-55.6962 J0.0084
G2 X310.3143 Y321.6618 I3.9826 J0.1928
X311.5472 Y322.8293 I4.0263 J-3.0171
X313.1237 Y323.4599 I2.282 J-3.4185
X313.5191 Y323.5199 I1.557 J-8.9367
X313.9181 Y323.5455 I0.3989 J-3.0896
G1 X339.0945 Y323.5445
G2 X342.056 Y322.364 I-0.0002 J-4.3054
X343.5143 Y319.5289 I-3.3154 J-3.498
G1 X343.4134 Y302.3812
G3 X344.3772 Y301.4151 I0.9661 J0.0001
G1 X364.6233 Y301.4137
G3 X365.5866 Y302.377 J0.9634
G1 X365.5124 Y319.7213
G2 X369.9229 Y323.5459 I4.3924 J-0.61
G1 X388.7083 Y323.4086
G3 X389.6715 Y324.3718 I0.0001 J0.9631
G1 X389.6713 Y348.7112
G3 X388.7081 Y349.6744 I-0.9632
G1 X3.2889 Y349.6714
G3 X2.3257 Y348.7082 J-0.9632
G1 X2.3287 Y3.2889
G3 X3.292 Y2.3256 I0.9632
G1 X25.8419 Y2.3258
G2 X27.586 Y1.1631 J-1.8895
G3 X29.3302 Y0.0003 I1.7441 J0.7267
G1 X391.991 Y0.0031
X391.9959 Y0.004
X391.9998 Y0.0395
X391.9968 Y351.9919
X391.9595 Y351.9999
X0.009 Y351.9969
X0.0041 Y351.9961
X0.0002 Y351.9605
X0.0032 Y0.0081
X0.0405 Y0.0001
X29.3302 Y0.0003
X29.379 Y0.0041 Z-3.9922
X29.4267 Y0.0154 Z-3.9845
X29.4678 Y0.0317 Z-3.9619
X29.5062 Y0.0536 Z-3.9394
X29.5599 Y0.0987 Z-3.8691
X29.5886 Y0.1334 Z-3.7806
X29.5973 Y0.1463 Z-3.6825
G0 Z5
X29.915 Y20.6168
Z1
G1 Z-3.6825 F3500
G19 G3 Y20.9343 Z-4 J0.3175
G1 Y23.7978
G17 G3 X29.5975 Y24.1153 I-0.3175
G1 X26.1236
G2 X25.9501 Y24.1298 J1.0437
G1 X25.7575 Y24.1623
G2 X25.5638 Y24.2145 I0.1735 J1.0292
G1 X25.3711 Y24.2869
G2 X25.198 Y24.3709 I0.3672 J0.977
G1 X25.045 Y24.4634
G2 X24.8963 Y24.5725 I0.5402 J0.8931
G1 X24.7536 Y24.6979
G2 X24.6194 Y24.8401 I0.689 J0.7841
G1 X24.4957 Y24.9988
G2 X24.3888 Y25.1668 I0.8231 J0.6418
G1 X24.2994 Y25.3424
G2 X24.2289 Y25.519 I0.93 J0.4738
G1 X24.1767 Y25.6945
G2 X24.1443 Y25.8418 I1.0005 J0.2972
G1 X24.1273 Y25.9588
G2 X24.1165 Y26.1088 I1.0329 J0.15
G1 Y325.8912
G2 X24.1321 Y326.0709 I1.0437
G1 X24.1628 Y326.2465
G2 X24.2098 Y326.4228 I1.0282 J-0.1797
G1 X24.2735 Y326.5984
G2 X24.3553 Y326.7721 I0.9812 J-0.356
G1 X24.4554 Y326.9421
G2 X24.5763 Y327.1076 I0.8993 J-0.5297
G1 X24.718 Y327.2663
G2 X24.8574 Y327.3962 I0.7785 J-0.6953
G1 X24.9906 Y327.4994
G2 X25.1436 Y327.5978 I0.639 J-0.8253
G1 X25.3164 Y327.6888
G2 X25.4999 Y327.764 I0.4861 J-0.9236
G1 X25.6926 Y327.8224
G2 X25.8862 Y327.8615 I0.3026 J-0.9989
G1 X26.0789 Y327.8817
G2 X26.1879 Y327.8874 I0.109 J-1.0381
G1 X56.0527 Y327.8862
G2 X56.2024 Y327.8754 J-1.0438
G1 X56.3951 Y327.8475
G2 X56.5887 Y327.8002 I-0.1497 J-1.033
G1 X56.7814 Y327.733
G2 X56.9576 Y327.6526 I-0.3434 J-0.9857
G1 X57.1165 Y327.5614
G2 X57.2735 Y327.451 I-0.5195 J-0.9053
G1 X57.4263 Y327.3209
G2 X57.5695 Y327.1722 I-0.6765 J-0.7948
G1 X57.7009 Y327.0056
G2 X57.8074 Y326.8405 I-0.8197 J-0.6461
G1 X57.8907 Y326.6802
G2 X57.9579 Y326.5191 I-0.9263 J-0.4811
G1 X58.0096 Y326.3587
G2 X58.05 Y326.1819 I-0.9935 J-0.32
G1 X58.0766 Y325.9894
G2 X58.0865 Y325.8465 I-1.0339 J-0.1432
G1 X58.0912 Y305.8717
X58.1049 Y305.6883
X58.1317 Y305.4993
X58.1711 Y305.31
X58.2237 Y305.1221
X58.2909 Y304.9331
X58.3702 Y304.7507
X58.5209 Y304.4728
X58.5874 Y304.3698
X58.6933 Y304.2237
X58.9005 Y303.9832
X59.0501 Y303.838
X59.2054 Y303.7067
X59.3266 Y303.6171
X59.5861 Y303.4549
X59.7693 Y303.3614
X59.9646 Y303.2788
X60.0854 Y303.2355
X60.3413 Y303.1639
X60.5261 Y303.1273
X60.7161 Y303.1021
X60.9045 Y303.0896
X61.0927 Y303.0895
X61.2809 Y303.1018
X61.4711 Y303.1269
X61.6556 Y303.1632
X61.913 Y303.2351
X62.0662 Y303.2905
X62.225 Y303.3586
X62.4108 Y303.4532
X62.6707 Y303.6154
X62.8229 Y303.7295
X62.9866 Y303.8712
X63.1025 Y303.9857
X63.2377 Y304.1377
X63.4124 Y304.3706
X63.5283 Y304.5561
X63.6235 Y304.7376
X63.7459 Y305.0306
X63.774 Y305.1139
X63.8289 Y305.31
X63.8683 Y305.4993
X63.8951 Y305.6883
X63.9088 Y305.8717
X63.9135 Y325.8465
G2 X63.9234 Y325.9894 I1.0437 J-0.0002
G1 X63.95 Y326.1819
G2 X63.9959 Y326.3753 I1.0339 J-0.1431
G1 X64.0615 Y326.5677
G2 X64.1425 Y326.7477 I0.988 J-0.3365
G1 X64.2373 Y326.9142
G2 X64.3329 Y327.0542 I0.907 J-0.5166
G1 X64.4255 Y327.1687
G2 X64.5357 Y327.2852 I0.8114 J-0.6565
G1 X64.6641 Y327.4017
G2 X64.7934 Y327.5018 I0.7013 J-0.7731
G1 X64.9219 Y327.5859
G2 X65.0819 Y327.6718 I0.5719 J-0.8731
G1 X65.2746 Y327.7546
G2 X65.4684 Y327.8163 I0.4119 J-0.959
G1 X65.6611 Y327.8575
G2 X65.8602 Y327.8803 I0.2181 J-1.0207
G1 X66.2455 Y327.8873
X66.2645 Y327.8875
X236.8474 Y327.8864
G2 X236.9918 Y327.8764 J-1.0437
G1 X237.1845 Y327.8495
G2 X237.3781 Y327.8033 I-0.1444 J-1.0337
G1 X237.5708 Y327.7373
G2 X237.7566 Y327.6526 I-0.338 J-0.9875
G1 X237.9337 Y327.5498
G2 X238.0957 Y327.4338 I-0.5239 J-0.9028
G1 X238.2417 Y327.3065
G2 X238.3783 Y327.1624 I-0.6859 J-0.7868
G1 X238.5036 Y327.0021
G2 X238.5992 Y326.856 I-0.8224 J-0.6427
G1 X238.6686 Y326.7277
G2 X238.7385 Y326.5677 I-0.9181 J-0.4965
G1 X238.8041 Y326.3753
G2 X238.85 Y326.1819 I-0.988 J-0.3365
G1 X238.8766 Y325.9894
G2 X238.8865 Y325.8465 I-1.0339 J-0.1431
G1 X238.8873 Y321.0868
X240.0595 Y321.0859
G2 X240.2144 Y321.0742 I-0.0008 J-1.0438
G1 X240.4071 Y321.0451
G2 X240.6008 Y320.9966 I-0.1557 J-1.0321
G1 X240.7934 Y320.9281
G2 X240.9756 Y320.8428 I-0.3494 J-0.9835
G1 X241.146 Y320.742
G2 X241.2962 Y320.6341 I-0.5316 J-0.8982
G1 X241.4264 Y320.5217
G2 X241.5388 Y320.4087 I-0.6818 J-0.7903
G1 X241.6339 Y320.2971
G2 X241.7249 Y320.1729 I-0.7942 J-0.6773
G1 X241.8104 Y320.0362
G2 X241.8931 Y319.8739 I-0.8852 J-0.5531
G1 X241.9691 Y319.6857
G2 X242.0249 Y319.4986 I-0.9678 J-0.3908
G1 X242.0615 Y319.3146
G2 X242.0816 Y319.1173 I-1.0237 J-0.2037
G1 X242.0875 Y318.1551
Y318.1487
Y313.0875
X311.9127
X311.9135 Y319.0469
G2 X311.9235 Y319.1903 I1.0438 J-0.0002
G1 X311.9502 Y319.3828
G2 X311.9962 Y319.5762 I1.0338 J-0.1436
G1 X312.0618 Y319.7686
G2 X312.1318 Y319.9286 I0.9879 J-0.337
G1 X312.2013 Y320.0569
G2 X312.2839 Y320.1859 I0.9178 J-0.497
G1 X312.38 Y320.3141
G2 X312.4983 Y320.4467 I0.8352 J-0.6259
G1 X312.6399 Y320.5806
G2 X312.799 Y320.7042 I0.717 J-0.7585
G1 X312.9746 Y320.8154
G2 X313.1598 Y320.9082 I0.558 J-0.8821
G1 X313.3524 Y320.9818
G2 X313.5461 Y321.0352 I0.3729 J-0.9749
G1 X313.7388 Y321.0688
G2 X313.918 Y321.0843 I0.1791 J-1.0283
G1 X339.0944 Y321.0833
G2 X339.2859 Y321.0655 I-0.0001 J-1.0438
G1 X339.4786 Y321.0295
G2 X339.6723 Y320.9735 I-0.1916 J-1.026
G1 X339.865 Y320.897
G2 X340.0485 Y320.8022 I-0.3853 J-0.97
G1 X340.2211 Y320.69
G2 X340.3736 Y320.5692 I-0.5688 J-0.8752
G1 X340.506 Y320.4426
G2 X340.62 Y320.3141 I-0.7213 J-0.7544
G1 X340.7161 Y320.1859
G2 X340.7987 Y320.0569 I-0.8353 J-0.6259
G1 X340.8682 Y319.9286
G2 X340.9382 Y319.7686 I-0.9178 J-0.497
G1 X341.0038 Y319.5762
G2 X341.0498 Y319.3828 I-0.9879 J-0.337
G1 X341.0765 Y319.1903
G2 X341.0865 Y319.0468 I-1.0338 J-0.1436
G1 X341.088 Y300.9879
X341.0988 Y300.8016
X341.1147 Y300.6851
X341.1394 Y300.5603
X341.1587 Y300.4873
X341.2185 Y300.3093
X341.2932 Y300.1405
X341.3687 Y300.0049
X341.506 Y299.8091
X341.6454 Y299.6517
X341.7166 Y299.5833
X341.8396 Y299.4812
X341.9894 Y299.378
X342.1339 Y299.2966
X342.3022 Y299.2212
X342.4652 Y299.1659
X342.6636 Y299.1192
X342.8826 Y299.0931
X345.2612 Y299.0875
X366.0332 Y299.0883
X366.2151 Y299.1008
X366.3297 Y299.1174
X366.5465 Y299.1693
X366.7086 Y299.2256
X366.8779 Y299.3026
X367.0162 Y299.3815
X367.1587 Y299.4799
X367.2828 Y299.5835
X367.4396 Y299.743
X367.5396 Y299.8673
X367.6323 Y300.0055
X367.7069 Y300.1404
X367.7822 Y300.3092
X367.8388 Y300.4795
X367.8706 Y300.6065
X367.9017 Y300.8102
X367.912 Y300.9879
X367.9136 Y319.0468
G2 X367.9235 Y319.1903 I1.0437 J-0.0001
G1 X367.9502 Y319.3828
G2 X367.9962 Y319.5762 I1.0338 J-0.1436
G1 X368.0618 Y319.7686
G2 X368.1318 Y319.9286 I0.9879 J-0.337
G1 X368.2013 Y320.0569
G2 X368.2839 Y320.1859 I0.9178 J-0.497
G1 X368.38 Y320.3141
G2 X368.4999 Y320.4482 I0.8353 J-0.6259
G1 X368.645 Y320.5848
G2 X368.8065 Y320.7095 I0.7154 J-0.76
G1 X368.9833 Y320.8202
G2 X369.169 Y320.9122 I0.554 J-0.8846
G1 X369.3617 Y320.9849
G2 X369.5554 Y321.0373 I0.3682 J-0.9767
G1 X369.7481 Y321.0699
G2 X369.9227 Y321.0847 I0.1745 J-1.0291
G1 X389.8968 Y321.083
G2 X390.0906 Y321.0648 I-0.0001 J-1.0438
G1 X390.2833 Y321.0284
G2 X390.4771 Y320.972 I-0.1939 J-1.0256
G1 X390.6697 Y320.8949
G2 X390.8298 Y320.8143 I-0.3877 J-0.9691
G1 X390.9583 Y320.7351
G2 X391.0825 Y320.6452 I-0.5477 J-0.8885
G1 X391.2018 Y320.5449
G2 X391.3153 Y320.4335 I-0.672 J-0.7986
G1 X391.4222 Y320.3113
G2 X391.5165 Y320.1855 I-0.7856 J-0.6872
G1 X391.5984 Y320.0572
G2 X391.6819 Y319.8973 I-0.8799 J-0.5614
G1 X391.7621 Y319.7049
G2 X391.8215 Y319.5114 I-0.9634 J-0.4016
G1 X391.8607 Y319.3189
G2 X391.8816 Y319.1173 I-1.0228 J-0.208
G1 X391.8875 Y318.1551
Y318.1487
X391.8844 Y245.9197
G2 X391.8692 Y245.7424 I-1.0437
G1 X391.8361 Y245.55
G2 X391.7832 Y245.3565 I-1.0286 J0.1773
G1 X391.7101 Y245.1641
G2 X391.6331 Y245.0042 I-0.9757 J0.3708
G1 X391.5574 Y244.8759
G2 X391.4675 Y244.7469 I-0.8988 J0.5307
G1 X391.3628 Y244.6186
G2 X391.2391 Y244.4908 I-0.8088 J0.6597
G1 X391.0956 Y244.366
G2 X390.9583 Y244.265 I-0.6851 J0.7874
G1 X390.8298 Y244.1858
G2 X390.6697 Y244.1052 I-0.5477 J0.8885
G1 X390.4771 Y244.0281
G2 X390.2833 Y243.9716 I-0.3877 J0.9691
G1 X390.0906 Y243.9352
G2 X389.8968 Y243.917 I-0.1939 J1.0256
G1 X334.0875 Y243.9126
Y163.0874
X389.8968 Y163.083
G2 X390.0906 Y163.0648 I-0.0001 J-1.0437
G1 X390.2833 Y163.0284
G2 X390.4771 Y162.9719 I-0.1939 J-1.0256
G1 X390.6697 Y162.8949
G2 X390.8298 Y162.8143 I-0.3877 J-0.9691
G1 X390.9583 Y162.7351
G2 X391.0998 Y162.6304 I-0.5477 J-0.8885
G1 X391.2508 Y162.4976
G2 X391.3838 Y162.3567 I-0.6893 J-0.7838
G1 X391.4985 Y162.21
G2 X391.5902 Y162.0712 I-0.8222 J-0.643
G1 X391.661 Y161.9429
G2 X391.7325 Y161.7829 I-0.9139 J-0.5041
G1 X391.7997 Y161.5905
G2 X391.8471 Y161.397 I-0.9854 J-0.3442
G1 X391.8752 Y161.2046
G2 X391.8861 Y161.0539 I-1.0328 J-0.1507
G1 X391.8864 Y32.9533
G2 X391.8765 Y32.8097 I-1.0437
G1 X391.8498 Y32.6173
G2 X391.8038 Y32.4238 I-1.0338 J0.1436
G1 X391.7382 Y32.2314
G2 X391.6682 Y32.0714 I-0.9879 J0.337
G1 X391.5987 Y31.9431
G2 X391.5161 Y31.8142 I-0.9178 J0.497
G1 X391.42 Y31.6859
G2 X391.3165 Y31.5675 I-0.8352 J0.6259
G1 X391.2065 Y31.4594
G2 X391.087 Y31.3584 I-0.7317 J0.7443
G1 X390.9586 Y31.2653
G2 X390.7986 Y31.17 I-0.6123 J0.8453
G1 X390.606 Y31.0773
G2 X390.4121 Y31.0067 I-0.4523 J0.9406
G1 X390.2194 Y30.9575
G2 X390.0579 Y30.9295 I-0.2585 J1.0112
G1 X389.9294 Y30.9175
X389.8324 Y30.913
X366.3259 Y30.9151
G2 X366.1548 Y30.9293 I0.0001 J1.0438
G1 X365.9622 Y30.9613
G2 X365.7685 Y31.013 I0.1711 J1.0296
G1 X365.5758 Y31.0849
G2 X365.3896 Y31.1763 I0.3648 J0.9779
G1 X365.2119 Y31.2868
G2 X365.0487 Y31.4121 I0.551 J0.8865
G1 X364.901 Y31.5507
G2 X364.78 Y31.6859 I0.7143 J0.7611
G1 X364.6839 Y31.8142
G2 X364.6013 Y31.9431 I0.8353 J0.6259
G1 X364.5318 Y32.0714
G2 X364.4618 Y32.2314 I0.9178 J0.497
G1 X364.3962 Y32.4238
G2 X364.3502 Y32.6173 I0.9879 J0.337
G1 X364.3235 Y32.8097
G2 X364.3136 Y32.9531 I1.0338 J0.1436
G1 X364.311 Y51.1108
X364.2975 Y51.2276
X364.267 Y51.3427
X364.2421 Y51.4025
X364.1694 Y51.5224
X364.1093 Y51.5937
X364.0221 Y51.6706
X363.9472 Y51.7196
X363.8728 Y51.7558
X363.7846 Y51.7858
X363.688 Y51.8056
X362.2131 Y51.8125
X347.4889 Y51.8114
X347.4066 Y51.8043
X347.31 Y51.784
X347.2143 Y51.7502
X347.1417 Y51.7132
X347.062 Y51.6589
X346.9941 Y51.5978
X346.9306 Y51.5224
X346.8624 Y51.41
X346.8185 Y51.2994
X346.8034 Y51.237
X346.7889 Y51.111
X346.7865 Y32.9531
G2 X346.7766 Y32.8097 I-1.0437 J0.0001
G1 X346.7498 Y32.6173
G2 X346.7039 Y32.4238 I-1.0338 J0.1436
G1 X346.6382 Y32.2314
G2 X346.5682 Y32.0714 I-0.9879 J0.337
G1 X346.4987 Y31.9431
G2 X346.4162 Y31.8142 I-0.9178 J0.497
G1 X346.32 Y31.6859
G2 X346.2154 Y31.5664 I-0.8352 J0.6259
G1 X346.103 Y31.4563
G2 X345.9595 Y31.3387 I-0.7306 J0.7454
G1 X345.7829 Y31.2186
G2 X345.5972 Y31.118 I-0.5871 J0.8629
G1 X345.4045 Y31.0378
G2 X345.2108 Y30.9783 I-0.4014 J0.9635
G1 X345.0181 Y30.9392
G2 X344.8121 Y30.9184 I-0.2077 J1.0229
G1 X341.1512 Y30.9125
X313.9178 Y30.9157
G2 X313.7388 Y30.9312 I0.0001 J1.0438
G1 X313.5461 Y30.9648
G2 X313.3524 Y31.0182 I0.1792 J1.0283
G1 X313.1598 Y31.0919
G2 X312.9746 Y31.1847 I0.3729 J0.9749
G1 X312.799 Y31.2958
G2 X312.6399 Y31.4194 I0.558 J0.8821
G1 X312.4983 Y31.5533
G2 X312.38 Y31.6859 I0.717 J0.7585
G1 X312.2839 Y31.8142
G2 X312.2013 Y31.9431 I0.8353 J0.6259
G1 X312.1318 Y32.0714
G2 X312.0618 Y32.2314 I0.9178 J0.497
G1 X311.9962 Y32.4238
G2 X311.9502 Y32.6173 I0.9879 J0.337
G1 X311.9235 Y32.8097
G2 X311.9135 Y32.9531 I1.0338 J0.1436
G1 X311.9127 Y38.9125
X242.0873
X242.0864 Y32.9531
G2 X242.0768 Y32.8119 I-1.0437 J0.0002
G1 X242.0511 Y32.6236
G2 X242.0085 Y32.4389 I-1.0341 J0.1414
G1 X241.9493 Y32.2592
G2 X241.8824 Y32.101 I-0.9915 J0.3261
G1 X241.8107 Y31.9642
G2 X241.7244 Y31.8267 I-0.9246 J0.4844
G1 X241.623 Y31.6899
G2 X241.5082 Y31.5595 I-0.8383 J0.6219
G1 X241.3804 Y31.4366
G2 X241.2315 Y31.3176 I-0.7235 J0.7523
G1 X241.0612 Y31.2053
G2 X240.8893 Y31.1137 I-0.5746 J0.8714
G1 X240.7183 Y31.0422
G2 X240.5358 Y30.9849 I-0.4027 J0.9629
G1 X240.3432 Y30.9433
G2 X240.1622 Y30.9205 I-0.2202 J1.0202
G1 X239.9695 Y30.9132
X239.9302 Y30.9125
X238.8873
X238.8865 Y26.1536
G2 X238.8766 Y26.0106 I-1.0437 J0.0002
G1 X238.85 Y25.8182
G2 X238.8041 Y25.6248 I-1.0339 J0.1431
G1 X238.7385 Y25.4323
G2 X238.6569 Y25.2513 I-0.988 J0.3365
G1 X238.5608 Y25.0829
G2 X238.4618 Y24.939 I-0.9064 J0.5176
G1 X238.3633 Y24.8188
G2 X238.2418 Y24.6935 I-0.8074 J0.6615
G1 X238.0957 Y24.5662
G2 X237.9337 Y24.4502 I-0.6859 J0.7868
G1 X237.7566 Y24.3474
G2 X237.5708 Y24.2627 I-0.5239 J0.9028
G1 X237.3781 Y24.1968
G2 X237.1845 Y24.1505 I-0.338 J0.9875
G1 X236.9918 Y24.1236
G2 X236.8474 Y24.1136 I-0.1444 J1.0337
G1 X29.5975 Y24.1153
X29.5487 Y24.1115 Z-3.9922
X29.501 Y24.1002 Z-3.9845
X29.4599 Y24.0839 Z-3.9619
X29.4215 Y24.062 Z-3.9394
X29.3678 Y24.0169 Z-3.8691
X29.3391 Y23.9822 Z-3.7806
X29.3304 Y23.9693 Z-3.6825
G0 Z5
X16.3376 Y15.1867
Z3
G1 Z-1.5827 F1200
X16.3306 Y15.1998 Z-1.6787
X16.3095 Y15.2375 Z-1.7657
X16.2744 Y15.2951 Z-1.8356
X16.2263 Y15.3658 Z-1.8818
X16.168 Y15.4413 Z-1.9
G3 X16.3169 Y15.2246 Z-2.2217 I-1.164 J-0.9589
X16.4258 Y14.9853 Z-2.5434 I-1.3128 J-0.7422
X16.4915 Y14.7308 Z-2.8651 I-1.4218 J-0.503
X16.5121 Y14.4687 Z-3.1868 I-1.4875 J-0.2484
X16.4868 Y14.2071 Z-3.5086 I-1.5081 J0.0136
X16.4165 Y13.9538 Z-3.8303 I-1.4828 J0.2753
X16.3032 Y13.7165 Z-4.152 I-1.4125 J0.5286
X16.1505 Y13.5026 Z-4.4737 I-1.2992 J0.7658
X15.9629 Y13.3184 Z-4.7954 I-1.1465 J0.9798
X15.7462 Y13.1695 Z-5.1171 I-0.9589 J1.164
X15.507 Y13.0606 Z-5.4388 I-0.7422 J1.3128
X15.2525 Y12.9948 Z-5.7605 I-0.503 J1.4218
X13.4959 Y14.4823 Z-6 I-0.2484 J1.4875
G1 Y14.4562 F3500
G3 X14.4591 Y13.493 I0.9632
G1 X15.9646
G3 X16.2325 Y14.2283 J0.4165
G2 X15.1849 Y15.1845 I11.1558 J13.2736
X14.2287 Y16.2321 I9.9539 J10.0469
G3 X13.4959 Y15.9688 I-0.3191 J-0.2632
G1 Y14.4823
X13.4997 Y14.4335 Z-5.9922
X13.5109 Y14.3858 Z-5.9845
X13.5273 Y14.3447 Z-5.9619
X13.5492 Y14.3063 Z-5.9394
X13.5943 Y14.2526 Z-5.8691
X13.629 Y14.2239 Z-5.7806
X13.6419 Y14.2152 Z-5.6825
G0 Z5
X256.5515 Y21.5432
Z3
G1 Z-1.5827 F1200
X256.5385 Y21.5362 Z-1.6787
X256.5007 Y21.5152 Z-1.7657
X256.4431 Y21.4801 Z-1.8356
X256.3725 Y21.432 Z-1.8818
X256.2969 Y21.3737 Z-1.9
G3 X256.5136 Y21.5225 Z-2.2217 I0.9589 J-1.164
X256.7529 Y21.6315 Z-2.5434 I0.7422 J-1.3128
X257.0074 Y21.6972 Z-2.8651 I0.503 J-1.4218
X257.2695 Y21.7178 Z-3.1868 I0.2484 J-1.4875
X257.5312 Y21.6925 Z-3.5086 I-0.0136 J-1.5081
X257.7845 Y21.6221 Z-3.8303 I-0.2753 J-1.4828
X258.0217 Y21.5089 Z-4.152 I-0.5286 J-1.4125
X258.2357 Y21.3562 Z-4.4737 I-0.7658 J-1.2992
X258.4199 Y21.1686 Z-4.7954 I-0.9798 J-1.1465
X258.5687 Y20.9519 Z-5.1171 I-1.164 J-0.9589
X258.6776 Y20.7127 Z-5.4388 I-1.3128 J-0.7422
X258.7434 Y20.4581 Z-5.7605 I-1.4218 J-0.503
X257.2559 Y18.7016 Z-6 I-1.4875 J-0.2484
G1 X297.8482 Y18.7019 F3500
G3 X298.2081 Y19.4829 J0.4734
G2 X297.8229 Y19.9478 I15.0072 J12.8289
G3 X297.2696 Y20.213 I-0.5533 J-0.4444
G1 X257.2227
G3 X256.5493 Y19.7274 J-0.7096
G1 X256.5007 Y19.5831
G3 X257.1317 Y18.7016 I0.631 J-0.2149
G1 X257.2559
G2 X258.6463 Y17.7746 J-1.5063
G3 X260.0368 Y16.8476 I1.3905 J0.5794
G1 X302.8159 Y16.848
G3 X303.0424 Y17.5616 J0.3927
G2 X299.192 Y21.2044 I10.7096 J15.176
G3 X297.4084 Y22.067 I-1.7837 J-1.4128
G1 X256.2687
G3 X255.0426 Y21.137 J-1.2733
G2 X253.7108 Y17.6882 I-18.6734 J5.2295
G3 X254.2274 Y16.8476 I0.5166 J-0.2615
G1 X260.0368
X260.0857 Y16.8514 Z-5.9922
X260.1334 Y16.8627 Z-5.9845
X260.1745 Y16.879 Z-5.9619
X260.2129 Y16.9009 Z-5.9394
X260.2666 Y16.946 Z-5.8691
X260.2953 Y16.9807 Z-5.7806
X260.304 Y16.9936 Z-5.6825
G0 Z5
X357.4604 Y15.8313
Z3
G1 Z-1.5827 F1200
X357.4665 Y15.8449 Z-1.6787
X357.4832 Y15.8847 Z-1.7657
X357.5071 Y15.9478 Z-1.8356
X357.5333 Y16.0292 Z-1.8818
X357.557 Y16.1216 Z-1.9
G3 X357.4776 Y15.871 Z-2.2217 I-1.4719 J0.3287
X357.3558 Y15.638 Z-2.5434 I-1.3924 J0.5793
X357.1955 Y15.4297 Z-2.8651 I-1.2707 J0.8123
X357.0014 Y15.2524 Z-3.1868 I-1.1103 J1.0206
X356.7795 Y15.1115 Z-3.5086 I-0.9162 J1.1979
X356.5364 Y15.0112 Z-3.8303 I-0.6943 J1.3388
X356.2797 Y14.9547 Z-4.152 I-0.4513 J1.439
X356.017 Y14.9437 Z-4.4737 I-0.1945 J1.4955
X355.7565 Y14.9784 Z-4.7954 I0.0681 J1.5066
X355.5059 Y15.0578 Z-5.1171 I0.3287 J1.4719
X355.2729 Y15.1796 Z-5.4388 I0.5793 J1.3924
X355.0646 Y15.34 Z-5.7605 I0.8123 J1.2707
X355.1581 Y17.6398 Z-6 I1.0206 J1.1103
G2 X355.067 Y17.5734 I-1.0743 J1.3786 F3500
X354.786 Y17.3903 I-4.7294 J6.9509
G1 X354.4766 Y17.1974
G3 X354.6763 Y16.4996 I0.1997 J-0.3203
G1 X356.4283
G3 X356.6278 Y17.1986 J0.378
G2 X356.2339 Y17.4476 I16.0357 J25.7986
X355.8456 Y17.7054 I8.5636 J13.3172
G3 X355.2493 Y17.7063 I-0.2988 J-0.4359
X355.1581 Y17.6398 I1.0052 J-1.4752
G2 X353.8961 Y17.5955 I-0.6616 J0.8502
G3 X352.6347 Y17.6534 I-0.6784 J-1.0108
G2 X351.5597 Y17.1059 I-10.2037 J18.7036
X348.0631 Y15.9411 I-6.5281 J13.7667
X344.7459 Y15.608 I-3.3152 J16.3289
G1 X313.916 Y15.6116
G2 X306.1711 Y17.5474 I0.002 J16.4696
X300.1173 Y22.7513 I8.5905 J16.1167
G3 X298.1447 Y23.7414 I-1.9726 J-1.4699
G1 X255.7384
G3 X253.9428 Y22.8338 J-2.2299
G1 X253.9131 Y22.7935
G3 X253.5419 Y22.0092 I1.7915 J-1.3278
G2 X250.6884 Y15.955 I-16.815 J4.2258
G3 X251.0825 Y15.1731 I0.3941 J-0.2916
G1 X376.2639 Y15.174
G3 Y15.7432 J0.2846
X366.6362 Y15.6787 I-0.0641 J-709.0128
G2 X357.3605 Y18.259 I-0.2311 J17.1314
X356.8536 Y18.604 I3.9006 J6.2754
G3 X356.3577 Y18.9648 I-17.9556 J-24.1591
X354.7407 Y18.9671 I-0.8101 J-1.1377
G2 X352.6347 Y17.6534 I-12.3098 J17.3899
X351.1045 Y17.8107 I-0.6506 J1.1926
G3 X349.5924 Y18.0935 I-1.0034 J-1.181
G2 X347.7297 Y17.5832 I-4.7291 J13.6083
X344.4463 Y17.2686 I-3.1378 J15.4551
G3 X341.1479 Y17.284 I-3.3413 J-361.7674
G1 X313.9162 Y17.2872
G2 X306.5595 Y19.2269 I0.0018 J14.9277
X300.997 Y24.4174 I8.0419 J14.1942
G3 X299.1317 Y25.4197 I-1.8653 J-1.2345
G1 X254.8697
G3 X253.0027 Y24.4174 J-2.2398
G2 X252.7372 Y24.032 I-10.871 J7.2056
X252.4617 Y23.6538 I-22.3043 J15.9644
G3 X251.948 Y22.5553 I2.4406 J-1.8106
G2 X250.0927 Y18.0849 I-15.0592 J3.6295
X246.9672 Y14.3894 I-13.6424 J8.3688
X246.8685 Y14.3094 I-1.172 J1.3444
G3 X246.7691 Y14.2302 I1.4217 J-1.8869
X247.0373 Y13.4948 I0.2682 J-0.3188
G1 X377.5437 Y13.4958
G3 X378.507 Y14.459 J0.9632
G1 X378.5069 Y16.458
G3 X377.5437 Y17.4213 I-0.9633
G1 X366.3246 Y17.2866
G2 X360.9472 Y18.3223 I0.0013 J14.4854
X356.2675 Y21.1665 I6.1643 J15.4143
G3 X354.837 Y21.1685 I-0.7164 J-0.8304
G2 X351.5126 Y18.9214 I-11.4194 J13.3119
X349.5924 Y18.0935 I-6.6493 J12.7803
G1 X349.5472 Y18.0746 Z-5.9922
X349.5054 Y18.0489 Z-5.9845
X349.4715 Y18.0205 Z-5.9619
X349.4419 Y17.9877 Z-5.9394
X349.4051 Y17.9281 Z-5.8691
X349.3887 Y17.8861 Z-5.7806
X349.3844 Y17.8711 Z-5.6825
G0 Z5
X361.0843 Y191.3362
Z3
G1 Z-1.5827 F1200
X361.0913 Y191.323 Z-1.6787
X361.1124 Y191.2854 Z-1.7657
X361.1475 Y191.2277 Z-1.8356
X361.1956 Y191.1571 Z-1.8818
X361.2538 Y191.0815 Z-1.9
G3 X361.105 Y191.2982 Z-2.2217 I1.164 J0.9589
X360.9961 Y191.5375 Z-2.5434 I1.3129 J0.7422
X360.9303 Y191.792 Z-2.8651 I1.4218 J0.503
X360.9098 Y192.0541 Z-3.1868 I1.4875 J0.2484
X360.9351 Y192.3158 Z-3.5086 I1.5081 J-0.0136
X361.0054 Y192.5691 Z-3.8303 I1.4828 J-0.2753
X361.1187 Y192.8063 Z-4.152 I1.4125 J-0.5286
X361.2714 Y193.0203 Z-4.4737 I1.2992 J-0.7659
X361.459 Y193.2045 Z-4.7954 I1.1465 J-0.9798
X361.6757 Y193.3533 Z-5.1171 I0.9589 J-1.164
X361.9149 Y193.4622 Z-5.4388 I0.7422 J-1.3128
X362.1694 Y193.528 Z-5.7605 I0.503 J-1.4218
X363.926 Y192.0405 Z-6 I0.2484 J-1.4875
G1 X363.9258 Y214.9136 F3500
G3 X362.1597 I-0.883
G1 Y191.867
G3 X362.8693 Y191.1573 I0.7097
G1 X363.2163
G3 X363.926 Y191.867 I0.0001 J0.7096
G1 Y192.0405
G2 X365.0963 Y193.7959 I1.9017
G3 X366.2666 Y195.5514 I-0.7314 J1.7554
G1 X366.2664 Y217.2203
G3 X365.3031 Y218.1835 I-0.9632
G1 X360.7823 Y218.1831
G3 X359.8191 Y217.2198 I0.0001 J-0.9633
G1 Y189.7802
G3 X360.7823 Y188.8169 I0.9633
G1 X365.3034 Y188.8165
G3 X366.2666 Y189.7797 I0.0001 J0.9631
G1 Y195.5514
G2 X367.4369 Y197.3069 I1.9017
G3 X368.6071 Y199.0623 I-0.7314 J1.7554
G1 X368.607 Y219.5611
G3 X367.6437 Y220.5243 I-0.9632
G1 X358.4417 Y220.5235
G3 X357.4785 Y219.5602 I0.0001 J-0.9633
G1 Y187.4398
G3 X358.4417 Y186.4765 I0.9633
G1 X367.644 Y186.4758
G3 X368.6072 Y187.4389 I0.0001 J0.9631
G1 X368.6071 Y199.0623
G2 X369.7774 Y200.8178 I1.9017
G3 X370.9477 Y202.5733 I-0.7314 J1.7554
G1 X370.9475 Y221.9019
G3 X369.9843 Y222.8651 I-0.9631
G1 X356.1011 Y222.864
G3 X355.1379 Y221.9006 I0.0001 J-0.9633
G1 Y185.0994
G3 X356.1011 Y184.1361 I0.9633
G1 X369.9846 Y184.135
G3 X370.9479 Y185.0981 I0.0001 J0.9631
G1 X370.9477 Y202.5733
G2 X372.118 Y204.3288 I1.9017
G3 X373.2883 Y206.0842 I-0.7314 J1.7554
G1 X373.2881 Y224.2427
G3 X372.3249 Y225.2059 I-0.9632
G1 X353.7605 Y225.2044
G3 X352.7973 Y224.2411 I0.0001 J-0.9633
G1 Y182.759
G3 X353.7605 Y181.7956 I0.9633
G1 X372.3253 Y181.7942
G3 X373.2885 Y182.7573 I0.0001 J0.9631
G1 X373.2883 Y206.0842
G2 X374.4586 Y207.8397 I1.9017
G3 X375.6289 Y209.5951 I-0.7314 J1.7554
G1 X375.6287 Y226.5835
G3 X374.6655 Y227.5467 I-0.9632
G1 X351.4199 Y227.5448
G3 X350.4567 Y226.5815 I0.0001 J-0.9633
G1 Y180.4185
G3 X351.4199 Y179.4552 I0.9633
G1 X374.6659 Y179.4534
G3 X375.6291 Y180.4165 I0.0001 J0.9631
G1 X375.6289 Y209.5951
G2 X376.7992 Y211.3506 I1.9017
G3 X377.9695 Y213.1061 I-0.7314 J1.7554
G1 X377.9693 Y228.9243
G3 X377.0061 Y229.8875 I-0.9632
G1 X349.0793 Y229.8852
G3 X348.1161 Y228.9219 I0.0001 J-0.9633
G1 Y178.0781
G3 X349.0793 Y177.1148 I0.9633
G1 X377.0066 Y177.1126
G3 X377.9698 Y178.0757 I0.0001 J0.9631
G1 X377.9695 Y213.1061
G2 X379.1397 Y214.8615 I1.9017
G3 X380.31 Y216.617 I-0.7314 J1.7554
G1 X380.3099 Y231.2651
G3 X379.3467 Y232.2282 I-0.9632
G1 X346.7387 Y232.2257
G3 X345.7755 Y231.2623 I0.0001 J-0.9633
G1 Y175.7377
G3 X346.7387 Y174.7744 I0.9633
G1 X379.3472 Y174.7718
G3 X380.3104 Y175.7349 I0.0001 J0.9631
G1 X380.31 Y216.617
G2 X381.4803 Y218.3725 I1.9017
G3 X382.6506 Y220.1279 I-0.7314 J1.7554
G1 X382.6505 Y233.6059
G3 X381.6873 Y234.569 I-0.9631
G1 X344.3981 Y234.5661
G3 X343.4348 Y233.6028 I0.0001 J-0.9633
G1 Y173.3973
G3 X344.3981 Y172.4339 I0.9633
G1 X381.6878 Y172.431
G3 X382.651 Y173.3941 I0.0001 J0.9631
G1 X382.6506 Y220.1279
G2 X383.8209 Y221.8834 I1.9018
G3 X384.9912 Y223.6389 I-0.7314 J1.7554
G1 X384.9911 Y235.9467
G3 X384.0278 Y236.9098 I-0.9632
G1 X342.0575 Y236.9065
G3 X341.0942 Y235.9432 I0.0001 J-0.9633
G1 Y171.0569
G3 X342.0575 Y170.0935 I0.9633
G1 X384.0284 Y170.0902
G3 X384.9916 Y171.0533 I0.0001 J0.9632
G1 X384.9912 Y223.6389
G2 X386.1615 Y225.3943 I1.9018
G3 X387.3318 Y227.1498 I-0.7314 J1.7554
G1 X387.3317 Y238.2875
G3 X386.3684 Y239.2506 I-0.9632
G1 X339.7169 Y239.2469
G3 X338.7536 Y238.2836 I0.0001 J-0.9633
G1 Y168.7164
G3 X339.7169 Y167.7531 I0.9633
G1 X386.369 Y167.7494
