%
(Made in : Autodesk CAM Post Processor)
(G Code optimized for OpenBuilds OX CNC 1000 x 750 with GRBL V0.9j controller)

(Program Name : 1001)
(2 Operations :)
(1 : Contour2)
(  Tool : Flat End Mill 2 Flutes, Diam = 1.9mm, Len = 12.7mm)
(  Spindle : RPM = 30000, set router dial to 6)
(  Machining time : 11 min 46 sec)
(2 : Horizontal1)
(  Tool : Flat End Mill 2 Flutes, Diam = 1.9mm, Len = 12.7mm)
(  Spindle : RPM = 30000, set router dial to 6)
(  Machining time : 4 min 50 sec)

G90 G94
G17
G21

(Operation 1 of 2 : Contour2)

G53 G0 Z5
G54
S30000 M3
G4 P1.0
X24.0135 Y24.8717
Z6
Z1.1888
G1 Z-0.81 F3200
X24.0193 Y24.8747 Z-0.8592
X24.0361 Y24.8835 Z-0.905
X24.0628 Y24.8975 Z-0.9444
X24.0977 Y24.9158 Z-0.9745
X24.1383 Y24.9371 Z-0.9935
X24.1818 Y24.9599 Z-1
X25.2655 Y25.5282
X25.3061 Y25.5568
X25.3379 Y25.5949
X25.3587 Y25.6399
X25.3672 Y25.6888
X25.3627 Y25.7382
X25.3456 Y25.7847
X25.342 Y25.7921
X25.3179 Y25.8472
X25.2979 Y25.9022
X25.2815 Y25.9573
X25.2687 Y26.0124
X25.2593 Y26.0674
X25.2532 Y26.1225
X25.25 Y26.2326
Y325.7674
X25.2532 Y325.8775
X25.2593 Y325.9326
X25.2687 Y325.9877
X25.2815 Y326.0427
X25.2979 Y326.0978
X25.318 Y326.1528
X25.342 Y326.2079
X25.3456 Y326.2153
X25.3725 Y326.2667
X25.4037 Y326.318
X25.4284 Y326.3542
X25.4557 Y326.3903
X25.4873 Y326.4282
X25.5242 Y326.4677
X25.5658 Y326.5073
X25.6021 Y326.5383
X25.639 Y326.5667
X25.6759 Y326.5923
X25.7242 Y326.6223
X25.7725 Y326.6484
X25.786 Y326.655
X25.841 Y326.6796
X25.8961 Y326.7001
X25.9511 Y326.7168
X26.0062 Y326.73
X26.0612 Y326.7398
X26.1163 Y326.7463
X26.1713 Y326.7496
X26.2264 Y326.75
X55.9533
X56.0634 Y326.7479
X56.1184 Y326.7426
X56.1735 Y326.734
X56.2285 Y326.7221
X56.2836 Y326.7067
X56.3386 Y326.6876
X56.3937 Y326.6646
X56.4275 Y326.6484
X56.4656 Y326.6281
X56.5038 Y326.6054
X56.5508 Y326.574
X56.5979 Y326.5383
X56.6139 Y326.525
X56.6633 Y326.4801
X56.7127 Y326.4282
X56.724 Y326.4151
X56.7626 Y326.3666
X56.7963 Y326.318
X56.8341 Y326.2548
X56.858 Y326.2079
X56.882 Y326.1528
X56.9021 Y326.0978
X56.9185 Y326.0427
X56.9313 Y325.9877
X56.9387 Y325.9464
X56.9442 Y325.9051
X56.9468 Y325.8775
X56.95 Y325.7674
Y306.0554
X56.9506 Y305.9453
X56.9535 Y305.8351
X56.9595 Y305.725
X56.9686 Y305.6149
X56.9805 Y305.5048
X56.9957 Y305.3947
X57.014 Y305.2845
X57.0351 Y305.1744
X57.0543 Y305.0873
X57.0598 Y305.0643
X57.0875 Y304.9542
X57.1186 Y304.844
X57.1533 Y304.7339
X57.1644 Y304.7006
X57.1911 Y304.6238
X57.2329 Y304.5137
X57.2745 Y304.4121
X57.2782 Y304.4035
X57.3275 Y304.2934
X57.3803 Y304.1833
X57.3846 Y304.175
X57.4381 Y304.0732
X57.4947 Y303.9716
X57.4997 Y303.963
X57.566 Y303.8529
X57.6048 Y303.7927
X57.6378 Y303.7428
X57.7139 Y303.6327
X57.7149 Y303.6313
X57.7965 Y303.5226
X57.825 Y303.4863
X57.8849 Y303.4124
X57.9351 Y303.3532
X57.9797 Y303.3023
X58.0452 Y303.2306
X58.0817 Y303.1922
X58.1553 Y303.1174
X58.1914 Y303.0821
X58.2654 Y303.0132
X58.311 Y302.9719
X58.3755 Y302.9156
X58.4401 Y302.8618
X58.4856 Y302.825
X58.5814 Y302.7517
X58.5957 Y302.7411
X58.7058 Y302.6627
X58.7369 Y302.6416
X58.8159 Y302.5892
X58.9099 Y302.5314
X58.926 Y302.5217
X59.0361 Y302.4582
X59.1035 Y302.4213
X59.1462 Y302.3992
X59.2563 Y302.3448
X59.3288 Y302.3112
X59.3664 Y302.2943
X59.4765 Y302.2474
X59.5866 Y302.2054
X59.598 Y302.2011
X59.6967 Y302.1652
X59.8068 Y302.1302
X59.9169 Y302.0975
X59.9416 Y302.0909
X60.027 Y302.0692
X60.1371 Y302.0431
X60.2472 Y302.0212
X60.3573 Y302.0018
X60.4674 Y301.9854
X60.5031 Y301.9808
X60.5775 Y301.9722
X60.6876 Y301.9622
X60.7977 Y301.9549
X60.9078 Y301.951
X61.0179 Y301.95
X61.128 Y301.9519
X61.2381 Y301.9571
X61.3482 Y301.965
X61.4583 Y301.9762
X61.4969 Y301.9808
X61.5684 Y301.9904
X61.6785 Y302.0076
X61.7886 Y302.028
X61.8987 Y302.0511
X62.0088 Y302.0781
X62.0584 Y302.0909
X62.1189 Y302.108
X62.229 Y302.1411
X62.3391 Y302.1781
X62.402 Y302.2011
X62.4492 Y302.2188
X62.5593 Y302.2621
X62.6694 Y302.3104
X62.6712 Y302.3112
X62.7795 Y302.3619
X62.8896 Y302.4177
X62.8965 Y302.4213
X62.9997 Y302.4782
X63.0901 Y302.5314
X63.1098 Y302.5434
X63.2199 Y302.6127
X63.2631 Y302.6416
X63.33 Y302.6875
X63.4186 Y302.7517
X63.4401 Y302.7675
X63.5502 Y302.8539
X63.5599 Y302.8618
X63.6603 Y302.9467
X63.689 Y302.9719
X63.7703 Y303.0461
X63.8086 Y303.0821
X63.8804 Y303.1531
X63.9183 Y303.1922
X63.9905 Y303.2688
X64.0203 Y303.3023
X64.1006 Y303.3949
X64.1151 Y303.4124
X64.2035 Y303.5226
X64.2107 Y303.5321
X64.2861 Y303.6327
X64.3208 Y303.6821
X64.3622 Y303.7428
X64.4309 Y303.848
X64.434 Y303.8529
X64.5003 Y303.963
X64.541 Y304.0349
X64.5619 Y304.0732
X64.6197 Y304.1833
X64.6511 Y304.2477
X64.6725 Y304.2934
X64.7218 Y304.4035
X64.7612 Y304.4988
X64.7671 Y304.5137
X64.8089 Y304.6238
X64.8467 Y304.7339
X64.8713 Y304.8108
X64.8813 Y304.844
X64.9125 Y304.9542
X64.9402 Y305.0643
X64.9649 Y305.1744
X64.9814 Y305.2588
X64.986 Y305.2845
X65.0043 Y305.3947
X65.0195 Y305.5048
X65.0314 Y305.6149
X65.0405 Y305.725
X65.0465 Y305.8351
X65.0493 Y305.9453
X65.05 Y306.0554
Y325.7674
X65.0532 Y325.8775
X65.0593 Y325.9326
X65.0687 Y325.9877
X65.079 Y326.0328
X65.0915 Y326.0779
X65.0979 Y326.0978
X65.118 Y326.1528
X65.142 Y326.2079
X65.1696 Y326.2614
X65.2016 Y326.3149
X65.2037 Y326.318
X65.2423 Y326.3731
X65.2873 Y326.4282
X65.3117 Y326.4548
X65.3569 Y326.4993
X65.4021 Y326.5383
X65.4218 Y326.5538
X65.4769 Y326.593
X65.5319 Y326.6267
X65.5725 Y326.6484
X65.642 Y326.68
X65.6971 Y326.7004
X65.7521 Y326.7171
X65.8072 Y326.7302
X65.8622 Y326.74
X65.9173 Y326.7464
X65.9723 Y326.7496
X66.0824 Y326.75
X236.7369
X236.847 Y326.7488
X236.902 Y326.7445
X236.9571 Y326.7369
X237.0121 Y326.726
X237.0672 Y326.7117
X237.1222 Y326.6937
X237.1773 Y326.6719
X237.2275 Y326.6484
X237.2874 Y326.6154
X237.3424 Y326.5799
X237.3975 Y326.5386
X237.3979 Y326.5383
X237.4527 Y326.4903
X237.5076 Y326.4339
X237.5127 Y326.4282
X237.5577 Y326.3731
X237.5963 Y326.318
X237.6177 Y326.2837
X237.6389 Y326.2458
X237.658 Y326.2079
X237.682 Y326.1528
X237.7021 Y326.0978
X237.7162 Y326.0511
X237.7278 Y326.0043
X237.7313 Y325.9877
X237.7407 Y325.9326
X237.7468 Y325.8775
X237.75 Y325.7674
Y319.9514
X237.7514 Y319.95
X239.9298
X240.0399 Y319.9492
X240.0949 Y319.9453
X240.15 Y319.9381
X240.1897 Y319.9309
X240.2601 Y319.9137
X240.3151 Y319.8962
X240.3702 Y319.8749
X240.4243 Y319.85
X240.4784 Y319.8208
X240.4803 Y319.8197
X240.5353 Y319.7849
X240.5904 Y319.7443
X240.6305 Y319.7106
X240.6655 Y319.678
X240.7005 Y319.6418
X240.7361 Y319.6005
X240.776 Y319.548
X240.8106 Y319.4955
X240.8136 Y319.4904
X240.8444 Y319.4353
X240.8706 Y319.3803
X240.8926 Y319.3252
X240.9108 Y319.2701
X240.9207 Y319.2343
X240.9364 Y319.16
X240.9442 Y319.105
X240.9487 Y319.0499
X240.95 Y318.9398
Y311.9516
X240.9513 Y311.95
X313.0482
X313.05 Y311.9516
Y318.9398
X313.0513 Y319.0499
X313.0558 Y319.105
X313.0636 Y319.16
X313.0747 Y319.2151
X313.0892 Y319.2701
X313.1074 Y319.3252
X313.1294 Y319.3803
X313.146 Y319.4162
X313.1651 Y319.4533
X313.1863 Y319.4904
X313.2188 Y319.5406
X313.2561 Y319.5909
X313.2639 Y319.6005
X313.311 Y319.6541
X313.3662 Y319.7077
X313.3695 Y319.7106
X313.4229 Y319.7546
X313.4763 Y319.7926
X313.5216 Y319.8208
X313.5864 Y319.8553
X313.6415 Y319.8798
X313.6965 Y319.9002
X313.7516 Y319.917
X313.8066 Y319.9301
X313.8103 Y319.9309
X313.8635 Y319.9402
X313.9167 Y319.9464
X313.9718 Y319.9496
X314.0268 Y319.95
X338.9093
X339.0194 Y319.9498
X339.0745 Y319.9471
X339.1295 Y319.9412
X339.1897 Y319.9309
X339.2396 Y319.9193
X339.2947 Y319.9032
X339.3497 Y319.8833
X339.4048 Y319.8595
X339.4598 Y319.8313
X339.4784 Y319.8208
X339.5242 Y319.7923
X339.5699 Y319.7601
X339.6305 Y319.7106
X339.68 Y319.6634
X339.7093 Y319.632
X339.7361 Y319.6005
X339.7645 Y319.564
X339.7901 Y319.5275
X339.8137 Y319.4904
X339.8444 Y319.4353
X339.8706 Y319.3803
X339.9002 Y319.3035
X339.9108 Y319.2701
X339.9253 Y319.2151
X339.9364 Y319.16
X339.9442 Y319.105
X339.9487 Y319.0499
X339.95 Y318.9398
Y301.0999
X339.9501 Y300.9897
X339.9526 Y300.8796
X339.9587 Y300.7695
X339.9695 Y300.6594
X339.9839 Y300.5492
X340.0023 Y300.4391
X340.0103 Y300.3954
X340.0246 Y300.329
X340.0525 Y300.2189
X340.0837 Y300.1087
X340.1191 Y299.9986
X340.1204 Y299.995
X340.1604 Y299.8885
X340.2057 Y299.7784
X340.2305 Y299.7229
X340.2561 Y299.6682
X340.3127 Y299.5581
X340.3406 Y299.5073
X340.3748 Y299.448
X340.4431 Y299.3379
X340.4507 Y299.3264
X340.5178 Y299.2278
X340.5608 Y299.1689
X340.6006 Y299.1176
X340.6709 Y299.0313
X340.6913 Y299.0075
X340.781 Y298.908
X340.7912 Y298.8974
X340.8911 Y298.7972
X340.9015 Y298.7873
X341.0012 Y298.6967
X341.0241 Y298.6771
X341.1113 Y298.6056
X341.1605 Y298.567
X341.2214 Y298.5222
X341.3171 Y298.4569
X341.3315 Y298.4473
X341.4416 Y298.3786
X341.4964 Y298.3468
X341.5517 Y298.3161
X341.6618 Y298.2594
X341.7097 Y298.2366
X341.7719 Y298.2085
X341.882 Y298.163
X341.9776 Y298.1265
X341.9921 Y298.1214
X342.1022 Y298.0856
X342.2123 Y298.0543
X342.3224 Y298.0261
X342.3669 Y298.0164
X342.4325 Y298.0035
X342.5426 Y297.985
X342.6527 Y297.9702
X342.7628 Y297.9593
X342.8729 Y297.9529
X342.983 Y297.9502
X343.0931 Y297.95
X365.9938
X366.1039 Y297.952
X366.2141 Y297.9576
X366.3241 Y297.9677
X366.4342 Y297.9816
X366.5443 Y297.9992
X366.6331 Y298.0164
X366.6544 Y298.021
X366.7645 Y298.048
X366.8746 Y298.0788
X366.9847 Y298.1133
X367.0224 Y298.1265
X367.0948 Y298.154
X367.2049 Y298.1983
X367.2904 Y298.2366
X367.315 Y298.248
X367.4251 Y298.304
X367.5036 Y298.3468
X367.5352 Y298.3649
X367.6453 Y298.4323
X367.6829 Y298.4569
X367.7554 Y298.5061
X367.8395 Y298.567
X367.8655 Y298.5874
X367.9756 Y298.6769
X367.976 Y298.6771
X368.0857 Y298.775
X368.0985 Y298.7873
X368.1958 Y298.8839
X368.2088 Y298.8974
X368.3059 Y299.0043
X368.3087 Y299.0075
X368.3994 Y299.1176
X368.416 Y299.1388
X368.4822 Y299.2278
X368.5261 Y299.2915
X368.5569 Y299.3379
X368.6252 Y299.448
X368.6362 Y299.4666
X368.6873 Y299.5581
X368.7439 Y299.6682
X368.7463 Y299.6731
X368.7944 Y299.7784
X368.8405 Y299.8885
X368.8564 Y299.9309
X368.8809 Y299.9986
X368.9163 Y300.1087
X368.9475 Y300.2189
X368.9665 Y300.2926
X368.9754 Y300.329
X368.9977 Y300.4391
X369.0161 Y300.5492
X369.0305 Y300.6594
X369.0414 Y300.7695
X369.0474 Y300.8796
X369.0499 Y300.9897
X369.05 Y301.0999
Y318.9398
X369.0513 Y319.0499
X369.0558 Y319.105
X369.0636 Y319.16
X369.0766 Y319.2233
X369.0892 Y319.2701
X369.1074 Y319.3252
X369.1294 Y319.3803
X369.1556 Y319.4353
X369.1864 Y319.4904
X369.1867 Y319.491
X369.2224 Y319.5458
X369.2639 Y319.6005
X369.2968 Y319.6388
X369.3332 Y319.6767
X369.3695 Y319.7106
X369.4069 Y319.7422
X369.462 Y319.783
X369.517 Y319.8181
X369.5216 Y319.8208
X369.5744 Y319.8493
X369.6271 Y319.8738
X369.6822 Y319.8953
X369.7372 Y319.913
X369.8103 Y319.9309
X369.8473 Y319.9377
X369.9024 Y319.945
X369.9574 Y319.9491
X370.0675 Y319.95
X389.7754
X389.8304 Y319.9495
X389.8855 Y319.9462
X389.9376 Y319.94
X389.9897 Y319.9309
X389.9955 Y319.9297
X390.0506 Y319.9164
X390.1057 Y319.8995
X390.1607 Y319.8789
X390.2158 Y319.8542
X390.2784 Y319.8208
X390.3259 Y319.7912
X390.3782 Y319.7538
X390.4305 Y319.7106
X390.4359 Y319.7057
X390.4899 Y319.6531
X390.5361 Y319.6005
X390.5461 Y319.5882
X390.5821 Y319.5393
X390.6136 Y319.4904
X390.6361 Y319.451
X390.6562 Y319.4117
X390.6706 Y319.3803
X390.6926 Y319.3252
X390.7108 Y319.2701
X390.7253 Y319.2151
X390.7364 Y319.16
X390.7442 Y319.105
X390.7487 Y319.0499
X390.75 Y318.9398
Y246.0383
X390.7473 Y245.9282
X390.7415 Y245.8731
X390.7324 Y245.8181
X390.72 Y245.763
X390.704 Y245.7079
X390.6843 Y245.6529
X390.6606 Y245.5978
X390.6562 Y245.5883
X390.6301 Y245.538
X390.6 Y245.4877
X390.5744 Y245.4498
X390.5461 Y245.4119
X390.5177 Y245.3776
X390.4793 Y245.3359
X390.4359 Y245.2943
X390.4048 Y245.2674
X390.3654 Y245.2365
X390.3259 Y245.2088
X390.2822 Y245.1815
X390.2386 Y245.1573
X390.2158 Y245.1458
X390.1607 Y245.1212
X390.1057 Y245.1005
X390.0506 Y245.0837
X389.9955 Y245.0704
X389.9405 Y245.0605
X389.8855 Y245.0539
X389.8304 Y245.0505
X389.7754 Y245.05
X332.9518
X332.95 Y245.0486
Y161.952
X332.9518 Y161.95
X389.7754
X389.8304 Y161.9495
X389.8855 Y161.9462
X389.9405 Y161.9396
X389.9955 Y161.9297
X390.0434 Y161.9183
X390.0913 Y161.9043
X390.1057 Y161.8995
X390.1607 Y161.8789
X390.2158 Y161.8542
X390.2686 Y161.8264
X390.3214 Y161.7941
X390.3259 Y161.7912
X390.3809 Y161.7517
X390.4359 Y161.7057
X390.4593 Y161.684
X390.5056 Y161.6361
X390.5461 Y161.5882
X390.5571 Y161.5739
X390.5958 Y161.5188
X390.6291 Y161.4638
X390.6562 Y161.4117
X390.6817 Y161.3536
X390.7019 Y161.2986
X390.7183 Y161.2435
X390.7311 Y161.1885
X390.7406 Y161.1334
X390.7468 Y161.0783
X390.7497 Y161.0233
X390.75 Y160.9131
Y33.0602
X390.7487 Y32.9501
X390.7442 Y32.8951
X390.7364 Y32.84
X390.7253 Y32.7849
X390.7108 Y32.7299
X390.6926 Y32.6748
X390.6706 Y32.6198
X390.6562 Y32.5883
X390.6361 Y32.549
X390.6136 Y32.5096
X390.5821 Y32.4607
X390.5461 Y32.4119
X390.5361 Y32.3995
X390.4899 Y32.3469
X390.4359 Y32.2943
X390.4305 Y32.2894
X390.3782 Y32.2462
X390.3259 Y32.2088
X390.2784 Y32.1793
X390.2158 Y32.1458
X390.1607 Y32.1211
X390.1057 Y32.1005
X390.0506 Y32.0836
X389.9955 Y32.0703
X389.9897 Y32.0691
X389.9376 Y32.06
X389.8855 Y32.0539
X389.8304 Y32.0505
X389.7754 Y32.05
X366.4342
X366.3241 Y32.053
X366.2691 Y32.0591
X366.2141 Y32.0684
X366.2103 Y32.0691
X366.1571 Y32.0816
X366.1039 Y32.0973
X366.0489 Y32.1173
X365.9938 Y32.1412
X365.9216 Y32.1793
X365.8837 Y32.2025
X365.8287 Y32.241
X365.7737 Y32.2857
X365.7695 Y32.2894
X365.7124 Y32.3444
X365.6639 Y32.3995
X365.6635 Y32.3999
X365.622 Y32.4548
X365.5864 Y32.5096
X365.5534 Y32.5689
X365.5294 Y32.6198
X365.5074 Y32.6748
X365.4892 Y32.7299
X365.4747 Y32.7849
X365.4636 Y32.84
X365.4558 Y32.8951
X365.4513 Y32.9501
X365.45 Y33.0602
Y51.0103
X365.4496 Y51.1204
X365.4452 Y51.2306
X365.4433 Y51.2528
X365.434 Y51.3407
X365.4158 Y51.4508
X365.3911 Y51.5609
X365.3595 Y51.671
X365.3333 Y51.7456
X365.3195 Y51.7812
X365.2721 Y51.8913
X365.2231 Y51.9874
X365.2153 Y52.0014
X365.1486 Y52.1115
X365.113 Y52.1635
X365.071 Y52.2217
X365.0029 Y52.3054
X364.9799 Y52.3318
X364.8929 Y52.423
X364.8728 Y52.4419
X364.7827 Y52.5225
X364.7463 Y52.552
X364.6726 Y52.6068
X364.5906 Y52.6622
X364.5625 Y52.6797
X364.4525 Y52.7415
X364.391 Y52.7723
X364.3423 Y52.7945
X364.2322 Y52.8386
X364.1221 Y52.8744
X364.0947 Y52.8824
X364.0121 Y52.9034
X363.9019 Y52.925
X363.7918 Y52.9399
X363.6817 Y52.948
X363.5717 Y52.95
X347.6072
X347.4971 Y52.9499
X347.387 Y52.9464
X347.2769 Y52.9364
X347.1668 Y52.9196
X347.0567 Y52.8959
X347.0053 Y52.8824
X346.9466 Y52.8651
X346.8365 Y52.8268
X346.7264 Y52.7804
X346.709 Y52.7723
X346.6163 Y52.7251
X346.5094 Y52.6622
X346.5062 Y52.6602
X346.3961 Y52.5843
X346.3537 Y52.552
X346.286 Y52.4959
X346.2272 Y52.4419
X346.1759 Y52.3916
X346.1201 Y52.3318
X346.0658 Y52.2682
X346.029 Y52.2217
X345.9557 Y52.1179
X345.9515 Y52.1115
X345.8847 Y52.0014
X345.8456 Y51.9282
X345.8279 Y51.8913
X345.7805 Y51.7812
X345.7405 Y51.671
X345.7355 Y51.6559
X345.7089 Y51.5609
X345.6843 Y51.4508
X345.666 Y51.3407
X345.6548 Y51.2306
X345.6504 Y51.1204
X345.65 Y51.0103
Y33.0602
X345.6487 Y32.9501
X345.6442 Y32.8951
X345.6364 Y32.84
X345.6254 Y32.7851
X345.6108 Y32.7299
X345.5927 Y32.6748
X345.5706 Y32.6198
X345.5451 Y32.566
X345.5153 Y32.5123
X345.5137 Y32.5096
X345.4778 Y32.4546
X345.4362 Y32.3995
X345.4052 Y32.3634
X345.3679 Y32.3244
X345.3305 Y32.2894
X345.2951 Y32.2595
X345.2401 Y32.2184
X345.185 Y32.1831
X345.1784 Y32.1793
X345.1267 Y32.1512
X345.0749 Y32.1271
X345.0199 Y32.1055
X344.9648 Y32.0876
X344.8897 Y32.0691
X344.8547 Y32.0627
X344.7997 Y32.0552
X344.7446 Y32.051
X344.6345 Y32.05
X314.0268
X313.9718 Y32.0504
X313.9167 Y32.0537
X313.8635 Y32.0599
X313.8103 Y32.0691
X313.8066 Y32.0699
X313.7516 Y32.0831
X313.6965 Y32.0998
X313.6415 Y32.1203
X313.5864 Y32.1448
X313.5216 Y32.1793
X313.4763 Y32.2074
X313.4229 Y32.2454
X313.3695 Y32.2894
X313.3662 Y32.2923
X313.311 Y32.3459
X313.2639 Y32.3995
X313.2561 Y32.4091
X313.2188 Y32.4594
X313.1863 Y32.5096
X313.1651 Y32.5467
X313.146 Y32.5838
X313.1294 Y32.6198
X313.1074 Y32.6748
X313.0892 Y32.7299
X313.0747 Y32.7849
X313.0636 Y32.84
X313.0558 Y32.8951
X313.0513 Y32.9501
X313.05 Y33.0602
Y40.0484
X313.0482 Y40.05
X240.9513
X240.95 Y40.0484
Y33.0602
X240.9487 Y32.9501
X240.9442 Y32.8951
X240.9364 Y32.84
X240.9207 Y32.7657
X240.9108 Y32.7299
X240.8926 Y32.6748
X240.8706 Y32.6198
X240.8444 Y32.5647
X240.8136 Y32.5096
X240.8106 Y32.5045
X240.776 Y32.452
X240.7361 Y32.3995
X240.7005 Y32.3582
X240.6655 Y32.322
X240.6305 Y32.2894
X240.5904 Y32.2557
X240.5353 Y32.2152
X240.4803 Y32.1803
X240.4784 Y32.1793
X240.4243 Y32.15
X240.3702 Y32.1251
X240.3151 Y32.1038
X240.2601 Y32.0863
X240.1897 Y32.0691
X240.15 Y32.0619
X240.0949 Y32.0548
X240.0399 Y32.0508
X239.9298 Y32.05
X237.7514
X237.75 Y32.0486
Y26.2326
X237.7468 Y26.1225
X237.7407 Y26.0674
X237.7313 Y26.0124
X237.7278 Y25.9957
X237.7162 Y25.949
X237.7021 Y25.9022
X237.6821 Y25.8472
X237.658 Y25.7921
X237.6389 Y25.7542
X237.6177 Y25.7164
X237.5963 Y25.682
X237.5577 Y25.6269
X237.5127 Y25.5719
X237.5076 Y25.5661
X237.4527 Y25.5098
X237.3979 Y25.4618
X237.3975 Y25.4614
X237.3424 Y25.4201
X237.2874 Y25.3846
X237.2275 Y25.3516
X237.1773 Y25.3281
X237.1222 Y25.3063
X237.0672 Y25.2884
X237.0121 Y25.274
X236.9571 Y25.2631
X236.902 Y25.2555
X236.847 Y25.2512
X236.7369 Y25.25
X26.2264
X26.1713 Y25.2504
X26.1163 Y25.2537
X26.0612 Y25.2602
X26.0062 Y25.27
X25.9511 Y25.2832
X25.8961 Y25.2999
X25.841 Y25.3204
X25.786 Y25.345
X25.7725 Y25.3516
X25.7242 Y25.3778
X25.6759 Y25.4077
X25.639 Y25.4333
X25.6021 Y25.4618
X25.5658 Y25.4927
X25.5242 Y25.5323
X25.4873 Y25.5719
X25.4557 Y25.6097
X25.4284 Y25.6458
X25.4037 Y25.682
X25.3725 Y25.7334
X25.3456 Y25.7847
X25.3255 Y25.8288
X25.3078 Y25.8738
X25.2923 Y25.9196 Z-1.0001
X25.2792 Y25.9662
X25.2685 Y26.0134
X25.2602 Y26.0611 Z-1.0002
X25.2544 Y26.1092 Z-1.0003
X25.251 Y26.1574 Z-1.0004
X25.25 Y26.351 Z-1.0008
Y26.5446 Z-1.0015
Y26.7382 Z-1.0023
Y26.9317 Z-1.0033
Y27.1253 Z-1.0045
Y27.3189 Z-1.0058
Y27.5125 Z-1.0073
Y27.706 Z-1.009
Y27.8996 Z-1.0109
Y28.0932 Z-1.0129
Y28.2868 Z-1.0151
Y28.4803 Z-1.0174
Y28.6739 Z-1.0199
Y28.8675 Z-1.0225
Y29.0611 Z-1.0253
Y29.2546 Z-1.0283
Y29.4482 Z-1.0314
Y29.6418 Z-1.0347
Y29.8354 Z-1.0381
Y30.0289 Z-1.0416
Y30.2225 Z-1.0453
Y30.4161 Z-1.0491
Y30.6097 Z-1.0531
Y30.8032 Z-1.0572
Y30.9968 Z-1.0614
Y31.1904 Z-1.0658
Y31.384 Z-1.0702
Y31.5775 Z-1.0749
Y31.7711 Z-1.0796
Y31.9647 Z-1.0845
Y32.1583 Z-1.0894
Y32.2551 Z-1.092
Y32.3518 Z-1.0945
Y32.4486 Z-1.0971
Y32.5454 Z-1.0997
Y32.6422 Z-1.1024
Y32.739 Z-1.1051
Y32.8358 Z-1.1078
Y32.9326 Z-1.1105
Y33.0294 Z-1.1133
Y33.1261 Z-1.1161
Y33.2229 Z-1.1189
Y33.3197 Z-1.1217
Y33.4165 Z-1.1246
Y33.5133 Z-1.1275
Y33.6101 Z-1.1304
Y33.7069 Z-1.1334
Y33.8036 Z-1.1363
Y33.9004 Z-1.1393
Y33.9972 Z-1.1423
Y34.094 Z-1.1454
Y34.1908 Z-1.1485
Y34.2876 Z-1.1516
Y34.3844 Z-1.1547
Y34.4812 Z-1.1578
Y34.5779 Z-1.161
Y34.6747 Z-1.1642
Y34.7715 Z-1.1674
Y34.8683 Z-1.1706
Y34.9651 Z-1.1739
Y35.0619 Z-1.1772
Y35.1587 Z-1.1805
Y35.2555 Z-1.1838
Y35.3522 Z-1.1871
Y35.5458 Z-1.1939
Y35.6426 Z-1.1972
Y35.7394 Z-1.2006
Y35.8362 Z-1.204
Y35.933 Z-1.2074
Y36.0298 Z-1.2108
Y36.1265 Z-1.2141
Y36.2233 Z-1.2175
Y36.3201 Z-1.2209
Y36.4169 Z-1.2243
Y36.5137 Z-1.2277
Y36.6105 Z-1.231
Y36.7073 Z-1.2344
Y36.9008 Z-1.2412
Y37.1912 Z-1.2513
Y37.4816 Z-1.2614
Y37.7719 Z-1.2716
Y38.0623 Z-1.2817
Y38.3527 Z-1.2919
Y38.643 Z-1.302
Y38.9334 Z-1.3121
Y39.2237 Z-1.3223
Y39.5141 Z-1.3324
Y39.8045 Z-1.3426
Y40.2884 Z-1.3595
Y40.7723 Z-1.3764
Y41.2563 Z-1.3933
Y41.9338 Z-1.4169
Y42.8049 Z-1.4473
Y44.2567 Z-1.498
Y51.2254 Z-1.7413
Y51.5157 Z-1.7515
Y51.8061 Z-1.7616
Y51.9029 Z-1.765
Y51.9997 Z-1.7684
Y52.0965 Z-1.7717
Y52.1932 Z-1.7751
Y52.29 Z-1.7785
Y52.3868 Z-1.7819
Y52.4836 Z-1.7853
Y52.5804 Z-1.7886
Y52.6772 Z-1.792
Y52.774 Z-1.7954
Y52.8708 Z-1.7988
Y52.9675 Z-1.8022
Y53.0643 Z-1.8055
Y53.1611 Z-1.8089
Y53.2579 Z-1.8123
Y53.3547 Z-1.8156
Y53.4515 Z-1.819
Y53.5483 Z-1.8223
Y53.6451 Z-1.8255
Y53.7418 Z-1.8288
Y53.8386 Z-1.832
Y53.9354 Z-1.8353
Y54.0322 Z-1.8385
Y54.129 Z-1.8416
Y54.2258 Z-1.8448
Y54.3226 Z-1.8479
Y54.4193 Z-1.851
Y54.5161 Z-1.8541
Y54.6129 Z-1.8571
Y54.7097 Z-1.8601
Y54.8065 Z-1.8631
Y54.9033 Z-1.8661
Y55.0001 Z-1.8691
Y55.0969 Z-1.872
Y55.1936 Z-1.8749
Y55.2904 Z-1.8778
Y55.3872 Z-1.8806
Y55.484 Z-1.8834
Y55.5808 Z-1.8862
Y55.6776 Z-1.889
Y55.7744 Z-1.8917
Y55.8712 Z-1.8945
Y55.9679 Z-1.8971
Y56.0647 Z-1.8998
Y56.1615 Z-1.9024
Y56.2583 Z-1.905
Y56.3551 Z-1.9076
Y56.4519 Z-1.9101
Y56.5487 Z-1.9126
Y56.7422 Z-1.9176
Y56.9358 Z-1.9224
Y57.1294 Z-1.9271
Y57.323 Z-1.9316
Y57.5165 Z-1.9361
Y57.7101 Z-1.9404
Y57.9037 Z-1.9445
Y58.0973 Z-1.9486
Y58.2908 Z-1.9525
Y58.4844 Z-1.9562
Y58.678 Z-1.9599
Y58.8716 Z-1.9634
Y59.0651 Z-1.9667
Y59.2587 Z-1.9699
Y59.4523 Z-1.9729
Y59.6459 Z-1.9758
Y59.8394 Z-1.9786
Y60.033 Z-1.9812
Y60.2266 Z-1.9836
Y60.4202 Z-1.9859
Y60.6137 Z-1.988
Y60.8073 Z-1.9899
Y61.0009 Z-1.9917
Y61.1945 Z-1.9933
Y61.388 Z-1.9948
Y61.5816 Z-1.996
Y61.7752 Z-1.9971
Y61.9688 Z-1.9981
Y62.1623 Z-1.9988
Y62.3559 Z-1.9994
Y62.5495 Z-1.9998
Y62.7431 Z-2
Y62.8569
Y325.7674
X25.2532 Y325.8775
X25.2593 Y325.9326
X25.2687 Y325.9877
X25.2815 Y326.0427
X25.2979 Y326.0978
X25.318 Y326.1528
X25.342 Y326.2079
X25.3456 Y326.2153
X25.3725 Y326.2667
X25.4037 Y326.318
X25.4284 Y326.3542
X25.4557 Y326.3903
X25.4873 Y326.4282
X25.5242 Y326.4677
X25.5658 Y326.5073
X25.6021 Y326.5383
X25.639 Y326.5667
X25.6759 Y326.5923
X25.7242 Y326.6223
X25.7725 Y326.6484
X25.786 Y326.655
X25.841 Y326.6796
X25.8961 Y326.7001
X25.9511 Y326.7168
X26.0062 Y326.73
X26.0612 Y326.7398
X26.1163 Y326.7463
X26.1713 Y326.7496
X26.2264 Y326.75
X55.9533
X56.0634 Y326.7479
X56.1184 Y326.7426
X56.1735 Y326.734
X56.2285 Y326.7221
X56.2836 Y326.7067
X56.3386 Y326.6876
X56.3937 Y326.6646
X56.4275 Y326.6484
X56.4656 Y326.6281
X56.5038 Y326.6054
X56.5508 Y326.574
X56.5979 Y326.5383
X56.6139 Y326.525
X56.6633 Y326.4801
X56.7127 Y326.4282
X56.724 Y326.4151
X56.7626 Y326.3666
X56.7963 Y326.318
X56.8341 Y326.2548
X56.858 Y326.2079
X56.882 Y326.1528
X56.9021 Y326.0978
X56.9185 Y326.0427
X56.9313 Y325.9877
X56.9387 Y325.9464
X56.9442 Y325.9051
X56.9468 Y325.8775
X56.95 Y325.7674
Y306.0554
X56.9506 Y305.9453
X56.9535 Y305.8351
X56.9595 Y305.725
X56.9686 Y305.6149
X56.9805 Y305.5048
X56.9957 Y305.3947
X57.014 Y305.2845
X57.0351 Y305.1744
X57.0543 Y305.0873
X57.0598 Y305.0643
X57.0875 Y304.9542
X57.1186 Y304.844
X57.1533 Y304.7339
X57.1644 Y304.7006
X57.1911 Y304.6238
X57.2329 Y304.5137
X57.2745 Y304.4121
X57.2782 Y304.4035
X57.3275 Y304.2934
X57.3803 Y304.1833
X57.3846 Y304.175
X57.4381 Y304.0732
X57.4947 Y303.9716
X57.4997 Y303.963
X57.566 Y303.8529
X57.6048 Y303.7927
X57.6378 Y303.7428
X57.7139 Y303.6327
X57.7149 Y303.6313
X57.7965 Y303.5226
X57.825 Y303.4863
X57.8849 Y303.4124
X57.9351 Y303.3532
X57.9797 Y303.3023
X58.0452 Y303.2306
X58.0817 Y303.1922
X58.1553 Y303.1174
X58.1914 Y303.0821
X58.2654 Y303.0132
X58.311 Y302.9719
X58.3755 Y302.9156
X58.4401 Y302.8618
X58.4856 Y302.825
X58.5814 Y302.7517
X58.5957 Y302.7411
X58.7058 Y302.6627
X58.7369 Y302.6416
X58.8159 Y302.5892
X58.9099 Y302.5314
X58.926 Y302.5217
X59.0361 Y302.4582
X59.1035 Y302.4213
X59.1462 Y302.3992
X59.2563 Y302.3448
X59.3288 Y302.3112
X59.3664 Y302.2943
X59.4765 Y302.2474
X59.5866 Y302.2054
X59.598 Y302.2011
X59.6967 Y302.1652
X59.8068 Y302.1302
X59.9169 Y302.0975
X59.9416 Y302.0909
X60.027 Y302.0692
X60.1371 Y302.0431
X60.2472 Y302.0212
X60.3573 Y302.0018
X60.4674 Y301.9854
X60.5031 Y301.9808
X60.5775 Y301.9722
X60.6876 Y301.9622
X60.7977 Y301.9549
X60.9078 Y301.951
X61.0179 Y301.95
X61.128 Y301.9519
X61.2381 Y301.9571
X61.3482 Y301.965
X61.4583 Y301.9762
X61.4969 Y301.9808
X61.5684 Y301.9904
X61.6785 Y302.0076
X61.7886 Y302.028
X61.8987 Y302.0511
X62.0088 Y302.0781
X62.0584 Y302.0909
X62.1189 Y302.108
X62.229 Y302.1411
X62.3391 Y302.1781
X62.402 Y302.2011
X62.4492 Y302.2188
X62.5593 Y302.2621
X62.6694 Y302.3104
X62.6712 Y302.3112
X62.7795 Y302.3619
X62.8896 Y302.4177
X62.8965 Y302.4213
X62.9997 Y302.4782
X63.0901 Y302.5314
X63.1098 Y302.5434
X63.2199 Y302.6127
X63.2631 Y302.6416
X63.33 Y302.6875
X63.4186 Y302.7517
X63.4401 Y302.7675
X63.5502 Y302.8539
X63.5599 Y302.8618
X63.6603 Y302.9467
X63.689 Y302.9719
X63.7703 Y303.0461
X63.8086 Y303.0821
X63.8804 Y303.1531
X63.9183 Y303.1922
X63.9905 Y303.2688
X64.0203 Y303.3023
X64.1006 Y303.3949
X64.1151 Y303.4124
X64.2035 Y303.5226
X64.2107 Y303.5321
X64.2861 Y303.6327
X64.3208 Y303.6821
X64.3622 Y303.7428
X64.4309 Y303.848
X64.434 Y303.8529
X64.5003 Y303.963
X64.541 Y304.0349
X64.5619 Y304.0732
X64.6197 Y304.1833
X64.6511 Y304.2477
X64.6725 Y304.2934
X64.7218 Y304.4035
X64.7612 Y304.4988
X64.7671 Y304.5137
X64.8089 Y304.6238
X64.8467 Y304.7339
X64.8713 Y304.8108
X64.8813 Y304.844
X64.9125 Y304.9542
X64.9402 Y305.0643
X64.9649 Y305.1744
X64.9814 Y305.2588
X64.986 Y305.2845
X65.0043 Y305.3947
X65.0195 Y305.5048
X65.0314 Y305.6149
X65.0405 Y305.725
X65.0465 Y305.8351
X65.0493 Y305.9453
X65.05 Y306.0554
Y325.7674
X65.0532 Y325.8775
X65.0593 Y325.9326
X65.0687 Y325.9877
X65.079 Y326.0328
X65.0915 Y326.0779
X65.0979 Y326.0978
X65.118 Y326.1528
X65.142 Y326.2079
X65.1696 Y326.2614
X65.2016 Y326.3149
X65.2037 Y326.318
X65.2423 Y326.3731
X65.2873 Y326.4282
X65.3117 Y326.4548
X65.3569 Y326.4993
X65.4021 Y326.5383
X65.4218 Y326.5538
X65.4769 Y326.593
X65.5319 Y326.6267
X65.5725 Y326.6484
X65.642 Y326.68
X65.6971 Y326.7004
X65.7521 Y326.7171
X65.8072 Y326.7302
X65.8622 Y326.74
X65.9173 Y326.7464
X65.9723 Y326.7496
X66.0824 Y326.75
X236.7369
X236.847 Y326.7488
X236.902 Y326.7445
X236.9571 Y326.7369
X237.0121 Y326.726
X237.0672 Y326.7117
X237.1222 Y326.6937
X237.1773 Y326.6719
X237.2275 Y326.6484
X237.2874 Y326.6154
X237.3424 Y326.5799
X237.3975 Y326.5386
X237.3979 Y326.5383
X237.4527 Y326.4903
X237.5076 Y326.4339
X237.5127 Y326.4282
X237.5577 Y326.3731
X237.5963 Y326.318
X237.6177 Y326.2837
X237.6389 Y326.2458
X237.658 Y326.2079
X237.682 Y326.1528
X237.7021 Y326.0978
X237.7162 Y326.0511
X237.7278 Y326.0043
X237.7313 Y325.9877
X237.7407 Y325.9326
X237.7468 Y325.8775
X237.75 Y325.7674
Y319.9514
X237.7514 Y319.95
X239.9298
X240.0399 Y319.9492
X240.0949 Y319.9453
X240.15 Y319.9381
X240.1897 Y319.9309
X240.2601 Y319.9137
X240.3151 Y319.8962
X240.3702 Y319.8749
X240.4243 Y319.85
X240.4784 Y319.8208
X240.4803 Y319.8197
X240.5353 Y319.7849
X240.5904 Y319.7443
X240.6305 Y319.7106
X240.6655 Y319.678
X240.7005 Y319.6418
X240.7361 Y319.6005
X240.776 Y319.548
X240.8106 Y319.4955
X240.8136 Y319.4904
X240.8444 Y319.4353
X240.8706 Y319.3803
X240.8926 Y319.3252
X240.9108 Y319.2701
X240.9207 Y319.2343
X240.9364 Y319.16
X240.9442 Y319.105
X240.9487 Y319.0499
X240.95 Y318.9398
Y311.9516
X240.9513 Y311.95
X313.0482
X313.05 Y311.9516
Y318.9398
X313.0513 Y319.0499
X313.0558 Y319.105
X313.0636 Y319.16
X313.0747 Y319.2151
X313.0892 Y319.2701
X313.1074 Y319.3252
X313.1294 Y319.3803
X313.146 Y319.4162
X313.1651 Y319.4533
X313.1863 Y319.4904
X313.2188 Y319.5406
X313.2561 Y319.5909
X313.2639 Y319.6005
X313.311 Y319.6541
X313.3662 Y319.7077
X313.3695 Y319.7106
X313.4229 Y319.7546
X313.4763 Y319.7926
X313.5216 Y319.8208
X313.5864 Y319.8553
X313.6415 Y319.8798
X313.6965 Y319.9002
X313.7516 Y319.917
X313.8066 Y319.9301
X313.8103 Y319.9309
X313.8635 Y319.9402
X313.9167 Y319.9464
X313.9718 Y319.9496
X314.0268 Y319.95
X338.9093
X339.0194 Y319.9498
X339.0745 Y319.9471
X339.1295 Y319.9412
X339.1897 Y319.9309
X339.2396 Y319.9193
X339.2947 Y319.9032
X339.3497 Y319.8833
X339.4048 Y319.8595
X339.4598 Y319.8313
X339.4784 Y319.8208
X339.5242 Y319.7923
X339.5699 Y319.7601
X339.6305 Y319.7106
X339.68 Y319.6634
X339.7093 Y319.632
X339.7361 Y319.6005
X339.7645 Y319.564
X339.7901 Y319.5275
X339.8137 Y319.4904
X339.8444 Y319.4353
X339.8706 Y319.3803
X339.9002 Y319.3035
X339.9108 Y319.2701
X339.9253 Y319.2151
X339.9364 Y319.16
X339.9442 Y319.105
X339.9487 Y319.0499
X339.95 Y318.9398
Y301.0999
X339.9501 Y300.9897
X339.9526 Y300.8796
X339.9587 Y300.7695
X339.9695 Y300.6594
X339.9839 Y300.5492
X340.0023 Y300.4391
X340.0103 Y300.3954
X340.0246 Y300.329
X340.0525 Y300.2189
X340.0837 Y300.1087
X340.1191 Y299.9986
X340.1204 Y299.995
X340.1604 Y299.8885
X340.2057 Y299.7784
X340.2305 Y299.7229
X340.2561 Y299.6682
X340.3127 Y299.5581
X340.3406 Y299.5073
X340.3748 Y299.448
X340.4431 Y299.3379
X340.4507 Y299.3264
X340.5178 Y299.2278
X340.5608 Y299.1689
X340.6006 Y299.1176
X340.6709 Y299.0313
X340.6913 Y299.0075
X340.781 Y298.908
X340.7912 Y298.8974
X340.8911 Y298.7972
X340.9015 Y298.7873
X341.0012 Y298.6967
X341.0241 Y298.6771
X341.1113 Y298.6056
X341.1605 Y298.567
X341.2214 Y298.5222
X341.3171 Y298.4569
X341.3315 Y298.4473
X341.4416 Y298.3786
X341.4964 Y298.3468
X341.5517 Y298.3161
X341.6618 Y298.2594
X341.7097 Y298.2366
X341.7719 Y298.2085
X341.882 Y298.163
X341.9776 Y298.1265
X341.9921 Y298.1214
X342.1022 Y298.0856
X342.2123 Y298.0543
X342.3224 Y298.0261
X342.3669 Y298.0164
X342.4325 Y298.0035
X342.5426 Y297.985
X342.6527 Y297.9702
X342.7628 Y297.9593
X342.8729 Y297.9529
X342.983 Y297.9502
X343.0931 Y297.95
X365.9938
X366.1039 Y297.952
X366.2141 Y297.9576
X366.3241 Y297.9677
X366.4342 Y297.9816
X366.5443 Y297.9992
X366.6331 Y298.0164
X366.6544 Y298.021
X366.7645 Y298.048
X366.8746 Y298.0788
X366.9847 Y298.1133
X367.0224 Y298.1265
X367.0948 Y298.154
X367.2049 Y298.1983
X367.2904 Y298.2366
X367.315 Y298.248
X367.4251 Y298.304
X367.5036 Y298.3468
X367.5352 Y298.3649
X367.6453 Y298.4323
X367.6829 Y298.4569
X367.7554 Y298.5061
X367.8395 Y298.567
X367.8655 Y298.5874
X367.9756 Y298.6769
X367.976 Y298.6771
X368.0857 Y298.775
X368.0985 Y298.7873
X368.1958 Y298.8839
X368.2088 Y298.8974
X368.3059 Y299.0043
X368.3087 Y299.0075
X368.3994 Y299.1176
X368.416 Y299.1388
X368.4822 Y299.2278
X368.5261 Y299.2915
X368.5569 Y299.3379
X368.6252 Y299.448
X368.6362 Y299.4666
X368.6873 Y299.5581
X368.7439 Y299.6682
X368.7463 Y299.6731
X368.7944 Y299.7784
X368.8405 Y299.8885
X368.8564 Y299.9309
X368.8809 Y299.9986
X368.9163 Y300.1087
X368.9475 Y300.2189
X368.9665 Y300.2926
X368.9754 Y300.329
X368.9977 Y300.4391
X369.0161 Y300.5492
X369.0305 Y300.6594
X369.0414 Y300.7695
X369.0474 Y300.8796
X369.0499 Y300.9897
X369.05 Y301.0999
Y318.9398
X369.0513 Y319.0499
X369.0558 Y319.105
X369.0636 Y319.16
X369.0766 Y319.2233
X369.0892 Y319.2701
X369.1074 Y319.3252
X369.1294 Y319.3803
X369.1556 Y319.4353
X369.1864 Y319.4904
X369.1867 Y319.491
X369.2224 Y319.5458
X369.2639 Y319.6005
X369.2968 Y319.6388
X369.3332 Y319.6767
X369.3695 Y319.7106
X369.4069 Y319.7422
X369.462 Y319.783
X369.517 Y319.8181
X369.5216 Y319.8208
X369.5744 Y319.8493
X369.6271 Y319.8738
X369.6822 Y319.8953
X369.7372 Y319.913
X369.8103 Y319.9309
X369.8473 Y319.9377
X369.9024 Y319.945
X369.9574 Y319.9491
X370.0675 Y319.95
X389.7754
X389.8304 Y319.9495
X389.8855 Y319.9462
X389.9376 Y319.94
X389.9897 Y319.9309
X389.9955 Y319.9297
X390.0506 Y319.9164
X390.1057 Y319.8995
X390.1607 Y319.8789
X390.2158 Y319.8542
X390.2784 Y319.8208
X390.3259 Y319.7912
X390.3782 Y319.7538
X390.4305 Y319.7106
X390.4359 Y319.7057
X390.4899 Y319.6531
X390.5361 Y319.6005
X390.5461 Y319.5882
X390.5821 Y319.5393
X390.6136 Y319.4904
X390.6361 Y319.451
X390.6562 Y319.4117
X390.6706 Y319.3803
X390.6926 Y319.3252
X390.7108 Y319.2701
X390.7253 Y319.2151
X390.7364 Y319.16
X390.7442 Y319.105
X390.7487 Y319.0499
X390.75 Y318.9398
Y246.0383
X390.7473 Y245.9282
X390.7415 Y245.8731
X390.7324 Y245.8181
X390.72 Y245.763
X390.704 Y245.7079
X390.6843 Y245.6529
X390.6606 Y245.5978
X390.6562 Y245.5883
X390.6301 Y245.538
X390.6 Y245.4877
X390.5744 Y245.4498
X390.5461 Y245.4119
X390.5177 Y245.3776
X390.4793 Y245.3359
X390.4359 Y245.2943
X390.4048 Y245.2674
X390.3654 Y245.2365
X390.3259 Y245.2088
X390.2822 Y245.1815
X390.2386 Y245.1573
X390.2158 Y245.1458
X390.1607 Y245.1212
X390.1057 Y245.1005
X390.0506 Y245.0837
X389.9955 Y245.0704
X389.9405 Y245.0605
X389.8855 Y245.0539
X389.8304 Y245.0505
X389.7754 Y245.05
X332.9518
X332.95 Y245.0486
Y161.952
X332.9518 Y161.95
X389.7754
X389.8304 Y161.9495
X389.8855 Y161.9462
X389.9405 Y161.9396
X389.9955 Y161.9297
X390.0434 Y161.9183
X390.0913 Y161.9043
X390.1057 Y161.8995
X390.1607 Y161.8789
X390.2158 Y161.8542
X390.2686 Y161.8264
X390.3214 Y161.7941
X390.3259 Y161.7912
X390.3809 Y161.7517
X390.4359 Y161.7057
X390.4593 Y161.684
X390.5056 Y161.6361
X390.5461 Y161.5882
X390.5571 Y161.5739
X390.5958 Y161.5188
X390.6291 Y161.4638
X390.6562 Y161.4117
X390.6817 Y161.3536
X390.7019 Y161.2986
X390.7183 Y161.2435
X390.7311 Y161.1885
X390.7406 Y161.1334
X390.7468 Y161.0783
X390.7497 Y161.0233
X390.75 Y160.9131
Y33.0602
X390.7487 Y32.9501
X390.7442 Y32.8951
X390.7364 Y32.84
X390.7253 Y32.7849
X390.7108 Y32.7299
X390.6926 Y32.6748
X390.6706 Y32.6198
X390.6562 Y32.5883
X390.6361 Y32.549
X390.6136 Y32.5096
X390.5821 Y32.4607
X390.5461 Y32.4119
X390.5361 Y32.3995
X390.4899 Y32.3469
X390.4359 Y32.2943
X390.4305 Y32.2894
X390.3782 Y32.2462
X390.3259 Y32.2088
X390.2784 Y32.1793
X390.2158 Y32.1458
X390.1607 Y32.1211
X390.1057 Y32.1005
X390.0506 Y32.0836
X389.9955 Y32.0703
X389.9897 Y32.0691
X389.9376 Y32.06
X389.8855 Y32.0539
X389.8304 Y32.0505
X389.7754 Y32.05
X366.4342
X366.3241 Y32.053
X366.2691 Y32.0591
X366.2141 Y32.0684
X366.2103 Y32.0691
X366.1571 Y32.0816
X366.1039 Y32.0973
X366.0489 Y32.1173
X365.9938 Y32.1412
X365.9216 Y32.1793
X365.8837 Y32.2025
X365.8287 Y32.241
X365.7737 Y32.2857
X365.7695 Y32.2894
X365.7124 Y32.3444
X365.6639 Y32.3995
X365.6635 Y32.3999
X365.622 Y32.4548
X365.5864 Y32.5096
X365.5534 Y32.5689
X365.5294 Y32.6198
X365.5074 Y32.6748
X365.4892 Y32.7299
X365.4747 Y32.7849
X365.4636 Y32.84
X365.4558 Y32.8951
X365.4513 Y32.9501
X365.45 Y33.0602
Y51.0103
X365.4496 Y51.1204
X365.4452 Y51.2306
X365.4433 Y51.2528
X365.434 Y51.3407
X365.4158 Y51.4508
X365.3911 Y51.5609
X365.3595 Y51.671
X365.3333 Y51.7456
X365.3195 Y51.7812
X365.2721 Y51.8913
X365.2231 Y51.9874
X365.2153 Y52.0014
X365.1486 Y52.1115
X365.113 Y52.1635
X365.071 Y52.2217
X365.0029 Y52.3054
X364.9799 Y52.3318
X364.8929 Y52.423
X364.8728 Y52.4419
X364.7827 Y52.5225
X364.7463 Y52.552
X364.6726 Y52.6068
X364.5906 Y52.6622
X364.5625 Y52.6797
X364.4525 Y52.7415
X364.391 Y52.7723
X364.3423 Y52.7945
X364.2322 Y52.8386
X364.1221 Y52.8744
X364.0947 Y52.8824
X364.0121 Y52.9034
X363.9019 Y52.925
X363.7918 Y52.9399
X363.6817 Y52.948
X363.5717 Y52.95
X347.6072
X347.4971 Y52.9499
X347.387 Y52.9464
X347.2769 Y52.9364
X347.1668 Y52.9196
X347.0567 Y52.8959
X347.0053 Y52.8824
X346.9466 Y52.8651
X346.8365 Y52.8268
X346.7264 Y52.7804
X346.709 Y52.7723
X346.6163 Y52.7251
X346.5094 Y52.6622
X346.5062 Y52.6602
X346.3961 Y52.5843
X346.3537 Y52.552
X346.286 Y52.4959
X346.2272 Y52.4419
X346.1759 Y52.3916
X346.1201 Y52.3318
X346.0658 Y52.2682
X346.029 Y52.2217
X345.9557 Y52.1179
X345.9515 Y52.1115
X345.8847 Y52.0014
X345.8456 Y51.9282
X345.8279 Y51.8913
X345.7805 Y51.7812
X345.7405 Y51.671
X345.7355 Y51.6559
X345.7089 Y51.5609
X345.6843 Y51.4508
X345.666 Y51.3407
X345.6548 Y51.2306
X345.6504 Y51.1204
X345.65 Y51.0103
Y33.0602
X345.6487 Y32.9501
X345.6442 Y32.8951
X345.6364 Y32.84
X345.6254 Y32.7851
X345.6108 Y32.7299
X345.5927 Y32.6748
X345.5706 Y32.6198
X345.5451 Y32.566
X345.5153 Y32.5123
X345.5137 Y32.5096
X345.4778 Y32.4546
X345.4362 Y32.3995
X345.4052 Y32.3634
X345.3679 Y32.3244
X345.3305 Y32.2894
X345.2951 Y32.2595
X345.2401 Y32.2184
X345.185 Y32.1831
X345.1784 Y32.1793
X345.1267 Y32.1512
X345.0749 Y32.1271
X345.0199 Y32.1055
X344.9648 Y32.0876
X344.8897 Y32.0691
X344.8547 Y32.0627
X344.7997 Y32.0552
X344.7446 Y32.051
X344.6345 Y32.05
X314.0268
X313.9718 Y32.0504
X313.9167 Y32.0537
X313.8635 Y32.0599
X313.8103 Y32.0691
X313.8066 Y32.0699
X313.7516 Y32.0831
X313.6965 Y32.0998
X313.6415 Y32.1203
X313.5864 Y32.1448
X313.5216 Y32.1793
X313.4763 Y32.2074
X313.4229 Y32.2454
X313.3695 Y32.2894
X313.3662 Y32.2923
X313.311 Y32.3459
X313.2639 Y32.3995
X313.2561 Y32.4091
X313.2188 Y32.4594
X313.1863 Y32.5096
X313.1651 Y32.5467
X313.146 Y32.5838
X313.1294 Y32.6198
X313.1074 Y32.6748
X313.0892 Y32.7299
X313.0747 Y32.7849
X313.0636 Y32.84
X313.0558 Y32.8951
X313.0513 Y32.9501
X313.05 Y33.0602
Y40.0484
X313.0482 Y40.05
X240.9513
X240.95 Y40.0484
Y33.0602
X240.9487 Y32.9501
X240.9442 Y32.8951
X240.9364 Y32.84
X240.9207 Y32.7657
X240.9108 Y32.7299
X240.8926 Y32.6748
X240.8706 Y32.6198
X240.8444 Y32.5647
X240.8136 Y32.5096
X240.8106 Y32.5045
X240.776 Y32.452
X240.7361 Y32.3995
X240.7005 Y32.3582
X240.6655 Y32.322
X240.6305 Y32.2894
X240.5904 Y32.2557
X240.5353 Y32.2152
X240.4803 Y32.1803
X240.4784 Y32.1793
X240.4243 Y32.15
X240.3702 Y32.1251
X240.3151 Y32.1038
X240.2601 Y32.0863
X240.1897 Y32.0691
X240.15 Y32.0619
X240.0949 Y32.0548
X240.0399 Y32.0508
X239.9298 Y32.05
X237.7514
X237.75 Y32.0486
Y26.2326
X237.7468 Y26.1225
X237.7407 Y26.0674
X237.7313 Y26.0124
X237.7278 Y25.9957
X237.7162 Y25.949
X237.7021 Y25.9022
X237.6821 Y25.8472
X237.658 Y25.7921
X237.6389 Y25.7542
X237.6177 Y25.7164
X237.5963 Y25.682
X237.5577 Y25.6269
X237.5127 Y25.5719
X237.5076 Y25.5661
X237.4527 Y25.5098
X237.3979 Y25.4618
X237.3975 Y25.4614
X237.3424 Y25.4201
X237.2874 Y25.3846
X237.2275 Y25.3516
X237.1773 Y25.3281
X237.1222 Y25.3063
X237.0672 Y25.2884
X237.0121 Y25.274
X236.9571 Y25.2631
X236.902 Y25.2555
X236.847 Y25.2512
X236.7369 Y25.25
X26.2264
X26.1713 Y25.2504
X26.1163 Y25.2537
X26.0612 Y25.2602
X26.0062 Y25.27
X25.9511 Y25.2832
X25.8961 Y25.2999
X25.841 Y25.3204
X25.786 Y25.345
X25.7725 Y25.3516
X25.7242 Y25.3778
X25.6759 Y25.4077
X25.639 Y25.4333
X25.6021 Y25.4618
X25.5658 Y25.4927
X25.5242 Y25.5323
X25.4873 Y25.5719
X25.4557 Y25.6097
X25.4284 Y25.6458
X25.4037 Y25.682
X25.3725 Y25.7334
X25.3456 Y25.7847
X25.342 Y25.7921
X25.3179 Y25.8472
X25.2979 Y25.9022
X25.2815 Y25.9573
X25.2687 Y26.0124
X25.2593 Y26.0674
X25.2532 Y26.1225
X25.25 Y26.2326
Y62.8569
Y63.0504 Z-2.0001
Y63.244 Z-2.0004
Y63.4376 Z-2.0008
Y63.6312 Z-2.0015
Y63.8247 Z-2.0023
Y64.0183 Z-2.0033
Y64.2119 Z-2.0045
Y64.4055 Z-2.0058
Y64.599 Z-2.0073
Y64.7926 Z-2.009
Y64.9862 Z-2.0109
Y65.1798 Z-2.0129
Y65.3733 Z-2.0151
Y65.5669 Z-2.0174
Y65.7605 Z-2.0199
Y65.9541 Z-2.0225
Y66.1476 Z-2.0253
Y66.3412 Z-2.0283
Y66.5348 Z-2.0314
Y66.7284 Z-2.0347
Y66.9219 Z-2.0381
Y67.1155 Z-2.0416
Y67.3091 Z-2.0453
Y67.5027 Z-2.0491
Y67.6962 Z-2.0531
Y67.8898 Z-2.0572
Y68.0834 Z-2.0614
Y68.277 Z-2.0658
Y68.4705 Z-2.0702
Y68.6641 Z-2.0749
Y68.8577 Z-2.0796
Y69.0513 Z-2.0845
Y69.2448 Z-2.0894
Y69.3416 Z-2.092
Y69.4384 Z-2.0945
Y69.5352 Z-2.0971
Y69.632 Z-2.0997
Y69.7288 Z-2.1024
Y69.8256 Z-2.1051
Y69.9223 Z-2.1078
Y70.0191 Z-2.1105
Y70.1159 Z-2.1133
Y70.2127 Z-2.1161
Y70.3095 Z-2.1189
Y70.4063 Z-2.1217
Y70.5031 Z-2.1246
Y70.5999 Z-2.1275
Y70.6966 Z-2.1304
Y70.7934 Z-2.1334
Y70.8902 Z-2.1363
Y70.987 Z-2.1393
Y71.0838 Z-2.1423
Y71.1806 Z-2.1454
Y71.2774 Z-2.1485
Y71.3741 Z-2.1516
Y71.4709 Z-2.1547
Y71.5677 Z-2.1578
Y71.6645 Z-2.161
Y71.7613 Z-2.1642
Y71.8581 Z-2.1674
Y71.9549 Z-2.1706
Y72.0517 Z-2.1739
Y72.1484 Z-2.1772
Y72.2452 Z-2.1805
Y72.342 Z-2.1838
Y72.4388 Z-2.1871
Y72.6324 Z-2.1939
Y72.7292 Z-2.1972
Y72.826 Z-2.2006
Y72.9227 Z-2.204
Y73.0195 Z-2.2074
Y73.1163 Z-2.2108
Y73.2131 Z-2.2141
Y73.3099 Z-2.2175
Y73.4067 Z-2.2209
Y73.5035 Z-2.2243
Y73.6003 Z-2.2277
Y73.697 Z-2.231
Y73.7938 Z-2.2344
Y73.9874 Z-2.2412
Y74.2778 Z-2.2513
Y74.5681 Z-2.2614
Y74.8585 Z-2.2716
Y75.1489 Z-2.2817
Y75.4392 Z-2.2919
Y75.7296 Z-2.302
Y76.0199 Z-2.3121
Y76.3103 Z-2.3223
Y76.6007 Z-2.3324
Y76.891 Z-2.3426
Y77.375 Z-2.3595
Y77.8589 Z-2.3764
Y78.3428 Z-2.3933
Y79.0203 Z-2.4169
Y79.8914 Z-2.4473
Y81.3432 Z-2.498
Y88.3119 Z-2.7413
Y88.6023 Z-2.7515
Y88.8927 Z-2.7616
Y88.9894 Z-2.765
Y89.0862 Z-2.7684
Y89.183 Z-2.7717
Y89.2798 Z-2.7751
Y89.3766 Z-2.7785
Y89.4734 Z-2.7819
Y89.5702 Z-2.7853
Y89.667 Z-2.7886
Y89.7637 Z-2.792
Y89.8605 Z-2.7954
Y89.9573 Z-2.7988
Y90.0541 Z-2.8022
Y90.1509 Z-2.8055
Y90.2477 Z-2.8089
Y90.3445 Z-2.8123
Y90.4413 Z-2.8156
Y90.538 Z-2.819
Y90.6348 Z-2.8223
Y90.7316 Z-2.8255
Y90.8284 Z-2.8288
Y90.9252 Z-2.832
Y91.022 Z-2.8353
Y91.1188 Z-2.8385
Y91.2156 Z-2.8416
Y91.3123 Z-2.8448
Y91.4091 Z-2.8479
Y91.5059 Z-2.851
Y91.6027 Z-2.8541
Y91.6995 Z-2.8571
Y91.7963 Z-2.8601
Y91.8931 Z-2.8631
Y91.9899 Z-2.8661
Y92.0866 Z-2.8691
Y92.1834 Z-2.872
Y92.2802 Z-2.8749
Y92.377 Z-2.8778
Y92.4738 Z-2.8806
Y92.5706 Z-2.8834
Y92.6674 Z-2.8862
Y92.7642 Z-2.889
Y92.8609 Z-2.8917
Y92.9577 Z-2.8945
Y93.0545 Z-2.8971
Y93.1513 Z-2.8998
Y93.2481 Z-2.9024
Y93.3449 Z-2.905
Y93.4417 Z-2.9076
Y93.5385 Z-2.9101
Y93.6352 Z-2.9126
Y93.8288 Z-2.9176
Y94.0224 Z-2.9224
Y94.216 Z-2.9271
Y94.4095 Z-2.9316
Y94.6031 Z-2.9361
Y94.7967 Z-2.9404
Y94.9903 Z-2.9445
Y95.1838 Z-2.9486
Y95.3774 Z-2.9525
Y95.571 Z-2.9562
Y95.7646 Z-2.9599
Y95.9581 Z-2.9634
Y96.1517 Z-2.9667
Y96.3453 Z-2.9699
Y96.5389 Z-2.9729
Y96.7324 Z-2.9758
Y96.926 Z-2.9786
Y97.1196 Z-2.9812
Y97.3132 Z-2.9836
Y97.5067 Z-2.9859
Y97.7003 Z-2.988
Y97.8939 Z-2.9899
Y98.0875 Z-2.9917
Y98.281 Z-2.9933
Y98.4746 Z-2.9948
Y98.6682 Z-2.996
Y98.8618 Z-2.9971
Y99.0553 Z-2.9981
Y99.2489 Z-2.9988
Y99.4425 Z-2.9994
Y99.636 Z-2.9998
Y99.8296 Z-3
Y99.9434
Y325.7674
X25.2532 Y325.8775
X25.2593 Y325.9326
X25.2687 Y325.9877
X25.2815 Y326.0427
X25.2979 Y326.0978
X25.318 Y326.1528
X25.342 Y326.2079
X25.3456 Y326.2153
X25.3725 Y326.2667
X25.4037 Y326.318
X25.4284 Y326.3542
X25.4557 Y326.3903
X25.4873 Y326.4282
X25.5242 Y326.4677
X25.5658 Y326.5073
X25.6021 Y326.5383
X25.639 Y326.5667
X25.6759 Y326.5923
X25.7242 Y326.6223
X25.7725 Y326.6484
X25.786 Y326.655
X25.841 Y326.6796
X25.8961 Y326.7001
X25.9511 Y326.7168
X26.0062 Y326.73
X26.0612 Y326.7398
X26.1163 Y326.7463
X26.1713 Y326.7496
X26.2264 Y326.75
X55.9533
X56.0634 Y326.7479
X56.1184 Y326.7426
X56.1735 Y326.734
X56.2285 Y326.7221
X56.2836 Y326.7067
X56.3386 Y326.6876
X56.3937 Y326.6646
X56.4275 Y326.6484
X56.4656 Y326.6281
X56.5038 Y326.6054
X56.5508 Y326.574
X56.5979 Y326.5383
X56.6139 Y326.525
X56.6633 Y326.4801
X56.7127 Y326.4282
X56.724 Y326.4151
X56.7626 Y326.3666
X56.7963 Y326.318
X56.8341 Y326.2548
X56.858 Y326.2079
X56.882 Y326.1528
X56.9021 Y326.0978
X56.9185 Y326.0427
X56.9313 Y325.9877
X56.9387 Y325.9464
X56.9442 Y325.9051
X56.9468 Y325.8775
X56.95 Y325.7674
Y306.0554
X56.9506 Y305.9453
X56.9535 Y305.8351
X56.9595 Y305.725
X56.9686 Y305.6149
X56.9805 Y305.5048
X56.9957 Y305.3947
X57.014 Y305.2845
X57.0351 Y305.1744
X57.0543 Y305.0873
X57.0598 Y305.0643
X57.0875 Y304.9542
X57.1186 Y304.844
X57.1533 Y304.7339
X57.1644 Y304.7006
X57.1911 Y304.6238
X57.2329 Y304.5137
X57.2745 Y304.4121
X57.2782 Y304.4035
X57.3275 Y304.2934
X57.3803 Y304.1833
X57.3846 Y304.175
X57.4381 Y304.0732
X57.4947 Y303.9716
X57.4997 Y303.963
X57.566 Y303.8529
X57.6048 Y303.7927
X57.6378 Y303.7428
X57.7139 Y303.6327
X57.7149 Y303.6313
X57.7965 Y303.5226
X57.825 Y303.4863
X57.8849 Y303.4124
X57.9351 Y303.3532
X57.9797 Y303.3023
X58.0452 Y303.2306
X58.0817 Y303.1922
X58.1553 Y303.1174
X58.1914 Y303.0821
X58.2654 Y303.0132
X58.311 Y302.9719
X58.3755 Y302.9156
X58.4401 Y302.8618
X58.4856 Y302.825
X58.5814 Y302.7517
X58.5957 Y302.7411
X58.7058 Y302.6627
X58.7369 Y302.6416
X58.8159 Y302.5892
X58.9099 Y302.5314
X58.926 Y302.5217
X59.0361 Y302.4582
X59.1035 Y302.4213
X59.1462 Y302.3992
X59.2563 Y302.3448
X59.3288 Y302.3112
X59.3664 Y302.2943
X59.4765 Y302.2474
X59.5866 Y302.2054
X59.598 Y302.2011
X59.6967 Y302.1652
X59.8068 Y302.1302
X59.9169 Y302.0975
X59.9416 Y302.0909
X60.027 Y302.0692
X60.1371 Y302.0431
X60.2472 Y302.0212
X60.3573 Y302.0018
X60.4674 Y301.9854
X60.5031 Y301.9808
X60.5775 Y301.9722
X60.6876 Y301.9622
X60.7977 Y301.9549
X60.9078 Y301.951
X61.0179 Y301.95
X61.128 Y301.9519
X61.2381 Y301.9571
X61.3482 Y301.965
X61.4583 Y301.9762
X61.4969 Y301.9808
X61.5684 Y301.9904
X61.6785 Y302.0076
X61.7886 Y302.028
X61.8987 Y302.0511
X62.0088 Y302.0781
X62.0584 Y302.0909
X62.1189 Y302.108
X62.229 Y302.1411
X62.3391 Y302.1781
X62.402 Y302.2011
X62.4492 Y302.2188
X62.5593 Y302.2621
X62.6694 Y302.3104
X62.6712 Y302.3112
X62.7795 Y302.3619
X62.8896 Y302.4177
X62.8965 Y302.4213
X62.9997 Y302.4782
X63.0901 Y302.5314
X63.1098 Y302.5434
X63.2199 Y302.6127
X63.2631 Y302.6416
X63.33 Y302.6875
X63.4186 Y302.7517
X63.4401 Y302.7675
X63.5502 Y302.8539
X63.5599 Y302.8618
X63.6603 Y302.9467
X63.689 Y302.9719
X63.7703 Y303.0461
X63.8086 Y303.0821
X63.8804 Y303.1531
X63.9183 Y303.1922
X63.9905 Y303.2688
X64.0203 Y303.3023
X64.1006 Y303.3949
X64.1151 Y303.4124
X64.2035 Y303.5226
X64.2107 Y303.5321
X64.2861 Y303.6327
X64.3208 Y303.6821
X64.3622 Y303.7428
X64.4309 Y303.848
X64.434 Y303.8529
X64.5003 Y303.963
X64.541 Y304.0349
X64.5619 Y304.0732
X64.6197 Y304.1833
X64.6511 Y304.2477
X64.6725 Y304.2934
X64.7218 Y304.4035
X64.7612 Y304.4988
X64.7671 Y304.5137
X64.8089 Y304.6238
X64.8467 Y304.7339
X64.8713 Y304.8108
X64.8813 Y304.844
X64.9125 Y304.9542
X64.9402 Y305.0643
X64.9649 Y305.1744
X64.9814 Y305.2588
X64.986 Y305.2845
X65.0043 Y305.3947
X65.0195 Y305.5048
X65.0314 Y305.6149
X65.0405 Y305.725
X65.0465 Y305.8351
X65.0493 Y305.9453
X65.05 Y306.0554
Y325.7674
X65.0532 Y325.8775
X65.0593 Y325.9326
X65.0687 Y325.9877
X65.079 Y326.0328
X65.0915 Y326.0779
X65.0979 Y326.0978
X65.118 Y326.1528
X65.142 Y326.2079
X65.1696 Y326.2614
X65.2016 Y326.3149
X65.2037 Y326.318
X65.2423 Y326.3731
X65.2873 Y326.4282
X65.3117 Y326.4548
X65.3569 Y326.4993
X65.4021 Y326.5383
X65.4218 Y326.5538
X65.4769 Y326.593
X65.5319 Y326.6267
X65.5725 Y326.6484
X65.642 Y326.68
X65.6971 Y326.7004
X65.7521 Y326.7171
X65.8072 Y326.7302
X65.8622 Y326.74
X65.9173 Y326.7464
X65.9723 Y326.7496
X66.0824 Y326.75
X236.7369
X236.847 Y326.7488
X236.902 Y326.7445
X236.9571 Y326.7369
X237.0121 Y326.726
X237.0672 Y326.7117
X237.1222 Y326.6937
X237.1773 Y326.6719
X237.2275 Y326.6484
X237.2874 Y326.6154
X237.3424 Y326.5799
X237.3975 Y326.5386
X237.3979 Y326.5383
X237.4527 Y326.4903
X237.5076 Y326.4339
X237.5127 Y326.4282
X237.5577 Y326.3731
X237.5963 Y326.318
X237.6177 Y326.2837
X237.6389 Y326.2458
X237.658 Y326.2079
X237.682 Y326.1528
X237.7021 Y326.0978
X237.7162 Y326.0511
X237.7278 Y326.0043
X237.7313 Y325.9877
X237.7407 Y325.9326
X237.7468 Y325.8775
X237.75 Y325.7674
Y319.9514
X237.7514 Y319.95
X239.9298
X240.0399 Y319.9492
X240.0949 Y319.9453
X240.15 Y319.9381
X240.1897 Y319.9309
X240.2601 Y319.9137
X240.3151 Y319.8962
X240.3702 Y319.8749
X240.4243 Y319.85
X240.4784 Y319.8208
X240.4803 Y319.8197
X240.5353 Y319.7849
X240.5904 Y319.7443
X240.6305 Y319.7106
X240.6655 Y319.678
X240.7005 Y319.6418
X240.7361 Y319.6005
X240.776 Y319.548
X240.8106 Y319.4955
X240.8136 Y319.4904
X240.8444 Y319.4353
X240.8706 Y319.3803
X240.8926 Y319.3252
X240.9108 Y319.2701
X240.9207 Y319.2343
X240.9364 Y319.16
X240.9442 Y319.105
X240.9487 Y319.0499
X240.95 Y318.9398
Y311.9516
X240.9513 Y311.95
X313.0482
X313.05 Y311.9516
Y318.9398
X313.0513 Y319.0499
X313.0558 Y319.105
X313.0636 Y319.16
X313.0747 Y319.2151
X313.0892 Y319.2701
X313.1074 Y319.3252
X313.1294 Y319.3803
X313.146 Y319.4162
X313.1651 Y319.4533
X313.1863 Y319.4904
X313.2188 Y319.5406
X313.2561 Y319.5909
X313.2639 Y319.6005
X313.311 Y319.6541
X313.3662 Y319.7077
X313.3695 Y319.7106
X313.4229 Y319.7546
X313.4763 Y319.7926
X313.5216 Y319.8208
X313.5864 Y319.8553
X313.6415 Y319.8798
X313.6965 Y319.9002
X313.7516 Y319.917
X313.8066 Y319.9301
X313.8103 Y319.9309
X313.8635 Y319.9402
X313.9167 Y319.9464
X313.9718 Y319.9496
X314.0268 Y319.95
X338.9093
X339.0194 Y319.9498
X339.0745 Y319.9471
X339.1295 Y319.9412
X339.1897 Y319.9309
X339.2396 Y319.9193
X339.2947 Y319.9032
X339.3497 Y319.8833
X339.4048 Y319.8595
X339.4598 Y319.8313
X339.4784 Y319.8208
X339.5242 Y319.7923
X339.5699 Y319.7601
X339.6305 Y319.7106
X339.68 Y319.6634
X339.7093 Y319.632
X339.7361 Y319.6005
X339.7645 Y319.564
X339.7901 Y319.5275
X339.8137 Y319.4904
X339.8444 Y319.4353
X339.8706 Y319.3803
X339.9002 Y319.3035
X339.9108 Y319.2701
X339.9253 Y319.2151
X339.9364 Y319.16
X339.9442 Y319.105
X339.9487 Y319.0499
X339.95 Y318.9398
Y301.0999
X339.9501 Y300.9897
X339.9526 Y300.8796
X339.9587 Y300.7695
X339.9695 Y300.6594
X339.9839 Y300.5492
X340.0023 Y300.4391
X340.0103 Y300.3954
X340.0246 Y300.329
X340.0525 Y300.2189
X340.0837 Y300.1087
X340.1191 Y299.9986
X340.1204 Y299.995
X340.1604 Y299.8885
X340.2057 Y299.7784
X340.2305 Y299.7229
X340.2561 Y299.6682
X340.3127 Y299.5581
X340.3406 Y299.5073
X340.3748 Y299.448
X340.4431 Y299.3379
X340.4507 Y299.3264
X340.5178 Y299.2278
X340.5608 Y299.1689
X340.6006 Y299.1176
X340.6709 Y299.0313
X340.6913 Y299.0075
X340.781 Y298.908
X340.7912 Y298.8974
X340.8911 Y298.7972
X340.9015 Y298.7873
X341.0012 Y298.6967
X341.0241 Y298.6771
X341.1113 Y298.6056
X341.1605 Y298.567
X341.2214 Y298.5222
X341.3171 Y298.4569
X341.3315 Y298.4473
X341.4416 Y298.3786
X341.4964 Y298.3468
X341.5517 Y298.3161
X341.6618 Y298.2594
X341.7097 Y298.2366
X341.7719 Y298.2085
X341.882 Y298.163
X341.9776 Y298.1265
X341.9921 Y298.1214
X342.1022 Y298.0856
X342.2123 Y298.0543
X342.3224 Y298.0261
X342.3669 Y298.0164
X342.4325 Y298.0035
X342.5426 Y297.985
X342.6527 Y297.9702
X342.7628 Y297.9593
X342.8729 Y297.9529
X342.983 Y297.9502
X343.0931 Y297.95
X365.9938
X366.1039 Y297.952
X366.2141 Y297.9576
X366.3241 Y297.9677
X366.4342 Y297.9816
X366.5443 Y297.9992
X366.6331 Y298.0164
X366.6544 Y298.021
X366.7645 Y298.048
X366.8746 Y298.0788
X366.9847 Y298.1133
X367.0224 Y298.1265
X367.0948 Y298.154
X367.2049 Y298.1983
X367.2904 Y298.2366
X367.315 Y298.248
X367.4251 Y298.304
X367.5036 Y298.3468
X367.5352 Y298.3649
X367.6453 Y298.4323
X367.6829 Y298.4569
X367.7554 Y298.5061
X367.8395 Y298.567
X367.8655 Y298.5874
X367.9756 Y298.6769
X367.976 Y298.6771
X368.0857 Y298.775
X368.0985 Y298.7873
X368.1958 Y298.8839
X368.2088 Y298.8974
X368.3059 Y299.0043
X368.3087 Y299.0075
X368.3994 Y299.1176
X368.416 Y299.1388
X368.4822 Y299.2278
X368.5261 Y299.2915
X368.5569 Y299.3379
X368.6252 Y299.448
X368.6362 Y299.4666
X368.6873 Y299.5581
X368.7439 Y299.6682
X368.7463 Y299.6731
X368.7944 Y299.7784
X368.8405 Y299.8885
X368.8564 Y299.9309
X368.8809 Y299.9986
X368.9163 Y300.1087
X368.9475 Y300.2189
X368.9665 Y300.2926
X368.9754 Y300.329
X368.9977 Y300.4391
X369.0161 Y300.5492
X369.0305 Y300.6594
X369.0414 Y300.7695
X369.0474 Y300.8796
X369.0499 Y300.9897
X369.05 Y301.0999
Y318.9398
X369.0513 Y319.0499
X369.0558 Y319.105
X369.0636 Y319.16
X369.0766 Y319.2233
X369.0892 Y319.2701
X369.1074 Y319.3252
X369.1294 Y319.3803
X369.1556 Y319.4353
X369.1864 Y319.4904
X369.1867 Y319.491
X369.2224 Y319.5458
X369.2639 Y319.6005
X369.2968 Y319.6388
X369.3332 Y319.6767
X369.3695 Y319.7106
X369.4069 Y319.7422
X369.462 Y319.783
X369.517 Y319.8181
X369.5216 Y319.8208
X369.5744 Y319.8493
X369.6271 Y319.8738
X369.6822 Y319.8953
X369.7372 Y319.913
X369.8103 Y319.9309
X369.8473 Y319.9377
X369.9024 Y319.945
X369.9574 Y319.9491
X370.0675 Y319.95
X389.7754
X389.8304 Y319.9495
X389.8855 Y319.9462
X389.9376 Y319.94
X389.9897 Y319.9309
X389.9955 Y319.9297
X390.0506 Y319.9164
X390.1057 Y319.8995
X390.1607 Y319.8789
X390.2158 Y319.8542
X390.2784 Y319.8208
X390.3259 Y319.7912
X390.3782 Y319.7538
X390.4305 Y319.7106
X390.4359 Y319.7057
X390.4899 Y319.6531
X390.5361 Y319.6005
X390.5461 Y319.5882
X390.5821 Y319.5393
X390.6136 Y319.4904
X390.6361 Y319.451
X390.6562 Y319.4117
X390.6706 Y319.3803
X390.6926 Y319.3252
X390.7108 Y319.2701
X390.7253 Y319.2151
X390.7364 Y319.16
X390.7442 Y319.105
X390.7487 Y319.0499
X390.75 Y318.9398
Y246.0383
X390.7473 Y245.9282
X390.7415 Y245.8731
X390.7324 Y245.8181
X390.72 Y245.763
X390.704 Y245.7079
X390.6843 Y245.6529
X390.6606 Y245.5978
X390.6562 Y245.5883
X390.6301 Y245.538
X390.6 Y245.4877
X390.5744 Y245.4498
X390.5461 Y245.4119
X390.5177 Y245.3776
X390.4793 Y245.3359
X390.4359 Y245.2943
X390.4048 Y245.2674
X390.3654 Y245.2365
X390.3259 Y245.2088
X390.2822 Y245.1815
X390.2386 Y245.1573
X390.2158 Y245.1458
X390.1607 Y245.1212
X390.1057 Y245.1005
X390.0506 Y245.0837
X389.9955 Y245.0704
X389.9405 Y245.0605
X389.8855 Y245.0539
X389.8304 Y245.0505
X389.7754 Y245.05
X332.9518
X332.95 Y245.0486
Y161.952
X332.9518 Y161.95
X389.7754
X389.8304 Y161.9495
X389.8855 Y161.9462
X389.9405 Y161.9396
X389.9955 Y161.9297
X390.0434 Y161.9183
X390.0913 Y161.9043
X390.1057 Y161.8995
X390.1607 Y161.8789
X390.2158 Y161.8542
X390.2686 Y161.8264
X390.3214 Y161.7941
X390.3259 Y161.7912
X390.3809 Y161.7517
X390.4359 Y161.7057
X390.4593 Y161.684
X390.5056 Y161.6361
X390.5461 Y161.5882
X390.5571 Y161.5739
X390.5958 Y161.5188
X390.6291 Y161.4638
X390.6562 Y161.4117
X390.6817 Y161.3536
X390.7019 Y161.2986
X390.7183 Y161.2435
X390.7311 Y161.1885
X390.7406 Y161.1334
X390.7468 Y161.0783
X390.7497 Y161.0233
X390.75 Y160.9131
Y33.0602
X390.7487 Y32.9501
X390.7442 Y32.8951
X390.7364 Y32.84
X390.7253 Y32.7849
X390.7108 Y32.7299
X390.6926 Y32.6748
X390.6706 Y32.6198
X390.6562 Y32.5883
X390.6361 Y32.549
X390.6136 Y32.5096
X390.5821 Y32.4607
X390.5461 Y32.4119
X390.5361 Y32.3995
X390.4899 Y32.3469
X390.4359 Y32.2943
X390.4305 Y32.2894
X390.3782 Y32.2462
X390.3259 Y32.2088
X390.2784 Y32.1793
X390.2158 Y32.1458
X390.1607 Y32.1211
X390.1057 Y32.1005
X390.0506 Y32.0836
X389.9955 Y32.0703
X389.9897 Y32.0691
X389.9376 Y32.06
X389.8855 Y32.0539
X389.8304 Y32.0505
X389.7754 Y32.05
X366.4342
X366.3241 Y32.053
X366.2691 Y32.0591
X366.2141 Y32.0684
X366.2103 Y32.0691
X366.1571 Y32.0816
X366.1039 Y32.0973
X366.0489 Y32.1173
X365.9938 Y32.1412
X365.9216 Y32.1793
X365.8837 Y32.2025
X365.8287 Y32.241
X365.7737 Y32.2857
X365.7695 Y32.2894
X365.7124 Y32.3444
X365.6639 Y32.3995
X365.6635 Y32.3999
X365.622 Y32.4548
X365.5864 Y32.5096
X365.5534 Y32.5689
X365.5294 Y32.6198
X365.5074 Y32.6748
X365.4892 Y32.7299
X365.4747 Y32.7849
X365.4636 Y32.84
X365.4558 Y32.8951
X365.4513 Y32.9501
X365.45 Y33.0602
Y51.0103
X365.4496 Y51.1204
X365.4452 Y51.2306
X365.4433 Y51.2528
X365.434 Y51.3407
X365.4158 Y51.4508
X365.3911 Y51.5609
X365.3595 Y51.671
X365.3333 Y51.7456
X365.3195 Y51.7812
X365.2721 Y51.8913
X365.2231 Y51.9874
X365.2153 Y52.0014
X365.1486 Y52.1115
X365.113 Y52.1635
X365.071 Y52.2217
X365.0029 Y52.3054
X364.9799 Y52.3318
X364.8929 Y52.423
X364.8728 Y52.4419
X364.7827 Y52.5225
X364.7463 Y52.552
X364.6726 Y52.6068
X364.5906 Y52.6622
X364.5625 Y52.6797
X364.4525 Y52.7415
X364.391 Y52.7723
X364.3423 Y52.7945
X364.2322 Y52.8386
X364.1221 Y52.8744
X364.0947 Y52.8824
X364.0121 Y52.9034
X363.9019 Y52.925
X363.7918 Y52.9399
X363.6817 Y52.948
X363.5717 Y52.95
X347.6072
X347.4971 Y52.9499
X347.387 Y52.9464
X347.2769 Y52.9364
X347.1668 Y52.9196
X347.0567 Y52.8959
X347.0053 Y52.8824
X346.9466 Y52.8651
X346.8365 Y52.8268
X346.7264 Y52.7804
X346.709 Y52.7723
X346.6163 Y52.7251
X346.5094 Y52.6622
X346.5062 Y52.6602
X346.3961 Y52.5843
X346.3537 Y52.552
X346.286 Y52.4959
X346.2272 Y52.4419
X346.1759 Y52.3916
X346.1201 Y52.3318
X346.0658 Y52.2682
X346.029 Y52.2217
X345.9557 Y52.1179
X345.9515 Y52.1115
X345.8847 Y52.0014
X345.8456 Y51.9282
X345.8279 Y51.8913
X345.7805 Y51.7812
X345.7405 Y51.671
X345.7355 Y51.6559
X345.7089 Y51.5609
X345.6843 Y51.4508
X345.666 Y51.3407
X345.6548 Y51.2306
X345.6504 Y51.1204
X345.65 Y51.0103
Y33.0602
X345.6487 Y32.9501
X345.6442 Y32.8951
X345.6364 Y32.84
X345.6254 Y32.7851
X345.6108 Y32.7299
X345.5927 Y32.6748
X345.5706 Y32.6198
X345.5451 Y32.566
X345.5153 Y32.5123
X345.5137 Y32.5096
X345.4778 Y32.4546
X345.4362 Y32.3995
X345.4052 Y32.3634
X345.3679 Y32.3244
X345.3305 Y32.2894
X345.2951 Y32.2595
X345.2401 Y32.2184
X345.185 Y32.1831
X345.1784 Y32.1793
X345.1267 Y32.1512
X345.0749 Y32.1271
X345.0199 Y32.1055
X344.9648 Y32.0876
X344.8897 Y32.0691
X344.8547 Y32.0627
X344.7997 Y32.0552
X344.7446 Y32.051
X344.6345 Y32.05
X314.0268
X313.9718 Y32.0504
X313.9167 Y32.0537
X313.8635 Y32.0599
X313.8103 Y32.0691
X313.8066 Y32.0699
X313.7516 Y32.0831
X313.6965 Y32.0998
X313.6415 Y32.1203
X313.5864 Y32.1448
X313.5216 Y32.1793
X313.4763 Y32.2074
X313.4229 Y32.2454
X313.3695 Y32.2894
X313.3662 Y32.2923
X313.311 Y32.3459
X313.2639 Y32.3995
X313.2561 Y32.4091
X313.2188 Y32.4594
X313.1863 Y32.5096
X313.1651 Y32.5467
X313.146 Y32.5838
X313.1294 Y32.6198
X313.1074 Y32.6748
X313.0892 Y32.7299
X313.0747 Y32.7849
X313.0636 Y32.84
X313.0558 Y32.8951
X313.0513 Y32.9501
X313.05 Y33.0602
Y40.0484
X313.0482 Y40.05
X240.9513
X240.95 Y40.0484
Y33.0602
X240.9487 Y32.9501
X240.9442 Y32.8951
X240.9364 Y32.84
X240.9207 Y32.7657
X240.9108 Y32.7299
X240.8926 Y32.6748
X240.8706 Y32.6198
X240.8444 Y32.5647
X240.8136 Y32.5096
X240.8106 Y32.5045
X240.776 Y32.452
X240.7361 Y32.3995
X240.7005 Y32.3582
X240.6655 Y32.322
X240.6305 Y32.2894
X240.5904 Y32.2557
X240.5353 Y32.2152
X240.4803 Y32.1803
X240.4784 Y32.1793
X240.4243 Y32.15
X240.3702 Y32.1251
X240.3151 Y32.1038
X240.2601 Y32.0863
X240.1897 Y32.0691
X240.15 Y32.0619
X240.0949 Y32.0548
X240.0399 Y32.0508
X239.9298 Y32.05
X237.7514
X237.75 Y32.0486
Y26.2326
X237.7468 Y26.1225
X237.7407 Y26.0674
X237.7313 Y26.0124
X237.7278 Y25.9957
X237.7162 Y25.949
X237.7021 Y25.9022
X237.6821 Y25.8472
X237.658 Y25.7921
X237.6389 Y25.7542
X237.6177 Y25.7164
X237.5963 Y25.682
X237.5577 Y25.6269
X237.5127 Y25.5719
X237.5076 Y25.5661
X237.4527 Y25.5098
X237.3979 Y25.4618
X237.3975 Y25.4614
X237.3424 Y25.4201
X237.2874 Y25.3846
X237.2275 Y25.3516
X237.1773 Y25.3281
X237.1222 Y25.3063
X237.0672 Y25.2884
X237.0121 Y25.274
X236.9571 Y25.2631
X236.902 Y25.2555
X236.847 Y25.2512
X236.7369 Y25.25
X26.2264
X26.1713 Y25.2504
X26.1163 Y25.2537
X26.0612 Y25.2602
X26.0062 Y25.27
X25.9511 Y25.2832
X25.8961 Y25.2999
X25.841 Y25.3204
X25.786 Y25.345
X25.7725 Y25.3516
X25.7242 Y25.3778
X25.6759 Y25.4077
X25.639 Y25.4333
X25.6021 Y25.4618
X25.5658 Y25.4927
X25.5242 Y25.5323
X25.4873 Y25.5719
X25.4557 Y25.6097
X25.4284 Y25.6458
X25.4037 Y25.682
X25.3725 Y25.7334
X25.3456 Y25.7847
X25.342 Y25.7921
X25.3179 Y25.8472
X25.2979 Y25.9022
X25.2815 Y25.9573
X25.2687 Y26.0124
X25.2593 Y26.0674
X25.2532 Y26.1225
X25.25 Y26.2326
Y99.9434
Y100.137 Z-3.0001
Y100.3306 Z-3.0004
Y100.5242 Z-3.0008
Y100.7177 Z-3.0015
Y100.9113 Z-3.0023
Y101.1049 Z-3.0033
Y101.2984 Z-3.0045
Y101.492 Z-3.0058
Y101.6856 Z-3.0073
Y101.8792 Z-3.009
Y102.0727 Z-3.0109
Y102.2663 Z-3.0129
Y102.4599 Z-3.0151
Y102.6535 Z-3.0174
Y102.847 Z-3.0199
Y103.0406 Z-3.0225
Y103.2342 Z-3.0253
Y103.4278 Z-3.0283
Y103.6213 Z-3.0314
Y103.8149 Z-3.0347
Y104.0085 Z-3.0381
Y104.2021 Z-3.0416
Y104.3956 Z-3.0453
Y104.5892 Z-3.0491
Y104.7828 Z-3.0531
Y104.9764 Z-3.0572
Y105.1699 Z-3.0614
Y105.3635 Z-3.0658
Y105.5571 Z-3.0702
Y105.7507 Z-3.0749
Y105.9442 Z-3.0796
Y106.1378 Z-3.0845
Y106.3314 Z-3.0894
Y106.4282 Z-3.092
Y106.525 Z-3.0945
Y106.6218 Z-3.0971
Y106.7185 Z-3.0997
Y106.8153 Z-3.1024
Y106.9121 Z-3.1051
Y107.0089 Z-3.1078
Y107.1057 Z-3.1105
Y107.2025 Z-3.1133
Y107.2993 Z-3.1161
Y107.396 Z-3.1189
Y107.4928 Z-3.1217
Y107.5896 Z-3.1246
Y107.6864 Z-3.1275
Y107.7832 Z-3.1304
Y107.88 Z-3.1334
Y107.9768 Z-3.1363
Y108.0736 Z-3.1393
Y108.1703 Z-3.1423
Y108.2671 Z-3.1454
Y108.3639 Z-3.1485
Y108.4607 Z-3.1516
Y108.5575 Z-3.1547
Y108.6543 Z-3.1578
Y108.7511 Z-3.161
Y108.8479 Z-3.1642
Y108.9446 Z-3.1674
Y109.0414 Z-3.1706
Y109.1382 Z-3.1739
Y109.235 Z-3.1772
Y109.3318 Z-3.1805
Y109.4286 Z-3.1838
Y109.5254 Z-3.1871
Y109.7189 Z-3.1939
Y109.8157 Z-3.1972
Y109.9125 Z-3.2006
Y110.0093 Z-3.204
Y110.1061 Z-3.2074
Y110.2029 Z-3.2108
Y110.2997 Z-3.2141
Y110.3965 Z-3.2175
Y110.4932 Z-3.2209
Y110.59 Z-3.2243
Y110.6868 Z-3.2277
Y110.7836 Z-3.231
Y110.8804 Z-3.2344
Y111.074 Z-3.2412
Y111.3643 Z-3.2513
Y111.6547 Z-3.2614
Y111.9451 Z-3.2716
Y112.2354 Z-3.2817
Y112.5258 Z-3.2919
Y112.8161 Z-3.302
Y113.1065 Z-3.3121
Y113.3969 Z-3.3223
Y113.6872 Z-3.3324
Y113.9776 Z-3.3426
Y114.4615 Z-3.3595
Y114.9455 Z-3.3764
Y115.4294 Z-3.3933
Y116.1069 Z-3.4169
Y116.978 Z-3.4473
Y118.4298 Z-3.498
Y125.3985 Z-3.7413
Y125.6889 Z-3.7515
Y125.9792 Z-3.7616
Y126.076 Z-3.765
Y126.1728 Z-3.7684
Y126.2696 Z-3.7717
Y126.3664 Z-3.7751
Y126.4632 Z-3.7785
Y126.5599 Z-3.7819
Y126.6567 Z-3.7853
Y126.7535 Z-3.7886
Y126.8503 Z-3.792
Y126.9471 Z-3.7954
Y127.0439 Z-3.7988
Y127.1407 Z-3.8022
Y127.2375 Z-3.8055
Y127.3342 Z-3.8089
Y127.431 Z-3.8123
Y127.5278 Z-3.8156
Y127.6246 Z-3.819
Y127.7214 Z-3.8223
Y127.8182 Z-3.8255
Y127.915 Z-3.8288
Y128.0117 Z-3.832
Y128.1085 Z-3.8353
Y128.2053 Z-3.8385
Y128.3021 Z-3.8416
Y128.3989 Z-3.8448
Y128.4957 Z-3.8479
Y128.5925 Z-3.851
Y128.6893 Z-3.8541
Y128.7861 Z-3.8571
Y128.8828 Z-3.8601
Y128.9796 Z-3.8631
Y129.0764 Z-3.8661
Y129.1732 Z-3.8691
Y129.27 Z-3.872
Y129.3668 Z-3.8749
Y129.4636 Z-3.8778
Y129.5603 Z-3.8806
Y129.6571 Z-3.8834
Y129.7539 Z-3.8862
Y129.8507 Z-3.889
Y129.9475 Z-3.8917
Y130.0443 Z-3.8945
Y130.1411 Z-3.8971
Y130.2379 Z-3.8998
Y130.3347 Z-3.9024
Y130.4314 Z-3.905
Y130.5282 Z-3.9076
Y130.625 Z-3.9101
Y130.7218 Z-3.9126
Y130.9154 Z-3.9176
Y131.1089 Z-3.9224
Y131.3025 Z-3.9271
Y131.4961 Z-3.9316
Y131.6897 Z-3.9361
Y131.8833 Z-3.9404
Y132.0768 Z-3.9445
Y132.2704 Z-3.9486
Y132.464 Z-3.9525
Y132.6575 Z-3.9562
Y132.8511 Z-3.9599
Y133.0447 Z-3.9634
Y133.2383 Z-3.9667
Y133.4318 Z-3.9699
Y133.6254 Z-3.9729
Y133.819 Z-3.9758
Y134.0126 Z-3.9786
Y134.2061 Z-3.9812
Y134.3997 Z-3.9836
Y134.5933 Z-3.9859
Y134.7869 Z-3.988
Y134.9804 Z-3.9899
Y135.174 Z-3.9917
Y135.3676 Z-3.9933
Y135.5612 Z-3.9948
Y135.7547 Z-3.996
Y135.9483 Z-3.9971
Y136.1419 Z-3.9981
Y136.3355 Z-3.9988
Y136.529 Z-3.9994
Y136.7226 Z-3.9998
Y136.9162 Z-4
Y137.03
Y325.7674
X25.2532 Y325.8775
X25.2593 Y325.9326
X25.2687 Y325.9877
X25.2815 Y326.0427
X25.2979 Y326.0978
X25.318 Y326.1528
X25.342 Y326.2079
X25.3456 Y326.2153
X25.3725 Y326.2667
X25.4037 Y326.318
X25.4284 Y326.3542
X25.4557 Y326.3903
X25.4873 Y326.4282
X25.5242 Y326.4677
X25.5658 Y326.5073
X25.6021 Y326.5383
X25.639 Y326.5667
X25.6759 Y326.5923
X25.7242 Y326.6223
X25.7725 Y326.6484
X25.786 Y326.655
X25.841 Y326.6796
X25.8961 Y326.7001
X25.9511 Y326.7168
X26.0062 Y326.73
X26.0612 Y326.7398
X26.1163 Y326.7463
X26.1713 Y326.7496
X26.2264 Y326.75
X55.9533
X56.0634 Y326.7479
X56.1184 Y326.7426
X56.1735 Y326.734
X56.2285 Y326.7221
X56.2836 Y326.7067
X56.3386 Y326.6876
X56.3937 Y326.6646
X56.4275 Y326.6484
X56.4656 Y326.6281
X56.5038 Y326.6054
X56.5508 Y326.574
X56.5979 Y326.5383
X56.6139 Y326.525
X56.6633 Y326.4801
X56.7127 Y326.4282
X56.724 Y326.4151
X56.7626 Y326.3666
X56.7963 Y326.318
X56.8341 Y326.2548
X56.858 Y326.2079
X56.882 Y326.1528
X56.9021 Y326.0978
X56.9185 Y326.0427
X56.9313 Y325.9877
X56.9387 Y325.9464
X56.9442 Y325.9051
X56.9468 Y325.8775
X56.95 Y325.7674
Y306.0554
X56.9506 Y305.9453
X56.9535 Y305.8351
X56.9595 Y305.725
X56.9686 Y305.6149
X56.9805 Y305.5048
X56.9957 Y305.3947
X57.014 Y305.2845
X57.0351 Y305.1744
X57.0543 Y305.0873
X57.0598 Y305.0643
X57.0875 Y304.9542
X57.1186 Y304.844
X57.1533 Y304.7339
X57.1644 Y304.7006
X57.1911 Y304.6238
X57.2329 Y304.5137
X57.2745 Y304.4121
X57.2782 Y304.4035
X57.3275 Y304.2934
X57.3803 Y304.1833
X57.3846 Y304.175
X57.4381 Y304.0732
X57.4947 Y303.9716
X57.4997 Y303.963
X57.566 Y303.8529
X57.6048 Y303.7927
X57.6378 Y303.7428
X57.7139 Y303.6327
X57.7149 Y303.6313
X57.7965 Y303.5226
X57.825 Y303.4863
X57.8849 Y303.4124
X57.9351 Y303.3532
X57.9797 Y303.3023
X58.0452 Y303.2306
X58.0817 Y303.1922
X58.1553 Y303.1174
X58.1914 Y303.0821
X58.2654 Y303.0132
X58.311 Y302.9719
X58.3755 Y302.9156
X58.4401 Y302.8618
X58.4856 Y302.825
X58.5814 Y302.7517
X58.5957 Y302.7411
X58.7058 Y302.6627
X58.7369 Y302.6416
X58.8159 Y302.5892
X58.9099 Y302.5314
X58.926 Y302.5217
X59.0361 Y302.4582
X59.1035 Y302.4213
X59.1462 Y302.3992
X59.2563 Y302.3448
X59.3288 Y302.3112
X59.3664 Y302.2943
X59.4765 Y302.2474
X59.5866 Y302.2054
X59.598 Y302.2011
X59.6967 Y302.1652
X59.8068 Y302.1302
X59.9169 Y302.0975
X59.9416 Y302.0909
X60.027 Y302.0692
X60.1371 Y302.0431
X60.2472 Y302.0212
X60.3573 Y302.0018
X60.4674 Y301.9854
X60.5031 Y301.9808
X60.5775 Y301.9722
X60.6876 Y301.9622
X60.7977 Y301.9549
X60.9078 Y301.951
X61.0179 Y301.95
X61.128 Y301.9519
X61.2381 Y301.9571
X61.3482 Y301.965
X61.4583 Y301.9762
X61.4969 Y301.9808
X61.5684 Y301.9904
X61.6785 Y302.0076
X61.7886 Y302.028
X61.8987 Y302.0511
X62.0088 Y302.0781
X62.0584 Y302.0909
X62.1189 Y302.108
X62.229 Y302.1411
X62.3391 Y302.1781
X62.402 Y302.2011
X62.4492 Y302.2188
X62.5593 Y302.2621
X62.6694 Y302.3104
X62.6712 Y302.3112
X62.7795 Y302.3619
X62.8896 Y302.4177
X62.8965 Y302.4213
X62.9997 Y302.4782
X63.0901 Y302.5314
X63.1098 Y302.5434
X63.2199 Y302.6127
X63.2631 Y302.6416
X63.33 Y302.6875
X63.4186 Y302.7517
X63.4401 Y302.7675
X63.5502 Y302.8539
X63.5599 Y302.8618
X63.6603 Y302.9467
X63.689 Y302.9719
X63.7703 Y303.0461
X63.8086 Y303.0821
X63.8804 Y303.1531
X63.9183 Y303.1922
X63.9905 Y303.2688
X64.0203 Y303.3023
X64.1006 Y303.3949
X64.1151 Y303.4124
X64.2035 Y303.5226
X64.2107 Y303.5321
X64.2861 Y303.6327
X64.3208 Y303.6821
X64.3622 Y303.7428
X64.4309 Y303.848
X64.434 Y303.8529
X64.5003 Y303.963
X64.541 Y304.0349
X64.5619 Y304.0732
X64.6197 Y304.1833
X64.6511 Y304.2477
X64.6725 Y304.2934
X64.7218 Y304.4035
X64.7612 Y304.4988
X64.7671 Y304.5137
X64.8089 Y304.6238
X64.8467 Y304.7339
X64.8713 Y304.8108
X64.8813 Y304.844
X64.9125 Y304.9542
X64.9402 Y305.0643
X64.9649 Y305.1744
X64.9814 Y305.2588
X64.986 Y305.2845
X65.0043 Y305.3947
X65.0195 Y305.5048
X65.0314 Y305.6149
X65.0405 Y305.725
X65.0465 Y305.8351
X65.0493 Y305.9453
X65.05 Y306.0554
Y325.7674
X65.0532 Y325.8775
X65.0593 Y325.9326
X65.0687 Y325.9877
X65.079 Y326.0328
X65.0915 Y326.0779
X65.0979 Y326.0978
X65.118 Y326.1528
X65.142 Y326.2079
X65.1696 Y326.2614
X65.2016 Y326.3149
X65.2037 Y326.318
X65.2423 Y326.3731
X65.2873 Y326.4282
X65.3117 Y326.4548
X65.3569 Y326.4993
X65.4021 Y326.5383
X65.4218 Y326.5538
X65.4769 Y326.593
X65.5319 Y326.6267
X65.5725 Y326.6484
X65.642 Y326.68
X65.6971 Y326.7004
X65.7521 Y326.7171
X65.8072 Y326.7302
X65.8622 Y326.74
X65.9173 Y326.7464
X65.9723 Y326.7496
X66.0824 Y326.75
X236.7369
X236.847 Y326.7488
X236.902 Y326.7445
X236.9571 Y326.7369
X237.0121 Y326.726
X237.0672 Y326.7117
X237.1222 Y326.6937
X237.1773 Y326.6719
X237.2275 Y326.6484
X237.2874 Y326.6154
X237.3424 Y326.5799
X237.3975 Y326.5386
X237.3979 Y326.5383
X237.4527 Y326.4903
X237.5076 Y326.4339
X237.5127 Y326.4282
X237.5577 Y326.3731
X237.5963 Y326.318
X237.6177 Y326.2837
X237.6389 Y326.2458
X237.658 Y326.2079
X237.682 Y326.1528
X237.7021 Y326.0978
X237.7162 Y326.0511
X237.7278 Y326.0043
X237.7313 Y325.9877
X237.7407 Y325.9326
X237.7468 Y325.8775
X237.75 Y325.7674
Y319.9514
X237.7514 Y319.95
X239.9298
X240.0399 Y319.9492
X240.0949 Y319.9453
X240.15 Y319.9381
X240.1897 Y319.9309
X240.2601 Y319.9137
X240.3151 Y319.8962
X240.3702 Y319.8749
X240.4243 Y319.85
X240.4784 Y319.8208
X240.4803 Y319.8197
X240.5353 Y319.7849
X240.5904 Y319.7443
X240.6305 Y319.7106
X240.6655 Y319.678
X240.7005 Y319.6418
X240.7361 Y319.6005
X240.776 Y319.548
X240.8106 Y319.4955
X240.8136 Y319.4904
X240.8444 Y319.4353
X240.8706 Y319.3803
X240.8926 Y319.3252
X240.9108 Y319.2701
X240.9207 Y319.2343
X240.9364 Y319.16
X240.9442 Y319.105
X240.9487 Y319.0499
X240.95 Y318.9398
Y311.9516
X240.9513 Y311.95
X313.0482
X313.05 Y311.9516
Y318.9398
X313.0513 Y319.0499
X313.0558 Y319.105
X313.0636 Y319.16
X313.0747 Y319.2151
X313.0892 Y319.2701
X313.1074 Y319.3252
X313.1294 Y319.3803
X313.146 Y319.4162
X313.1651 Y319.4533
X313.1863 Y319.4904
X313.2188 Y319.5406
X313.2561 Y319.5909
X313.2639 Y319.6005
X313.311 Y319.6541
X313.3662 Y319.7077
X313.3695 Y319.7106
X313.4229 Y319.7546
X313.4763 Y319.7926
X313.5216 Y319.8208
X313.5864 Y319.8553
X313.6415 Y319.8798
X313.6965 Y319.9002
X313.7516 Y319.917
X313.8066 Y319.9301
X313.8103 Y319.9309
X313.8635 Y319.9402
X313.9167 Y319.9464
X313.9718 Y319.9496
X314.0268 Y319.95
X338.9093
X339.0194 Y319.9498
X339.0745 Y319.9471
X339.1295 Y319.9412
X339.1897 Y319.9309
X339.2396 Y319.9193
X339.2947 Y319.9032
X339.3497 Y319.8833
X339.4048 Y319.8595
X339.4598 Y319.8313
X339.4784 Y319.8208
X339.5242 Y319.7923
X339.5699 Y319.7601
X339.6305 Y319.7106
X339.68 Y319.6634
X339.7093 Y319.632
X339.7361 Y319.6005
X339.7645 Y319.564
X339.7901 Y319.5275
X339.8137 Y319.4904
X339.8444 Y319.4353
X339.8706 Y319.3803
X339.9002 Y319.3035
X339.9108 Y319.2701
X339.9253 Y319.2151
X339.9364 Y319.16
X339.9442 Y319.105
X339.9487 Y319.0499
X339.95 Y318.9398
Y301.0999
X339.9501 Y300.9897
X339.9526 Y300.8796
X339.9587 Y300.7695
X339.9695 Y300.6594
X339.9839 Y300.5492
X340.0023 Y300.4391
X340.0103 Y300.3954
X340.0246 Y300.329
X340.0525 Y300.2189
X340.0837 Y300.1087
X340.1191 Y299.9986
X340.1204 Y299.995
X340.1604 Y299.8885
X340.2057 Y299.7784
X340.2305 Y299.7229
X340.2561 Y299.6682
X340.3127 Y299.5581
X340.3406 Y299.5073
X340.3748 Y299.448
X340.4431 Y299.3379
X340.4507 Y299.3264
X340.5178 Y299.2278
X340.5608 Y299.1689
X340.6006 Y299.1176
X340.6709 Y299.0313
X340.6913 Y299.0075
X340.781 Y298.908
X340.7912 Y298.8974
X340.8911 Y298.7972
X340.9015 Y298.7873
X341.0012 Y298.6967
X341.0241 Y298.6771
X341.1113 Y298.6056
X341.1605 Y298.567
X341.2214 Y298.5222
X341.3171 Y298.4569
X341.3315 Y298.4473
X341.4416 Y298.3786
X341.4964 Y298.3468
X341.5517 Y298.3161
X341.6618 Y298.2594
X341.7097 Y298.2366
X341.7719 Y298.2085
X341.882 Y298.163
X341.9776 Y298.1265
X341.9921 Y298.1214
X342.1022 Y298.0856
X342.2123 Y298.0543
X342.3224 Y298.0261
X342.3669 Y298.0164
X342.4325 Y298.0035
X342.5426 Y297.985
X342.6527 Y297.9702
X342.7628 Y297.9593
X342.8729 Y297.9529
X342.983 Y297.9502
X343.0931 Y297.95
X365.9938
X366.1039 Y297.952
X366.2141 Y297.9576
X366.3241 Y297.9677
X366.4342 Y297.9816
X366.5443 Y297.9992
X366.6331 Y298.0164
X366.6544 Y298.021
X366.7645 Y298.048
X366.8746 Y298.0788
X366.9847 Y298.1133
X367.0224 Y298.1265
X367.0948 Y298.154
X367.2049 Y298.1983
X367.2904 Y298.2366
X367.315 Y298.248
X367.4251 Y298.304
X367.5036 Y298.3468
X367.5352 Y298.3649
X367.6453 Y298.4323
X367.6829 Y298.4569
X367.7554 Y298.5061
X367.8395 Y298.567
X367.8655 Y298.5874
X367.9756 Y298.6769
X367.976 Y298.6771
X368.0857 Y298.775
X368.0985 Y298.7873
X368.1958 Y298.8839
X368.2088 Y298.8974
X368.3059 Y299.0043
X368.3087 Y299.0075
X368.3994 Y299.1176
X368.416 Y299.1388
X368.4822 Y299.2278
X368.5261 Y299.2915
X368.5569 Y299.3379
X368.6252 Y299.448
X368.6362 Y299.4666
X368.6873 Y299.5581
X368.7439 Y299.6682
X368.7463 Y299.6731
X368.7944 Y299.7784
X368.8405 Y299.8885
X368.8564 Y299.9309
X368.8809 Y299.9986
X368.9163 Y300.1087
X368.9475 Y300.2189
X368.9665 Y300.2926
X368.9754 Y300.329
X368.9977 Y300.4391
X369.0161 Y300.5492
X369.0305 Y300.6594
X369.0414 Y300.7695
X369.0474 Y300.8796
X369.0499 Y300.9897
X369.05 Y301.0999
Y318.9398
X369.0513 Y319.0499
X369.0558 Y319.105
X369.0636 Y319.16
X369.0766 Y319.2233
X369.0892 Y319.2701
X369.1074 Y319.3252
X369.1294 Y319.3803
X369.1556 Y319.4353
X369.1864 Y319.4904
X369.1867 Y319.491
X369.2224 Y319.5458
X369.2639 Y319.6005
X369.2968 Y319.6388
X369.3332 Y319.6767
X369.3695 Y319.7106
X369.4069 Y319.7422
X369.462 Y319.783
X369.517 Y319.8181
X369.5216 Y319.8208
X369.5744 Y319.8493
X369.6271 Y319.8738
X369.6822 Y319.8953
X369.7372 Y319.913
X369.8103 Y319.9309
X369.8473 Y319.9377
X369.9024 Y319.945
X369.9574 Y319.9491
X370.0675 Y319.95
X389.7754
X389.8304 Y319.9495
X389.8855 Y319.9462
X389.9376 Y319.94
X389.9897 Y319.9309
X389.9955 Y319.9297
X390.0506 Y319.9164
X390.1057 Y319.8995
X390.1607 Y319.8789
X390.2158 Y319.8542
X390.2784 Y319.8208
X390.3259 Y319.7912
X390.3782 Y319.7538
X390.4305 Y319.7106
X390.4359 Y319.7057
X390.4899 Y319.6531
X390.5361 Y319.6005
X390.5461 Y319.5882
X390.5821 Y319.5393
X390.6136 Y319.4904
X390.6361 Y319.451
X390.6562 Y319.4117
X390.6706 Y319.3803
X390.6926 Y319.3252
X390.7108 Y319.2701
X390.7253 Y319.2151
X390.7364 Y319.16
X390.7442 Y319.105
X390.7487 Y319.0499
X390.75 Y318.9398
Y246.0383
X390.7473 Y245.9282
X390.7415 Y245.8731
X390.7324 Y245.8181
X390.72 Y245.763
X390.704 Y245.7079
X390.6843 Y245.6529
X390.6606 Y245.5978
X390.6562 Y245.5883
X390.6301 Y245.538
X390.6 Y245.4877
X390.5744 Y245.4498
X390.5461 Y245.4119
X390.5177 Y245.3776
X390.4793 Y245.3359
X390.4359 Y245.2943
X390.4048 Y245.2674
X390.3654 Y245.2365
X390.3259 Y245.2088
X390.2822 Y245.1815
X390.2386 Y245.1573
X390.2158 Y245.1458
X390.1607 Y245.1212
X390.1057 Y245.1005
X390.0506 Y245.0837
X389.9955 Y245.0704
X389.9405 Y245.0605
X389.8855 Y245.0539
X389.8304 Y245.0505
X389.7754 Y245.05
X332.9518
X332.95 Y245.0486
Y161.952
X332.9518 Y161.95
X389.7754
X389.8304 Y161.9495
X389.8855 Y161.9462
X389.9405 Y161.9396
X389.9955 Y161.9297
X390.0434 Y161.9183
X390.0913 Y161.9043
X390.1057 Y161.8995
X390.1607 Y161.8789
X390.2158 Y161.8542
X390.2686 Y161.8264
X390.3214 Y161.7941
X390.3259 Y161.7912
X390.3809 Y161.7517
X390.4359 Y161.7057
X390.4593 Y161.684
X390.5056 Y161.6361
X390.5461 Y161.5882
X390.5571 Y161.5739
X390.5958 Y161.5188
X390.6291 Y161.4638
X390.6562 Y161.4117
X390.6817 Y161.3536
X390.7019 Y161.2986
X390.7183 Y161.2435
X390.7311 Y161.1885
X390.7406 Y161.1334
X390.7468 Y161.0783
X390.7497 Y161.0233
X390.75 Y160.9131
Y33.0602
X390.7487 Y32.9501
X390.7442 Y32.8951
X390.7364 Y32.84
X390.7253 Y32.7849
X390.7108 Y32.7299
X390.6926 Y32.6748
X390.6706 Y32.6198
X390.6562 Y32.5883
X390.6361 Y32.549
X390.6136 Y32.5096
X390.5821 Y32.4607
X390.5461 Y32.4119
X390.5361 Y32.3995
X390.4899 Y32.3469
X390.4359 Y32.2943
X390.4305 Y32.2894
X390.3782 Y32.2462
X390.3259 Y32.2088
X390.2784 Y32.1793
X390.2158 Y32.1458
X390.1607 Y32.1211
X390.1057 Y32.1005
X390.0506 Y32.0836
X389.9955 Y32.0703
X389.9897 Y32.0691
X389.9376 Y32.06
X389.8855 Y32.0539
X389.8304 Y32.0505
X389.7754 Y32.05
X366.4342
X366.3241 Y32.053
X366.2691 Y32.0591
X366.2141 Y32.0684
X366.2103 Y32.0691
X366.1571 Y32.0816
X366.1039 Y32.0973
X366.0489 Y32.1173
X365.9938 Y32.1412
X365.9216 Y32.1793
X365.8837 Y32.2025
X365.8287 Y32.241
X365.7737 Y32.2857
X365.7695 Y32.2894
X365.7124 Y32.3444
X365.6639 Y32.3995
X365.6635 Y32.3999
X365.622 Y32.4548
X365.5864 Y32.5096
X365.5534 Y32.5689
X365.5294 Y32.6198
X365.5074 Y32.6748
X365.4892 Y32.7299
X365.4747 Y32.7849
X365.4636 Y32.84
X365.4558 Y32.8951
X365.4513 Y32.9501
X365.45 Y33.0602
Y51.0103
X365.4496 Y51.1204
X365.4452 Y51.2306
X365.4433 Y51.2528
X365.434 Y51.3407
X365.4158 Y51.4508
X365.3911 Y51.5609
X365.3595 Y51.671
X365.3333 Y51.7456
X365.3195 Y51.7812
X365.2721 Y51.8913
X365.2231 Y51.9874
X365.2153 Y52.0014
X365.1486 Y52.1115
X365.113 Y52.1635
X365.071 Y52.2217
X365.0029 Y52.3054
X364.9799 Y52.3318
X364.8929 Y52.423
X364.8728 Y52.4419
X364.7827 Y52.5225
X364.7463 Y52.552
X364.6726 Y52.6068
X364.5906 Y52.6622
X364.5625 Y52.6797
X364.4525 Y52.7415
X364.391 Y52.7723
X364.3423 Y52.7945
X364.2322 Y52.8386
X364.1221 Y52.8744
X364.0947 Y52.8824
X364.0121 Y52.9034
X363.9019 Y52.925
X363.7918 Y52.9399
X363.6817 Y52.948
X363.5717 Y52.95
X347.6072
X347.4971 Y52.9499
X347.387 Y52.9464
X347.2769 Y52.9364
X347.1668 Y52.9196
X347.0567 Y52.8959
X347.0053 Y52.8824
X346.9466 Y52.8651
X346.8365 Y52.8268
X346.7264 Y52.7804
X346.709 Y52.7723
X346.6163 Y52.7251
X346.5094 Y52.6622
X346.5062 Y52.6602
X346.3961 Y52.5843
X346.3537 Y52.552
X346.286 Y52.4959
X346.2272 Y52.4419
X346.1759 Y52.3916
X346.1201 Y52.3318
X346.0658 Y52.2682
X346.029 Y52.2217
X345.9557 Y52.1179
X345.9515 Y52.1115
X345.8847 Y52.0014
X345.8456 Y51.9282
X345.8279 Y51.8913
X345.7805 Y51.7812
X345.7405 Y51.671
X345.7355 Y51.6559
X345.7089 Y51.5609
X345.6843 Y51.4508
X345.666 Y51.3407
X345.6548 Y51.2306
X345.6504 Y51.1204
X345.65 Y51.0103
Y33.0602
X345.6487 Y32.9501
X345.6442 Y32.8951
X345.6364 Y32.84
X345.6254 Y32.7851
X345.6108 Y32.7299
X345.5927 Y32.6748
X345.5706 Y32.6198
X345.5451 Y32.566
X345.5153 Y32.5123
X345.5137 Y32.5096
X345.4778 Y32.4546
X345.4362 Y32.3995
X345.4052 Y32.3634
X345.3679 Y32.3244
X345.3305 Y32.2894
X345.2951 Y32.2595
X345.2401 Y32.2184
X345.185 Y32.1831
X345.1784 Y32.1793
X345.1267 Y32.1512
X345.0749 Y32.1271
X345.0199 Y32.1055
X344.9648 Y32.0876
X344.8897 Y32.0691
X344.8547 Y32.0627
X344.7997 Y32.0552
X344.7446 Y32.051
X344.6345 Y32.05
X314.0268
X313.9718 Y32.0504
X313.9167 Y32.0537
X313.8635 Y32.0599
X313.8103 Y32.0691
X313.8066 Y32.0699
X313.7516 Y32.0831
X313.6965 Y32.0998
X313.6415 Y32.1203
X313.5864 Y32.1448
X313.5216 Y32.1793
X313.4763 Y32.2074
X313.4229 Y32.2454
X313.3695 Y32.2894
X313.3662 Y32.2923
X313.311 Y32.3459
X313.2639 Y32.3995
X313.2561 Y32.4091
X313.2188 Y32.4594
X313.1863 Y32.5096
X313.1651 Y32.5467
X313.146 Y32.5838
X313.1294 Y32.6198
X313.1074 Y32.6748
X313.0892 Y32.7299
X313.0747 Y32.7849
X313.0636 Y32.84
X313.0558 Y32.8951
X313.0513 Y32.9501
X313.05 Y33.0602
Y40.0484
X313.0482 Y40.05
X240.9513
X240.95 Y40.0484
Y33.0602
X240.9487 Y32.9501
X240.9442 Y32.8951
X240.9364 Y32.84
X240.9207 Y32.7657
X240.9108 Y32.7299
X240.8926 Y32.6748
X240.8706 Y32.6198
X240.8444 Y32.5647
X240.8136 Y32.5096
X240.8106 Y32.5045
X240.776 Y32.452
X240.7361 Y32.3995
X240.7005 Y32.3582
X240.6655 Y32.322
X240.6305 Y32.2894
X240.5904 Y32.2557
X240.5353 Y32.2152
X240.4803 Y32.1803
X240.4784 Y32.1793
X240.4243 Y32.15
X240.3702 Y32.1251
X240.3151 Y32.1038
X240.2601 Y32.0863
X240.1897 Y32.0691
X240.15 Y32.0619
X240.0949 Y32.0548
X240.0399 Y32.0508
X239.9298 Y32.05
X237.7514
X237.75 Y32.0486
Y26.2326
X237.7468 Y26.1225
X237.7407 Y26.0674
X237.7313 Y26.0124
X237.7278 Y25.9957
X237.7162 Y25.949
X237.7021 Y25.9022
X237.6821 Y25.8472
X237.658 Y25.7921
X237.6389 Y25.7542
X237.6177 Y25.7164
X237.5963 Y25.682
X237.5577 Y25.6269
X237.5127 Y25.5719
X237.5076 Y25.5661
X237.4527 Y25.5098
X237.3979 Y25.4618
X237.3975 Y25.4614
X237.3424 Y25.4201
X237.2874 Y25.3846
X237.2275 Y25.3516
X237.1773 Y25.3281
X237.1222 Y25.3063
X237.0672 Y25.2884
X237.0121 Y25.274
X236.9571 Y25.2631
X236.902 Y25.2555
X236.847 Y25.2512
X236.7369 Y25.25
X26.2264
X26.1713 Y25.2504
X26.1163 Y25.2537
X26.0612 Y25.2602
X26.0062 Y25.27
X25.9511 Y25.2832
X25.8961 Y25.2999
X25.841 Y25.3204
X25.786 Y25.345
X25.7725 Y25.3516
X25.7242 Y25.3778
X25.6759 Y25.4077
X25.639 Y25.4333
X25.6021 Y25.4618
X25.5658 Y25.4927
X25.5242 Y25.5323
X25.4873 Y25.5719
X25.4557 Y25.6097
X25.4284 Y25.6458
X25.4037 Y25.682
X25.3725 Y25.7334
X25.3456 Y25.7847
X25.342 Y25.7921
X25.3179 Y25.8472
X25.2979 Y25.9022
X25.2815 Y25.9573
X25.2687 Y26.0124
X25.2593 Y26.0674
X25.2532 Y26.1225
X25.25 Y26.2326
Y99.9434
Y137.03
Y137.2236 Z-4.0001
Y137.4171 Z-4.0004
Y137.6107 Z-4.0008
Y137.8043 Z-4.0015
Y137.9979 Z-4.0023
Y138.1914 Z-4.0033
Y138.385 Z-4.0045
Y138.5786 Z-4.0058
Y138.7722 Z-4.0073
Y138.9657 Z-4.009
Y139.1593 Z-4.0109
Y139.3529 Z-4.0129
Y139.5465 Z-4.0151
Y139.74 Z-4.0174
Y139.9336 Z-4.0199
Y140.1272 Z-4.0225
Y140.3208 Z-4.0253
Y140.5143 Z-4.0283
Y140.7079 Z-4.0314
Y140.9015 Z-4.0347
Y141.0951 Z-4.0381
Y141.2886 Z-4.0416
Y141.4822 Z-4.0453
Y141.6758 Z-4.0491
Y141.8694 Z-4.0531
Y142.0629 Z-4.0572
Y142.2565 Z-4.0614
Y142.4501 Z-4.0658
Y142.6437 Z-4.0702
Y142.8372 Z-4.0749
Y143.0308 Z-4.0796
Y143.2244 Z-4.0845
Y143.418 Z-4.0894
Y143.5147 Z-4.092
Y143.6115 Z-4.0945
Y143.7083 Z-4.0971
Y143.8051 Z-4.0997
Y143.9019 Z-4.1024
Y143.9987 Z-4.1051
Y144.0955 Z-4.1078
Y144.1923 Z-4.1105
Y144.289 Z-4.1133
Y144.3858 Z-4.1161
Y144.4826 Z-4.1189
Y144.5794 Z-4.1217
Y144.6762 Z-4.1246
Y144.773 Z-4.1275
Y144.8698 Z-4.1304
Y144.9666 Z-4.1334
Y145.0633 Z-4.1363
Y145.1601 Z-4.1393
Y145.2569 Z-4.1423
Y145.3537 Z-4.1454
Y145.4505 Z-4.1485
Y145.5473 Z-4.1516
Y145.6441 Z-4.1547
Y145.7408 Z-4.1578
Y145.8376 Z-4.161
Y145.9344 Z-4.1642
Y146.0312 Z-4.1674
Y146.128 Z-4.1706
Y146.2248 Z-4.1739
Y146.3216 Z-4.1772
Y146.4184 Z-4.1805
Y146.5152 Z-4.1838
Y146.6119 Z-4.1871
Y146.8055 Z-4.1939
Y146.9023 Z-4.1972
Y146.9991 Z-4.2006
Y147.0959 Z-4.204
Y147.1927 Z-4.2074
Y147.2894 Z-4.2108
Y147.3862 Z-4.2141
Y147.483 Z-4.2175
Y147.5798 Z-4.2209
Y147.6766 Z-4.2243
Y147.7734 Z-4.2277
Y147.8702 Z-4.231
Y147.967 Z-4.2344
Y148.1605 Z-4.2412
Y148.4509 Z-4.2513
Y148.7413 Z-4.2614
Y149.0316 Z-4.2716
Y149.322 Z-4.2817
Y149.6124 Z-4.2919
Y149.9027 Z-4.302
Y150.1931 Z-4.3121
Y150.4834 Z-4.3223
Y150.7738 Z-4.3324
Y151.0642 Z-4.3426
Y151.5481 Z-4.3595
Y152.032 Z-4.3764
Y152.516 Z-4.3933
Y153.1935 Z-4.4169
Y154.0646 Z-4.4473
Y155.5164 Z-4.498
Y162.4851 Z-4.7413
Y162.7754 Z-4.7515
Y163.0658 Z-4.7616
Y163.1626 Z-4.765
Y163.2594 Z-4.7684
Y163.3561 Z-4.7717
Y163.4529 Z-4.7751
Y163.5497 Z-4.7785
Y163.6465 Z-4.7819
Y163.7433 Z-4.7853
Y163.8401 Z-4.7886
Y163.9369 Z-4.792
Y164.0337 Z-4.7954
Y164.1304 Z-4.7988
Y164.2272 Z-4.8022
Y164.324 Z-4.8055
Y164.4208 Z-4.8089
Y164.5176 Z-4.8123
Y164.6144 Z-4.8156
Y164.7112 Z-4.819
Y164.808 Z-4.8223
Y164.9047 Z-4.8255
Y165.0015 Z-4.8288
Y165.0983 Z-4.832
Y165.1951 Z-4.8353
Y165.2919 Z-4.8385
Y165.3887 Z-4.8416
Y165.4855 Z-4.8448
Y165.5823 Z-4.8479
Y165.679 Z-4.851
Y165.7758 Z-4.8541
Y165.8726 Z-4.8571
Y165.9694 Z-4.8601
Y166.0662 Z-4.8631
Y166.163 Z-4.8661
Y166.2598 Z-4.8691
Y166.3566 Z-4.872
Y166.4533 Z-4.8749
Y166.5501 Z-4.8778
Y166.6469 Z-4.8806
Y166.7437 Z-4.8834
Y166.8405 Z-4.8862
Y166.9373 Z-4.889
Y167.0341 Z-4.8917
Y167.1309 Z-4.8945
Y167.2276 Z-4.8971
Y167.3244 Z-4.8998
Y167.4212 Z-4.9024
Y167.518 Z-4.905
Y167.6148 Z-4.9076
Y167.7116 Z-4.9101
Y167.8084 Z-4.9126
Y168.0019 Z-4.9176
Y168.1955 Z-4.9224
Y168.3891 Z-4.9271
Y168.5827 Z-4.9316
Y168.7762 Z-4.9361
Y168.9698 Z-4.9404
Y169.1634 Z-4.9445
Y169.357 Z-4.9486
Y169.5505 Z-4.9525
Y169.7441 Z-4.9562
Y169.9377 Z-4.9599
Y170.1313 Z-4.9634
Y170.3248 Z-4.9667
Y170.5184 Z-4.9699
Y170.712 Z-4.9729
Y170.9056 Z-4.9758
Y171.0991 Z-4.9786
Y171.2927 Z-4.9812
Y171.4863 Z-4.9836
Y171.6799 Z-4.9859
Y171.8734 Z-4.988
Y172.067 Z-4.9899
Y172.2606 Z-4.9917
Y172.4542 Z-4.9933
Y172.6477 Z-4.9948
Y172.8413 Z-4.996
Y173.0349 Z-4.9971
Y173.2285 Z-4.9981
Y173.422 Z-4.9988
Y173.6156 Z-4.9994
Y173.8092 Z-4.9998
Y174.0028 Z-5
Y174.1166
Y325.7674
X25.2532 Y325.8775
X25.2593 Y325.9326
X25.2687 Y325.9877
X25.2815 Y326.0427
X25.2979 Y326.0978
X25.318 Y326.1528
X25.342 Y326.2079
X25.3456 Y326.2153
X25.3725 Y326.2667
X25.4037 Y326.318
X25.4284 Y326.3542
X25.4557 Y326.3903
X25.4873 Y326.4282
X25.5242 Y326.4677
X25.5658 Y326.5073
X25.6021 Y326.5383
X25.639 Y326.5667
X25.6759 Y326.5923
X25.7242 Y326.6223
X25.7725 Y326.6484
X25.786 Y326.655
X25.841 Y326.6796
X25.8961 Y326.7001
X25.9511 Y326.7168
X26.0062 Y326.73
X26.0612 Y326.7398
X26.1163 Y326.7463
X26.1713 Y326.7496
X26.2264 Y326.75
X55.9533
X56.0634 Y326.7479
X56.1184 Y326.7426
X56.1735 Y326.734
X56.2285 Y326.7221
X56.2836 Y326.7067
X56.3386 Y326.6876
X56.3937 Y326.6646
X56.4275 Y326.6484
X56.4656 Y326.6281
X56.5038 Y326.6054
X56.5508 Y326.574
X56.5979 Y326.5383
X56.6139 Y326.525
X56.6633 Y326.4801
X56.7127 Y326.4282
X56.724 Y326.4151
X56.7626 Y326.3666
X56.7963 Y326.318
X56.8341 Y326.2548
X56.858 Y326.2079
X56.882 Y326.1528
X56.9021 Y326.0978
X56.9185 Y326.0427
X56.9313 Y325.9877
X56.9387 Y325.9464
X56.9442 Y325.9051
X56.9468 Y325.8775
X56.95 Y325.7674
Y306.0554
X56.9506 Y305.9453
X56.9535 Y305.8351
X56.9595 Y305.725
X56.9686 Y305.6149
X56.9805 Y305.5048
X56.9957 Y305.3947
X57.014 Y305.2845
X57.0351 Y305.1744
X57.0543 Y305.0873
X57.0598 Y305.0643
X57.0875 Y304.9542
X57.1186 Y304.844
X57.1533 Y304.7339
X57.1644 Y304.7006
X57.1911 Y304.6238
X57.2329 Y304.5137
X57.2745 Y304.4121
X57.2782 Y304.4035
X57.3275 Y304.2934
X57.3803 Y304.1833
X57.3846 Y304.175
X57.4381 Y304.0732
X57.4947 Y303.9716
X57.4997 Y303.963
X57.566 Y303.8529
X57.6048 Y303.7927
X57.6378 Y303.7428
X57.7139 Y303.6327
X57.7149 Y303.6313
X57.7965 Y303.5226
X57.825 Y303.4863
X57.8849 Y303.4124
X57.9351 Y303.3532
X57.9797 Y303.3023
X58.0452 Y303.2306
X58.0817 Y303.1922
X58.1553 Y303.1174
X58.1914 Y303.0821
X58.2654 Y303.0132
X58.311 Y302.9719
X58.3755 Y302.9156
X58.4401 Y302.8618
X58.4856 Y302.825
X58.5814 Y302.7517
X58.5957 Y302.7411
X58.7058 Y302.6627
X58.7369 Y302.6416
X58.8159 Y302.5892
X58.9099 Y302.5314
X58.926 Y302.5217
X59.0361 Y302.4582
X59.1035 Y302.4213
X59.1462 Y302.3992
X59.2563 Y302.3448
X59.3288 Y302.3112
X59.3664 Y302.2943
X59.4765 Y302.2474
X59.5866 Y302.2054
X59.598 Y302.2011
X59.6967 Y302.1652
X59.8068 Y302.1302
X59.9169 Y302.0975
X59.9416 Y302.0909
X60.027 Y302.0692
X60.1371 Y302.0431
X60.2472 Y302.0212
X60.3573 Y302.0018
X60.4674 Y301.9854
X60.5031 Y301.9808
X60.5775 Y301.9722
X60.6876 Y301.9622
X60.7977 Y301.9549
X60.9078 Y301.951
X61.0179 Y301.95
X61.128 Y301.9519
X61.2381 Y301.9571
X61.3482 Y301.965
X61.4583 Y301.9762
X61.4969 Y301.9808
X61.5684 Y301.9904
X61.6785 Y302.0076
X61.7886 Y302.028
X61.8987 Y302.0511
X62.0088 Y302.0781
X62.0584 Y302.0909
X62.1189 Y302.108
X62.229 Y302.1411
X62.3391 Y302.1781
X62.402 Y302.2011
X62.4492 Y302.2188
X62.5593 Y302.2621
X62.6694 Y302.3104
X62.6712 Y302.3112
X62.7795 Y302.3619
X62.8896 Y302.4177
X62.8965 Y302.4213
X62.9997 Y302.4782
X63.0901 Y302.5314
X63.1098 Y302.5434
X63.2199 Y302.6127
X63.2631 Y302.6416
X63.33 Y302.6875
X63.4186 Y302.7517
X63.4401 Y302.7675
X63.5502 Y302.8539
X63.5599 Y302.8618
X63.6603 Y302.9467
X63.689 Y302.9719
X63.7703 Y303.0461
X63.8086 Y303.0821
X63.8804 Y303.1531
X63.9183 Y303.1922
X63.9905 Y303.2688
X64.0203 Y303.3023
X64.1006 Y303.3949
X64.1151 Y303.4124
X64.2035 Y303.5226
X64.2107 Y303.5321
X64.2861 Y303.6327
X64.3208 Y303.6821
X64.3622 Y303.7428
X64.4309 Y303.848
X64.434 Y303.8529
X64.5003 Y303.963
X64.541 Y304.0349
X64.5619 Y304.0732
X64.6197 Y304.1833
X64.6511 Y304.2477
X64.6725 Y304.2934
X64.7218 Y304.4035
X64.7612 Y304.4988
X64.7671 Y304.5137
X64.8089 Y304.6238
X64.8467 Y304.7339
X64.8713 Y304.8108
X64.8813 Y304.844
X64.9125 Y304.9542
X64.9402 Y305.0643
X64.9649 Y305.1744
X64.9814 Y305.2588
X64.986 Y305.2845
X65.0043 Y305.3947
X65.0195 Y305.5048
X65.0314 Y305.6149
X65.0405 Y305.725
X65.0465 Y305.8351
X65.0493 Y305.9453
X65.05 Y306.0554
Y325.7674
X65.0532 Y325.8775
X65.0593 Y325.9326
X65.0687 Y325.9877
X65.079 Y326.0328
X65.0915 Y326.0779
X65.0979 Y326.0978
X65.118 Y326.1528
X65.142 Y326.2079
X65.1696 Y326.2614
X65.2016 Y326.3149
X65.2037 Y326.318
X65.2423 Y326.3731
X65.2873 Y326.4282
X65.3117 Y326.4548
X65.3569 Y326.4993
X65.4021 Y326.5383
X65.4218 Y326.5538
X65.4769 Y326.593
X65.5319 Y326.6267
X65.5725 Y326.6484
X65.642 Y326.68
X65.6971 Y326.7004
X65.7521 Y326.7171
X65.8072 Y326.7302
X65.8622 Y326.74
X65.9173 Y326.7464
X65.9723 Y326.7496
X66.0824 Y326.75
X236.7369
X236.847 Y326.7488
X236.902 Y326.7445
X236.9571 Y326.7369
X237.0121 Y326.726
X237.0672 Y326.7117
X237.1222 Y326.6937
X237.1773 Y326.6719
X237.2275 Y326.6484
X237.2874 Y326.6154
X237.3424 Y326.5799
X237.3975 Y326.5386
X237.3979 Y326.5383
X237.4527 Y326.4903
X237.5076 Y326.4339
X237.5127 Y326.4282
X237.5577 Y326.3731
X237.5963 Y326.318
X237.6177 Y326.2837
X237.6389 Y326.2458
X237.658 Y326.2079
X237.682 Y326.1528
X237.7021 Y326.0978
X237.7162 Y326.0511
X237.7278 Y326.0043
X237.7313 Y325.9877
X237.7407 Y325.9326
X237.7468 Y325.8775
X237.75 Y325.7674
Y319.9514
X237.7514 Y319.95
X239.9298
X240.0399 Y319.9492
X240.0949 Y319.9453
X240.15 Y319.9381
X240.1897 Y319.9309
X240.2601 Y319.9137
X240.3151 Y319.8962
X240.3702 Y319.8749
X240.4243 Y319.85
X240.4784 Y319.8208
X240.4803 Y319.8197
X240.5353 Y319.7849
X240.5904 Y319.7443
X240.6305 Y319.7106
X240.6655 Y319.678
X240.7005 Y319.6418
X240.7361 Y319.6005
X240.776 Y319.548
X240.8106 Y319.4955
X240.8136 Y319.4904
X240.8444 Y319.4353
X240.8706 Y319.3803
X240.8926 Y319.3252
X240.9108 Y319.2701
X240.9207 Y319.2343
X240.9364 Y319.16
X240.9442 Y319.105
X240.9487 Y319.0499
X240.95 Y318.9398
Y311.9516
X240.9513 Y311.95
X313.0482
X313.05 Y311.9516
Y318.9398
X313.0513 Y319.0499
X313.0558 Y319.105
X313.0636 Y319.16
X313.0747 Y319.2151
X313.0892 Y319.2701
X313.1074 Y319.3252
X313.1294 Y319.3803
X313.146 Y319.4162
X313.1651 Y319.4533
X313.1863 Y319.4904
X313.2188 Y319.5406
X313.2561 Y319.5909
X313.2639 Y319.6005
X313.311 Y319.6541
X313.3662 Y319.7077
X313.3695 Y319.7106
X313.4229 Y319.7546
X313.4763 Y319.7926
X313.5216 Y319.8208
X313.5864 Y319.8553
X313.6415 Y319.8798
X313.6965 Y319.9002
X313.7516 Y319.917
X313.8066 Y319.9301
X313.8103 Y319.9309
X313.8635 Y319.9402
X313.9167 Y319.9464
X313.9718 Y319.9496
X314.0268 Y319.95
X338.9093
X339.0194 Y319.9498
X339.0745 Y319.9471
X339.1295 Y319.9412
X339.1897 Y319.9309
X339.2396 Y319.9193
X339.2947 Y319.9032
X339.3497 Y319.8833
X339.4048 Y319.8595
X339.4598 Y319.8313
X339.4784 Y319.8208
X339.5242 Y319.7923
X339.5699 Y319.7601
X339.6305 Y319.7106
X339.68 Y319.6634
X339.7093 Y319.632
X339.7361 Y319.6005
X339.7645 Y319.564
X339.7901 Y319.5275
X339.8137 Y319.4904
X339.8444 Y319.4353
X339.8706 Y319.3803
X339.9002 Y319.3035
X339.9108 Y319.2701
X339.9253 Y319.2151
X339.9364 Y319.16
X339.9442 Y319.105
X339.9487 Y319.0499
X339.95 Y318.9398
Y301.0999
X339.9501 Y300.9897
X339.9526 Y300.8796
X339.9587 Y300.7695
X339.9695 Y300.6594
X339.9839 Y300.5492
X340.0023 Y300.4391
X340.0103 Y300.3954
X340.0246 Y300.329
X340.0525 Y300.2189
X340.0837 Y300.1087
X340.1191 Y299.9986
X340.1204 Y299.995
X340.1604 Y299.8885
X340.2057 Y299.7784
X340.2305 Y299.7229
X340.2561 Y299.6682
X340.3127 Y299.5581
X340.3406 Y299.5073
X340.3748 Y299.448
X340.4431 Y299.3379
X340.4507 Y299.3264
X340.5178 Y299.2278
X340.5608 Y299.1689
X340.6006 Y299.1176
X340.6709 Y299.0313
X340.6913 Y299.0075
X340.781 Y298.908
X340.7912 Y298.8974
X340.8911 Y298.7972
X340.9015 Y298.7873
X341.0012 Y298.6967
X341.0241 Y298.6771
X341.1113 Y298.6056
X341.1605 Y298.567
X341.2214 Y298.5222
X341.3171 Y298.4569
X341.3315 Y298.4473
X341.4416 Y298.3786
X341.4964 Y298.3468
X341.5517 Y298.3161
X341.6618 Y298.2594
X341.7097 Y298.2366
X341.7719 Y298.2085
X341.882 Y298.163
X341.9776 Y298.1265
X341.9921 Y298.1214
X342.1022 Y298.0856
X342.2123 Y298.0543
X342.3224 Y298.0261
X342.3669 Y298.0164
X342.4325 Y298.0035
X342.5426 Y297.985
X342.6527 Y297.9702
X342.7628 Y297.9593
X342.8729 Y297.9529
X342.983 Y297.9502
X343.0931 Y297.95
X365.9938
X366.1039 Y297.952
X366.2141 Y297.9576
X366.3241 Y297.9677
X366.4342 Y297.9816
X366.5443 Y297.9992
X366.6331 Y298.0164
X366.6544 Y298.021
X366.7645 Y298.048
X366.8746 Y298.0788
X366.9847 Y298.1133
X367.0224 Y298.1265
X367.0948 Y298.154
X367.2049 Y298.1983
X367.2904 Y298.2366
X367.315 Y298.248
X367.4251 Y298.304
X367.5036 Y298.3468
X367.5352 Y298.3649
X367.6453 Y298.4323
X367.6829 Y298.4569
X367.7554 Y298.5061
X367.8395 Y298.567
X367.8655 Y298.5874
X367.9756 Y298.6769
X367.976 Y298.6771
X368.0857 Y298.775
X368.0985 Y298.7873
X368.1958 Y298.8839
X368.2088 Y298.8974
X368.3059 Y299.0043
X368.3087 Y299.0075
X368.3994 Y299.1176
X368.416 Y299.1388
X368.4822 Y299.2278
X368.5261 Y299.2915
X368.5569 Y299.3379
X368.6252 Y299.448
X368.6362 Y299.4666
X368.6873 Y299.5581
X368.7439 Y299.6682
X368.7463 Y299.6731
X368.7944 Y299.7784
X368.8405 Y299.8885
X368.8564 Y299.9309
X368.8809 Y299.9986
X368.9163 Y300.1087
X368.9475 Y300.2189
X368.9665 Y300.2926
X368.9754 Y300.329
X368.9977 Y300.4391
X369.0161 Y300.5492
X369.0305 Y300.6594
X369.0414 Y300.7695
X369.0474 Y300.8796
X369.0499 Y300.9897
X369.05 Y301.0999
Y318.9398
X369.0513 Y319.0499
X369.0558 Y319.105
X369.0636 Y319.16
X369.0766 Y319.2233
X369.0892 Y319.2701
X369.1074 Y319.3252
X369.1294 Y319.3803
X369.1556 Y319.4353
X369.1864 Y319.4904
X369.1867 Y319.491
X369.2224 Y319.5458
X369.2639 Y319.6005
X369.2968 Y319.6388
X369.3332 Y319.6767
X369.3695 Y319.7106
X369.4069 Y319.7422
X369.462 Y319.783
X369.517 Y319.8181
X369.5216 Y319.8208
X369.5744 Y319.8493
X369.6271 Y319.8738
X369.6822 Y319.8953
X369.7372 Y319.913
X369.8103 Y319.9309
X369.8473 Y319.9377
X369.9024 Y319.945
X369.9574 Y319.9491
X370.0675 Y319.95
X389.7754
X389.8304 Y319.9495
X389.8855 Y319.9462
X389.9376 Y319.94
X389.9897 Y319.9309
X389.9955 Y319.9297
X390.0506 Y319.9164
X390.1057 Y319.8995
X390.1607 Y319.8789
X390.2158 Y319.8542
X390.2784 Y319.8208
X390.3259 Y319.7912
X390.3782 Y319.7538
X390.4305 Y319.7106
X390.4359 Y319.7057
X390.4899 Y319.6531
X390.5361 Y319.6005
X390.5461 Y319.5882
X390.5821 Y319.5393
X390.6136 Y319.4904
X390.6361 Y319.451
X390.6562 Y319.4117
X390.6706 Y319.3803
X390.6926 Y319.3252
X390.7108 Y319.2701
X390.7253 Y319.2151
X390.7364 Y319.16
X390.7442 Y319.105
X390.7487 Y319.0499
X390.75 Y318.9398
Y246.0383
X390.7473 Y245.9282
X390.7415 Y245.8731
X390.7324 Y245.8181
X390.72 Y245.763
X390.704 Y245.7079
X390.6843 Y245.6529
X390.6606 Y245.5978
X390.6562 Y245.5883
X390.6301 Y245.538
X390.6 Y245.4877
X390.5744 Y245.4498
X390.5461 Y245.4119
X390.5177 Y245.3776
X390.4793 Y245.3359
X390.4359 Y245.2943
X390.4048 Y245.2674
X390.3654 Y245.2365
X390.3259 Y245.2088
X390.2822 Y245.1815
X390.2386 Y245.1573
X390.2158 Y245.1458
X390.1607 Y245.1212
X390.1057 Y245.1005
X390.0506 Y245.0837
X389.9955 Y245.0704
X389.9405 Y245.0605
X389.8855 Y245.0539
X389.8304 Y245.0505
X389.7754 Y245.05
X332.9518
X332.95 Y245.0486
Y161.952
X332.9518 Y161.95
X389.7754
X389.8304 Y161.9495
X389.8855 Y161.9462
X389.9405 Y161.9396
X389.9955 Y161.9297
X390.0434 Y161.9183
X390.0913 Y161.9043
X390.1057 Y161.8995
X390.1607 Y161.8789
X390.2158 Y161.8542
X390.2686 Y161.8264
X390.3214 Y161.7941
X390.3259 Y161.7912
X390.3809 Y161.7517
X390.4359 Y161.7057
X390.4593 Y161.684
X390.5056 Y161.6361
X390.5461 Y161.5882
X390.5571 Y161.5739
X390.5958 Y161.5188
X390.6291 Y161.4638
X390.6562 Y161.4117
X390.6817 Y161.3536
X390.7019 Y161.2986
X390.7183 Y161.2435
X390.7311 Y161.1885
X390.7406 Y161.1334
X390.7468 Y161.0783
X390.7497 Y161.0233
X390.75 Y160.9131
Y33.0602
X390.7487 Y32.9501
X390.7442 Y32.8951
X390.7364 Y32.84
X390.7253 Y32.7849
X390.7108 Y32.7299
X390.6926 Y32.6748
X390.6706 Y32.6198
X390.6562 Y32.5883
X390.6361 Y32.549
X390.6136 Y32.5096
X390.5821 Y32.4607
X390.5461 Y32.4119
X390.5361 Y32.3995
X390.4899 Y32.3469
X390.4359 Y32.2943
X390.4305 Y32.2894
X390.3782 Y32.2462
X390.3259 Y32.2088
X390.2784 Y32.1793
X390.2158 Y32.1458
X390.1607 Y32.1211
X390.1057 Y32.1005
X390.0506 Y32.0836
X389.9955 Y32.0703
X389.9897 Y32.0691
X389.9376 Y32.06
X389.8855 Y32.0539
X389.8304 Y32.0505
X389.7754 Y32.05
X366.4342
X366.3241 Y32.053
X366.2691 Y32.0591
X366.2141 Y32.0684
X366.2103 Y32.0691
X366.1571 Y32.0816
X366.1039 Y32.0973
X366.0489 Y32.1173
X365.9938 Y32.1412
X365.9216 Y32.1793
X365.8837 Y32.2025
X365.8287 Y32.241
X365.7737 Y32.2857
X365.7695 Y32.2894
X365.7124 Y32.3444
X365.6639 Y32.3995
X365.6635 Y32.3999
X365.622 Y32.4548
X365.5864 Y32.5096
X365.5534 Y32.5689
X365.5294 Y32.6198
X365.5074 Y32.6748
X365.4892 Y32.7299
X365.4747 Y32.7849
X365.4636 Y32.84
X365.4558 Y32.8951
X365.4513 Y32.9501
X365.45 Y33.0602
Y51.0103
X365.4496 Y51.1204
X365.4452 Y51.2306
X365.4433 Y51.2528
X365.434 Y51.3407
X365.4158 Y51.4508
X365.3911 Y51.5609
X365.3595 Y51.671
X365.3333 Y51.7456
X365.3195 Y51.7812
X365.2721 Y51.8913
X365.2231 Y51.9874
X365.2153 Y52.0014
X365.1486 Y52.1115
X365.113 Y52.1635
X365.071 Y52.2217
X365.0029 Y52.3054
X364.9799 Y52.3318
X364.8929 Y52.423
X364.8728 Y52.4419
X364.7827 Y52.5225
X364.7463 Y52.552
X364.6726 Y52.6068
X364.5906 Y52.6622
X364.5625 Y52.6797
X364.4525 Y52.7415
X364.391 Y52.7723
X364.3423 Y52.7945
X364.2322 Y52.8386
X364.1221 Y52.8744
X364.0947 Y52.8824
X364.0121 Y52.9034
X363.9019 Y52.925
X363.7918 Y52.9399
X363.6817 Y52.948
X363.5717 Y52.95
X347.6072
X347.4971 Y52.9499
X347.387 Y52.9464
X347.2769 Y52.9364
X347.1668 Y52.9196
X347.0567 Y52.8959
X347.0053 Y52.8824
X346.9466 Y52.8651
X346.8365 Y52.8268
X346.7264 Y52.7804
X346.709 Y52.7723
X346.6163 Y52.7251
X346.5094 Y52.6622
X346.5062 Y52.6602
X346.3961 Y52.5843
X346.3537 Y52.552
X346.286 Y52.4959
X346.2272 Y52.4419
X346.1759 Y52.3916
X346.1201 Y52.3318
X346.0658 Y52.2682
X346.029 Y52.2217
X345.9557 Y52.1179
X345.9515 Y52.1115
X345.8847 Y52.0014
X345.8456 Y51.9282
X345.8279 Y51.8913
X345.7805 Y51.7812
X345.7405 Y51.671
X345.7355 Y51.6559
X345.7089 Y51.5609
X345.6843 Y51.4508
X345.666 Y51.3407
X345.6548 Y51.2306
X345.6504 Y51.1204
X345.65 Y51.0103
Y33.0602
X345.6487 Y32.9501
X345.6442 Y32.8951
X345.6364 Y32.84
X345.6254 Y32.7851
X345.6108 Y32.7299
X345.5927 Y32.6748
X345.5706 Y32.6198
X345.5451 Y32.566
X345.5153 Y32.5123
X345.5137 Y32.5096
X345.4778 Y32.4546
X345.4362 Y32.3995
X345.4052 Y32.3634
X345.3679 Y32.3244
X345.3305 Y32.2894
X345.2951 Y32.2595
X345.2401 Y32.2184
X345.185 Y32.1831
X345.1784 Y32.1793
X345.1267 Y32.1512
X345.0749 Y32.1271
X345.0199 Y32.1055
X344.9648 Y32.0876
X344.8897 Y32.0691
X344.8547 Y32.0627
X344.7997 Y32.0552
X344.7446 Y32.051
X344.6345 Y32.05
X314.0268
X313.9718 Y32.0504
X313.9167 Y32.0537
X313.8635 Y32.0599
X313.8103 Y32.0691
X313.8066 Y32.0699
X313.7516 Y32.0831
X313.6965 Y32.0998
X313.6415 Y32.1203
X313.5864 Y32.1448
X313.5216 Y32.1793
X313.4763 Y32.2074
X313.4229 Y32.2454
X313.3695 Y32.2894
X313.3662 Y32.2923
X313.311 Y32.3459
