%
(Made in : Autodesk CAM Post Processor)
(G Code optimized for OpenBuilds OX CNC 1000 x 750 with GRBL V0.9j controller)

(Program Name : 1001)
(1 Operation :)
(1 : Pocket2)
(  Tool : Flat End Mill 3 Flutes, Diam = 3.175mm, Len = 20mm)
(  Spindle : RPM = 30000, set router dial to 6)
(  Machining time : 30 min 7 sec)

G90 G94
G17
G21

(Operation 1 of 1 : Pocket2)

G53 G0 Z5
G54
S30000 M3
G4 P1.0
X145.4707 Y279.1986
Z6
Z3
G1 Z2.4173 F1200
X145.4644 Y279.1852 Z2.3213
X145.4469 Y279.1457 Z2.2343
X145.4218 Y279.083 Z2.1644
X145.3941 Y279.0022 Z2.1182
X145.3687 Y278.9102 Z2.1
G3 X145.4528 Y279.1593 Z1.7783 I1.4655 J-0.3559
X145.5788 Y279.39 Z1.4566 I1.3815 J-0.6049
X145.743 Y279.5953 Z1.1349 I1.2554 J-0.8357
X145.9403 Y279.769 Z0.8132 I1.0913 J-1.041
X146.1648 Y279.9058 Z0.4914 I0.8939 J-1.2146
X146.4097 Y280.0015 Z0.1697 I0.6694 J-1.3514
X146.6674 Y280.0533 Z-0.152 I0.4246 J-1.4471
X146.9302 Y280.0595 Z-0.4737 I0.1668 J-1.4989
X147.1901 Y280.0199 Z-0.7954 I-0.096 J-1.5051
X147.4392 Y279.9359 Z-1.1171 I-0.3559 J-1.4655
X147.6699 Y279.8098 Z-1.4388 I-0.6049 J-1.3815
X147.8752 Y279.6457 Z-1.7605 I-0.8357 J-1.2555
X147.7391 Y277.3479 Z-2 I-1.041 J-1.0913
X146.1893 Y279.4143 I-0.7749 J1.0332
X146.8107 Y278.5857 I0.3107 J-0.4143 F3500
X146.1893 Y279.4143 I-0.3107 J0.4143
G2 X145.1385 Y279.3319 I-0.5904 J0.7871
G3 X144.4069 Y278.5731 I-0.2567 J-0.4846
G1 X145.3303 Y276.9735
X147.6698
X148.8396 Y279
X147.6698 Y281.0265
X145.3303
X144.1604 Y279
X144.4069 Y278.5731
X144.436 Y278.5364
X144.4745 Y278.5099
X147.2482 Y277.1521
X147.2893 Y277.1385
X147.3327 Y277.1366
X147.3749 Y277.1465
G3 X147.1222 Y277.074 Z-2.3217 I-0.5406 J1.4079 F1200
X146.8607 Y277.0465 Z-2.6434 I-0.2879 J1.4804
X146.5985 Y277.0648 Z-2.9651 I-0.0265 J1.5079
X146.3434 Y277.1284 Z-3.2868 I0.2357 J1.4896
X146.1032 Y277.2353 Z-3.6086 I0.4908 J1.426
X145.8853 Y277.3822 Z-3.9303 I0.731 J1.3191
X147.7391 Y277.3479 Z-4 I0.949 J1.1722
X146.1893 Y279.4143 I-0.7749 J1.0332
X146.8107 Y278.5857 I0.3107 J-0.4143 F3500
X146.1893 Y279.4143 I-0.3107 J0.4143
G2 X145.1385 Y279.3319 I-0.5904 J0.7871
G3 X144.4069 Y278.5731 I-0.2567 J-0.4846
G1 X145.3303 Y276.9735
X147.6698
X148.8396 Y279
X147.6698 Y281.0265
X145.3303
X144.1604 Y279
X144.4069 Y278.5731
X144.4346 Y278.5327 Z-3.9922
X144.4682 Y278.497 Z-3.9845
X144.5029 Y278.4696 Z-3.9619
X144.541 Y278.4473 Z-3.9394
X144.6069 Y278.4233 Z-3.8691
X144.6513 Y278.4158 Z-3.7806
X144.6668 Y278.4147 Z-3.6825
G0 Z5
X146.925 Y278.5469
Z3
G1 Z-1 F1200
Z-5.6825
X146.9402 Y278.5504 Z-5.7806
X146.983 Y278.5645 Z-5.8691
X147.0445 Y278.598 Z-5.9394
X147.0789 Y278.6258 Z-5.9619
X147.1091 Y278.6581 Z-5.9845
X147.137 Y278.6984 Z-5.9922
X147.1583 Y278.7425 Z-6
X147.1795 Y278.7967 F3500
X147.2063 Y278.919
X147.2079 Y278.9335
X147.2074 Y279.0533
X147.1884 Y279.1778
X147.1799 Y279.2098
X147.1677 Y279.244
X147.1125 Y279.3578
X147.0535 Y279.4436
X146.9691 Y279.5341
X146.9528 Y279.5479
X146.8518 Y279.6157
X146.7372 Y279.6703
X146.7223 Y279.6754
X146.5807 Y279.7063
X146.5661 Y279.7079
X146.4463 Y279.7074
X146.3218 Y279.6883
X146.2892 Y279.6796
X146.2555 Y279.6676
X146.1432 Y279.613
X146.0546 Y279.5529
X145.9967 Y279.5015
X145.9468 Y279.4452
X145.8868 Y279.3569
X145.8326 Y279.2446
X145.8266 Y279.2278
X145.7944 Y279.0861
X145.7927 Y279.0717
X145.7922 Y278.9514
X145.8102 Y278.8272
X145.8134 Y278.8148
X145.8631 Y278.6878
X145.9188 Y278.5904
X145.9391 Y278.5625
X145.9655 Y278.5315
X146.0568 Y278.4462
X146.1423 Y278.3876
X146.2559 Y278.3323
X146.2713 Y278.3268
X146.4136 Y278.2944
X146.428 Y278.2927
X146.5482 Y278.2922
X146.6724 Y278.3101
X146.7039 Y278.3182
X146.7545 Y278.3358
X146.793 Y278.3524
X146.9043 Y278.4165
X146.9612 Y278.4599
X147.0401 Y278.5388
X147.0835 Y278.5953
X147.1374 Y278.6891
X147.1583 Y278.7425
X147.1726 Y278.7894 Z-5.9922
X147.1795 Y278.8379 Z-5.9845
X147.1793 Y278.8821 Z-5.9619
X147.1729 Y278.9259 Z-5.9394
X147.1505 Y278.9923 Z-5.8691
X147.1286 Y279.0317 Z-5.7806
X147.1198 Y279.0445 Z-5.6825
G0 Z5
X146.925 Y278.5469
G1 Z-3 F1200
Z-7.6825
X146.9402 Y278.5504 Z-7.7806
X146.983 Y278.5645 Z-7.8691
X147.0445 Y278.598 Z-7.9394
X147.0789 Y278.6258 Z-7.9619
X147.1091 Y278.6581 Z-7.9845
X147.137 Y278.6984 Z-7.9922
X147.1583 Y278.7425 Z-8
X147.1795 Y278.7967 F3500
X147.2063 Y278.919
X147.2079 Y278.9335
X147.2074 Y279.0533
X147.1884 Y279.1778
X147.1799 Y279.2098
X147.1677 Y279.244
X147.1125 Y279.3578
X147.0535 Y279.4436
X146.9691 Y279.5341
X146.9528 Y279.5479
X146.8518 Y279.6157
X146.7372 Y279.6703
X146.7223 Y279.6754
X146.5807 Y279.7063
X146.5661 Y279.7079
X146.4463 Y279.7074
X146.3218 Y279.6883
X146.2892 Y279.6796
X146.2555 Y279.6676
X146.1432 Y279.613
X146.0546 Y279.5529
X145.9967 Y279.5015
X145.9468 Y279.4452
X145.8868 Y279.3569
X145.8326 Y279.2446
X145.8266 Y279.2278
X145.7944 Y279.0861
X145.7927 Y279.0717
X145.7922 Y278.9514
X145.8102 Y278.8272
X145.8134 Y278.8148
X145.8631 Y278.6878
X145.9188 Y278.5904
X145.9391 Y278.5625
X145.9655 Y278.5315
X146.0568 Y278.4462
X146.1423 Y278.3876
X146.2559 Y278.3323
X146.2713 Y278.3268
X146.4136 Y278.2944
X146.428 Y278.2927
X146.5482 Y278.2922
X146.6724 Y278.3101
X146.7039 Y278.3182
X146.7545 Y278.3358
X146.793 Y278.3524
X146.9043 Y278.4165
X146.9612 Y278.4599
X147.0401 Y278.5388
X147.0835 Y278.5953
X147.1374 Y278.6891
X147.1583 Y278.7425
X147.1726 Y278.7894 Z-7.9922
X147.1795 Y278.8379 Z-7.9845
X147.1793 Y278.8821 Z-7.9619
X147.1729 Y278.9259 Z-7.9394
X147.1505 Y278.9923 Z-7.8691
X147.1286 Y279.0317 Z-7.7806
X147.1198 Y279.0445 Z-7.6825
G0 Z5
X146.925 Y278.5469
G1 Z-5 F1200
Z-9.6825
X146.9402 Y278.5504 Z-9.7806
X146.983 Y278.5645 Z-9.8691
X147.0445 Y278.598 Z-9.9394
X147.0789 Y278.6258 Z-9.9619
X147.1091 Y278.6581 Z-9.9845
X147.137 Y278.6984 Z-9.9922
X147.1583 Y278.7425 Z-10
X147.1795 Y278.7967 F3500
X147.2063 Y278.919
X147.2079 Y278.9335
X147.2074 Y279.0533
X147.1884 Y279.1778
X147.1799 Y279.2098
X147.1677 Y279.244
X147.1125 Y279.3578
X147.0535 Y279.4436
X146.9691 Y279.5341
X146.9528 Y279.5479
X146.8518 Y279.6157
X146.7372 Y279.6703
X146.7223 Y279.6754
X146.5807 Y279.7063
X146.5661 Y279.7079
X146.4463 Y279.7074
X146.3218 Y279.6883
X146.2892 Y279.6796
X146.2555 Y279.6676
X146.1432 Y279.613
X146.0546 Y279.5529
X145.9967 Y279.5015
X145.9468 Y279.4452
X145.8868 Y279.3569
X145.8326 Y279.2446
X145.8266 Y279.2278
X145.7944 Y279.0861
X145.7927 Y279.0717
X145.7922 Y278.9514
X145.8102 Y278.8272
X145.8134 Y278.8148
X145.8631 Y278.6878
X145.9188 Y278.5904
X145.9391 Y278.5625
X145.9655 Y278.5315
X146.0568 Y278.4462
X146.1423 Y278.3876
X146.2559 Y278.3323
X146.2713 Y278.3268
X146.4136 Y278.2944
X146.428 Y278.2927
X146.5482 Y278.2922
X146.6724 Y278.3101
X146.7039 Y278.3182
X146.7545 Y278.3358
X146.793 Y278.3524
X146.9043 Y278.4165
X146.9612 Y278.4599
X147.0401 Y278.5388
X147.0835 Y278.5953
X147.1374 Y278.6891
X147.1583 Y278.7425
X147.1726 Y278.7894 Z-9.9922
X147.1795 Y278.8379 Z-9.9845
X147.1793 Y278.8821 Z-9.9619
X147.1729 Y278.9259 Z-9.9394
X147.1505 Y278.9923 Z-9.8691
X147.1286 Y279.0317 Z-9.7806
X147.1198 Y279.0445 Z-9.6825
G0 Z5
X145.8802
G1 Z-7 F1200
Z-11.6825
X145.8714 Y279.0317 Z-11.7806
X145.8496 Y278.9923 Z-11.8691
X145.8272 Y278.9259 Z-11.9394
X145.8208 Y278.8821 Z-11.9619
X145.8205 Y278.8379 Z-11.9845
X145.8274 Y278.7894 Z-11.9922
X145.8417 Y278.7425 Z-12
X145.8631 Y278.6878 F3500
X145.9188 Y278.5904
X145.9391 Y278.5625
X145.9655 Y278.5315
X146.0568 Y278.4462
X146.1423 Y278.3876
X146.2559 Y278.3323
X146.2713 Y278.3268
X146.4136 Y278.2944
X146.428 Y278.2927
X146.5482 Y278.2922
X146.6724 Y278.3101
X146.7039 Y278.3182
X146.7545 Y278.3358
X146.793 Y278.3524
X146.9043 Y278.4165
X146.9612 Y278.4599
X147.0401 Y278.5388
X147.0835 Y278.5953
X147.1374 Y278.6891
X147.1795 Y278.7967
X147.2063 Y278.919
X147.2079 Y278.9335
X147.2074 Y279.0533
X147.1884 Y279.1778
X147.1799 Y279.2098
X147.1677 Y279.244
X147.1125 Y279.3578
X147.0535 Y279.4436
X146.9691 Y279.5341
X146.9528 Y279.5479
X146.8518 Y279.6157
X146.7372 Y279.6703
X146.7223 Y279.6754
X146.5807 Y279.7063
X146.5661 Y279.7079
X146.4463 Y279.7074
X146.3218 Y279.6883
X146.2892 Y279.6796
X146.2555 Y279.6676
X146.1432 Y279.613
X146.0546 Y279.5529
X145.9967 Y279.5015
X145.9468 Y279.4452
X145.8868 Y279.3569
X145.8326 Y279.2446
X145.8266 Y279.2278
X145.7944 Y279.0861
X145.7927 Y279.0717
X145.7922 Y278.9514
X145.8102 Y278.8272
X145.8134 Y278.8148
X145.8417 Y278.7425
X145.8631 Y278.6984 Z-11.9922
X145.8909 Y278.6581 Z-11.9845
X145.9211 Y278.6258 Z-11.9619
X145.9555 Y278.598 Z-11.9394
X146.0171 Y278.5644 Z-11.8691
X146.0599 Y278.5504 Z-11.7806
X146.075 Y278.5469 Z-11.6825
G0 Z5
X145.8802 Y279.0445
G1 Z-9 F1200
Z-13.6825
X145.8714 Y279.0317 Z-13.7806
X145.8496 Y278.9923 Z-13.8691
X145.8272 Y278.9259 Z-13.9394
X145.8208 Y278.8821 Z-13.9619
X145.8205 Y278.8379 Z-13.9845
X145.8274 Y278.7894 Z-13.9922
X145.8417 Y278.7425 Z-14
X145.8631 Y278.6878 F3500
X145.9188 Y278.5904
X145.9391 Y278.5625
X145.9655 Y278.5315
X146.0568 Y278.4462
X146.1423 Y278.3876
X146.2559 Y278.3323
X146.2713 Y278.3268
X146.4136 Y278.2944
X146.428 Y278.2927
X146.5482 Y278.2922
X146.6724 Y278.3101
X146.7039 Y278.3182
X146.7545 Y278.3358
X146.793 Y278.3524
X146.9043 Y278.4165
X146.9612 Y278.4599
X147.0401 Y278.5388
X147.0835 Y278.5953
X147.1374 Y278.6891
X147.1795 Y278.7967
X147.2063 Y278.919
X147.2079 Y278.9335
X147.2074 Y279.0533
X147.1884 Y279.1778
X147.1799 Y279.2098
X147.1677 Y279.244
X147.1125 Y279.3578
X147.0535 Y279.4436
X146.9691 Y279.5341
X146.9528 Y279.5479
X146.8518 Y279.6157
X146.7372 Y279.6703
X146.7223 Y279.6754
X146.5807 Y279.7063
X146.5661 Y279.7079
X146.4463 Y279.7074
X146.3218 Y279.6883
X146.2892 Y279.6796
X146.2555 Y279.6676
X146.1432 Y279.613
X146.0546 Y279.5529
X145.9967 Y279.5015
X145.9468 Y279.4452
X145.8868 Y279.3569
X145.8326 Y279.2446
X145.8266 Y279.2278
X145.7944 Y279.0861
X145.7927 Y279.0717
X145.7922 Y278.9514
X145.8102 Y278.8272
X145.8134 Y278.8148
X145.8417 Y278.7425
X145.8631 Y278.6984 Z-13.9922
X145.8909 Y278.6581 Z-13.9845
X145.9211 Y278.6258 Z-13.9619
X145.9555 Y278.598 Z-13.9394
X146.0171 Y278.5644 Z-13.8691
X146.0599 Y278.5504 Z-13.7806
X146.075 Y278.5469 Z-13.6825
G0 Z5
X146.925
G1 Z-11 F1200
Z-15.6825
X146.9402 Y278.5504 Z-15.7806
X146.983 Y278.5645 Z-15.8691
X147.0445 Y278.598 Z-15.9394
X147.0789 Y278.6258 Z-15.9619
X147.1091 Y278.6581 Z-15.9845
X147.137 Y278.6984 Z-15.9922
X147.1583 Y278.7425 Z-16
X147.1795 Y278.7967 F3500
X147.2063 Y278.919
X147.2079 Y278.9335
X147.2074 Y279.0533
X147.1884 Y279.1778
X147.1799 Y279.2098
X147.1677 Y279.244
X147.1125 Y279.3578
X147.0535 Y279.4436
X146.9691 Y279.5341
X146.9528 Y279.5479
X146.8518 Y279.6157
X146.7372 Y279.6703
X146.7223 Y279.6754
X146.5807 Y279.7063
X146.5661 Y279.7079
X146.4463 Y279.7074
X146.3218 Y279.6883
X146.2892 Y279.6796
X146.2555 Y279.6676
X146.1432 Y279.613
X146.0546 Y279.5529
X145.9967 Y279.5015
X145.9468 Y279.4452
X145.8868 Y279.3569
X145.8326 Y279.2446
X145.8266 Y279.2278
X145.7944 Y279.0861
X145.7927 Y279.0717
X145.7922 Y278.9514
X145.8102 Y278.8272
X145.8134 Y278.8148
X145.8631 Y278.6878
X145.9188 Y278.5904
X145.9391 Y278.5625
X145.9655 Y278.5315
X146.0568 Y278.4462
X146.1423 Y278.3876
X146.2559 Y278.3323
X146.2713 Y278.3268
X146.4136 Y278.2944
X146.428 Y278.2927
X146.5482 Y278.2922
X146.6724 Y278.3101
X146.7039 Y278.3182
X146.7545 Y278.3358
X146.793 Y278.3524
X146.9043 Y278.4165
X146.9612 Y278.4599
X147.0401 Y278.5388
X147.0835 Y278.5953
X147.1374 Y278.6891
X147.1583 Y278.7425
X147.1726 Y278.7894 Z-15.9922
X147.1795 Y278.8379 Z-15.9845
X147.1793 Y278.8821 Z-15.9619
X147.1729 Y278.9259 Z-15.9394
X147.1505 Y278.9923 Z-15.8691
X147.1286 Y279.0317 Z-15.7806
X147.1198 Y279.0445 Z-15.6825
G0 Z5
X146.925 Y278.5469
G1 Z-13 F1200
Z-17.6825
X146.9402 Y278.5504 Z-17.7806
X146.983 Y278.5645 Z-17.8691
X147.0445 Y278.598 Z-17.9394
X147.0789 Y278.6258 Z-17.9619
X147.1091 Y278.6581 Z-17.9845
X147.137 Y278.6984 Z-17.9922
X147.1583 Y278.7425 Z-18
X147.1795 Y278.7967 F3500
X147.2063 Y278.919
X147.2079 Y278.9335
X147.2074 Y279.0533
X147.1884 Y279.1778
X147.1799 Y279.2098
X147.1677 Y279.244
X147.1125 Y279.3578
X147.0535 Y279.4436
X146.9691 Y279.5341
X146.9528 Y279.5479
X146.8518 Y279.6157
X146.7372 Y279.6703
X146.7223 Y279.6754
X146.5807 Y279.7063
X146.5661 Y279.7079
X146.4463 Y279.7074
X146.3218 Y279.6883
X146.2892 Y279.6796
X146.2555 Y279.6676
X146.1432 Y279.613
X146.0546 Y279.5529
X145.9967 Y279.5015
X145.9468 Y279.4452
X145.8868 Y279.3569
X145.8326 Y279.2446
X145.8266 Y279.2278
X145.7944 Y279.0861
X145.7927 Y279.0717
X145.7922 Y278.9514
X145.8102 Y278.8272
X145.8134 Y278.8148
X145.8631 Y278.6878
X145.9188 Y278.5904
X145.9391 Y278.5625
X145.9655 Y278.5315
X146.0568 Y278.4462
X146.1423 Y278.3876
X146.2559 Y278.3323
X146.2713 Y278.3268
X146.4136 Y278.2944
X146.428 Y278.2927
X146.5482 Y278.2922
X146.6724 Y278.3101
X146.7039 Y278.3182
X146.7545 Y278.3358
X146.793 Y278.3524
X146.9043 Y278.4165
X146.9612 Y278.4599
X147.0401 Y278.5388
X147.0835 Y278.5953
X147.1374 Y278.6891
X147.1583 Y278.7425
X147.1726 Y278.7894 Z-17.9922
X147.1795 Y278.8379 Z-17.9845
X147.1793 Y278.8821 Z-17.9619
X147.1729 Y278.9259 Z-17.9394
X147.1505 Y278.9923 Z-17.8691
X147.1286 Y279.0317 Z-17.7806
X147.1198 Y279.0445 Z-17.6825
G0 Z5
X146.925 Y278.5469
G1 Z-15 F1200
Z-19.3825
X146.9402 Y278.5504 Z-19.4806
X146.983 Y278.5645 Z-19.5691
X147.0445 Y278.598 Z-19.6394
X147.0789 Y278.6258 Z-19.6619
X147.1091 Y278.6581 Z-19.6845
X147.137 Y278.6984 Z-19.6922
X147.1583 Y278.7425 Z-19.7
X147.1795 Y278.7967 F3500
X147.2063 Y278.919
X147.2079 Y278.9335
X147.2074 Y279.0533
X147.1884 Y279.1778
X147.1799 Y279.2098
X147.1677 Y279.244
X147.1125 Y279.3578
X147.0535 Y279.4436
X146.9691 Y279.5341
X146.9528 Y279.5479
X146.8518 Y279.6157
X146.7372 Y279.6703
X146.7223 Y279.6754
X146.5807 Y279.7063
X146.5661 Y279.7079
X146.4463 Y279.7074
X146.3218 Y279.6883
X146.2892 Y279.6796
X146.2555 Y279.6676
X146.1432 Y279.613
X146.0546 Y279.5529
X145.9967 Y279.5015
X145.9468 Y279.4452
X145.8868 Y279.3569
X145.8326 Y279.2446
X145.8266 Y279.2278
X145.7944 Y279.0861
X145.7927 Y279.0717
X145.7922 Y278.9514
X145.8102 Y278.8272
X145.8134 Y278.8148
X145.8631 Y278.6878
X145.9188 Y278.5904
X145.9391 Y278.5625
X145.9655 Y278.5315
X146.0568 Y278.4462
X146.1423 Y278.3876
X146.2559 Y278.3323
X146.2713 Y278.3268
X146.4136 Y278.2944
X146.428 Y278.2927
X146.5482 Y278.2922
X146.6724 Y278.3101
X146.7039 Y278.3182
X146.7545 Y278.3358
X146.793 Y278.3524
X146.9043 Y278.4165
X146.9612 Y278.4599
X147.0401 Y278.5388
X147.0835 Y278.5953
X147.1374 Y278.6891
X147.1583 Y278.7425
X147.1726 Y278.7894 Z-19.6922
X147.1795 Y278.8379 Z-19.6845
X147.1793 Y278.8821 Z-19.6619
X147.1729 Y278.9259 Z-19.6394
X147.1505 Y278.9923 Z-19.5691
X147.1286 Y279.0317 Z-19.4806
X147.1198 Y279.0445 Z-19.3825
G0 Z5
X206.5975 Y277.9562
Z2.4173
G1 X206.6122 Y277.9539 Z2.3213 F1200
X206.655 Y277.9482 Z2.2343
X206.7222 Y277.9417 Z2.1644
X206.8076 Y277.9377 Z2.1182
X206.903 Y277.9391 Z2.1
G3 X206.6403 Y277.95 Z1.7783 I-0.0687 J1.5066
X206.3835 Y278.0064 Z1.4566 I0.1939 J1.4956
X206.1405 Y278.1066 Z1.1349 I0.4507 J1.4392
X205.9185 Y278.2474 Z0.8132 I0.6938 J1.3391
X205.7243 Y278.4246 Z0.4914 I0.9158 J1.1983
X205.5639 Y278.6329 Z0.1697 I1.1099 J1.021
X205.4421 Y278.8658 Z-0.152 I1.2704 J0.8128
X205.3625 Y279.1164 Z-0.4737 I1.3922 J0.5798
X205.3277 Y279.3769 Z-0.7954 I1.4717 J0.3293
X205.3387 Y279.6396 Z-1.1171 I1.5065 J0.0687
X205.3951 Y279.8963 Z-1.4388 I1.4956 J-0.1939
X205.4952 Y280.1394 Z-1.7605 I1.4392 J-0.4507
X207.7391 Y280.6521 Z-2 I1.3391 J-0.6938
X206.1893 Y278.5857 I-0.7749 J-1.0332
X206.8107 Y279.4143 I0.3107 J0.4143 F3500
X206.1893 Y278.5857 I-0.3107 J-0.4143
G2 X206.7408 Y277.6689 I-0.8531 J-1.1375
G3 X207.554 Y276.9735 I0.8131 J0.1277
G1 X207.6697
X208.8396 Y279
X207.6697 Y281.0265
X205.3303
X204.1604 Y279
X205.3303 Y276.9735
X207.554
X207.5996 Y276.9802
X207.6414 Y276.9997
X207.6758 Y277.0305
X207.6999 Y277.0698
X207.7117 Y277.1144
X208.0658 Y280.2449
X208.0652 Y280.2852
X208.0545 Y280.324
X208.0344 Y280.3589
G3 X208.1748 Y280.1366 Z-2.3217 I-1.2002 J-0.9132 F1200
X208.2744 Y279.8933 Z-2.6434 I-1.3405 J-0.6909
X208.3302 Y279.6364 Z-2.9651 I-1.4401 J-0.4476
X208.3406 Y279.3737 Z-3.2868 I-1.496 J-0.1908
X208.3053 Y279.1133 Z-3.6086 I-1.5064 J0.0719
X208.2252 Y278.8629 Z-3.9303 I-1.471 J0.3324
X207.7391 Y280.6521 Z-4 I-1.3909 J0.5828
X206.1893 Y278.5857 I-0.7749 J-1.0332
X206.8107 Y279.4143 I0.3107 J0.4143 F3500
X206.1893 Y278.5857 I-0.3107 J-0.4143
G2 X206.7408 Y277.6689 I-0.8531 J-1.1375
G3 X207.554 Y276.9735 I0.8131 J0.1277
G1 X207.6697
X208.8396 Y279
X207.6697 Y281.0265
X205.3303
X204.1604 Y279
X205.3303 Y276.9735
X207.554
G18 G2 X207.6697 Z-3.9781 K0.3175
G1 X207.6979 Y277.0223 Z-3.9493
X207.7226 Y277.0651 Z-3.9099
X207.743 Y277.1004 Z-3.8614
X207.7581 Y277.1266 Z-3.8059
X207.7674 Y277.1427 Z-3.7454
X207.7706 Y277.1482 Z-3.6825
G0 Z5
X206.7361 Y279.575
Z3
G1 Z-1 F1200
Z-5.6825
X206.7266 Y279.5873 Z-5.7806
X206.6961 Y279.6205 Z-5.8691
X206.64 Y279.6625 Z-5.9394
X206.6004 Y279.6823 Z-5.9619
X206.5585 Y279.6964 Z-5.9845
X206.5103 Y279.705 Z-5.9922
X206.4613 Y279.7061 Z-6
X206.3896 Y279.7021 F3500
X206.3556 Y279.6967
X206.3152 Y279.6868
X206.2284 Y279.6567
X206.1488 Y279.6181
X206.1097 Y279.5945
X206.0737 Y279.5688
X205.9868 Y279.4917
X205.9574 Y279.4591
X205.9003 Y279.3816
X205.8597 Y279.3091
X205.8385 Y279.2612
X205.8266 Y279.2278
X205.7944 Y279.086
X205.7927 Y279.0716
X205.7922 Y278.9514
X205.8102 Y278.8273
X205.8134 Y278.8148
X205.8695 Y278.6716
X205.8798 Y278.652
X205.9309 Y278.575
X205.9961 Y278.4997
X206.0673 Y278.436
X206.0916 Y278.4185
X206.2198 Y278.3468
X206.255 Y278.3322
X206.3068 Y278.3152
X206.3385 Y278.3075
X206.462 Y278.2918
X206.5649 Y278.2937
X206.6778 Y278.3127
X206.7457 Y278.3336
X206.8223 Y278.3675
X206.9031 Y278.4159
X206.998 Y278.4932
X207.0245 Y278.5206
X207.0954 Y278.6133
X207.1358 Y278.685
X207.1796 Y278.7968
X207.2063 Y278.919
X207.2079 Y278.9335
X207.2074 Y279.0533
X207.1884 Y279.1778
X207.1799 Y279.2098
X207.167 Y279.2458
X207.1142 Y279.3559
X207.0632 Y279.4326
X207.0094 Y279.4948
X206.9441 Y279.554
X206.8655 Y279.6084
X206.757 Y279.6632
X206.7403 Y279.6694
X206.6174 Y279.6995
X206.5142 Y279.709
X206.4613 Y279.7061
X206.4127 Y279.6996 Z-5.9922
X206.3657 Y279.6858 Z-5.9845
X206.3256 Y279.6672 Z-5.9619
X206.2884 Y279.6432 Z-5.9394
X206.2373 Y279.5953 Z-5.8691
X206.2105 Y279.559 Z-5.7806
X206.2025 Y279.5457 Z-5.6825
G0 Z5
X206.7361 Y279.575
G1 Z-3 F1200
Z-7.6825
X206.7266 Y279.5873 Z-7.7806
X206.6961 Y279.6205 Z-7.8691
X206.64 Y279.6625 Z-7.9394
X206.6004 Y279.6823 Z-7.9619
X206.5585 Y279.6964 Z-7.9845
X206.5103 Y279.705 Z-7.9922
X206.4613 Y279.7061 Z-8
X206.3896 Y279.7021 F3500
X206.3556 Y279.6967
X206.3152 Y279.6868
X206.2284 Y279.6567
X206.1488 Y279.6181
X206.1097 Y279.5945
X206.0737 Y279.5688
X205.9868 Y279.4917
X205.9574 Y279.4591
X205.9003 Y279.3816
X205.8597 Y279.3091
X205.8385 Y279.2612
X205.8266 Y279.2278
X205.7944 Y279.086
X205.7927 Y279.0716
X205.7922 Y278.9514
X205.8102 Y278.8273
X205.8134 Y278.8148
X205.8695 Y278.6716
X205.8798 Y278.652
X205.9309 Y278.575
X205.9961 Y278.4997
X206.0673 Y278.436
X206.0916 Y278.4185
X206.2198 Y278.3468
X206.255 Y278.3322
X206.3068 Y278.3152
X206.3385 Y278.3075
X206.462 Y278.2918
X206.5649 Y278.2937
X206.6778 Y278.3127
X206.7457 Y278.3336
X206.8223 Y278.3675
X206.9031 Y278.4159
X206.998 Y278.4932
X207.0245 Y278.5206
X207.0954 Y278.6133
X207.1358 Y278.685
X207.1796 Y278.7968
X207.2063 Y278.919
X207.2079 Y278.9335
X207.2074 Y279.0533
X207.1884 Y279.1778
X207.1799 Y279.2098
X207.167 Y279.2458
X207.1142 Y279.3559
X207.0632 Y279.4326
X207.0094 Y279.4948
X206.9441 Y279.554
X206.8655 Y279.6084
X206.757 Y279.6632
X206.7403 Y279.6694
X206.6174 Y279.6995
X206.5142 Y279.709
X206.4613 Y279.7061
X206.4127 Y279.6996 Z-7.9922
X206.3657 Y279.6858 Z-7.9845
X206.3256 Y279.6672 Z-7.9619
X206.2884 Y279.6432 Z-7.9394
X206.2373 Y279.5953 Z-7.8691
X206.2105 Y279.559 Z-7.7806
X206.2025 Y279.5457 Z-7.6825
G0 Z5
X206.7361 Y279.575
G1 Z-5 F1200
Z-9.6825
X206.7266 Y279.5873 Z-9.7806
X206.6961 Y279.6205 Z-9.8691
X206.64 Y279.6625 Z-9.9394
X206.6004 Y279.6823 Z-9.9619
X206.5585 Y279.6964 Z-9.9845
X206.5103 Y279.705 Z-9.9922
X206.4613 Y279.7061 Z-10
X206.3896 Y279.7021 F3500
X206.3556 Y279.6967
X206.3152 Y279.6868
X206.2284 Y279.6567
X206.1488 Y279.6181
X206.1097 Y279.5945
X206.0737 Y279.5688
X205.9868 Y279.4917
X205.9574 Y279.4591
X205.9003 Y279.3816
X205.8597 Y279.3091
X205.8385 Y279.2612
X205.8266 Y279.2278
X205.7944 Y279.086
X205.7927 Y279.0716
X205.7922 Y278.9514
X205.8102 Y278.8273
X205.8134 Y278.8148
X205.8695 Y278.6716
X205.8798 Y278.652
X205.9309 Y278.575
X205.9961 Y278.4997
X206.0673 Y278.436
X206.0916 Y278.4185
X206.2198 Y278.3468
X206.255 Y278.3322
X206.3068 Y278.3152
X206.3385 Y278.3075
X206.462 Y278.2918
X206.5649 Y278.2937
X206.6778 Y278.3127
X206.7457 Y278.3336
X206.8223 Y278.3675
X206.9031 Y278.4159
X206.998 Y278.4932
X207.0245 Y278.5206
X207.0954 Y278.6133
X207.1358 Y278.685
X207.1796 Y278.7968
X207.2063 Y278.919
X207.2079 Y278.9335
X207.2074 Y279.0533
X207.1884 Y279.1778
X207.1799 Y279.2098
X207.167 Y279.2458
X207.1142 Y279.3559
X207.0632 Y279.4326
X207.0094 Y279.4948
X206.9441 Y279.554
X206.8655 Y279.6084
X206.757 Y279.6632
X206.7403 Y279.6694
X206.6174 Y279.6995
X206.5142 Y279.709
X206.4613 Y279.7061
X206.4127 Y279.6996 Z-9.9922
X206.3657 Y279.6858 Z-9.9845
X206.3256 Y279.6672 Z-9.9619
X206.2884 Y279.6432 Z-9.9394
X206.2373 Y279.5953 Z-9.8691
X206.2105 Y279.559 Z-9.7806
X206.2025 Y279.5457 Z-9.6825
G0 Z5
X205.8802 Y279.0445
G1 Z-7 F1200
Z-11.6825
X205.8714 Y279.0317 Z-11.7806
X205.8496 Y278.9923 Z-11.8691
X205.8272 Y278.9259 Z-11.9394
X205.8208 Y278.8822 Z-11.9619
X205.8205 Y278.838 Z-11.9845
X205.8274 Y278.7894 Z-11.9922
X205.8417 Y278.7426 Z-12
X205.8695 Y278.6716 F3500
X205.8798 Y278.652
X205.9309 Y278.575
X205.9961 Y278.4997
X206.0673 Y278.436
X206.0916 Y278.4185
X206.2198 Y278.3468
X206.255 Y278.3322
X206.3068 Y278.3152
X206.3385 Y278.3075
X206.462 Y278.2918
X206.5649 Y278.2937
X206.6778 Y278.3127
X206.7457 Y278.3336
X206.8223 Y278.3675
X206.9031 Y278.4159
X206.998 Y278.4932
X207.0245 Y278.5206
X207.0954 Y278.6133
X207.1358 Y278.685
X207.1796 Y278.7968
X207.2063 Y278.919
X207.2079 Y278.9335
X207.2074 Y279.0533
X207.1884 Y279.1778
X207.1799 Y279.2098
X207.167 Y279.2458
X207.1142 Y279.3559
X207.0632 Y279.4326
X207.0094 Y279.4948
X206.9441 Y279.554
X206.8655 Y279.6084
X206.757 Y279.6632
X206.7403 Y279.6694
X206.6174 Y279.6995
X206.5142 Y279.709
X206.3896 Y279.7021
X206.3556 Y279.6967
X206.3152 Y279.6868
X206.2284 Y279.6567
X206.1488 Y279.6181
X206.1097 Y279.5945
X206.0737 Y279.5688
X205.9868 Y279.4917
X205.9574 Y279.4591
X205.9003 Y279.3816
X205.8597 Y279.3091
X205.8385 Y279.2612
X205.8266 Y279.2278
X205.7944 Y279.086
X205.7927 Y279.0716
X205.7922 Y278.9514
X205.8102 Y278.8273
X205.8134 Y278.8148
X205.8417 Y278.7426
X205.863 Y278.6984 Z-11.9922
X205.8909 Y278.6581 Z-11.9845
X205.9211 Y278.6258 Z-11.9619
X205.9555 Y278.598 Z-11.9394
X206.017 Y278.5645 Z-11.8691
X206.0598 Y278.5504 Z-11.7806
X206.075 Y278.547 Z-11.6825
G0 Z5
X205.8802 Y279.0445
G1 Z-9 F1200
Z-13.6825
X205.8714 Y279.0317 Z-13.7806
X205.8496 Y278.9923 Z-13.8691
X205.8272 Y278.9259 Z-13.9394
X205.8208 Y278.8822 Z-13.9619
X205.8205 Y278.838 Z-13.9845
X205.8274 Y278.7894 Z-13.9922
X205.8417 Y278.7426 Z-14
X205.8695 Y278.6716 F3500
X205.8798 Y278.652
X205.9309 Y278.575
X205.9961 Y278.4997
X206.0673 Y278.436
X206.0916 Y278.4185
X206.2198 Y278.3468
X206.255 Y278.3322
X206.3068 Y278.3152
X206.3385 Y278.3075
X206.462 Y278.2918
X206.5649 Y278.2937
X206.6778 Y278.3127
X206.7457 Y278.3336
X206.8223 Y278.3675
X206.9031 Y278.4159
X206.998 Y278.4932
X207.0245 Y278.5206
X207.0954 Y278.6133
X207.1358 Y278.685
X207.1796 Y278.7968
X207.2063 Y278.919
X207.2079 Y278.9335
X207.2074 Y279.0533
X207.1884 Y279.1778
X207.1799 Y279.2098
X207.167 Y279.2458
X207.1142 Y279.3559
X207.0632 Y279.4326
X207.0094 Y279.4948
X206.9441 Y279.554
X206.8655 Y279.6084
X206.757 Y279.6632
X206.7403 Y279.6694
X206.6174 Y279.6995
X206.5142 Y279.709
X206.3896 Y279.7021
X206.3556 Y279.6967
X206.3152 Y279.6868
X206.2284 Y279.6567
X206.1488 Y279.6181
X206.1097 Y279.5945
X206.0737 Y279.5688
X205.9868 Y279.4917
X205.9574 Y279.4591
X205.9003 Y279.3816
X205.8597 Y279.3091
X205.8385 Y279.2612
X205.8266 Y279.2278
X205.7944 Y279.086
X205.7927 Y279.0716
X205.7922 Y278.9514
X205.8102 Y278.8273
X205.8134 Y278.8148
X205.8417 Y278.7426
X205.863 Y278.6984 Z-13.9922
X205.8909 Y278.6581 Z-13.9845
X205.9211 Y278.6258 Z-13.9619
X205.9555 Y278.598 Z-13.9394
X206.017 Y278.5645 Z-13.8691
X206.0598 Y278.5504 Z-13.7806
X206.075 Y278.547 Z-13.6825
G0 Z5
X206.925 Y278.5469
G1 Z-11 F1200
Z-15.6825
X206.9402 Y278.5504 Z-15.7806
X206.983 Y278.5645 Z-15.8691
X207.0445 Y278.598 Z-15.9394
X207.0789 Y278.6258 Z-15.9619
X207.1091 Y278.6581 Z-15.9845
X207.137 Y278.6984 Z-15.9922
X207.1583 Y278.7425 Z-16
X207.1796 Y278.7968 F3500
X207.2063 Y278.919
X207.2079 Y278.9335
X207.2074 Y279.0533
X207.1884 Y279.1778
X207.1799 Y279.2098
X207.167 Y279.2458
X207.1142 Y279.3559
X207.0632 Y279.4326
X207.0094 Y279.4948
X206.9441 Y279.554
X206.8655 Y279.6084
X206.757 Y279.6632
X206.7403 Y279.6694
X206.6174 Y279.6995
X206.5142 Y279.709
X206.3896 Y279.7021
X206.3556 Y279.6967
X206.3152 Y279.6868
X206.2284 Y279.6567
X206.1488 Y279.6181
X206.1097 Y279.5945
X206.0737 Y279.5688
X205.9868 Y279.4917
X205.9574 Y279.4591
X205.9003 Y279.3816
X205.8597 Y279.3091
X205.8385 Y279.2612
X205.8266 Y279.2278
X205.7944 Y279.086
X205.7927 Y279.0716
X205.7922 Y278.9514
X205.8102 Y278.8273
X205.8134 Y278.8148
X205.8695 Y278.6716
X205.8798 Y278.652
X205.9309 Y278.575
X205.9961 Y278.4997
X206.0673 Y278.436
X206.0916 Y278.4185
X206.2198 Y278.3468
X206.255 Y278.3322
X206.3068 Y278.3152
X206.3385 Y278.3075
X206.462 Y278.2918
X206.5649 Y278.2937
X206.6778 Y278.3127
X206.7457 Y278.3336
X206.8223 Y278.3675
X206.9031 Y278.4159
X206.998 Y278.4932
X207.0245 Y278.5206
X207.0954 Y278.6133
X207.1358 Y278.685
X207.1583 Y278.7425
X207.1726 Y278.7894 Z-15.9922
X207.1795 Y278.8379 Z-15.9845
X207.1793 Y278.8821 Z-15.9619
X207.1729 Y278.9259 Z-15.9394
X207.1505 Y278.9923 Z-15.8691
X207.1286 Y279.0317 Z-15.7806
X207.1198 Y279.0445 Z-15.6825
G0 Z5
X206.925 Y278.5469
G1 Z-13 F1200
Z-17.6825
X206.9402 Y278.5504 Z-17.7806
X206.983 Y278.5645 Z-17.8691
X207.0445 Y278.598 Z-17.9394
X207.0789 Y278.6258 Z-17.9619
X207.1091 Y278.6581 Z-17.9845
X207.137 Y278.6984 Z-17.9922
X207.1583 Y278.7425 Z-18
X207.1796 Y278.7968 F3500
X207.2063 Y278.919
X207.2079 Y278.9335
X207.2074 Y279.0533
X207.1884 Y279.1778
X207.1799 Y279.2098
X207.167 Y279.2458
X207.1142 Y279.3559
X207.0632 Y279.4326
X207.0094 Y279.4948
X206.9441 Y279.554
X206.8655 Y279.6084
X206.757 Y279.6632
X206.7403 Y279.6694
X206.6174 Y279.6995
X206.5142 Y279.709
X206.3896 Y279.7021
X206.3556 Y279.6967
X206.3152 Y279.6868
X206.2284 Y279.6567
X206.1488 Y279.6181
X206.1097 Y279.5945
X206.0737 Y279.5688
X205.9868 Y279.4917
X205.9574 Y279.4591
X205.9003 Y279.3816
X205.8597 Y279.3091
X205.8385 Y279.2612
X205.8266 Y279.2278
X205.7944 Y279.086
X205.7927 Y279.0716
X205.7922 Y278.9514
X205.8102 Y278.8273
X205.8134 Y278.8148
X205.8695 Y278.6716
X205.8798 Y278.652
X205.9309 Y278.575
X205.9961 Y278.4997
X206.0673 Y278.436
X206.0916 Y278.4185
X206.2198 Y278.3468
X206.255 Y278.3322
X206.3068 Y278.3152
X206.3385 Y278.3075
X206.462 Y278.2918
X206.5649 Y278.2937
X206.6778 Y278.3127
X206.7457 Y278.3336
X206.8223 Y278.3675
X206.9031 Y278.4159
X206.998 Y278.4932
X207.0245 Y278.5206
X207.0954 Y278.6133
X207.1358 Y278.685
X207.1583 Y278.7425
X207.1726 Y278.7894 Z-17.9922
X207.1795 Y278.8379 Z-17.9845
X207.1793 Y278.8821 Z-17.9619
X207.1729 Y278.9259 Z-17.9394
X207.1505 Y278.9923 Z-17.8691
X207.1286 Y279.0317 Z-17.7806
X207.1198 Y279.0445 Z-17.6825
G0 Z5
X206.925 Y278.5469
G1 Z-15 F1200
Z-19.3825
X206.9402 Y278.5504 Z-19.4806
X206.983 Y278.5645 Z-19.5691
X207.0445 Y278.598 Z-19.6394
X207.0789 Y278.6258 Z-19.6619
X207.1091 Y278.6581 Z-19.6845
X207.137 Y278.6984 Z-19.6922
X207.1583 Y278.7425 Z-19.7
X207.1796 Y278.7968 F3500
X207.2063 Y278.919
X207.2079 Y278.9335
X207.2074 Y279.0533
X207.1884 Y279.1778
X207.1799 Y279.2098
X207.167 Y279.2458
X207.1142 Y279.3559
X207.0632 Y279.4326
X207.0094 Y279.4948
X206.9441 Y279.554
X206.8655 Y279.6084
X206.757 Y279.6632
X206.7403 Y279.6694
X206.6174 Y279.6995
X206.5142 Y279.709
X206.3896 Y279.7021
X206.3556 Y279.6967
X206.3152 Y279.6868
X206.2284 Y279.6567
X206.1488 Y279.6181
X206.1097 Y279.5945
X206.0737 Y279.5688
X205.9868 Y279.4917
X205.9574 Y279.4591
X205.9003 Y279.3816
X205.8597 Y279.3091
X205.8385 Y279.2612
X205.8266 Y279.2278
X205.7944 Y279.086
X205.7927 Y279.0716
X205.7922 Y278.9514
X205.8102 Y278.8273
X205.8134 Y278.8148
X205.8695 Y278.6716
X205.8798 Y278.652
X205.9309 Y278.575
X205.9961 Y278.4997
X206.0673 Y278.436
X206.0916 Y278.4185
X206.2198 Y278.3468
X206.255 Y278.3322
X206.3068 Y278.3152
X206.3385 Y278.3075
X206.462 Y278.2918
X206.5649 Y278.2937
X206.6778 Y278.3127
X206.7457 Y278.3336
X206.8223 Y278.3675
X206.9031 Y278.4159
X206.998 Y278.4932
X207.0245 Y278.5206
X207.0954 Y278.6133
X207.1358 Y278.685
X207.1583 Y278.7425
X207.1726 Y278.7894 Z-19.6922
X207.1795 Y278.8379 Z-19.6845
X207.1793 Y278.8821 Z-19.6619
X207.1729 Y278.9259 Z-19.6394
X207.1505 Y278.9923 Z-19.5691
X207.1286 Y279.0317 Z-19.4806
X207.1198 Y279.0445 Z-19.3825
G0 Z5
X300.4694 Y279.1984
Z2.4173
G1 X300.4631 Y279.185 Z2.3213 F1200
X300.4456 Y279.1455 Z2.2343
X300.4206 Y279.0828 Z2.1644
X300.3929 Y279.002 Z2.1182
X300.3675 Y278.91 Z2.1
G17 G3 X300.4515 Y279.1591 Z1.7783 I1.4655 J-0.3559
X300.5776 Y279.3898 Z1.4566 I1.3815 J-0.6049
X300.7417 Y279.5951 Z1.1349 I1.2554 J-0.8357
X300.9391 Y279.7688 Z0.8132 I1.0913 J-1.041
X301.1636 Y279.9056 Z0.4914 I0.8939 J-1.2146
X301.4084 Y280.0013 Z0.1697 I0.6694 J-1.3514
X301.6662 Y280.053 Z-0.152 I0.4246 J-1.4471
X301.929 Y280.0592 Z-0.4737 I0.1668 J-1.4989
X302.1889 Y280.0197 Z-0.7954 I-0.096 J-1.5051
X302.438 Y279.9357 Z-1.1171 I-0.3559 J-1.4655
X302.6687 Y279.8096 Z-1.4388 I-0.6049 J-1.3815
X302.874 Y279.6454 Z-1.7605 I-0.8357 J-1.2555
X302.7379 Y277.3477 Z-2 I-1.041 J-1.0913
X301.1882 Y279.4139 I-0.7749 J1.0331
X301.8091 Y278.586 I0.3105 J-0.4139 F3500
X301.1882 Y279.4139 I-0.3105 J0.4139
G2 X300.138 Y279.3315 I-0.59 J0.7867
G3 X299.4068 Y278.5732 I-0.2565 J-0.4844
G1 X300.3303 Y276.9735
X302.6651
X303.8387 Y278.9999
X302.665 Y281.0265
X300.3303
X299.1604 Y279
X299.4068 Y278.5732
X299.436 Y278.5365
X299.4745 Y278.51
X302.2469 Y277.1519
X302.2881 Y277.1383
X302.3314 Y277.1364
X302.3736 Y277.1463
G3 X302.1209 Y277.0738 Z-2.3217 I-0.5406 J1.4079 F1200
X301.8595 Y277.0463 Z-2.6434 I-0.2879 J1.4804
X301.5972 Y277.0646 Z-2.9651 I-0.0265 J1.5079
X301.3422 Y277.1281 Z-3.2868 I0.2358 J1.4896
X301.102 Y277.235 Z-3.6086 I0.4908 J1.426
X300.884 Y277.382 Z-3.9303 I0.731 J1.3191
X302.7379 Y277.3477 Z-4 I0.949 J1.1721
X301.1882 Y279.4139 I-0.7749 J1.0331
X301.8091 Y278.586 I0.3105 J-0.4139 F3500
X301.1882 Y279.4139 I-0.3105 J0.4139
G2 X300.138 Y279.3315 I-0.59 J0.7867
G3 X299.4068 Y278.5732 I-0.2565 J-0.4844
G1 X300.3303 Y276.9735
X302.6651
X303.8387 Y278.9999
X302.665 Y281.0265
X300.3303
X299.1604 Y279
X299.4068 Y278.5732
X299.4345 Y278.5327 Z-3.9922
X299.4681 Y278.4971 Z-3.9845
X299.5028 Y278.4697 Z-3.9619
X299.541 Y278.4473 Z-3.9394
X299.6069 Y278.4234 Z-3.8691
X299.6513 Y278.4159 Z-3.7806
X299.6668 Y278.4148 Z-3.6825
G0 Z5
X301.5423 Y278.38
Z3
G1 Z-1 F1200
Z-5.6825
X301.5562 Y278.3731 Z-5.7806
X301.5983 Y278.3569 Z-5.8691
X301.6671 Y278.344 Z-5.9394
X301.7114 Y278.3437 Z-5.9619
X301.7552 Y278.3496 Z-5.9845
X301.8023 Y278.3632 Z-5.9922
X301.8467 Y278.3839 Z-6
X301.8991 Y278.4134 F3500
X301.9731 Y278.4694
X301.9988 Y278.4935
X302.0697 Y278.5759
X302.1204 Y278.6526
X302.1397 Y278.6892
X302.1636 Y278.744
X302.1751 Y278.7772
X302.2023 Y278.8999
X302.2094 Y279.0022
X302.2014 Y279.1051
X302.173 Y279.2287
X302.1675 Y279.2445
X302.1023 Y279.3779
X302.0849 Y279.4052
X302.0584 Y279.4401
X301.9722 Y279.5312
X301.9364 Y279.5616
X301.9061 Y279.5833
X301.8 Y279.6426
X301.6758 Y279.6891
X301.6636 Y279.6921
X301.5399 Y279.7081
X301.4367 Y279.7065
X301.3126 Y279.6859
X301.2897 Y279.6794
X301.2 Y279.6443
X301.1445 Y279.6151
X301.0557 Y279.5537
X300.9919 Y279.4962
X300.939 Y279.4352
X300.8858 Y279.3554
X300.8333 Y279.2467
X300.827 Y279.2286
X300.7986 Y279.1051
X300.7906 Y279.0022
X300.7978 Y278.8999
X300.825 Y278.7773
X300.8311 Y278.7595
X300.8834 Y278.649
X300.9455 Y278.555
X300.966 Y278.5301
X301.0006 Y278.4945
X301.0981 Y278.4152
X301.1895 Y278.3605
X301.2303 Y278.3416
X301.2621 Y278.3299
X301.3844 Y278.3003
X301.4877 Y278.291
X301.6123 Y278.2981
X301.6463 Y278.3037
X301.6758 Y278.3109
X301.7989 Y278.357
X301.8467 Y278.3839
X301.8874 Y278.4112 Z-5.9922
X301.9235 Y278.4444 Z-5.9845
X301.9513 Y278.4788 Z-5.9619
X301.974 Y278.5167 Z-5.9394
X301.9987 Y278.5823 Z-5.8691
X302.0067 Y278.6266 Z-5.7806
X302.0079 Y278.6421 Z-5.6825
G0 Z5
X301.9467 Y279.4319
G1 Z-3 F1200
Z-7.6825
X301.943 Y279.4471 Z-7.7806
X301.9283 Y279.4896 Z-7.8691
X301.8938 Y279.5507 Z-7.9394
X301.8655 Y279.5846 Z-7.9619
X301.8328 Y279.6143 Z-7.9845
X301.792 Y279.6416 Z-7.9922
X301.7476 Y279.6622 Z-8
X301.6758 Y279.6891 F3500
X301.6636 Y279.6921
X301.5399 Y279.7081
X301.4367 Y279.7065
X301.3126 Y279.6859
X301.2897 Y279.6794
X301.2 Y279.6443
X301.1445 Y279.6151
X301.0557 Y279.5537
X300.9919 Y279.4962
X300.939 Y279.4352
X300.8858 Y279.3554
X300.8333 Y279.2467
X300.827 Y279.2286
X300.7986 Y279.1051
X300.7906 Y279.0022
X300.7978 Y278.8999
X300.825 Y278.7773
X300.8311 Y278.7595
X300.8834 Y278.649
X300.9455 Y278.555
X300.966 Y278.5301
X301.0006 Y278.4945
X301.0981 Y278.4152
X301.1895 Y278.3605
X301.2303 Y278.3416
X301.2621 Y278.3299
X301.3844 Y278.3003
X301.4877 Y278.291
X301.6123 Y278.2981
X301.6463 Y278.3037
X301.6758 Y278.3109
X301.7989 Y278.357
X301.8991 Y278.4134
X301.9731 Y278.4694
X301.9988 Y278.4935
X302.0697 Y278.5759
X302.1204 Y278.6526
X302.1397 Y278.6892
X302.1636 Y278.744
X302.1751 Y278.7772
X302.2023 Y278.8999
X302.2094 Y279.0022
X302.2014 Y279.1051
X302.173 Y279.2287
X302.1675 Y279.2445
X302.1023 Y279.3779
X302.0849 Y279.4052
X302.0584 Y279.4401
X301.9722 Y279.5312
X301.9364 Y279.5616
X301.9061 Y279.5833
X301.8 Y279.6426
X301.7476 Y279.6622
X301.7005 Y279.6758 Z-7.9922
X301.6519 Y279.682 Z-7.9845
X301.6077 Y279.6811 Z-7.9619
X301.564 Y279.674 Z-7.9394
X301.4979 Y279.6506 Z-7.8691
X301.4589 Y279.6281 Z-7.7806
X301.4462 Y279.6191 Z-7.6825
G0 Z5
X301.9467 Y279.4319
G1 Z-5 F1200
Z-9.6825
X301.943 Y279.4471 Z-9.7806
X301.9283 Y279.4896 Z-9.8691
X301.8938 Y279.5507 Z-9.9394
X301.8655 Y279.5846 Z-9.9619
X301.8328 Y279.6143 Z-9.9845
X301.792 Y279.6416 Z-9.9922
X301.7476 Y279.6622 Z-10
X301.6758 Y279.6891 F3500
X301.6636 Y279.6921
X301.5399 Y279.7081
X301.4367 Y279.7065
X301.3126 Y279.6859
X301.2897 Y279.6794
X301.2 Y279.6443
X301.1445 Y279.6151
X301.0557 Y279.5537
X300.9919 Y279.4962
X300.939 Y279.4352
X300.8858 Y279.3554
X300.8333 Y279.2467
X300.827 Y279.2286
X300.7986 Y279.1051
X300.7906 Y279.0022
X300.7978 Y278.8999
X300.825 Y278.7773
X300.8311 Y278.7595
X300.8834 Y278.649
X300.9455 Y278.555
X300.966 Y278.5301
X301.0006 Y278.4945
X301.0981 Y278.4152
X301.1895 Y278.3605
X301.2303 Y278.3416
X301.2621 Y278.3299
X301.3844 Y278.3003
X301.4877 Y278.291
X301.6123 Y278.2981
X301.6463 Y278.3037
X301.6758 Y278.3109
X301.7989 Y278.357
X301.8991 Y278.4134
X301.9731 Y278.4694
X301.9988 Y278.4935
X302.0697 Y278.5759
X302.1204 Y278.6526
X302.1397 Y278.6892
X302.1636 Y278.744
X302.1751 Y278.7772
X302.2023 Y278.8999
X302.2094 Y279.0022
X302.2014 Y279.1051
X302.173 Y279.2287
X302.1675 Y279.2445
X302.1023 Y279.3779
X302.0849 Y279.4052
X302.0584 Y279.4401
X301.9722 Y279.5312
X301.9364 Y279.5616
X301.9061 Y279.5833
X301.8 Y279.6426
X301.7476 Y279.6622
X301.7005 Y279.6758 Z-9.9922
X301.6519 Y279.682 Z-9.9845
X301.6077 Y279.6811 Z-9.9619
X301.564 Y279.674 Z-9.9394
X301.4979 Y279.6506 Z-9.8691
X301.4589 Y279.6281 Z-9.7806
X301.4462 Y279.6191 Z-9.6825
G0 Z5
X301.0128 Y279.3859
G1 Z-7 F1200
Z-11.6825
X300.9984 Y279.3803 Z-11.7806
X300.9581 Y279.3601 Z-11.8691
X300.9021 Y279.3178 Z-11.9394
X300.8722 Y279.2853 Z-11.9619
X300.8471 Y279.2489 Z-11.9845
X300.8254 Y279.205 Z-11.9922
X300.8108 Y279.1582 Z-12
X300.7986 Y279.1051 F3500
X300.7906 Y279.0022
X300.7978 Y278.8999
X300.825 Y278.7773
X300.8311 Y278.7595
X300.8834 Y278.649
X300.9455 Y278.555
X300.966 Y278.5301
X301.0006 Y278.4945
X301.0981 Y278.4152
X301.1895 Y278.3605
X301.2303 Y278.3416
X301.2621 Y278.3299
X301.3844 Y278.3003
X301.4877 Y278.291
X301.6123 Y278.2981
X301.6463 Y278.3037
X301.6758 Y278.3109
X301.7989 Y278.357
X301.8991 Y278.4134
X301.9731 Y278.4694
X301.9988 Y278.4935
X302.0697 Y278.5759
X302.1204 Y278.6526
X302.1397 Y278.6892
X302.1636 Y278.744
X302.1751 Y278.7772
X302.2023 Y278.8999
X302.2094 Y279.0022
X302.2014 Y279.1051
X302.173 Y279.2287
X302.1675 Y279.2445
X302.1023 Y279.3779
X302.0849 Y279.4052
X302.0584 Y279.4401
X301.9722 Y279.5312
X301.9364 Y279.5616
X301.9061 Y279.5833
X301.8 Y279.6426
X301.6758 Y279.6891
X301.6636 Y279.6921
X301.5399 Y279.7081
X301.4367 Y279.7065
X301.3126 Y279.6859
X301.2897 Y279.6794
X301.2 Y279.6443
X301.1445 Y279.6151
X301.0557 Y279.5537
X300.9919 Y279.4962
X300.939 Y279.4352
X300.8858 Y279.3554
X300.8333 Y279.2467
X300.827 Y279.2286
X300.8108 Y279.1582
X300.8036 Y279.1097 Z-11.9922
X300.8039 Y279.0607 Z-11.9845
X300.8106 Y279.017 Z-11.9619
X300.8234 Y278.9747 Z-11.9394
X300.8553 Y278.9123 Z-11.8691
X300.8827 Y278.8765 Z-11.7806
X300.8933 Y278.8651 Z-11.6825
G0 Z5
X301.0128 Y279.3859
G1 Z-9 F1200
Z-13.6825
X300.9984 Y279.3803 Z-13.7806
X300.9581 Y279.3601 Z-13.8691
X300.9021 Y279.3178 Z-13.9394
X300.8722 Y279.2853 Z-13.9619
X300.8471 Y279.2489 Z-13.9845
X300.8254 Y279.205 Z-13.9922
X300.8108 Y279.1582 Z-14
X300.7986 Y279.1051 F3500
X300.7906 Y279.0022
X300.7978 Y278.8999
X300.825 Y278.7773
X300.8311 Y278.7595
X300.8834 Y278.649
X300.9455 Y278.555
X300.966 Y278.5301
X301.0006 Y278.4945
X301.0981 Y278.4152
X301.1895 Y278.3605
X301.2303 Y278.3416
X301.2621 Y278.3299
X301.3844 Y278.3003
X301.4877 Y278.291
X301.6123 Y278.2981
X301.6463 Y278.3037
X301.6758 Y278.3109
X301.7989 Y278.357
X301.8991 Y278.4134
X301.9731 Y278.4694
X301.9988 Y278.4935
X302.0697 Y278.5759
X302.1204 Y278.6526
X302.1397 Y278.6892
X302.1636 Y278.744
X302.1751 Y278.7772
X302.2023 Y278.8999
X302.2094 Y279.0022
X302.2014 Y279.1051
X302.173 Y279.2287
X302.1675 Y279.2445
X302.1023 Y279.3779
X302.0849 Y279.4052
X302.0584 Y279.4401
X301.9722 Y279.5312
X301.9364 Y279.5616
X301.9061 Y279.5833
X301.8 Y279.6426
X301.6758 Y279.6891
X301.6636 Y279.6921
X301.5399 Y279.7081
X301.4367 Y279.7065
X301.3126 Y279.6859
X301.2897 Y279.6794
X301.2 Y279.6443
X301.1445 Y279.6151
X301.0557 Y279.5537
X300.9919 Y279.4962
X300.939 Y279.4352
X300.8858 Y279.3554
X300.8333 Y279.2467
X300.827 Y279.2286
X300.8108 Y279.1582
X300.8036 Y279.1097 Z-13.9922
X300.8039 Y279.0607 Z-13.9845
X300.8106 Y279.017 Z-13.9619
X300.8234 Y278.9747 Z-13.9394
X300.8553 Y278.9123 Z-13.8691
X300.8827 Y278.8765 Z-13.7806
X300.8933 Y278.8651 Z-13.6825
G0 Z5
X301.9467 Y279.4319
G1 Z-11 F1200
Z-15.6825
X301.943 Y279.4471 Z-15.7806
X301.9283 Y279.4896 Z-15.8691
X301.8938 Y279.5507 Z-15.9394
X301.8655 Y279.5846 Z-15.9619
X301.8328 Y279.6143 Z-15.9845
X301.792 Y279.6416 Z-15.9922
X301.7476 Y279.6622 Z-16
X301.6758 Y279.6891 F3500
X301.6636 Y279.6921
X301.5399 Y279.7081
X301.4367 Y279.7065
X301.3126 Y279.6859
X301.2897 Y279.6794
X301.2 Y279.6443
X301.1445 Y279.6151
X301.0557 Y279.5537
X300.9919 Y279.4962
X300.939 Y279.4352
X300.8858 Y279.3554
X300.8333 Y279.2467
X300.827 Y279.2286
X300.7986 Y279.1051
X300.7906 Y279.0022
X300.7978 Y278.8999
X300.825 Y278.7773
X300.8311 Y278.7595
X300.8834 Y278.649
X300.9455 Y278.555
X300.966 Y278.5301
X301.0006 Y278.4945
X301.0981 Y278.4152
X301.1895 Y278.3605
X301.2303 Y278.3416
X301.2621 Y278.3299
X301.3844 Y278.3003
X301.4877 Y278.291
X301.6123 Y278.2981
X301.6463 Y278.3037
X301.6758 Y278.3109
X301.7989 Y278.357
X301.8991 Y278.4134
X301.9731 Y278.4694
X301.9988 Y278.4935
X302.0697 Y278.5759
X302.1204 Y278.6526
X302.1397 Y278.6892
X302.1636 Y278.744
X302.1751 Y278.7772
X302.2023 Y278.8999
X302.2094 Y279.0022
X302.2014 Y279.1051
X302.173 Y279.2287
X302.1675 Y279.2445
X302.1023 Y279.3779
X302.0849 Y279.4052
X302.0584 Y279.4401
X301.9722 Y279.5312
X301.9364 Y279.5616
X301.9061 Y279.5833
X301.8 Y279.6426
X301.7476 Y279.6622
X301.7005 Y279.6758 Z-15.9922
X301.6519 Y279.682 Z-15.9845
X301.6077 Y279.6811 Z-15.9619
X301.564 Y279.674 Z-15.9394
X301.4979 Y279.6506 Z-15.8691
X301.4589 Y279.6281 Z-15.7806
X301.4462 Y279.6191 Z-15.6825
G0 Z5
X301.9467 Y279.4319
G1 Z-13 F1200
Z-17.6825
X301.943 Y279.4471 Z-17.7806
X301.9283 Y279.4896 Z-17.8691
X301.8938 Y279.5507 Z-17.9394
X301.8655 Y279.5846 Z-17.9619
X301.8328 Y279.6143 Z-17.9845
X301.792 Y279.6416 Z-17.9922
X301.7476 Y279.6622 Z-18
X301.6758 Y279.6891 F3500
X301.6636 Y279.6921
X301.5399 Y279.7081
X301.4367 Y279.7065
X301.3126 Y279.6859
X301.2897 Y279.6794
X301.2 Y279.6443
X301.1445 Y279.6151
X301.0557 Y279.5537
X300.9919 Y279.4962
X300.939 Y279.4352
X300.8858 Y279.3554
X300.8333 Y279.2467
X300.827 Y279.2286
X300.7986 Y279.1051
X300.7906 Y279.0022
X300.7978 Y278.8999
X300.825 Y278.7773
X300.8311 Y278.7595
X300.8834 Y278.649
X300.9455 Y278.555
X300.966 Y278.5301
X301.0006 Y278.4945
X301.0981 Y278.4152
X301.1895 Y278.3605
X301.2303 Y278.3416
X301.2621 Y278.3299
X301.3844 Y278.3003
X301.4877 Y278.291
X301.6123 Y278.2981
X301.6463 Y278.3037
X301.6758 Y278.3109
X301.7989 Y278.357
X301.8991 Y278.4134
X301.9731 Y278.4694
X301.9988 Y278.4935
X302.0697 Y278.5759
X302.1204 Y278.6526
X302.1397 Y278.6892
X302.1636 Y278.744
X302.1751 Y278.7772
X302.2023 Y278.8999
X302.2094 Y279.0022
X302.2014 Y279.1051
X302.173 Y279.2287
X302.1675 Y279.2445
X302.1023 Y279.3779
X302.0849 Y279.4052
X302.0584 Y279.4401
X301.9722 Y279.5312
X301.9364 Y279.5616
X301.9061 Y279.5833
X301.8 Y279.6426
X301.7476 Y279.6622
X301.7005 Y279.6758 Z-17.9922
X301.6519 Y279.682 Z-17.9845
X301.6077 Y279.6811 Z-17.9619
X301.564 Y279.674 Z-17.9394
X301.4979 Y279.6506 Z-17.8691
X301.4589 Y279.6281 Z-17.7806
X301.4462 Y279.6191 Z-17.6825
G0 Z5
X301.9467 Y279.4319
G1 Z-15 F1200
Z-19.3825
X301.943 Y279.4471 Z-19.4806
X301.9283 Y279.4896 Z-19.5691
X301.8938 Y279.5507 Z-19.6394
X301.8655 Y279.5846 Z-19.6619
X301.8328 Y279.6143 Z-19.6845
X301.792 Y279.6416 Z-19.6922
X301.7476 Y279.6622 Z-19.7
X301.6758 Y279.6891 F3500
X301.6636 Y279.6921
X301.5399 Y279.7081
X301.4367 Y279.7065
X301.3126 Y279.6859
X301.2897 Y279.6794
X301.2 Y279.6443
X301.1445 Y279.6151
X301.0557 Y279.5537
X300.9919 Y279.4962
X300.939 Y279.4352
X300.8858 Y279.3554
X300.8333 Y279.2467
X300.827 Y279.2286
X300.7986 Y279.1051
X300.7906 Y279.0022
X300.7978 Y278.8999
X300.825 Y278.7773
X300.8311 Y278.7595
X300.8834 Y278.649
X300.9455 Y278.555
X300.966 Y278.5301
X301.0006 Y278.4945
X301.0981 Y278.4152
X301.1895 Y278.3605
X301.2303 Y278.3416
X301.2621 Y278.3299
X301.3844 Y278.3003
X301.4877 Y278.291
X301.6123 Y278.2981
X301.6463 Y278.3037
X301.6758 Y278.3109
X301.7989 Y278.357
X301.8991 Y278.4134
X301.9731 Y278.4694
X301.9988 Y278.4935
X302.0697 Y278.5759
X302.1204 Y278.6526
X302.1397 Y278.6892
X302.1636 Y278.744
X302.1751 Y278.7772
X302.2023 Y278.8999
X302.2094 Y279.0022
X302.2014 Y279.1051
X302.173 Y279.2287
X302.1675 Y279.2445
X302.1023 Y279.3779
X302.0849 Y279.4052
X302.0584 Y279.4401
X301.9722 Y279.5312
X301.9364 Y279.5616
X301.9061 Y279.5833
X301.8 Y279.6426
X301.7476 Y279.6622
X301.7005 Y279.6758 Z-19.6922
X301.6519 Y279.682 Z-19.6845
X301.6077 Y279.6811 Z-19.6619
X301.564 Y279.674 Z-19.6394
X301.4979 Y279.6506 Z-19.5691
X301.4589 Y279.6281 Z-19.4806
X301.4462 Y279.6191 Z-19.3825
G0 Z5
X334.6291 Y270.2484
Z2.4173
G1 X334.6221 Y270.2615 Z2.3213 F1200
X334.601 Y270.2992 Z2.2343
X334.5659 Y270.3568 Z2.1644
X334.5178 Y270.4275 Z2.1182
X334.4595 Y270.503 Z2.1
G3 X334.2003 Y270.7505 Z2.0875 I-1.1639 J-0.959
X334.3961 Y270.5751 Z1.7657 I-0.9048 J-1.2066
X334.5584 Y270.3683 Z1.444 I-1.1005 J-1.0312
X334.6824 Y270.1365 Z1.1223 I-1.2629 J-0.8244
X334.7642 Y269.8867 Z0.8006 I-1.3868 J-0.5926
X334.8014 Y269.6265 Z0.4789 I-1.4687 J-0.3427
X334.7929 Y269.3637 Z0.1572 I-1.5059 J-0.0825
X334.7388 Y269.1064 Z-0.1645 I-1.4973 J0.1802
X334.6409 Y268.8625 Z-0.4862 I-1.4433 J0.4375
X334.5022 Y268.6392 Z-0.8079 I-1.3454 J0.6815
X334.3267 Y268.4434 Z-1.1297 I-1.2066 J0.9047
X334.1199 Y268.2811 Z-1.4514 I-1.0312 J1.1005
X333.8881 Y268.1571 Z-1.7731 I-0.8244 J1.2629
X331.7874 Y269.5438 Z-2 I-0.5926 J1.3868
G1 X331.7886 Y257.2253 F3500
G3 X332.2741 Y256.552 I0.7096 J0.0001
G1 X332.4131 Y256.5052
G3 X333.2947 Y257.1363 I0.2149 J0.6311
G1 X333.2946 Y269.5878
G3 X332.5849 Y270.2975 I-0.7097
G1 X332.4971
G3 X331.7874 Y269.5877 J-0.7097
G1 Y269.5438
G2 X330.7296 Y267.9568 I-1.7191 J-0.0002
G3 X329.6719 Y266.3698 I0.6613 J-1.5868
G1 X329.6728 Y256.3979
G3 X330.9055 Y254.7614 I1.7028 J0.0002
G2 X332.7781 Y254.1201 I-5.4336 J-18.9191
X334.5719 Y253.2832 I-6.5334 J-16.3443
G3 X335.4106 Y253.7848 I0.2693 J0.5016
G1 X335.4104 Y271.45
G3 X334.4471 Y272.4133 I-0.9633
G1 X330.6345
G3 X329.6714 Y271.4501 J-0.9631
G1 X329.6719 Y266.3698
G2 X328.6706 Y264.8676 I-1.6274 J-0.0002
G3 X327.6692 Y263.3653 I0.626 J-1.5021
G1 X327.67 Y255.5365
G3 X328.6771 Y253.5732 I2.4175 J0.0002
G2 X328.9349 Y253.384 I-9.1171 J-12.6924
G3 X329.7584 Y252.9944 I1.365 J1.8205
G2 X331.8636 Y252.3823 I-6.1248 J-24.993
X333.873 Y251.5052 I-4.0807 J-12.0886
X335.3063 Y250.5598 I-4.7972 J-8.8315
X336.6338 Y249.4706 I-28.8695 J-36.5403
G3 X337.4135 Y249.8308 I0.3067 J0.3601
G1 X337.4133 Y273.4529
G3 X336.45 Y274.4162 I-0.9633
G1 X328.6314
G3 X327.6683 Y273.453 J-0.9631
G1 X327.6692 Y263.3653
G2 X326.7468 Y261.9813 I-1.4992 J-0.0002
G3 X325.8243 Y260.5974 I0.5768 J-1.3839
G1 X325.8249 Y254.3905
G3 X326.8254 Y252.5926 I2.1161 J0.0002
G2 X327.836 Y251.9016 I-7.2655 J-11.7117
G3 X329.3094 Y251.2047 I2.4361 J3.244
G2 X333.2906 Y249.645 I-3.8039 J-15.5713
X336.6714 Y247.0271 I-6.8683 J-12.3616
X337.6953 Y245.7336 I-6.6119 J-6.2858
X338.5682 Y244.3338 I-32.1466 J-21.0179
G3 X339.2588 Y244.5235 I0.3192 J0.1897
G1 X339.2585 Y275.2981
G3 X338.2952 Y276.2614 I-0.9633
G1 X326.7861
G3 X325.823 Y275.2982 J-0.9631
G1 X325.8243 Y260.5974
X325.8281 Y260.5485 Z-1.9922
X325.8394 Y260.5008 Z-1.9845
X325.8557 Y260.4597 Z-1.9619
X325.8776 Y260.4213 Z-1.9394
X325.9227 Y260.3676 Z-1.8691
X325.9574 Y260.3389 Z-1.7806
X325.9703 Y260.3302 Z-1.6825
G0 Z5
X335.2411 Y13.7811
Z2.4173
G1 X335.2481 Y13.768 Z2.3213 F1200
X335.2692 Y13.7303 Z2.2343
X335.3043 Y13.6727 Z2.1644
X335.3524 Y13.602 Z2.1182
X335.4107 Y13.5265 Z2.1
G3 X335.2619 Y13.7432 Z1.7783 I1.164 J0.9589
X335.1529 Y13.9825 Z1.4566 I1.3128 J0.7422
X335.0872 Y14.237 Z1.1349 I1.4218 J0.503
X335.0666 Y14.4991 Z0.8132 I1.4875 J0.2485
X335.0919 Y14.7607 Z0.4914 I1.5081 J-0.0136
X335.1623 Y15.014 Z0.1697 I1.4828 J-0.2753
X335.2755 Y15.2513 Z-0.152 I1.4125 J-0.5286
X335.4282 Y15.4653 Z-0.4737 I1.2992 J-0.7658
X335.6158 Y15.6494 Z-0.7954 I1.1465 J-0.9798
X335.8325 Y15.7983 Z-1.1171 I0.9589 J-1.164
X336.0717 Y15.9072 Z-1.4388 I0.7422 J-1.3128
X336.3263 Y15.973 Z-1.7605 I0.503 J-1.4218
X338.0828 Y14.4855 Z-2 I0.2484 J-1.4875
G1 Y14.8018 F3500
G3 X337.3304 Y15.1034 I-0.4366
G2 X336.9035 Y14.6741 I-10.82 J10.3319
G3 X337.2081 Y13.9201 I0.3046 J-0.3154
G1 X337.5544
G3 X338.0828 Y14.4486 J0.5285
G1 Y14.4855
G2 X338.672 Y15.3693 I0.9574
G3 X339.2612 Y16.253 I-0.3683 J0.8838
G1 Y18.4812
G3 X338.5704 Y18.6711 I-0.3715
G2 X336.2833 Y15.7194 I-13.1124 J7.7982
X333.3327 Y13.4308 I-10.2825 J10.2109
G3 X333.5199 Y12.7418 I0.1872 J-0.3191
G1 X338.298
G3 X339.2612 Y13.705 J0.9632
G1 Y16.253
X339.2574 Y16.3019 Z-1.9922
X339.2462 Y16.3496 Z-1.9845
X339.2298 Y16.3907 Z-1.9619
X339.2079 Y16.4291 Z-1.9394
X339.1628 Y16.4828 Z-1.8691
X339.1281 Y16.5115 Z-1.7806
X339.1152 Y16.5202 Z-1.6825
G0 Z5
X13.3759 Y12.3733
Z2.4173
G1 X13.3901 Y12.369 Z2.3213 F1200
X13.4317 Y12.3574 Z2.2343
X13.4973 Y12.3416 Z2.1644
X13.5813 Y12.3258 Z2.1182
X13.6759 Y12.3138 Z2.1
G3 X13.4174 Y12.3613 Z1.7783 I0.1419 J1.5014
X13.171 Y12.4529 Z1.4566 I0.4005 J1.454
X12.9442 Y12.5859 Z1.1349 I0.6469 J1.3624
X12.744 Y12.7563 Z0.8132 I0.8736 J1.2293
X12.5765 Y12.9588 Z0.4914 I1.0738 J1.059
X12.4466 Y13.1874 Z0.1697 I1.2414 J0.8564
X12.3584 Y13.4351 Z-0.152 I1.3712 J0.6278
X12.3146 Y13.6943 Z-0.4737 I1.4594 J0.3802
X12.3164 Y13.9572 Z-0.7954 I1.5033 J0.121
X12.3638 Y14.2157 Z-1.1171 I1.5014 J-0.1419
X12.4555 Y14.4621 Z-1.4388 I1.454 J-0.4005
X12.5885 Y14.6889 Z-1.7605 I1.3624 J-0.6469
X14.882 Y14.8839 Z-2 I1.2293 J-0.8736
G2 X14.6747 Y15.0945 I10.5573 J10.6014 F3500
G3 X13.9208 Y14.79 I-0.3154 J-0.3045
G1 Y14.4495
G3 X14.4493 Y13.921 I0.5285
G1 X14.7954
G3 X15.0974 Y14.6737 J0.4369
G2 X14.882 Y14.8839 I10.342 J10.8116
X14.6827 Y15.9053 I0.6553 J0.658
G3 X14.5405 Y16.9362 I-0.9328 J0.3966
G2 X13.9586 Y17.7714 I5.8775 J4.7156
X13.4348 Y18.6554 I72.1367 J43.3344
G3 X12.7461 Y18.469 I-0.3191 J-0.1865
G1 Y13.7095
G3 X13.7094 Y12.7463 I0.9633
G1 X18.4658
G3 X18.6528 Y13.4387 J0.3715
G2 X16.4395 Y14.9953 I7.9602 J13.6704
X14.5466 Y16.9286 I8.9459 J10.6523
G1 X14.5405 Y16.9362
X14.507 Y16.9719 Z-1.9922
X14.4683 Y17.002 Z-1.9845
X14.4299 Y17.0238 Z-1.9619
X14.3887 Y17.0401 Z-1.9394
X14.32 Y17.0537 Z-1.8691
X14.2749 Y17.0543 Z-1.7806
X14.2594 Y17.053 Z-1.6825
G0 Z5
X21.5462 Y270.2453
Z2.4173
G1 X21.5391 Y270.2584 Z2.3213 F1200
X21.5181 Y270.2961 Z2.2343
X21.483 Y270.3537 Z2.1644
X21.4349 Y270.4244 Z2.1182
X21.3766 Y270.4999 Z2.1
G3 X21.5254 Y270.2832 Z1.7783 I-1.164 J-0.9589
X21.6344 Y270.0439 Z1.4566 I-1.3128 J-0.7422
X21.7001 Y269.7894 Z1.1349 I-1.4218 J-0.503
X21.7207 Y269.5273 Z0.8132 I-1.4875 J-0.2484
X21.6954 Y269.2657 Z0.4914 I-1.5081 J0.0136
X21.625 Y269.0124 Z0.1697 I-1.4828 J0.2753
X21.5118 Y268.7751 Z-0.152 I-1.4125 J0.5286
X21.3591 Y268.5611 Z-0.4737 I-1.2992 J0.7658
X21.1715 Y268.3769 Z-0.7954 I-1.1465 J0.9798
X20.9548 Y268.2281 Z-1.1171 I-0.9589 J1.164
X20.7156 Y268.1192 Z-1.4388 I-0.7422 J1.3128
X20.461 Y268.0534 Z-1.7605 I-0.503 J1.4218
X18.7045 Y269.541 Z-2 I-0.2484 J1.4875
G1 X18.7046 Y257.1375 F3500
G3 X19.5801 Y256.5091 I0.6633
G1 X19.7221 Y256.5564
G3 X20.2099 Y257.2304 I-0.2219 J0.6741
G1 X20.211 Y269.5845
G3 X19.5013 Y270.2942 I-0.7096 J0.0001
G1 X19.414
G3 X18.7045 Y269.5846 I0.0001 J-0.7097
G1 Y269.541
G2 X17.6479 Y267.956 I-1.717
G3 X16.5913 Y266.3711 I0.6604 J-1.5849
G1 X16.5914 Y253.792
G3 X17.427 Y253.2899 I0.5687
G2 X21.0849 Y254.7642 I8.7917 J-16.5379
G3 X22.323 Y256.4022 I-0.4647 J1.6381
G1 X22.3244 Y271.4445
G3 X21.3613 Y272.4076 I-0.963 J0.0001
G1 X17.5545 Y272.4073
G3 X16.5912 Y271.444 I0.0001 J-0.9633
G1 X16.5913 Y266.3711
G2 X15.5906 Y264.8701 I-1.626
G3 X14.59 Y263.3691 I0.6254 J-1.5009
G1 X14.5902 Y249.8355
G3 X15.3686 Y249.4785 I0.4711
G2 X22.2283 Y252.9956 I10.709 J-12.4387
G3 X23.0588 Y253.3866 I-0.534 J2.2118
G2 X23.3171 Y253.5762 I9.8623 J-13.1609
G3 X24.3242 Y255.54 I-1.4113 J1.964
G1 X24.3259 Y273.4459
G3 X23.3627 Y274.409 I-0.963 J0.0001
G1 X15.5532 Y274.4084
G3 X14.5899 Y273.4451 I0.0001 J-0.9633
G1 X14.59 Y263.3691
G2 X13.6658 Y261.9828 I-1.5018
G3 X12.7417 Y260.5966 I0.5776 J-1.3863
G1 X12.7419 Y244.5258
G3 X13.431 Y244.3385 I0.3701
G2 X22.6724 Y251.2013 I12.7127 J-7.4651
G3 X24.1562 Y251.8992 I-0.949 J3.9443
G2 X25.1719 Y252.5941 I8.5671 J-11.4326
G3 X26.1725 Y254.3923 I-1.1159 J1.7984
G1 X26.1744 Y275.2944
G3 X25.2113 Y276.2575 I-0.963 J0.0001
G1 X13.7048 Y276.2566
G3 X12.7415 Y275.2933 I0.0001 J-0.9633
G1 X12.7417 Y260.5966
G2 X11.941 Y259.3955 I-1.3011
G3 X11.1403 Y258.1945 I0.5005 J-1.201
G1 X11.1429 Y12.1063
G3 X12.1062 Y11.1431 I0.9633
G1 X339.8967
G3 X340.8599 Y12.1063 J0.9632
G1 X340.8571 Y276.8968
G3 X339.8939 Y277.8601 I-0.9633
G1 X325.1873
G3 X324.2241 Y276.8969 J-0.9631
G1 X324.2263 Y253.3318
G3 X325.2162 Y251.6732 I1.8848 J0.0002
G2 X326.0802 Y251.17 I-7.2789 J-13.4928
X326.9034 Y250.6026 I-6.1071 J-9.7422
G3 X328.8967 Y249.6597 I3.2633 J4.3202
G2 X334.4774 Y246.8523 I-3.2234 J-13.3579
X338.1791 Y241.8202 I-8.3793 J-10.0416
X338.9511 Y239.0279 I-10.8792 J-4.5111
X339.1631 Y236.1387 I-19.5825 J-2.8888
G1 X339.1584 Y26.1007
G2 X335.8084 Y17.3513 I-13.1015 J0.0003
X327.5355 Y12.9543 I-10.1411 J9.0993
G1 X26.1537 Y12.838
G2 X17.322 Y16.2287 J13.1973
X12.936 Y24.6107 I9.0928 J10.0965
G1 X12.8393 Y56.0704
G2 X13.1153 Y58.355 I9.5978 J-0.0006
X13.7874 Y60.5558 I19.9661 J-4.8944
G3 X13.7854 Y61.44 I-1.1951 J0.4395
G2 X13.029 Y64.5522 I12.7036 J4.7355
X12.837 Y67.7493 I26.507 J3.1969
G1 X12.9784 Y238.71
G2 X16.3351 Y245.7456 I12.6991 J-1.7403
X23.0808 Y249.6525 I9.8787 J-9.2798
G3 X25.076 Y250.5873 I-1.2515 J5.2675
G2 X25.9098 Y251.1619 I7.6543 J-10.2145
X26.7839 Y251.6732 I7.8403 J-12.4021
G3 X27.7738 Y253.3318 I-0.8949 J1.6588
G1 X27.7759 Y276.896
G3 X26.8128 Y277.8591 I-0.963 J0.0001
G1 X12.1034 Y277.8579
G3 X11.1401 Y276.8946 I0.0001 J-0.9633
G1 X11.1403 Y258.1945
G2 X10.1958 Y256.7777 I-1.5348
G3 X9.2514 Y255.361 I0.5903 J-1.4167
G1 X9.254 Y10.2174
G3 X10.2172 Y9.2541 I0.9633
G1 X341.7857
G3 X342.7489 Y10.2174 J0.9632
G1 X342.7461 Y278.7858
G3 X341.7828 Y279.749 I-0.9633
G1 X323.2981 Y279.7491
G3 X322.335 Y278.7859 J-0.9631
G1 X322.3374 Y251.9402
G3 X323.3168 Y250.4837 I1.573 J0.0002
G2 X325.7726 Y249.0895 I-4.1312 J-10.1371
G3 X328.4442 Y247.8257 I4.3596 J5.7602
G2 X333.2464 Y245.4197 I-2.7688 J-11.5215
X336.4342 Y241.0966 I-7.1513 J-8.6101
X337.0985 Y238.6591 I-9.2147 J-3.8209
X337.2741 Y236.1387 I-17.9966 J-2.52
G1 X337.2694 Y26.1007
G2 X334.3841 Y18.5921 I-11.2134 J0.0003
X327.2765 Y14.8254 I-8.7169 J7.8595
G1 X26.1537 Y14.7269
G2 X18.5706 Y17.6461 J11.3088
X14.8099 Y24.849 I7.8447 J8.6791
G1 X14.7405 Y56.0703
G2 X14.9871 Y58.0455 I8.0357 J-0.0005
X15.5761 Y59.9468 I18.5622 J-4.7082
G3 X15.5678 Y62.0669 I-2.8521 J1.0489
G2 X14.8903 Y64.87 I10.9902 J4.1397
X14.7259 Y67.7493 I25.1344 J2.8791
G1 X14.8499 Y238.4535
G2 X17.7372 Y244.4799 I10.8307 J-1.4842
X23.5269 Y247.8169 I8.4752 J-8.0136
G3 X26.1956 Y249.0658 I-1.6633 J7.0298
G2 X27.394 Y249.8545 I7.0535 J-9.4127
X28.6833 Y250.4837 I5.3307 J-9.2876
G3 X29.6626 Y251.9402 I-0.5936 J1.4567
G1 X29.6651 Y278.7851
G3 X28.702 Y279.7482 I-0.963 J0.0001
G1 X10.2144 Y279.7467
G3 X9.2511 Y278.7834 I0.0001 J-0.9633
G1 X9.2514 Y255.361
G2 X8.0811 Y253.6055 I-1.9017
G3 X6.9108 Y251.8501 I0.7314 J-1.7554
G1 X6.9134 Y7.8768
G3 X7.8767 Y6.9136 I0.9633
G1 X344.1263
G3 X345.0895 Y7.8768 J0.9632
G1 X345.0866 Y281.1263
G3 X344.1234 Y282.0896 I-0.9633
G1 X320.9573 Y282.0897
G3 X319.9942 Y281.1265 J-0.9631
G1 X319.997 Y249.9638
G3 X320.9452 Y248.7849 I1.207 J0.0001
G2 X323.0307 Y248.0412 I-1.8838 J-8.5786
X324.874 Y246.8144 I-4.2387 J-8.3666
G3 X327.3515 Y245.6611 I3.3234 J3.9014
G2 X331.5177 Y243.8252 I-1.523 J-9.1011
X334.2721 Y240.2001 I-5.5279 J-7.0593
X334.803 Y238.2021 I-7.1819 J-2.978
X334.9336 Y236.1388 I-16.2376 J-2.0629
G1 X334.9289 Y26.1008
G2 X332.6192 Y20.1295 I-8.8745 J0.0002
X326.9555 Y17.1439 I-6.9524 J6.324
G1 X26.1537 Y17.0675
G2 X20.1177 Y19.4025 J8.9692
X17.1317 Y25.1444 I6.2986 J6.9229
G1 X17.0768 Y56.0702
G2 X17.3832 Y58.1084 I6.9352 J-0.0004
X18.1509 Y60.0212 I11.8391 J-3.641
G3 X18.1555 Y61.9706 I-1.9523 J0.9794
G2 X17.2771 Y64.797 I8.3815 J4.1546
X17.0665 Y67.7492 I20.5819 J2.9521
G1 X17.1687 Y238.1357
G2 X19.7089 Y243.1297 I8.4581 J-1.1591
X24.7027 Y245.6701 I6.6721 J-6.9372
G3 X27.131 Y246.8201 I-0.8877 J5.013
G2 X31.0549 Y248.7849 I5.8892 J-6.8606
G3 X32.003 Y249.9638 I-0.2589 J1.1789
G1 X32.0058 Y281.1258
G3 X31.0427 Y282.089 I-0.963 J0.0001
G1 X7.8738 Y282.0871
G3 X6.9105 Y281.1238 I0.0001 J-0.9633
G1 X6.9108 Y251.8501
G2 X5.7406 Y250.0947 I-1.9017
G3 X4.5703 Y248.3392 I0.7314 J-1.7554
G1 X4.5729 Y5.5362
G3 X5.5361 Y4.573 I0.9633
G1 X346.4669
G3 X347.4301 Y5.5362 J0.9632
G1 X347.4272 Y283.4669
G3 X346.4639 Y284.4301 I-0.9633
G1 X318.6166 Y284.4302
G3 X317.6534 Y283.467 J-0.9631
G1 X317.6567 Y247.6197
G3 X318.6201 Y246.6563 I0.9635 J0.0001
G2 X320.4243 Y246.5246 I-0.0019 J-12.4559
X322.1409 Y245.9541 I-0.7517 J-5.1293
X323.1471 Y245.2443 I-2.4876 J-4.5943
X324.0164 Y244.3723 I-7.5691 J-8.4156
G3 X325.9969 Y243.4542 I2.0544 J1.8366
G2 X330.1809 Y241.8815 I-0.1836 J-6.8404
X332.474 Y238.0447 I-4.2793 J-5.1612
X332.5809 Y237.0947 I-5.4067 J-1.0895
X332.593 Y236.1388 I-37.7439 J-0.9551
G1 X332.5883 Y26.1008
G2 X330.8544 Y21.6669 I-6.5367 J0.0001
X326.6346 Y19.4624 I-5.188 J4.7897
G1 X26.1537 Y19.4081
G2 X21.6648 Y21.1588 J6.6302
X19.4536 Y25.4397 I4.7533 J5.1667
G1 X19.4094 Y56.0701
G2 X19.8983 Y58.3503 I5.5631 J-0.0003
X21.1413 Y60.3236 I7.6369 J-3.4324
G3 X21.1313 Y61.6879 I-0.8 J0.6763
G2 X20.1465 Y63.1134 I5.8437 J5.0898
X19.5572 Y64.7426 I5.2662 J2.826
X19.4071 Y66.2271 I7.2635 J1.4846
G1 X19.407 Y67.7491
X19.4876 Y237.8179
G2 X21.6935 Y241.8327 I6.337 J-0.8684
X25.9793 Y243.4503 I4.4202 J-5.225
G3 X27.995 Y244.3896 I-0.054 J2.7484
G2 X29.3268 Y245.5884 I5.6546 J-4.9427
X30.9235 Y246.4016 I3.6368 J-5.1669
X32.1413 Y246.6301 I1.4006 J-4.1056
X33.38 Y246.6563 I1.2432 J-29.4588
G3 X34.3434 Y247.6197 I-0.0001 J0.9635
G1 X34.3466 Y283.4666
G3 X33.3835 Y284.4297 I-0.963 J0.0001
G1 X5.5332 Y284.4275
G3 X4.57 Y283.4641 I0.0001 J-0.9633
G1 X4.5703 Y248.3392
G2 X3.4633 Y246.6786 I-1.799
G3 X2.3563 Y245.0181 I0.6919 J-1.6606
G1 X2.3588 Y3.3221
G3 X3.3221 Y2.3589 I0.9633
G1 X348.681
G3 X349.6442 Y3.3221 J0.9632
G1 X349.6412 Y285.681
G3 X348.678 Y286.6442 I-0.9633
G1 X316.4023 Y286.6443
G3 X315.4391 Y285.6811 J-0.9631
G1 X315.4428 Y245.4059
G3 X316.4062 Y244.4425 I0.9635 J0.0001
X319.1141 Y244.4665 I0.0226 J150.0329
G2 X321.6833 Y243.6105 I0.0728 J-4.0652
X322.3583 Y242.9429 I-2.4592 J-3.1613
X322.8862 Y242.1539 I-4.5105 J-3.5887
G3 X324.4351 Y241.2424 I1.5492 J0.8609
X326.196 Y241.2549 I0.0215 J120.9144
G2 X327.9059 Y240.8335 I0.05 J-3.4769
X329.6714 Y239.2211 I-2.3766 J-4.3752
X330.3731 Y236.9352 I-3.4736 J-2.3168
G1 X330.3742 Y26.1009
G2 X329.1849 Y23.1212 I-4.3277 J0.0001
X326.331 Y21.6556 I-3.5193 J3.3414
G1 X26.1537 Y21.6222
G2 X23.1283 Y22.8203 J4.4189
X21.65 Y25.7191 I3.293 J3.5057
G1 X21.6235 Y56.0699
G2 X22.6932 Y58.9355 I4.3738 J-0.0003
X25.3263 Y60.4918 I3.6453 J-3.1617
X26.1529 Y60.5778 I0.8114 J-3.7822
G1 X46.0436 Y60.5832
G3 X46.4076 Y60.887 I-0.046 J0.4251
X46.2525 Y61.3351 I-0.3908 J0.1156
X46.1497 Y61.3921 I-0.3101 J-0.4375
X46.0348 Y61.4175 I-0.1272 J-0.3034
G1 X25.4765 Y61.4822
G2 X23.3303 Y62.438 I0.58 J4.1898
X21.9401 Y64.332 I3.2224 J3.8225
X21.6129 Y66.0192 I3.905 J1.6327
G3 X21.6212 Y67.7378 I-106.7146 J1.3741
G1 X21.6812 Y237.5173
G2 X22.6514 Y239.653 I4.0604 J-0.5564
X24.5547 Y241.024 I3.8814 J-3.3813
X26.0518 Y241.2804 I1.309 J-3.1448
G3 X27.5701 Y241.2397 I1.4755 J26.6792
X29.1175 Y242.1552 I-0.0028 J1.7702
G2 X30.4227 Y243.6941 I4.457 J-2.4573
X32.279 Y244.4852 I2.3864 J-3.0258
X33.9372 Y244.521 I0.982 J-7.0705
G3 X35.5939 Y244.4425 I1.6541 J17.3831
X36.5573 Y245.4059 I-0.0001 J0.9635
G1 X36.5609 Y285.6808
G3 X35.5978 Y286.644 I-0.963 J0.0001
G1 X3.3191 Y286.6414
G3 X2.3558 Y285.6781 I0.0001 J-0.9633
G1 X2.3563 Y245.0181
G2 X1.1784 Y243.2513 I-1.914
G3 X0.0006 Y241.4846 I0.7362 J-1.7667
G1 X0.0032 Y0.0084
X351.9919 Y0.0032
X351.9999 Y0.0398
X351.9968 Y288.9916
X351.9605 Y288.9998
X313.0832 Y289
X313.0874 Y242.0874
X319.0469 Y242.0865
G2 X319.1903 Y242.0765 I-0.0002 J-1.0437
G1 X319.3828 Y242.0498
G2 X319.5762 Y242.0038 I-0.1436 J-1.0338
G1 X319.7686 Y241.9382
G2 X319.9286 Y241.8682 I-0.337 J-0.9879
G1 X320.0569 Y241.7987
G2 X320.2008 Y241.7047 I-0.497 J-0.9178
G1 X320.357 Y241.5832
G2 X320.4925 Y241.457 I-0.6409 J-0.8238
G1 X320.6078 Y241.3286
G2 X320.7068 Y241.1994 I-0.7764 J-0.6976
G1 X320.7902 Y241.0711
G2 X320.8752 Y240.9112 I-0.8754 J-0.5684
G1 X320.9571 Y240.7187
G2 X321.018 Y240.5251 I-0.9605 J-0.4085
G1 X321.0585 Y240.3325
G2 X321.0807 Y240.1357 I-1.0214 J-0.2149
G1 X321.0874 Y239.7507
X321.0875 Y239.7326
Y238.8873
X325.8465 Y238.8865
G2 X325.9894 Y238.8766 I-0.0002 J-1.0437
G1 X326.1819 Y238.85
G2 X326.3753 Y238.8041 I-0.1431 J-1.0339
G1 X326.5677 Y238.7385
G2 X326.7294 Y238.6677 I-0.3365 J-0.988
G1 X326.8609 Y238.5963
G2 X326.9964 Y238.5085 I-0.4982 J-0.9172
G1 X327.134 Y238.4034
G2 X327.2568 Y238.2931 I-0.6337 J-0.8294
G1 X327.3648 Y238.1794
G2 X327.4763 Y238.0401 I-0.7565 J-0.7192
G1 X327.5873 Y237.8739
G2 X327.6836 Y237.6938 I-0.8679 J-0.5798
G1 X327.7634 Y237.5013
G2 X327.8224 Y237.3077 I-0.9642 J-0.3998
G1 X327.8612 Y237.1152
G2 X327.8818 Y236.9167 I-1.0232 J-0.2062
G1 X327.8875 Y236.1467
Y236.1389
X327.8828 Y26.1009
G2 X327.8642 Y25.9048 I-1.0438
G1 X327.8274 Y25.7123
G2 X327.7705 Y25.5187 I-1.0251 J0.1962
G1 X327.693 Y25.3262
G2 X327.6057 Y25.1562 I-0.9682 J0.3898
G1 X327.512 Y25.0088
G2 X327.4047 Y24.8678 I-0.881 J0.5597
G1 X327.284 Y24.7346
G2 X327.1479 Y24.6089 I-0.7736 J0.7007
G1 X326.997 Y24.4925
G2 X326.856 Y24.4008 I-0.6376 J0.8264
G1 X326.7277 Y24.3314
G2 X326.5677 Y24.2615 I-0.4965 J0.9181
G1 X326.3753 Y24.1959
G2 X326.1819 Y24.15 I-0.3365 J0.988
G1 X325.9894 Y24.1234
G2 X325.8463 Y24.1135 I-0.1431 J1.0339
G1 X26.1537
G2 X26.0106 Y24.1234 J1.0438
G1 X25.8182 Y24.15
G2 X25.6248 Y24.1959 I0.1431 J1.0339
G1 X25.4323 Y24.2615
G2 X25.2458 Y24.3462 I0.3365 J0.988
G1 X25.0672 Y24.4496
G2 X24.9019 Y24.5684 I0.523 J0.9032
G1 X24.7509 Y24.7008
G2 X24.6261 Y24.8311 I0.6884 J0.7845
G1 X24.5257 Y24.9559
G2 X24.4266 Y25.1031 I0.8133 J0.6542
G1 X24.3322 Y25.273
G2 X24.2527 Y25.4549 I0.9123 J0.5071
G1 X24.1895 Y25.6474
G2 X24.1459 Y25.8409 I0.9918 J0.3252
G1 X24.1215 Y26.0334
G2 X24.1131 Y26.1652 I1.0354 J0.1317
G1 X24.1149 Y56.0698
G2 X24.1283 Y56.2364 I1.0438 J-0.0001
G1 X24.1594 Y56.429
G2 X24.2101 Y56.6225 I1.0303 J-0.1667
G1 X24.2809 Y56.815
G2 X24.3655 Y56.9916 I0.9796 J-0.3602
G1 X24.4614 Y57.1515
G2 X24.5594 Y57.2885 I0.8951 J-0.5369
G1 X24.6565 Y57.4034
G2 X24.7681 Y57.5167 I0.7971 J-0.6739
G1 X24.8945 Y57.6267
G2 X25.0307 Y57.7271 I0.6855 J-0.7871
G1 X25.176 Y57.8171
G2 X25.3344 Y57.8973 I0.5493 J-0.8875
G1 X25.505 Y57.9662
G2 X25.677 Y58.019 I0.3909 J-0.9678
G1 X25.8489 Y58.0559
G2 X25.9785 Y58.0753 I0.2189 J-1.0205
G1 X26.0644 Y58.0826
X26.1535 Y58.0865
X46.1283 Y58.0912
X46.3117 Y58.1049
X46.5008 Y58.1317
X46.69 Y58.1711
X46.878 Y58.2237
X47.0596 Y58.2883
X47.3403 Y58.4153
X47.4818 Y58.4935
X47.6354 Y58.591
X47.7635 Y58.683
X47.8944 Y58.7887
X48.0098 Y58.893
X48.1452 Y59.0313
X48.2603 Y59.1644
X48.3878 Y59.3337
X48.5231 Y59.5466
X48.6218 Y59.733
X48.7055 Y59.9236
X48.7662 Y60.0905
X48.8261 Y60.3005
X48.8663 Y60.4896
X48.8941 Y60.6789
X48.9089 Y60.8666
X48.9114 Y61.0552
X48.9017 Y61.2438
X48.8794 Y61.433
X48.8462 Y61.6134
X48.7634 Y61.9177
X48.717 Y62.0469
X48.6596 Y62.1851
X48.5651 Y62.3779
X48.4577 Y62.5614
X48.2801 Y62.811
X48.1698 Y62.9414
X48.0081 Y63.1084
X47.8835 Y63.2207
X47.7557 Y63.3231
X47.6395 Y63.4062
X47.4439 Y63.5283
X47.2537 Y63.6281
X47.0927 Y63.699
X46.8763 Y63.7768
X46.69 Y63.8289
X46.5007 Y63.8683
X46.3117 Y63.8951
X46.1283 Y63.9088
X26.1535 Y63.9135
G2 X26.0106 Y63.9234 I0.0002 J1.0437
G1 X25.8182 Y63.95
G2 X25.6248 Y63.9959 I0.1431 J1.0339
G1 X25.4323 Y64.0615
G2 X25.2489 Y64.1445 I0.3365 J0.988
G1 X25.076 Y64.2438
G2 X24.9343 Y64.3416 I0.52 J0.905
G1 X24.8221 Y64.4335
G2 X24.705 Y64.5459 I0.6617 J0.8072
G1 X24.5854 Y64.68
G2 X24.4851 Y64.8123 I0.7789 J0.6948
G1 X24.4029 Y64.9406
G2 X24.3192 Y65.1005 I0.8792 J0.5625
G1 X24.2387 Y65.293
G2 X24.179 Y65.4867 I0.963 J0.4026
G1 X24.1397 Y65.6792
G2 X24.1185 Y65.8848 I1.0226 J0.209
G1 X24.1125 Y67.7458
X24.1135 Y236.8448
G2 X24.1232 Y236.9866 I1.0438
G1 X24.1495 Y237.1791
G2 X24.1952 Y237.3726 I1.0341 J-0.1417
G1 X24.2605 Y237.5651
G2 X24.3301 Y237.7251 I0.9885 J-0.3352
G1 X24.3993 Y237.8535
G2 X24.4862 Y237.9887 I0.9188 J-0.4953
G1 X24.5923 Y238.1286
G2 X24.7174 Y238.2662 I0.8318 J-0.6304
G1 X24.8617 Y238.3991
G2 X25.0034 Y238.5086 I0.7068 J-0.768
G1 X25.1396 Y238.5963
G2 X25.3036 Y238.6823 I0.5651 J-0.8775
G1 X25.4961 Y238.7625
G2 X25.6896 Y238.8217 I0.4011 J-0.9636
G1 X25.882 Y238.8608
G2 X26.0879 Y238.8816 I0.2076 J-1.0229
G1 X29.7443 Y238.8875
X30.9131
X30.9139 Y240.0542
G2 X30.9248 Y240.2039 I1.0437 J-0.0007
G1 X30.9528 Y240.3964
G2 X31.0002 Y240.5899 I1.0329 J-0.1504
G1 X31.0674 Y240.7824
G2 X31.1388 Y240.9425 I0.9855 J-0.3439
G1 X31.2096 Y241.0708
G2 X31.2937 Y241.1998 I0.914 J-0.504
G1 X31.3916 Y241.3282
G2 X31.4868 Y241.4366 I0.8299 J-0.6329
G1 X31.5771 Y241.5261
G2 X31.6859 Y241.62 I0.7347 J-0.7413
G1 X31.8142 Y241.7161
G2 X31.9431 Y241.7987 I0.6259 J-0.8353
G1 X32.0714 Y241.8682
G2 X32.2314 Y241.9382 I0.497 J-0.9178
G1 X32.4238 Y242.0038
G2 X32.6172 Y242.0498 I0.337 J-0.9879
G1 X32.8097 Y242.0765
G2 X32.9531 Y242.0865 I0.1436 J-1.0338
G1 X38.9126 Y242.0874
X38.9169 Y288.9999
X0.0081 Y288.9968
X0.0001 Y288.9602
X0.0006 Y241.4846
X0.0044 Y241.4357 Z-1.9922
X0.0157 Y241.388 Z-1.9845
X0.032 Y241.3469 Z-1.9619
X0.0539 Y241.3085 Z-1.9394
X0.099 Y241.2548 Z-1.8691
X0.1337 Y241.2261 Z-1.7806
X0.1466 Y241.2174 Z-1.6825
G0 Z5
X21.5462 Y270.2453
Z0.4173
G1 X21.5391 Y270.2584 Z0.3213 F1200
X21.5181 Y270.2961 Z0.2343
X21.483 Y270.3537 Z0.1644
X21.4349 Y270.4244 Z0.1182
X21.3766 Y270.4999 Z0.1
G3 X21.5254 Y270.2832 Z-0.2217 I-1.164 J-0.9589
X21.6344 Y270.0439 Z-0.5434 I-1.3128 J-0.7422
X21.7001 Y269.7894 Z-0.8651 I-1.4218 J-0.503
X21.7207 Y269.5273 Z-1.1868 I-1.4875 J-0.2484
X21.6954 Y269.2657 Z-1.5086 I-1.5081 J0.0136
X21.625 Y269.0124 Z-1.8303 I-1.4828 J0.2753
X21.5118 Y268.7751 Z-2.152 I-1.4125 J0.5286
X21.3591 Y268.5611 Z-2.4737 I-1.2992 J0.7658
X21.1715 Y268.3769 Z-2.7954 I-1.1465 J0.9798
X20.9548 Y268.2281 Z-3.1171 I-0.9589 J1.164
X20.7156 Y268.1192 Z-3.4388 I-0.7422 J1.3128
X20.461 Y268.0534 Z-3.7605 I-0.503 J1.4218
X18.7045 Y269.541 Z-4 I-0.2484 J1.4875
G1 X18.7046 Y257.1375 F3500
G3 X19.5801 Y256.5091 I0.6633
G1 X19.7221 Y256.5564
G3 X20.2099 Y257.2304 I-0.2219 J0.6741
G1 X20.211 Y269.5845
G3 X19.5013 Y270.2942 I-0.7096 J0.0001
G1 X19.414
G3 X18.7045 Y269.5846 I0.0001 J-0.7097
G1 Y269.541
G2 X17.6479 Y267.956 I-1.717
G3 X16.5913 Y266.3711 I0.6604 J-1.5849
G1 X16.5914 Y253.792
G3 X17.427 Y253.2899 I0.5687
G2 X21.0849 Y254.7642 I8.7917 J-16.5379
G3 X22.323 Y256.4022 I-0.4647 J1.6381
G1 X22.3244 Y271.4445
G3 X21.3613 Y272.4076 I-0.963 J0.0001
G1 X17.5545 Y272.4073
G3 X16.5912 Y271.444 I0.0001 J-0.9633
G1 X16.5913 Y266.3711
G2 X15.5906 Y264.8701 I-1.626
G3 X14.59 Y263.3691 I0.6254 J-1.5009
G1 X14.5902 Y249.8355
G3 X15.3686 Y249.4785 I0.4711
G2 X22.2283 Y252.9956 I10.709 J-12.4387
G3 X23.0588 Y253.3866 I-0.534 J2.2118
G2 X23.3171 Y253.5762 I9.8623 J-13.1609
G3 X24.3242 Y255.54 I-1.4113 J1.964
G1 X24.3259 Y273.4459
G3 X23.3627 Y274.409 I-0.963 J0.0001
G1 X15.5532 Y274.4084
G3 X14.5899 Y273.4451 I0.0001 J-0.9633
G1 X14.59 Y263.3691
G2 X13.6658 Y261.9828 I-1.5018
G3 X12.7417 Y260.5966 I0.5776 J-1.3863
G1 X12.7419 Y244.5258
G3 X13.431 Y244.3385 I0.3701
G2 X22.6724 Y251.2013 I12.7127 J-7.4651
G3 X24.1562 Y251.8992 I-0.949 J3.9443
G2 X25.1719 Y252.5941 I8.5671 J-11.4326
G3 X26.1725 Y254.3923 I-1.1159 J1.7984
G1 X26.1744 Y275.2944
G3 X25.2113 Y276.2575 I-0.963 J0.0001
G1 X13.7048 Y276.2566
G3 X12.7415 Y275.2933 I0.0001 J-0.9633
G1 X12.7417 Y260.5966
X12.7455 Y260.5477 Z-3.9922
X12.7567 Y260.5 Z-3.9845
X12.7731 Y260.4589 Z-3.9619
X12.795 Y260.4205 Z-3.9394
X12.84 Y260.3668 Z-3.8691
X12.8748 Y260.3381 Z-3.7806
X12.8876 Y260.3294 Z-3.6825
G0 Z5
X13.3759 Y12.3733
Z0.4173
G1 X13.3901 Y12.369 Z0.3213 F1200
X13.4317 Y12.3574 Z0.2343
X13.4973 Y12.3416 Z0.1644
X13.5813 Y12.3258 Z0.1182
X13.6759 Y12.3138 Z0.1
G3 X13.4174 Y12.3613 Z-0.2217 I0.1419 J1.5014
X13.171 Y12.4529 Z-0.5434 I0.4005 J1.454
X12.9442 Y12.5859 Z-0.8651 I0.6469 J1.3624
X12.744 Y12.7563 Z-1.1868 I0.8736 J1.2293
X12.5765 Y12.9588 Z-1.5086 I1.0738 J1.059
X12.4466 Y13.1874 Z-1.8303 I1.2414 J0.8564
X12.3584 Y13.4351 Z-2.152 I1.3712 J0.6278
X12.3146 Y13.6943 Z-2.4737 I1.4594 J0.3802
X12.3164 Y13.9572 Z-2.7954 I1.5033 J0.121
X12.3638 Y14.2157 Z-3.1171 I1.5014 J-0.1419
X12.4555 Y14.4621 Z-3.4388 I1.454 J-0.4005
X12.5885 Y14.6889 Z-3.7605 I1.3624 J-0.6469
X14.882 Y14.8839 Z-4 I1.2293 J-0.8736
G2 X14.6747 Y15.0945 I10.5573 J10.6014 F3500
G3 X13.9208 Y14.79 I-0.3154 J-0.3045
G1 Y14.4495
G3 X14.4493 Y13.921 I0.5285
G1 X14.7954
G3 X15.0974 Y14.6737 J0.4369
G2 X14.882 Y14.8839 I10.342 J10.8116
X14.6827 Y15.9053 I0.6553 J0.658
G3 X14.5405 Y16.9362 I-0.9328 J0.3966
G2 X13.9586 Y17.7714 I5.8775 J4.7156
X13.4348 Y18.6554 I72.1367 J43.3344
G3 X12.7461 Y18.469 I-0.3191 J-0.1865
G1 Y13.7095
G3 X13.7094 Y12.7463 I0.9633
G1 X18.4658
G3 X18.6528 Y13.4387 J0.3715
G2 X16.4395 Y14.9953 I7.9602 J13.6704
X14.5466 Y16.9286 I8.9459 J10.6523
G1 X14.5405 Y16.9362
X14.507 Y16.9719 Z-3.9922
X14.4683 Y17.002 Z-3.9845
X14.4299 Y17.0238 Z-3.9619
X14.3887 Y17.0401 Z-3.9394
X14.32 Y17.0537 Z-3.8691
X14.2749 Y17.0543 Z-3.7806
X14.2594 Y17.053 Z-3.6825
G0 Z5
X335.2411 Y13.7811
Z0.4173
G1 X335.2481 Y13.768 Z0.3213 F1200
X335.2692 Y13.7303 Z0.2343
X335.3043 Y13.6727 Z0.1644
X335.3524 Y13.602 Z0.1182
X335.4107 Y13.5265 Z0.1
G3 X335.2619 Y13.7432 Z-0.2217 I1.164 J0.9589
X335.1529 Y13.9825 Z-0.5434 I1.3128 J0.7422
X335.0872 Y14.237 Z-0.8651 I1.4218 J0.503
X335.0666 Y14.4991 Z-1.1868 I1.4875 J0.2485
X335.0919 Y14.7607 Z-1.5086 I1.5081 J-0.0136
X335.1623 Y15.014 Z-1.8303 I1.4828 J-0.2753
X335.2755 Y15.2513 Z-2.152 I1.4125 J-0.5286
X335.4282 Y15.4653 Z-2.4737 I1.2992 J-0.7658
X335.6158 Y15.6494 Z-2.7954 I1.1465 J-0.9798
X335.8325 Y15.7983 Z-3.1171 I0.9589 J-1.164
X336.0717 Y15.9072 Z-3.4388 I0.7422 J-1.3128
X336.3263 Y15.973 Z-3.7605 I0.503 J-1.4218
X338.0828 Y14.4855 Z-4 I0.2484 J-1.4875
G1 Y14.8018 F3500
G3 X337.3304 Y15.1034 I-0.4366
G2 X336.9035 Y14.6741 I-10.82 J10.3319
G3 X337.2081 Y13.9201 I0.3046 J-0.3154
G1 X337.5544
G3 X338.0828 Y14.4486 J0.5285
G1 Y14.4855
G2 X338.672 Y15.3693 I0.9574
G3 X339.2612 Y16.253 I-0.3683 J0.8838
G1 Y18.4812
G3 X338.5704 Y18.6711 I-0.3715
G2 X336.2833 Y15.7194 I-13.1124 J7.7982
X333.3327 Y13.4308 I-10.2825 J10.2109
G3 X333.5199 Y12.7418 I0.1872 J-0.3191
G1 X338.298
G3 X339.2612 Y13.705 J0.9632
G1 Y16.253
X339.2574 Y16.3019 Z-3.9922
X339.2462 Y16.3496 Z-3.9845
X339.2298 Y16.3907 Z-3.9619
X339.2079 Y16.4291 Z-3.9394
X339.1628 Y16.4828 Z-3.8691
X339.1281 Y16.5115 Z-3.7806
X339.1152 Y16.5202 Z-3.6825
G0 Z5
X334.6291 Y270.2484
Z0.4173
G1 X334.6221 Y270.2615 Z0.3213 F1200
X334.601 Y270.2992 Z0.2343
X334.5659 Y270.3568 Z0.1644
X334.5178 Y270.4275 Z0.1182
X334.4595 Y270.503 Z0.1
G3 X334.2003 Y270.7505 Z0.0875 I-1.1639 J-0.959
X334.3961 Y270.5751 Z-0.2343 I-0.9048 J-1.2066
X334.5584 Y270.3683 Z-0.556 I-1.1005 J-1.0312
X334.6824 Y270.1365 Z-0.8777 I-1.2629 J-0.8244
X334.7642 Y269.8867 Z-1.1994 I-1.3868 J-0.5926
X334.8014 Y269.6265 Z-1.5211 I-1.4687 J-0.3427
X334.7929 Y269.3637 Z-1.8428 I-1.5059 J-0.0825
X334.7388 Y269.1064 Z-2.1645 I-1.4973 J0.1802
X334.6409 Y268.8625 Z-2.4862 I-1.4433 J0.4375
X334.5022 Y268.6392 Z-2.8079 I-1.3454 J0.6815
X334.3267 Y268.4434 Z-3.1297 I-1.2066 J0.9047
X334.1199 Y268.2811 Z-3.4514 I-1.0312 J1.1005
X333.8881 Y268.1571 Z-3.7731 I-0.8244 J1.2629
X331.7874 Y269.5438 Z-4 I-0.5926 J1.3868
G1 X331.7886 Y257.2253 F3500
G3 X332.2741 Y256.552 I0.7096 J0.0001
G1 X332.4131 Y256.5052
G3 X333.2947 Y257.1363 I0.2149 J0.6311
G1 X333.2946 Y269.5878
G3 X332.5849 Y270.2975 I-0.7097
G1 X332.4971
G3 X331.7874 Y269.5877 J-0.7097
G1 Y269.5438
G2 X330.7296 Y267.9568 I-1.7191 J-0.0002
G3 X329.6719 Y266.3698 I0.6613 J-1.5868
G1 X329.6728 Y256.3979
G3 X330.9055 Y254.7614 I1.7028 J0.0002
G2 X332.7781 Y254.1201 I-5.4336 J-18.9191
X334.5719 Y253.2832 I-6.5334 J-16.3443
G3 X335.4106 Y253.7848 I0.2693 J0.5016
G1 X335.4104 Y271.45
G3 X334.4471 Y272.4133 I-0.9633
G1 X330.6345
G3 X329.6714 Y271.4501 J-0.9631
G1 X329.6719 Y266.3698
G2 X328.6706 Y264.8676 I-1.6274 J-0.0002
G3 X327.6692 Y263.3653 I0.626 J-1.5021
G1 X327.67 Y255.5365
G3 X328.6771 Y253.5732 I2.4175 J0.0002
G2 X328.9349 Y253.384 I-9.1171 J-12.6924
G3 X329.7584 Y252.9944 I1.365 J1.8205
G2 X331.8636 Y252.3823 I-6.1248 J-24.993
X333.873 Y251.5052 I-4.0807 J-12.0886
X335.3063 Y250.5598 I-4.7972 J-8.8315
X336.6338 Y249.4706 I-28.8695 J-36.5403
G3 X337.4135 Y249.8308 I0.3067 J0.3601
G1 X337.4133 Y273.4529
G3 X336.45 Y274.4162 I-0.9633
G1 X328.6314
G3 X327.6683 Y273.453 J-0.9631
G1 X327.6692 Y263.3653
G2 X326.7468 Y261.9813 I-1.4992 J-0.0002
G3 X325.8243 Y260.5974 I0.5768 J-1.3839
G1 X325.8249 Y254.3905
G3 X326.8254 Y252.5926 I2.1161 J0.0002
G2 X327.836 Y251.9016 I-7.2655 J-11.7117
G3 X329.3094 Y251.2047 I2.4361 J3.244
G2 X333.2906 Y249.645 I-3.8039 J-15.5713
X336.6714 Y247.0271 I-6.8683 J-12.3616
X337.6953 Y245.7336 I-6.6119 J-6.2858
X338.5682 Y244.3338 I-32.1466 J-21.0179
G3 X339.2588 Y244.5235 I0.3192 J0.1897
G1 X339.2585 Y275.2981
G3 X338.2952 Y276.2614 I-0.9633
G1 X326.7861
G3 X325.823 Y275.2982 J-0.9631
G1 X325.8243 Y260.5974
G2 X325.0251 Y259.3983 I-1.2989 J-0.0001
G3 X324.2258 Y258.1992 I0.4997 J-1.199
G1 X324.2263 Y253.3318
G3 X325.2162 Y251.6732 I1.8848 J0.0002
G2 X326.0802 Y251.17 I-7.2789 J-13.4928
X326.9034 Y250.6026 I-6.1071 J-9.7422
G3 X328.8967 Y249.6597 I3.2633 J4.3202
G2 X334.4774 Y246.8523 I-3.2234 J-13.3579
X338.1791 Y241.8202 I-8.3793 J-10.0416
X338.9511 Y239.0279 I-10.8792 J-4.5111
X339.1631 Y236.1387 I-19.5825 J-2.8888
G1 X339.1584 Y26.1007
G2 X335.8084 Y17.3513 I-13.1015 J0.0003
X327.5355 Y12.9543 I-10.1411 J9.0993
G1 X26.1537 Y12.838
G2 X17.322 Y16.2287 J13.1973
X12.936 Y24.6107 I9.0928 J10.0965
G1 X12.8393 Y56.0704
G2 X13.1153 Y58.355 I9.5978 J-0.0006
X13.7874 Y60.5558 I19.9661 J-4.8944
G3 X13.7854 Y61.44 I-1.1951 J0.4395
G2 X13.029 Y64.5522 I12.7036 J4.7355
X12.837 Y67.7493 I26.507 J3.1969
G1 X12.9784 Y238.71
G2 X16.3351 Y245.7456 I12.6991 J-1.7403
X23.0808 Y249.6525 I9.8787 J-9.2798
G3 X25.076 Y250.5873 I-1.2515 J5.2675
G2 X25.9098 Y251.1619 I7.6543 J-10.2145
X26.7839 Y251.6732 I7.8403 J-12.4021
G3 X27.7738 Y253.3318 I-0.8949 J1.6588
G1 X27.7759 Y276.896
G3 X26.8128 Y277.8591 I-0.963 J0.0001
G1 X12.1034 Y277.8579
G3 X11.1401 Y276.8946 I0.0001 J-0.9633
G1 X11.1429 Y12.1063
G3 X12.1062 Y11.1431 I0.9633
G1 X339.8967
G3 X340.8599 Y12.1063 J0.9632
G1 X340.8571 Y276.8968
G3 X339.8939 Y277.8601 I-0.9633
G1 X325.1873
G3 X324.2241 Y276.8969 J-0.9631
G1 X324.2258 Y258.1992
G2 X323.2815 Y256.7823 I-1.5348 J-0.0002
G3 X322.3371 Y255.3655 I0.5904 J-1.4167
G1 X322.3374 Y251.9402
G3 X323.3168 Y250.4837 I1.573 J0.0002
G2 X325.7726 Y249.0895 I-4.1312 J-10.1371
G3 X328.4442 Y247.8257 I4.3596 J5.7602
G2 X333.2464 Y245.4197 I-2.7688 J-11.5215
X336.4342 Y241.0966 I-7.1513 J-8.6101
X337.0985 Y238.6591 I-9.2147 J-3.8209
X337.2741 Y236.1387 I-17.9966 J-2.52
G1 X337.2694 Y26.1007
G2 X334.3841 Y18.5921 I-11.2134 J0.0003
X327.2765 Y14.8254 I-8.7169 J7.8595
G1 X26.1537 Y14.7269
G2 X18.5706 Y17.6461 J11.3088
X14.8099 Y24.849 I7.8447 J8.6791
G1 X14.7405 Y56.0703
G2 X14.9871 Y58.0455 I8.0357 J-0.0005
X15.5761 Y59.9468 I18.5622 J-4.7082
G3 X15.5678 Y62.0669 I-2.8521 J1.0489
G2 X14.8903 Y64.87 I10.9902 J4.1397
X14.7259 Y67.7493 I25.1344 J2.8791
G1 X14.8499 Y238.4535
G2 X17.7372 Y244.4799 I10.8307 J-1.4842
X23.5269 Y247.8169 I8.4752 J-8.0136
G3 X26.1956 Y249.0658 I-1.6633 J7.0298
G2 X27.394 Y249.8545 I7.0535 J-9.4127
X28.6833 Y250.4837 I5.3307 J-9.2876
G3 X29.6626 Y251.9402 I-0.5936 J1.4567
G1 X29.6651 Y278.7851
G3 X28.702 Y279.7482 I-0.963 J0.0001
G1 X10.2144 Y279.7467
G3 X9.2511 Y278.7834 I0.0001 J-0.9633
G1 X9.254 Y10.2174
G3 X10.2172 Y9.2541 I0.9633
G1 X341.7857
G3 X342.7489 Y10.2174 J0.9632
G1 X342.7461 Y278.7858
G3 X341.7828 Y279.749 I-0.9633
G1 X323.2981 Y279.7491
G3 X322.335 Y278.7859 J-0.9631
G1 X322.3371 Y255.3655
G2 X321.167 Y253.61 I-1.9017 J-0.0002
G3 X319.9969 Y251.8545 I0.7316 J-1.7554
G1 X319.997 Y249.9638
G3 X320.9452 Y248.7849 I1.207 J0.0001
G2 X323.0307 Y248.0412 I-1.8838 J-8.5786
X324.874 Y246.8144 I-4.2387 J-8.3666
G3 X327.3515 Y245.6611 I3.3234 J3.9014
G2 X331.5177 Y243.8252 I-1.523 J-9.1011
X334.2721 Y240.2001 I-5.5279 J-7.0593
X334.803 Y238.2021 I-7.1819 J-2.978
X334.9336 Y236.1388 I-16.2376 J-2.0629
G1 X334.9289 Y26.1008
G2 X332.6192 Y20.1295 I-8.8745 J0.0002
X326.9555 Y17.1439 I-6.9524 J6.324
G1 X26.1537 Y17.0675
G2 X20.1177 Y19.4025 J8.9692
X17.1317 Y25.1444 I6.2986 J6.9229
G1 X17.0768 Y56.0702
G2 X17.3832 Y58.1084 I6.9352 J-0.0004
X18.1509 Y60.0212 I11.8391 J-3.641
G3 X18.1555 Y61.9706 I-1.9523 J0.9794
G2 X17.2771 Y64.797 I8.3815 J4.1546
X17.0665 Y67.7492 I20.5819 J2.9521
G1 X17.1687 Y238.1357
G2 X19.7089 Y243.1297 I8.4581 J-1.1591
X24.7027 Y245.6701 I6.6721 J-6.9372
G3 X27.131 Y246.8201 I-0.8877 J5.013
G2 X31.0549 Y248.7849 I5.8892 J-6.8606
G3 X32.003 Y249.9638 I-0.2589 J1.1789
G1 X32.0058 Y281.1258
G3 X31.0427 Y282.089 I-0.963 J0.0001
G1 X7.8738 Y282.0871
G3 X6.9105 Y281.1238 I0.0001 J-0.9633
G1 X6.9134 Y7.8768
G3 X7.8767 Y6.9136 I0.9633
G1 X344.1263
G3 X345.0895 Y7.8768 J0.9632
G1 X345.0866 Y281.1263
G3 X344.1234 Y282.0896 I-0.9633
G1 X320.9573 Y282.0897
G3 X319.9942 Y281.1265 J-0.9631
G1 X319.9969 Y251.8545
G2 X318.8268 Y250.099 I-1.9017 J-0.0002
G3 X317.6566 Y248.3434 I0.7316 J-1.7554
G1 X317.6567 Y247.6197
G3 X318.6201 Y246.6563 I0.9635 J0.0001
G2 X320.4243 Y246.5246 I-0.0019 J-12.4559
X322.1409 Y245.9541 I-0.7517 J-5.1293
X323.1471 Y245.2443 I-2.4876 J-4.5943
X324.0164 Y244.3723 I-7.5691 J-8.4156
G3 X325.9969 Y243.4542 I2.0544 J1.8366
G2 X330.1809 Y241.8815 I-0.1836 J-6.8404
X332.474 Y238.0447 I-4.2793 J-5.1612
X332.5809 Y237.0947 I-5.4067 J-1.0895
X332.593 Y236.1388 I-37.7439 J-0.9551
G1 X332.5883 Y26.1008
G2 X330.8544 Y21.6669 I-6.5367 J0.0001
X326.6346 Y19.4624 I-5.188 J4.7897
G1 X26.1537 Y19.4081
G2 X21.6648 Y21.1588 J6.6302
X19.4536 Y25.4397 I4.7533 J5.1667
G1 X19.4094 Y56.0701
G2 X19.8983 Y58.3503 I5.5631 J-0.0003
X21.1413 Y60.3236 I7.6369 J-3.4324
G3 X21.1313 Y61.6879 I-0.8 J0.6763
G2 X20.1465 Y63.1134 I5.8437 J5.0898
X19.5572 Y64.7426 I5.2662 J2.826
X19.4071 Y66.2271 I7.2635 J1.4846
G1 X19.407 Y67.7491
X19.4876 Y237.8179
G2 X21.6935 Y241.8327 I6.337 J-0.8684
X25.9793 Y243.4503 I4.4202 J-5.225
G3 X27.995 Y244.3896 I-0.054 J2.7484
G2 X29.3268 Y245.5884 I5.6546 J-4.9427
X30.9235 Y246.4016 I3.6368 J-5.1669
X32.1413 Y246.6301 I1.4006 J-4.1056
X33.38 Y246.6563 I1.2432 J-29.4588
G3 X34.3434 Y247.6197 I-0.0001 J0.9635
G1 X34.3466 Y283.4666
G3 X33.3835 Y284.4297 I-0.963 J0.0001
G1 X5.5332 Y284.4275
G3 X4.57 Y283.4641 I0.0001 J-0.9633
G1 X4.5729 Y5.5362
G3 X5.5361 Y4.573 I0.9633
G1 X346.4669
G3 X347.4301 Y5.5362 J0.9632
G1 X347.4272 Y283.4669
G3 X346.4639 Y284.4301 I-0.9633
G1 X318.6166 Y284.4302
G3 X317.6534 Y283.467 J-0.9631
G1 X317.6566 Y248.3434
G2 X316.4874 Y246.5427 I-1.9709 J-0.0002
G3 X316.9373 Y244.4434 I0.4463 J-1.0023
X319.1141 Y244.4665 I-0.5086 J150.032
G2 X321.6833 Y243.6105 I0.0728 J-4.0652
X322.3583 Y242.9429 I-2.4592 J-3.1613
X322.8862 Y242.1539 I-4.5105 J-3.5887
G3 X324.4351 Y241.2424 I1.5492 J0.8609
X326.196 Y241.2549 I0.0215 J120.9144
G2 X327.9059 Y240.8335 I0.05 J-3.4769
X329.6714 Y239.2211 I-2.3766 J-4.3752
X330.3731 Y236.9352 I-3.4736 J-2.3168
G1 X330.3742 Y26.1009
G2 X329.1849 Y23.1212 I-4.3277 J0.0001
X326.331 Y21.6556 I-3.5193 J3.3414
G1 X26.1537 Y21.6222
G2 X23.1283 Y22.8203 J4.4189
X21.65 Y25.7191 I3.293 J3.5057
G1 X21.6235 Y56.0699
G2 X22.6932 Y58.9355 I4.3738 J-0.0003
X25.3263 Y60.4918 I3.6453 J-3.1617
X26.1529 Y60.5778 I0.8114 J-3.7822
G1 X46.0436 Y60.5832
G3 X46.4076 Y60.887 I-0.046 J0.4251
X46.2525 Y61.3351 I-0.3908 J0.1156
X46.1497 Y61.3921 I-0.3101 J-0.4375
X46.0348 Y61.4175 I-0.1272 J-0.3034
G1 X25.4765 Y61.4822
G2 X23.3303 Y62.438 I0.58 J4.1898
X21.9401 Y64.332 I3.2224 J3.8225
X21.6129 Y66.0192 I3.905 J1.6327
G3 X21.6212 Y67.7378 I-106.7146 J1.3741
G1 X21.6812 Y237.5173
G2 X22.6514 Y239.653 I4.0604 J-0.5564
X24.5547 Y241.024 I3.8814 J-3.3813
X26.0518 Y241.2804 I1.309 J-3.1448
G3 X27.5701 Y241.2397 I1.4755 J26.6792
X29.1175 Y242.1552 I-0.0028 J1.7702
G2 X30.4227 Y243.6941 I4.457 J-2.4573
X32.279 Y244.4852 I2.3864 J-3.0258
X33.9372 Y244.521 I0.982 J-7.0705
G3 X35.5939 Y244.4425 I1.6541 J17.3831
X36.5573 Y245.4059 I-0.0001 J0.9635
G1 X36.5609 Y285.6808
G3 X35.5978 Y286.644 I-0.963 J0.0001
G1 X3.3191 Y286.6414
G3 X2.3558 Y285.6781 I0.0001 J-0.9633
G1 X2.3588 Y3.3221
G3 X3.3221 Y2.3589 I0.9633
G1 X348.681
G3 X349.6442 Y3.3221 J0.9632
G1 X349.6412 Y285.681
G3 X348.678 Y286.6442 I-0.9633
G1 X316.4023 Y286.6443
G3 X315.4391 Y285.6811 J-0.9631
G1 X315.4428 Y245.4059
G3 X316.4062 Y244.4425 I0.9635 J0.0001
X316.9373 Y244.4434 I0.0226 J150.0329
G2 X318.8886 Y243.3004 I0.0075 J-2.2241
G3 X320.3586 Y241.582 I4.9727 J2.7659
G2 X320.4925 Y241.457 I-0.6425 J-0.8226
G1 X320.6078 Y241.3286
G2 X320.7068 Y241.1994 I-0.7764 J-0.6976
G1 X320.7902 Y241.0711
G2 X320.8752 Y240.9112 I-0.8754 J-0.5684
G1 X320.9571 Y240.7187
G2 X321.018 Y240.5251 I-0.9605 J-0.4085
G1 X321.0585 Y240.3325
G2 X321.0807 Y240.1357 I-1.0214 J-0.2149
G1 X321.0874 Y239.7507
X321.0875 Y239.7326
Y238.8873
X325.8465 Y238.8865
G2 X325.9894 Y238.8766 I-0.0002 J-1.0437
G1 X326.1819 Y238.85
G2 X326.3753 Y238.8041 I-0.1431 J-1.0339
G1 X326.5677 Y238.7385
G2 X326.7294 Y238.6677 I-0.3365 J-0.988
G1 X326.8609 Y238.5963
G2 X326.9964 Y238.5085 I-0.4982 J-0.9172
G1 X327.134 Y238.4034
G2 X327.2568 Y238.2931 I-0.6337 J-0.8294
G1 X327.3648 Y238.1794
G2 X327.4763 Y238.0401 I-0.7565 J-0.7192
G1 X327.5873 Y237.8739
G2 X327.6836 Y237.6938 I-0.8679 J-0.5798
G1 X327.7634 Y237.5013
G2 X327.8224 Y237.3077 I-0.9642 J-0.3998
G1 X327.8612 Y237.1152
G2 X327.8818 Y236.9167 I-1.0232 J-0.2062
G1 X327.8875 Y236.1467
Y236.1389
X327.8828 Y26.1009
G2 X327.8642 Y25.9048 I-1.0438
G1 X327.8274 Y25.7123
G2 X327.7705 Y25.5187 I-1.0251 J0.1962
G1 X327.693 Y25.3262
G2 X327.6057 Y25.1562 I-0.9682 J0.3898
G1 X327.512 Y25.0088
G2 X327.4047 Y24.8678 I-0.881 J0.5597
G1 X327.284 Y24.7346
G2 X327.1479 Y24.6089 I-0.7736 J0.7007
G1 X326.997 Y24.4925
G2 X326.856 Y24.4008 I-0.6376 J0.8264
G1 X326.7277 Y24.3314
G2 X326.5677 Y24.2615 I-0.4965 J0.9181
G1 X326.3753 Y24.1959
G2 X326.1819 Y24.15 I-0.3365 J0.988
G1 X325.9894 Y24.1234
G2 X325.8463 Y24.1135 I-0.1431 J1.0339
G1 X26.1537
G2 X26.0106 Y24.1234 J1.0438
G1 X25.8182 Y24.15
G2 X25.6248 Y24.1959 I0.1431 J1.0339
G1 X25.4323 Y24.2615
G2 X25.2458 Y24.3462 I0.3365 J0.988
G1 X25.0672 Y24.4496
G2 X24.9019 Y24.5684 I0.523 J0.9032
G1 X24.7509 Y24.7008
G2 X24.6261 Y24.8311 I0.6884 J0.7845
G1 X24.5257 Y24.9559
G2 X24.4266 Y25.1031 I0.8133 J0.6542
G1 X24.3322 Y25.273
G2 X24.2527 Y25.4549 I0.9123 J0.5071
G1 X24.1895 Y25.6474
G2 X24.1459 Y25.8409 I0.9918 J0.3252
G1 X24.1215 Y26.0334
G2 X24.1131 Y26.1652 I1.0354 J0.1317
G1 X24.1149 Y56.0698
G2 X24.1283 Y56.2364 I1.0438 J-0.0001
G1 X24.1594 Y56.429
G2 X24.2101 Y56.6225 I1.0303 J-0.1667
G1 X24.2809 Y56.815
G2 X24.3655 Y56.9916 I0.9796 J-0.3602
G1 X24.4614 Y57.1515
G2 X24.5594 Y57.2885 I0.8951 J-0.5369
G1 X24.6565 Y57.4034
G2 X24.7681 Y57.5167 I0.7971 J-0.6739
G1 X24.8945 Y57.6267
G2 X25.0307 Y57.7271 I0.6855 J-0.7871
G1 X25.176 Y57.8171
G2 X25.3344 Y57.8973 I0.5493 J-0.8875
G1 X25.505 Y57.9662
G2 X25.677 Y58.019 I0.3909 J-0.9678
G1 X25.8489 Y58.0559
G2 X25.9785 Y58.0753 I0.2189 J-1.0205
G1 X26.0644 Y58.0826
X26.1535 Y58.0865
X46.1283 Y58.0912
X46.3117 Y58.1049
X46.5008 Y58.1317
X46.69 Y58.1711
X46.878 Y58.2237
X47.0596 Y58.2883
X47.3403 Y58.4153
X47.4818 Y58.4935
X47.6354 Y58.591
X47.7635 Y58.683
X47.8944 Y58.7887
X48.0098 Y58.893
X48.1452 Y59.0313
X48.2603 Y59.1644
X48.3878 Y59.3337
X48.5231 Y59.5466
X48.6218 Y59.733
X48.7055 Y59.9236
X48.7662 Y60.0905
X48.8261 Y60.3005
X48.8663 Y60.4896
X48.8941 Y60.6789
X48.9089 Y60.8666
X48.9114 Y61.0552
X48.9017 Y61.2438
X48.8794 Y61.433
X48.8462 Y61.6134
X48.7634 Y61.9177
X48.717 Y62.0469
X48.6596 Y62.1851
X48.5651 Y62.3779
X48.4577 Y62.5614
X48.2801 Y62.811
X48.1698 Y62.9414
X48.0081 Y63.1084
X47.8835 Y63.2207
X47.7557 Y63.3231
X47.6395 Y63.4062
X47.4439 Y63.5283
X47.2537 Y63.6281
X47.0927 Y63.699
X46.8763 Y63.7768
X46.69 Y63.8289
X46.5007 Y63.8683
X46.3117 Y63.8951
X46.1283 Y63.9088
X26.1535 Y63.9135
G2 X26.0106 Y63.9234 I0.0002 J1.0437
G1 X25.8182 Y63.95
G2 X25.6248 Y63.9959 I0.1431 J1.0339
G1 X25.4323 Y64.0615
G2 X25.2489 Y64.1445 I0.3365 J0.988
G1 X25.076 Y64.2438
G2 X24.9343 Y64.3416 I0.52 J0.905
G1 X24.8221 Y64.4335
G2 X24.705 Y64.5459 I0.6617 J0.8072
G1 X24.5854 Y64.68
G2 X24.4851 Y64.8123 I0.7789 J0.6948
G1 X24.4029 Y64.9406
G2 X24.3192 Y65.1005 I0.8792 J0.5625
G1 X24.2387 Y65.293
G2 X24.179 Y65.4867 I0.963 J0.4026
G1 X24.1397 Y65.6792
G2 X24.1185 Y65.8848 I1.0226 J0.209
G1 X24.1125 Y67.7458
X24.1135 Y236.8448
G2 X24.1232 Y236.9866 I1.0438
G1 X24.1495 Y237.1791
G2 X24.1952 Y237.3726 I1.0341 J-0.1417
G1 X24.2605 Y237.5651
G2 X24.3301 Y237.7251 I0.9885 J-0.3352
G1 X24.3993 Y237.8535
G2 X24.4862 Y237.9887 I0.9188 J-0.4953
G1 X24.5923 Y238.1286
G2 X24.7174 Y238.2662 I0.8318 J-0.6304
G1 X24.8617 Y238.3991
G2 X25.0034 Y238.5086 I0.7068 J-0.768
G1 X25.1396 Y238.5963
G2 X25.3036 Y238.6823 I0.5651 J-0.8775
G1 X25.4961 Y238.7625
G2 X25.6896 Y238.8217 I0.4011 J-0.9636
G1 X25.882 Y238.8608
G2 X26.0879 Y238.8816 I0.2076 J-1.0229
G1 X29.7443 Y238.8875
X30.9131
X30.9139 Y240.0542
G2 X30.9248 Y240.2039 I1.0437 J-0.0007
G1 X30.9528 Y240.3964
G2 X31.0002 Y240.5899 I1.0329 J-0.1504
G1 X31.0674 Y240.7824
G2 X31.1388 Y240.9425 I0.9855 J-0.3439
G1 X31.2096 Y241.0708
G2 X31.2937 Y241.1998 I0.914 J-0.504
G1 X31.3916 Y241.3282
G2 X31.4868 Y241.4366 I0.8299 J-0.6329
G1 X31.5771 Y241.5261
G2 X31.6859 Y241.62 I0.7347 J-0.7413
G1 X31.8142 Y241.7161
G2 X31.9431 Y241.7987 I0.6259 J-0.8353
G1 X32.0714 Y241.8682
G2 X32.2314 Y241.9382 I0.497 J-0.9178
G1 X32.4238 Y242.0038
G2 X32.6172 Y242.0498 I0.337 J-0.9879
G1 X32.8097 Y242.0765
G2 X32.9531 Y242.0865 I0.1436 J-1.0338
G1 X38.9126 Y242.0874
X38.9169 Y288.9999
X0.0081 Y288.9968
X0.0001 Y288.9602
X0.0032 Y0.0084
X351.9919 Y0.0032
X351.9999 Y0.0398
X351.9968 Y288.9916
X351.9605 Y288.9998
X313.0832 Y289
X313.0874 Y242.0874
X319.0469 Y242.0865
G2 X319.1903 Y242.0765 I-0.0002 J-1.0437
G1 X319.3828 Y242.0498
G2 X319.5762 Y242.0038 I-0.1436 J-1.0338
G1 X319.7686 Y241.9382
G2 X319.9286 Y241.8682 I-0.337 J-0.9879
G1 X320.0569 Y241.7987
G2 X320.2008 Y241.7047 I-0.497 J-0.9178
G1 X320.357 Y241.5832
X320.3586 Y241.582
X320.3994 Y241.5549 Z-3.9922
X320.4439 Y241.5344 Z-3.9845
X320.4864 Y241.522 Z-3.9619
X320.5302 Y241.5156 Z-3.9394
X320.6002 Y241.518 Z-3.8691
X320.6442 Y241.5277 Z-3.7806
X320.659 Y241.5325 Z-3.6825
G0 Z5
X334.6291 Y270.2484
Z3
G1 Z-1.5827 F1200
X334.6221 Y270.2615 Z-1.6787
X334.601 Y270.2992 Z-1.7657
X334.5659 Y270.3568 Z-1.8356
X334.5178 Y270.4275 Z-1.8818
X334.4595 Y270.503 Z-1.9
G3 X334.2003 Y270.7505 Z-1.9125 I-1.1639 J-0.959
X334.3961 Y270.5751 Z-2.2343 I-0.9048 J-1.2066
X334.5584 Y270.3683 Z-2.556 I-1.1005 J-1.0312
X334.6824 Y270.1365 Z-2.8777 I-1.2629 J-0.8244
X334.7642 Y269.8867 Z-3.1994 I-1.3868 J-0.5926
X334.8014 Y269.6265 Z-3.5211 I-1.4687 J-0.3427
X334.7929 Y269.3637 Z-3.8428 I-1.5059 J-0.0825
X334.7388 Y269.1064 Z-4.1645 I-1.4973 J0.1802
X334.6409 Y268.8625 Z-4.4862 I-1.4433 J0.4375
X334.5022 Y268.6392 Z-4.8079 I-1.3454 J0.6815
X334.3267 Y268.4434 Z-5.1297 I-1.2066 J0.9047
X334.1199 Y268.2811 Z-5.4514 I-1.0312 J1.1005
X333.8881 Y268.1571 Z-5.7731 I-0.8244 J1.2629
X331.7874 Y269.5438 Z-6 I-0.5926 J1.3868
G1 X331.7886 Y257.2253 F3500
G3 X332.2741 Y256.552 I0.7096 J0.0001
G1 X332.4131 Y256.5052
G3 X333.2947 Y257.1363 I0.2149 J0.6311
G1 X333.2946 Y269.5878
G3 X332.5849 Y270.2975 I-0.7097
G1 X332.4971
G3 X331.7874 Y269.5877 J-0.7097
G1 Y269.5438
G2 X330.7296 Y267.9568 I-1.7191 J-0.0002
G3 X329.6719 Y266.3698 I0.6613 J-1.5868
G1 X329.6728 Y256.3979
G3 X330.9055 Y254.7614 I1.7028 J0.0002
G2 X332.7781 Y254.1201 I-5.4336 J-18.9191
X334.5719 Y253.2832 I-6.5334 J-16.3443
G3 X335.4106 Y253.7848 I0.2693 J0.5016
G1 X335.4104 Y271.45
G3 X334.4471 Y272.4133 I-0.9633
G1 X330.6345
G3 X329.6714 Y271.4501 J-0.9631
G1 X329.6719 Y266.3698
G2 X328.6706 Y264.8676 I-1.6274 J-0.0002
G3 X327.6692 Y263.3653 I0.626 J-1.5021
G1 X327.67 Y255.5365
G3 X328.6771 Y253.5732 I2.4175 J0.0002
G2 X328.9349 Y253.384 I-9.1171 J-12.6924
G3 X329.7584 Y252.9944 I1.365 J1.8205
G2 X331.8636 Y252.3823 I-6.1248 J-24.993
X333.873 Y251.5052 I-4.0807 J-12.0886
X335.3063 Y250.5598 I-4.7972 J-8.8315
X336.6338 Y249.4706 I-28.8695 J-36.5403
G3 X337.4135 Y249.8308 I0.3067 J0.3601
G1 X337.4133 Y273.4529
G3 X336.45 Y274.4162 I-0.9633
G1 X328.6314
G3 X327.6683 Y273.453 J-0.9631
G1 X327.6692 Y263.3653
G2 X326.7468 Y261.9813 I-1.4992 J-0.0002
G3 X325.8243 Y260.5974 I0.5768 J-1.3839
G1 X325.8249 Y254.3905
G3 X326.8254 Y252.5926 I2.1161 J0.0002
G2 X327.836 Y251.9016 I-7.2655 J-11.7117
G3 X329.3094 Y251.2047 I2.4361 J3.244
G2 X333.2906 Y249.645 I-3.8039 J-15.5713
X336.6714 Y247.0271 I-6.8683 J-12.3616
X337.6953 Y245.7336 I-6.6119 J-6.2858
X338.5682 Y244.3338 I-32.1466 J-21.0179
G3 X339.2588 Y244.5235 I0.3192 J0.1897
G1 X339.2585 Y275.2981
G3 X338.2952 Y276.2614 I-0.9633
G1 X326.7861
G3 X325.823 Y275.2982 J-0.9631
G1 X325.8243 Y260.5974
X325.8281 Y260.5485 Z-5.9922
X325.8394 Y260.5008 Z-5.9845
X325.8557 Y260.4597 Z-5.9619
X325.8776 Y260.4213 Z-5.9394
X325.9227 Y260.3676 Z-5.8691
X325.9574 Y260.3389 Z-5.7806
X325.9703 Y260.3302 Z-5.6825
G0 Z5
X335.2411 Y13.7811
Z3
G1 Z-1.5827 F1200
X335.2481 Y13.768 Z-1.6787
X335.2692 Y13.7303 Z-1.7657
X335.3043 Y13.6727 Z-1.8356
X335.3524 Y13.602 Z-1.8818
X335.4107 Y13.5265 Z-1.9
G3 X335.2619 Y13.7432 Z-2.2217 I1.164 J0.9589
X335.1529 Y13.9825 Z-2.5434 I1.3128 J0.7422
X335.0872 Y14.237 Z-2.8651 I1.4218 J0.503
X335.0666 Y14.4991 Z-3.1868 I1.4875 J0.2485
X335.0919 Y14.7607 Z-3.5086 I1.5081 J-0.0136
X335.1623 Y15.014 Z-3.8303 I1.4828 J-0.2753
X335.2755 Y15.2513 Z-4.152 I1.4125 J-0.5286
X335.4282 Y15.4653 Z-4.4737 I1.2992 J-0.7658
X335.6158 Y15.6494 Z-4.7954 I1.1465 J-0.9798
X335.8325 Y15.7983 Z-5.1171 I0.9589 J-1.164
X336.0717 Y15.9072 Z-5.4388 I0.7422 J-1.3128
X336.3263 Y15.973 Z-5.7605 I0.503 J-1.4218
X338.0828 Y14.4855 Z-6 I0.2484 J-1.4875
G1 Y14.8018 F3500
G3 X337.3304 Y15.1034 I-0.4366
G2 X336.9035 Y14.6741 I-10.82 J10.3319
G3 X337.2081 Y13.9201 I0.3046 J-0.3154
G1 X337.5544
G3 X338.0828 Y14.4486 J0.5285
G1 Y14.4855
G2 X338.672 Y15.3693 I0.9574
G3 X339.2612 Y16.253 I-0.3683 J0.8838
G1 Y18.4812
G3 X338.5704 Y18.6711 I-0.3715
G2 X336.2833 Y15.7194 I-13.1124 J7.7982
X333.3327 Y13.4308 I-10.2825 J10.2109
G3 X333.5199 Y12.7418 I0.1872 J-0.3191
G1 X338.298
G3 X339.2612 Y13.705 J0.9632
G1 Y16.253
X339.2574 Y16.3019 Z-5.9922
X339.2462 Y16.3496 Z-5.9845
X339.2298 Y16.3907 Z-5.9619
X339.2079 Y16.4291 Z-5.9394
X339.1628 Y16.4828 Z-5.8691
X339.1281 Y16.5115 Z-5.7806
X339.1152 Y16.5202 Z-5.6825
G0 Z5
X13.3759 Y12.3733
Z3
G1 Z-1.5827 F1200
X13.3901 Y12.369 Z-1.6787
X13.4317 Y12.3574 Z-1.7657
X13.4973 Y12.3416 Z-1.8356
X13.5813 Y12.3258 Z-1.8818
X13.6759 Y12.3138 Z-1.9
G3 X13.4174 Y12.3613 Z-2.2217 I0.1419 J1.5014
X13.171 Y12.4529 Z-2.5434 I0.4005 J1.454
X12.9442 Y12.5859 Z-2.8651 I0.6469 J1.3624
X12.744 Y12.7563 Z-3.1868 I0.8736 J1.2293
X12.5765 Y12.9588 Z-3.5086 I1.0738 J1.059
X12.4466 Y13.1874 Z-3.8303 I1.2414 J0.8564
X12.3584 Y13.4351 Z-4.152 I1.3712 J0.6278
X12.3146 Y13.6943 Z-4.4737 I1.4594 J0.3802
X12.3164 Y13.9572 Z-4.7954 I1.5033 J0.121
X12.3638 Y14.2157 Z-5.1171 I1.5014 J-0.1419
X12.4555 Y14.4621 Z-5.4388 I1.454 J-0.4005
X12.5885 Y14.6889 Z-5.7605 I1.3624 J-0.6469
X14.882 Y14.8839 Z-6 I1.2293 J-0.8736
G2 X14.6747 Y15.0945 I10.5573 J10.6014 F3500
G3 X13.9208 Y14.79 I-0.3154 J-0.3045
G1 Y14.4495
G3 X14.4493 Y13.921 I0.5285
G1 X14.7954
G3 X15.0974 Y14.6737 J0.4369
G2 X14.882 Y14.8839 I10.342 J10.8116
X14.6827 Y15.9053 I0.6553 J0.658
G3 X14.5405 Y16.9362 I-0.9328 J0.3966
G2 X13.9586 Y17.7714 I5.8775 J4.7156
X13.4348 Y18.6554 I72.1367 J43.3344
G3 X12.7461 Y18.469 I-0.3191 J-0.1865
G1 Y13.7095
G3 X13.7094 Y12.7463 I0.9633
G1 X18.4658
G3 X18.6528 Y13.4387 J0.3715
G2 X16.4395 Y14.9953 I7.9602 J13.6704
X14.5466 Y16.9286 I8.9459 J10.6523
G1 X14.5405 Y16.9362
X14.507 Y16.9719 Z-5.9922
X14.4683 Y17.002 Z-5.9845
X14.4299 Y17.0238 Z-5.9619
X14.3887 Y17.0401 Z-5.9394
X14.32 Y17.0537 Z-5.8691
X14.2749 Y17.0543 Z-5.7806
X14.2594 Y17.053 Z-5.6825
G0 Z5
X21.5462 Y270.2453
Z3
G1 Z-1.5827 F1200
X21.5391 Y270.2584 Z-1.6787
X21.5181 Y270.2961 Z-1.7657
X21.483 Y270.3537 Z-1.8356
X21.4349 Y270.4244 Z-1.8818
X21.3766 Y270.4999 Z-1.9
G3 X21.5254 Y270.2832 Z-2.2217 I-1.164 J-0.9589
X21.6344 Y270.0439 Z-2.5434 I-1.3128 J-0.7422
X21.7001 Y269.7894 Z-2.8651 I-1.4218 J-0.503
X21.7207 Y269.5273 Z-3.1868 I-1.4875 J-0.2484
X21.6954 Y269.2657 Z-3.5086 I-1.5081 J0.0136
X21.625 Y269.0124 Z-3.8303 I-1.4828 J0.2753
X21.5118 Y268.7751 Z-4.152 I-1.4125 J0.5286
X21.3591 Y268.5611 Z-4.4737 I-1.2992 J0.7658
X21.1715 Y268.3769 Z-4.7954 I-1.1465 J0.9798
X20.9548 Y268.2281 Z-5.1171 I-0.9589 J1.164
X20.7156 Y268.1192 Z-5.4388 I-0.7422 J1.3128
X20.461 Y268.0534 Z-5.7605 I-0.503 J1.4218
X18.7045 Y269.541 Z-6 I-0.2484 J1.4875
G1 X18.7046 Y257.1375 F3500
G3 X19.5801 Y256.5091 I0.6633
G1 X19.7221 Y256.5564
G3 X20.2099 Y257.2304 I-0.2219 J0.6741
G1 X20.211 Y269.5845
G3 X19.5013 Y270.2942 I-0.7096 J0.0001
G1 X19.414
G3 X18.7045 Y269.5846 I0.0001 J-0.7097
G1 Y269.541
G2 X17.6479 Y267.956 I-1.717
G3 X16.5913 Y266.3711 I0.6604 J-1.5849
G1 X16.5914 Y253.792
G3 X17.427 Y253.2899 I0.5687
G2 X21.0849 Y254.7642 I8.7917 J-16.5379
G3 X22.323 Y256.4022 I-0.4647 J1.6381
G1 X22.3244 Y271.4445
G3 X21.3613 Y272.4076 I-0.963 J0.0001
G1 X17.5545 Y272.4073
G3 X16.5912 Y271.444 I0.0001 J-0.9633
G1 X16.5913 Y266.3711
G2 X15.5906 Y264.8701 I-1.626
G3 X14.59 Y263.3691 I0.6254 J-1.5009
G1 X14.5902 Y249.8355
G3 X15.3686 Y249.4785 I0.4711
G2 X22.2283 Y252.9956 I10.709 J-12.4387
G3 X23.0588 Y253.3866 I-0.534 J2.2118
G2 X23.3171 Y253.5762 I9.8623 J-13.1609
G3 X24.3242 Y255.54 I-1.4113 J1.964
G1 X24.3259 Y273.4459
G3 X23.3627 Y274.409 I-0.963 J0.0001
G1 X15.5532 Y274.4084
G3 X14.5899 Y273.4451 I0.0001 J-0.9633
G1 X14.59 Y263.3691
G2 X13.6658 Y261.9828 I-1.5018
G3 X12.7417 Y260.5966 I0.5776 J-1.3863
G1 X12.7419 Y244.5258
G3 X13.431 Y244.3385 I0.3701
G2 X22.6724 Y251.2013 I12.7127 J-7.4651
G3 X24.1562 Y251.8992 I-0.949 J3.9443
G2 X25.1719 Y252.5941 I8.5671 J-11.4326
G3 X26.1725 Y254.3923 I-1.1159 J1.7984
G1 X26.1744 Y275.2944
G3 X25.2113 Y276.2575 I-0.963 J0.0001
G1 X13.7048 Y276.2566
G3 X12.7415 Y275.2933 I0.0001 J-0.9633
G1 X12.7417 Y260.5966
G2 X11.941 Y259.3955 I-1.3011
G3 X11.1403 Y258.1945 I0.5005 J-1.201
G1 X11.1429 Y12.1063
G3 X12.1062 Y11.1431 I0.9633
G1 X339.8967
G3 X340.8599 Y12.1063 J0.9632
G1 X340.8571 Y276.8968
G3 X339.8939 Y277.8601 I-0.9633
G1 X325.1873
G3 X324.2241 Y276.8969 J-0.9631
G1 X324.2263 Y253.3318
G3 X325.2162 Y251.6732 I1.8848 J0.0002
G2 X326.0802 Y251.17 I-7.2789 J-13.4928
X326.9034 Y250.6026 I-6.1071 J-9.7422
G3 X328.8967 Y249.6597 I3.2633 J4.3202
G2 X334.4774 Y246.8523 I-3.2234 J-13.3579
X338.1791 Y241.8202 I-8.3793 J-10.0416
X338.9511 Y239.0279 I-10.8792 J-4.5111
X339.1631 Y236.1387 I-19.5825 J-2.8888
G1 X339.1584 Y26.1007
G2 X335.8084 Y17.3513 I-13.1015 J0.0003
X327.5355 Y12.9543 I-10.1411 J9.0993
G1 X26.1537 Y12.838
G2 X17.322 Y16.2287 J13.1973
X12.936 Y24.6107 I9.0928 J10.0965
G1 X12.8393 Y56.0704
G2 X13.1153 Y58.355 I9.5978 J-0.0006
X13.7874 Y60.5558 I19.9661 J-4.8944
G3 X13.7854 Y61.44 I-1.1951 J0.4395
G2 X13.029 Y64.5522 I12.7036 J4.7355
X12.837 Y67.7493 I26.507 J3.1969
G1 X12.9784 Y238.71
G2 X16.3351 Y245.7456 I12.6991 J-1.7403
X23.0808 Y249.6525 I9.8787 J-9.2798
G3 X25.076 Y250.5873 I-1.2515 J5.2675
G2 X25.9098 Y251.1619 I7.6543 J-10.2145
X26.7839 Y251.6732 I7.8403 J-12.4021
G3 X27.7738 Y253.3318 I-0.8949 J1.6588
G1 X27.7759 Y276.896
G3 X26.8128 Y277.8591 I-0.963 J0.0001
G1 X12.1034 Y277.8579
G3 X11.1401 Y276.8946 I0.0001 J-0.9633
G1 X11.1403 Y258.1945
G2 X10.1958 Y256.7777 I-1.5348
G3 X9.2514 Y255.361 I0.5903 J-1.4167
G1 X9.254 Y10.2174
G3 X10.2172 Y9.2541 I0.9633
G1 X341.7857
G3 X342.7489 Y10.2174 J0.9632
G1 X342.7461 Y278.7858
G3 X341.7828 Y279.749 I-0.9633
G1 X323.2981 Y279.7491
G3 X322.335 Y278.7859 J-0.9631
G1 X322.3374 Y251.9402
G3 X323.3168 Y250.4837 I1.573 J0.0002
G2 X325.7726 Y249.0895 I-4.1312 J-10.1371
G3 X328.4442 Y247.8257 I4.3596 J5.7602
G2 X333.2464 Y245.4197 I-2.7688 J-11.5215
X336.4342 Y241.0966 I-7.1513 J-8.6101
X337.0985 Y238.6591 I-9.2147 J-3.8209
X337.2741 Y236.1387 I-17.9966 J-2.52
G1 X337.2694 Y26.1007
G2 X334.3841 Y18.5921 I-11.2134 J0.0003
X327.2765 Y14.8254 I-8.7169 J7.8595
G1 X26.1537 Y14.7269
G2 X18.5706 Y17.6461 J11.3088
X14.8099 Y24.849 I7.8447 J8.6791
G1 X14.7405 Y56.0703
G2 X14.9871 Y58.0455 I8.0357 J-0.0005
X15.5761 Y59.9468 I18.5622 J-4.7082
G3 X15.5678 Y62.0669 I-2.8521 J1.0489
G2 X14.8903 Y64.87 I10.9902 J4.1397
X14.7259 Y67.7493 I25.1344 J2.8791
G1 X14.8499 Y238.4535
G2 X17.7372 Y244.4799 I10.8307 J-1.4842
X23.5269 Y247.8169 I8.4752 J-8.0136
G3 X26.1956 Y249.0658 I-1.6633 J7.0298
G2 X27.394 Y249.8545 I7.0535 J-9.4127
X28.6833 Y250.4837 I5.3307 J-9.2876
G3 X29.6626 Y251.9402 I-0.5936 J1.4567
G1 X29.6651 Y278.7851
G3 X28.702 Y279.7482 I-0.963 J0.0001
G1 X10.2144 Y279.7467
G3 X9.2511 Y278.7834 I0.0001 J-0.9633
G1 X9.2514 Y255.361
G2 X8.0811 Y253.6055 I-1.9017
G3 X6.9108 Y251.8501 I0.7314 J-1.7554
G1 X6.9134 Y7.8768
G3 X7.8767 Y6.9136 I0.9633
G1 X344.1263
G3 X345.0895 Y7.8768 J0.9632
G1 X345.0866 Y281.1263
G3 X344.1234 Y282.0896 I-0.9633
G1 X320.9573 Y282.0897
G3 X319.9942 Y281.1265 J-0.9631
G1 X319.997 Y249.9638
G3 X320.9452 Y248.7849 I1.207 J0.0001
G2 X323.0307 Y248.0412 I-1.8838 J-8.5786
X324.874 Y246.8144 I-4.2387 J-8.3666
G3 X327.3515 Y245.6611 I3.3234 J3.9014
G2 X331.5177 Y243.8252 I-1.523 J-9.1011
X334.2721 Y240.2001 I-5.5279 J-7.0593
