%
(Made in : Autodesk CAM Post Processor)
(G Code optimized for OpenBuilds OX CNC 1000 x 750 with GRBL V0.9j controller)

(Program Name : 1001)
(1 Operation :)
(1 : Pocket2)
(  Tool : Flat End Mill 3 Flutes, Diam = 3.175mm, Len = 20mm)
(  Spindle : RPM = 30000, set router dial to 6)
(  Machining time : 28 min 44 sec)

G90 G94
G17
G21

(Operation 1 of 1 : Pocket2)

G53 G0 Z5
G54
S30000 M3
G4 P1.0
X145.4707 Y279.1986
Z6
Z3
G1 Z2.4173 F1200
X145.4644 Y279.1852 Z2.3213
X145.4469 Y279.1457 Z2.2343
X145.4218 Y279.083 Z2.1644
X145.3941 Y279.0022 Z2.1182
X145.3687 Y278.9102 Z2.1
G3 X145.4528 Y279.1593 Z1.7783 I1.4655 J-0.3559
X145.5788 Y279.39 Z1.4566 I1.3815 J-0.6049
X145.743 Y279.5953 Z1.1349 I1.2554 J-0.8357
X145.9403 Y279.769 Z0.8132 I1.0913 J-1.041
X146.1648 Y279.9058 Z0.4914 I0.8939 J-1.2146
X146.4097 Y280.0015 Z0.1697 I0.6694 J-1.3514
X146.6674 Y280.0533 Z-0.152 I0.4246 J-1.4471
X146.9302 Y280.0595 Z-0.4737 I0.1668 J-1.4989
X147.1901 Y280.0199 Z-0.7954 I-0.096 J-1.5051
X147.4392 Y279.9359 Z-1.1171 I-0.3559 J-1.4655
X147.6699 Y279.8098 Z-1.4388 I-0.6049 J-1.3815
X147.8752 Y279.6457 Z-1.7605 I-0.8357 J-1.2555
X147.7391 Y277.3479 Z-2 I-1.041 J-1.0913
X146.1893 Y279.4143 I-0.7749 J1.0332
X146.8107 Y278.5857 I0.3107 J-0.4143 F3500
X146.1893 Y279.4143 I-0.3107 J0.4143
G2 X145.1385 Y279.3319 I-0.5904 J0.7871
G3 X144.4069 Y278.5731 I-0.2567 J-0.4846
G1 X145.3303 Y276.9735
X147.6698
X148.8396 Y279
X147.6698 Y281.0265
X145.3303
X144.1604 Y279
X144.4069 Y278.5731
X144.436 Y278.5364
X144.4745 Y278.5099
X147.2482 Y277.1521
X147.2893 Y277.1385
X147.3327 Y277.1366
X147.3749 Y277.1465
G3 X147.1222 Y277.074 Z-2.3217 I-0.5406 J1.4079 F1200
X146.8607 Y277.0465 Z-2.6434 I-0.2879 J1.4804
X146.5985 Y277.0648 Z-2.9651 I-0.0265 J1.5079
X146.3434 Y277.1284 Z-3.2868 I0.2357 J1.4896
X146.1032 Y277.2353 Z-3.6086 I0.4908 J1.426
X145.8853 Y277.3822 Z-3.9303 I0.731 J1.3191
X147.7391 Y277.3479 Z-4 I0.949 J1.1722
X146.1893 Y279.4143 I-0.7749 J1.0332
X146.8107 Y278.5857 I0.3107 J-0.4143 F3500
X146.1893 Y279.4143 I-0.3107 J0.4143
G2 X145.1385 Y279.3319 I-0.5904 J0.7871
G3 X144.4069 Y278.5731 I-0.2567 J-0.4846
G1 X145.3303 Y276.9735
X147.6698
X148.8396 Y279
X147.6698 Y281.0265
X145.3303
X144.1604 Y279
X144.4069 Y278.5731
X144.4346 Y278.5327 Z-3.9922
X144.4682 Y278.497 Z-3.9845
X144.5029 Y278.4696 Z-3.9619
X144.541 Y278.4473 Z-3.9394
X144.6069 Y278.4233 Z-3.8691
X144.6513 Y278.4158 Z-3.7806
X144.6668 Y278.4147 Z-3.6825
G0 Z5
X146.925 Y278.5469
Z3
G1 Z-1 F1200
Z-5.6825
X146.9402 Y278.5504 Z-5.7806
X146.983 Y278.5645 Z-5.8691
X147.0445 Y278.598 Z-5.9394
X147.0789 Y278.6258 Z-5.9619
X147.1091 Y278.6581 Z-5.9845
X147.137 Y278.6984 Z-5.9922
X147.1583 Y278.7425 Z-6
X147.1795 Y278.7967 F3500
X147.2063 Y278.919
X147.2079 Y278.9335
X147.2074 Y279.0533
X147.1884 Y279.1778
X147.1799 Y279.2098
X147.1677 Y279.244
X147.1125 Y279.3578
X147.0535 Y279.4436
X146.9691 Y279.5341
X146.9528 Y279.5479
X146.8518 Y279.6157
X146.7372 Y279.6703
X146.7223 Y279.6754
X146.5807 Y279.7063
X146.5661 Y279.7079
X146.4463 Y279.7074
X146.3218 Y279.6883
X146.2892 Y279.6796
X146.2555 Y279.6676
X146.1432 Y279.613
X146.0546 Y279.5529
X145.9967 Y279.5015
X145.9468 Y279.4452
X145.8868 Y279.3569
X145.8326 Y279.2446
X145.8266 Y279.2278
X145.7944 Y279.0861
X145.7927 Y279.0717
X145.7922 Y278.9514
X145.8102 Y278.8272
X145.8134 Y278.8148
X145.8631 Y278.6878
X145.9188 Y278.5904
X145.9391 Y278.5625
X145.9655 Y278.5315
X146.0568 Y278.4462
X146.1423 Y278.3876
X146.2559 Y278.3323
X146.2713 Y278.3268
X146.4136 Y278.2944
X146.428 Y278.2927
X146.5482 Y278.2922
X146.6724 Y278.3101
X146.7039 Y278.3182
X146.7545 Y278.3358
X146.793 Y278.3524
X146.9043 Y278.4165
X146.9612 Y278.4599
X147.0401 Y278.5388
X147.0835 Y278.5953
X147.1374 Y278.6891
X147.1583 Y278.7425
X147.1726 Y278.7894 Z-5.9922
X147.1795 Y278.8379 Z-5.9845
X147.1793 Y278.8821 Z-5.9619
X147.1729 Y278.9259 Z-5.9394
X147.1505 Y278.9923 Z-5.8691
X147.1286 Y279.0317 Z-5.7806
X147.1198 Y279.0445 Z-5.6825
G0 Z5
X146.925 Y278.5469
G1 Z-3 F1200
Z-7.6825
X146.9402 Y278.5504 Z-7.7806
X146.983 Y278.5645 Z-7.8691
X147.0445 Y278.598 Z-7.9394
X147.0789 Y278.6258 Z-7.9619
X147.1091 Y278.6581 Z-7.9845
X147.137 Y278.6984 Z-7.9922
X147.1583 Y278.7425 Z-8
X147.1795 Y278.7967 F3500
X147.2063 Y278.919
X147.2079 Y278.9335
X147.2074 Y279.0533
X147.1884 Y279.1778
X147.1799 Y279.2098
X147.1677 Y279.244
X147.1125 Y279.3578
X147.0535 Y279.4436
X146.9691 Y279.5341
X146.9528 Y279.5479
X146.8518 Y279.6157
X146.7372 Y279.6703
X146.7223 Y279.6754
X146.5807 Y279.7063
X146.5661 Y279.7079
X146.4463 Y279.7074
X146.3218 Y279.6883
X146.2892 Y279.6796
X146.2555 Y279.6676
X146.1432 Y279.613
X146.0546 Y279.5529
X145.9967 Y279.5015
X145.9468 Y279.4452
X145.8868 Y279.3569
X145.8326 Y279.2446
X145.8266 Y279.2278
X145.7944 Y279.0861
X145.7927 Y279.0717
X145.7922 Y278.9514
X145.8102 Y278.8272
X145.8134 Y278.8148
X145.8631 Y278.6878
X145.9188 Y278.5904
X145.9391 Y278.5625
X145.9655 Y278.5315
X146.0568 Y278.4462
X146.1423 Y278.3876
X146.2559 Y278.3323
X146.2713 Y278.3268
X146.4136 Y278.2944
X146.428 Y278.2927
X146.5482 Y278.2922
X146.6724 Y278.3101
X146.7039 Y278.3182
X146.7545 Y278.3358
X146.793 Y278.3524
X146.9043 Y278.4165
X146.9612 Y278.4599
X147.0401 Y278.5388
X147.0835 Y278.5953
X147.1374 Y278.6891
X147.1583 Y278.7425
X147.1726 Y278.7894 Z-7.9922
X147.1795 Y278.8379 Z-7.9845
X147.1793 Y278.8821 Z-7.9619
X147.1729 Y278.9259 Z-7.9394
X147.1505 Y278.9923 Z-7.8691
X147.1286 Y279.0317 Z-7.7806
X147.1198 Y279.0445 Z-7.6825
G0 Z5
X146.925 Y278.5469
G1 Z-5 F1200
Z-9.6825
X146.9402 Y278.5504 Z-9.7806
X146.983 Y278.5645 Z-9.8691
X147.0445 Y278.598 Z-9.9394
X147.0789 Y278.6258 Z-9.9619
X147.1091 Y278.6581 Z-9.9845
X147.137 Y278.6984 Z-9.9922
X147.1583 Y278.7425 Z-10
X147.1795 Y278.7967 F3500
X147.2063 Y278.919
X147.2079 Y278.9335
X147.2074 Y279.0533
X147.1884 Y279.1778
X147.1799 Y279.2098
X147.1677 Y279.244
X147.1125 Y279.3578
X147.0535 Y279.4436
X146.9691 Y279.5341
X146.9528 Y279.5479
X146.8518 Y279.6157
X146.7372 Y279.6703
X146.7223 Y279.6754
X146.5807 Y279.7063
X146.5661 Y279.7079
X146.4463 Y279.7074
X146.3218 Y279.6883
X146.2892 Y279.6796
X146.2555 Y279.6676
X146.1432 Y279.613
X146.0546 Y279.5529
X145.9967 Y279.5015
X145.9468 Y279.4452
X145.8868 Y279.3569
X145.8326 Y279.2446
X145.8266 Y279.2278
X145.7944 Y279.0861
X145.7927 Y279.0717
X145.7922 Y278.9514
X145.8102 Y278.8272
X145.8134 Y278.8148
X145.8631 Y278.6878
X145.9188 Y278.5904
X145.9391 Y278.5625
X145.9655 Y278.5315
X146.0568 Y278.4462
X146.1423 Y278.3876
X146.2559 Y278.3323
X146.2713 Y278.3268
X146.4136 Y278.2944
X146.428 Y278.2927
X146.5482 Y278.2922
X146.6724 Y278.3101
X146.7039 Y278.3182
X146.7545 Y278.3358
X146.793 Y278.3524
X146.9043 Y278.4165
X146.9612 Y278.4599
X147.0401 Y278.5388
X147.0835 Y278.5953
X147.1374 Y278.6891
X147.1583 Y278.7425
X147.1726 Y278.7894 Z-9.9922
X147.1795 Y278.8379 Z-9.9845
X147.1793 Y278.8821 Z-9.9619
X147.1729 Y278.9259 Z-9.9394
X147.1505 Y278.9923 Z-9.8691
X147.1286 Y279.0317 Z-9.7806
X147.1198 Y279.0445 Z-9.6825
G0 Z5
X145.8802
G1 Z-7 F1200
Z-11.6825
X145.8714 Y279.0317 Z-11.7806
X145.8496 Y278.9923 Z-11.8691
X145.8272 Y278.9259 Z-11.9394
X145.8208 Y278.8821 Z-11.9619
X145.8205 Y278.8379 Z-11.9845
X145.8274 Y278.7894 Z-11.9922
X145.8417 Y278.7425 Z-12
X145.8631 Y278.6878 F3500
X145.9188 Y278.5904
X145.9391 Y278.5625
X145.9655 Y278.5315
X146.0568 Y278.4462
X146.1423 Y278.3876
X146.2559 Y278.3323
X146.2713 Y278.3268
X146.4136 Y278.2944
X146.428 Y278.2927
X146.5482 Y278.2922
X146.6724 Y278.3101
X146.7039 Y278.3182
X146.7545 Y278.3358
X146.793 Y278.3524
X146.9043 Y278.4165
X146.9612 Y278.4599
X147.0401 Y278.5388
X147.0835 Y278.5953
X147.1374 Y278.6891
X147.1795 Y278.7967
X147.2063 Y278.919
X147.2079 Y278.9335
X147.2074 Y279.0533
X147.1884 Y279.1778
X147.1799 Y279.2098
X147.1677 Y279.244
X147.1125 Y279.3578
X147.0535 Y279.4436
X146.9691 Y279.5341
X146.9528 Y279.5479
X146.8518 Y279.6157
X146.7372 Y279.6703
X146.7223 Y279.6754
X146.5807 Y279.7063
X146.5661 Y279.7079
X146.4463 Y279.7074
X146.3218 Y279.6883
X146.2892 Y279.6796
X146.2555 Y279.6676
X146.1432 Y279.613
X146.0546 Y279.5529
X145.9967 Y279.5015
X145.9468 Y279.4452
X145.8868 Y279.3569
X145.8326 Y279.2446
X145.8266 Y279.2278
X145.7944 Y279.0861
X145.7927 Y279.0717
X145.7922 Y278.9514
X145.8102 Y278.8272
X145.8134 Y278.8148
X145.8417 Y278.7425
X145.8631 Y278.6984 Z-11.9922
X145.8909 Y278.6581 Z-11.9845
X145.9211 Y278.6258 Z-11.9619
X145.9555 Y278.598 Z-11.9394
X146.0171 Y278.5644 Z-11.8691
X146.0599 Y278.5504 Z-11.7806
X146.075 Y278.5469 Z-11.6825
G0 Z5
X145.8802 Y279.0445
G1 Z-9 F1200
Z-13.6825
X145.8714 Y279.0317 Z-13.7806
X145.8496 Y278.9923 Z-13.8691
X145.8272 Y278.9259 Z-13.9394
X145.8208 Y278.8821 Z-13.9619
X145.8205 Y278.8379 Z-13.9845
X145.8274 Y278.7894 Z-13.9922
X145.8417 Y278.7425 Z-14
X145.8631 Y278.6878 F3500
X145.9188 Y278.5904
X145.9391 Y278.5625
X145.9655 Y278.5315
X146.0568 Y278.4462
X146.1423 Y278.3876
X146.2559 Y278.3323
X146.2713 Y278.3268
X146.4136 Y278.2944
X146.428 Y278.2927
X146.5482 Y278.2922
X146.6724 Y278.3101
X146.7039 Y278.3182
X146.7545 Y278.3358
X146.793 Y278.3524
X146.9043 Y278.4165
X146.9612 Y278.4599
X147.0401 Y278.5388
X147.0835 Y278.5953
X147.1374 Y278.6891
X147.1795 Y278.7967
X147.2063 Y278.919
X147.2079 Y278.9335
X147.2074 Y279.0533
X147.1884 Y279.1778
X147.1799 Y279.2098
X147.1677 Y279.244
X147.1125 Y279.3578
X147.0535 Y279.4436
X146.9691 Y279.5341
X146.9528 Y279.5479
X146.8518 Y279.6157
X146.7372 Y279.6703
X146.7223 Y279.6754
X146.5807 Y279.7063
X146.5661 Y279.7079
X146.4463 Y279.7074
X146.3218 Y279.6883
X146.2892 Y279.6796
X146.2555 Y279.6676
X146.1432 Y279.613
X146.0546 Y279.5529
X145.9967 Y279.5015
X145.9468 Y279.4452
X145.8868 Y279.3569
X145.8326 Y279.2446
X145.8266 Y279.2278
X145.7944 Y279.0861
X145.7927 Y279.0717
X145.7922 Y278.9514
X145.8102 Y278.8272
X145.8134 Y278.8148
X145.8417 Y278.7425
X145.8631 Y278.6984 Z-13.9922
X145.8909 Y278.6581 Z-13.9845
X145.9211 Y278.6258 Z-13.9619
X145.9555 Y278.598 Z-13.9394
X146.0171 Y278.5644 Z-13.8691
X146.0599 Y278.5504 Z-13.7806
X146.075 Y278.5469 Z-13.6825
G0 Z5
X146.925
G1 Z-11 F1200
Z-15.6825
X146.9402 Y278.5504 Z-15.7806
X146.983 Y278.5645 Z-15.8691
X147.0445 Y278.598 Z-15.9394
X147.0789 Y278.6258 Z-15.9619
X147.1091 Y278.6581 Z-15.9845
X147.137 Y278.6984 Z-15.9922
X147.1583 Y278.7425 Z-16
X147.1795 Y278.7967 F3500
X147.2063 Y278.919
X147.2079 Y278.9335
X147.2074 Y279.0533
X147.1884 Y279.1778
X147.1799 Y279.2098
X147.1677 Y279.244
X147.1125 Y279.3578
X147.0535 Y279.4436
X146.9691 Y279.5341
X146.9528 Y279.5479
X146.8518 Y279.6157
X146.7372 Y279.6703
X146.7223 Y279.6754
X146.5807 Y279.7063
X146.5661 Y279.7079
X146.4463 Y279.7074
X146.3218 Y279.6883
X146.2892 Y279.6796
X146.2555 Y279.6676
X146.1432 Y279.613
X146.0546 Y279.5529
X145.9967 Y279.5015
X145.9468 Y279.4452
X145.8868 Y279.3569
X145.8326 Y279.2446
X145.8266 Y279.2278
X145.7944 Y279.0861
X145.7927 Y279.0717
X145.7922 Y278.9514
X145.8102 Y278.8272
X145.8134 Y278.8148
X145.8631 Y278.6878
X145.9188 Y278.5904
X145.9391 Y278.5625
X145.9655 Y278.5315
X146.0568 Y278.4462
X146.1423 Y278.3876
X146.2559 Y278.3323
X146.2713 Y278.3268
X146.4136 Y278.2944
X146.428 Y278.2927
X146.5482 Y278.2922
X146.6724 Y278.3101
X146.7039 Y278.3182
X146.7545 Y278.3358
X146.793 Y278.3524
X146.9043 Y278.4165
X146.9612 Y278.4599
X147.0401 Y278.5388
X147.0835 Y278.5953
X147.1374 Y278.6891
X147.1583 Y278.7425
X147.1726 Y278.7894 Z-15.9922
X147.1795 Y278.8379 Z-15.9845
X147.1793 Y278.8821 Z-15.9619
X147.1729 Y278.9259 Z-15.9394
X147.1505 Y278.9923 Z-15.8691
X147.1286 Y279.0317 Z-15.7806
X147.1198 Y279.0445 Z-15.6825
G0 Z5
X146.925 Y278.5469
G1 Z-13 F1200
Z-17.6825
X146.9402 Y278.5504 Z-17.7806
X146.983 Y278.5645 Z-17.8691
X147.0445 Y278.598 Z-17.9394
X147.0789 Y278.6258 Z-17.9619
X147.1091 Y278.6581 Z-17.9845
X147.137 Y278.6984 Z-17.9922
X147.1583 Y278.7425 Z-18
X147.1795 Y278.7967 F3500
X147.2063 Y278.919
X147.2079 Y278.9335
X147.2074 Y279.0533
X147.1884 Y279.1778
X147.1799 Y279.2098
X147.1677 Y279.244
X147.1125 Y279.3578
X147.0535 Y279.4436
X146.9691 Y279.5341
X146.9528 Y279.5479
X146.8518 Y279.6157
X146.7372 Y279.6703
X146.7223 Y279.6754
X146.5807 Y279.7063
X146.5661 Y279.7079
X146.4463 Y279.7074
X146.3218 Y279.6883
X146.2892 Y279.6796
X146.2555 Y279.6676
X146.1432 Y279.613
X146.0546 Y279.5529
X145.9967 Y279.5015
X145.9468 Y279.4452
X145.8868 Y279.3569
X145.8326 Y279.2446
X145.8266 Y279.2278
X145.7944 Y279.0861
X145.7927 Y279.0717
X145.7922 Y278.9514
X145.8102 Y278.8272
X145.8134 Y278.8148
X145.8631 Y278.6878
X145.9188 Y278.5904
X145.9391 Y278.5625
X145.9655 Y278.5315
X146.0568 Y278.4462
X146.1423 Y278.3876
X146.2559 Y278.3323
X146.2713 Y278.3268
X146.4136 Y278.2944
X146.428 Y278.2927
X146.5482 Y278.2922
X146.6724 Y278.3101
X146.7039 Y278.3182
X146.7545 Y278.3358
X146.793 Y278.3524
X146.9043 Y278.4165
X146.9612 Y278.4599
X147.0401 Y278.5388
X147.0835 Y278.5953
X147.1374 Y278.6891
X147.1583 Y278.7425
X147.1726 Y278.7894 Z-17.9922
X147.1795 Y278.8379 Z-17.9845
X147.1793 Y278.8821 Z-17.9619
X147.1729 Y278.9259 Z-17.9394
X147.1505 Y278.9923 Z-17.8691
X147.1286 Y279.0317 Z-17.7806
X147.1198 Y279.0445 Z-17.6825
G0 Z5
X146.925 Y278.5469
G1 Z-15 F1200
Z-19.3825
X146.9402 Y278.5504 Z-19.4806
X146.983 Y278.5645 Z-19.5691
X147.0445 Y278.598 Z-19.6394
X147.0789 Y278.6258 Z-19.6619
X147.1091 Y278.6581 Z-19.6845
X147.137 Y278.6984 Z-19.6922
X147.1583 Y278.7425 Z-19.7
X147.1795 Y278.7967 F3500
X147.2063 Y278.919
X147.2079 Y278.9335
X147.2074 Y279.0533
X147.1884 Y279.1778
X147.1799 Y279.2098
X147.1677 Y279.244
X147.1125 Y279.3578
X147.0535 Y279.4436
X146.9691 Y279.5341
X146.9528 Y279.5479
X146.8518 Y279.6157
X146.7372 Y279.6703
X146.7223 Y279.6754
X146.5807 Y279.7063
X146.5661 Y279.7079
X146.4463 Y279.7074
X146.3218 Y279.6883
X146.2892 Y279.6796
X146.2555 Y279.6676
X146.1432 Y279.613
X146.0546 Y279.5529
X145.9967 Y279.5015
X145.9468 Y279.4452
X145.8868 Y279.3569
X145.8326 Y279.2446
X145.8266 Y279.2278
X145.7944 Y279.0861
X145.7927 Y279.0717
X145.7922 Y278.9514
X145.8102 Y278.8272
X145.8134 Y278.8148
X145.8631 Y278.6878
X145.9188 Y278.5904
X145.9391 Y278.5625
X145.9655 Y278.5315
X146.0568 Y278.4462
X146.1423 Y278.3876
X146.2559 Y278.3323
X146.2713 Y278.3268
X146.4136 Y278.2944
X146.428 Y278.2927
X146.5482 Y278.2922
X146.6724 Y278.3101
X146.7039 Y278.3182
X146.7545 Y278.3358
X146.793 Y278.3524
X146.9043 Y278.4165
X146.9612 Y278.4599
X147.0401 Y278.5388
X147.0835 Y278.5953
X147.1374 Y278.6891
X147.1583 Y278.7425
X147.1726 Y278.7894 Z-19.6922
X147.1795 Y278.8379 Z-19.6845
X147.1793 Y278.8821 Z-19.6619
X147.1729 Y278.9259 Z-19.6394
X147.1505 Y278.9923 Z-19.5691
X147.1286 Y279.0317 Z-19.4806
X147.1198 Y279.0445 Z-19.3825
G0 Z5
X205.4707 Y279.1986
Z2.4173
G1 X205.4644 Y279.1852 Z2.3213 F1200
X205.4469 Y279.1457 Z2.2343
X205.4218 Y279.083 Z2.1644
X205.3941 Y279.0022 Z2.1182
X205.3687 Y278.9102 Z2.1
G3 X205.4528 Y279.1593 Z1.7783 I1.4655 J-0.3559
X205.5788 Y279.39 Z1.4566 I1.3815 J-0.6049
X205.743 Y279.5953 Z1.1349 I1.2554 J-0.8356
X205.9403 Y279.769 Z0.8132 I1.0913 J-1.041
X206.1648 Y279.9058 Z0.4914 I0.8939 J-1.2146
X206.4097 Y280.0015 Z0.1697 I0.6694 J-1.3514
X206.6674 Y280.0533 Z-0.152 I0.4246 J-1.4471
X206.9302 Y280.0595 Z-0.4737 I0.1668 J-1.4989
X207.1901 Y280.0199 Z-0.7954 I-0.096 J-1.5051
X207.4392 Y279.9359 Z-1.1171 I-0.3559 J-1.4655
X207.6699 Y279.8098 Z-1.4388 I-0.6049 J-1.3815
X207.8752 Y279.6456 Z-1.7605 I-0.8356 J-1.2554
X207.7391 Y277.3479 Z-2 I-1.041 J-1.0913
X206.1893 Y279.4143 I-0.7749 J1.0332
X206.8107 Y278.5857 I0.3107 J-0.4143 F3500
X206.1893 Y279.4143 I-0.3107 J0.4143
G2 X205.1385 Y279.3319 I-0.5904 J0.7871
G3 X204.4069 Y278.5731 I-0.2567 J-0.4846
G1 X205.3303 Y276.9735
X207.6697
X208.8396 Y279
X207.6697 Y281.0265
X205.3303
X204.1604 Y279
X204.4069 Y278.5731
X204.436 Y278.5364
X204.4745 Y278.5099
X207.2482 Y277.1521
X207.2893 Y277.1385
X207.3327 Y277.1366
X207.3749 Y277.1465
G3 X207.1222 Y277.074 Z-2.3217 I-0.5406 J1.4079 F1200
X206.8607 Y277.0465 Z-2.6434 I-0.2879 J1.4804
X206.5985 Y277.0648 Z-2.9651 I-0.0265 J1.5079
X206.3434 Y277.1284 Z-3.2868 I0.2357 J1.4896
X206.1032 Y277.2353 Z-3.6086 I0.4908 J1.426
X205.8853 Y277.3822 Z-3.9303 I0.731 J1.3191
X207.7391 Y277.3479 Z-4 I0.949 J1.1721
X206.1893 Y279.4143 I-0.7749 J1.0332
X206.8107 Y278.5857 I0.3107 J-0.4143 F3500
X206.1893 Y279.4143 I-0.3107 J0.4143
G2 X205.1385 Y279.3319 I-0.5904 J0.7871
G3 X204.4069 Y278.5731 I-0.2567 J-0.4846
G1 X205.3303 Y276.9735
X207.6697
X208.8396 Y279
X207.6697 Y281.0265
X205.3303
X204.1604 Y279
X204.4069 Y278.5731
X204.4346 Y278.5327 Z-3.9922
X204.4682 Y278.497 Z-3.9845
X204.5029 Y278.4696 Z-3.9619
X204.541 Y278.4473 Z-3.9394
X204.6069 Y278.4233 Z-3.8691
X204.6513 Y278.4158 Z-3.7806
X204.6668 Y278.4147 Z-3.6825
G0 Z5
X206.7361 Y279.575
Z3
G1 Z-1 F1200
Z-5.6825
X206.7266 Y279.5873 Z-5.7806
X206.6961 Y279.6205 Z-5.8691
X206.64 Y279.6625 Z-5.9394
X206.6004 Y279.6823 Z-5.9619
X206.5585 Y279.6964 Z-5.9845
X206.5103 Y279.705 Z-5.9922
X206.4613 Y279.7061 Z-6
X206.3896 Y279.7021 F3500
X206.3556 Y279.6967
X206.3152 Y279.6868
X206.2284 Y279.6567
X206.1488 Y279.6181
X206.1097 Y279.5945
X206.0737 Y279.5688
X205.9868 Y279.4917
X205.9574 Y279.4591
X205.9003 Y279.3816
X205.8597 Y279.3091
X205.8385 Y279.2612
X205.8266 Y279.2278
X205.7944 Y279.086
X205.7927 Y279.0716
X205.7922 Y278.9514
X205.8102 Y278.8273
X205.8134 Y278.8148
X205.8695 Y278.6716
X205.8798 Y278.652
X205.9309 Y278.575
X205.9961 Y278.4997
X206.0673 Y278.436
X206.0916 Y278.4185
X206.2198 Y278.3468
X206.255 Y278.3322
X206.3068 Y278.3152
X206.3385 Y278.3075
X206.462 Y278.2918
X206.5649 Y278.2937
X206.6778 Y278.3127
X206.7457 Y278.3336
X206.8223 Y278.3675
X206.9031 Y278.4159
X206.998 Y278.4932
X207.0245 Y278.5206
X207.0954 Y278.6133
X207.1358 Y278.685
X207.1796 Y278.7968
X207.2063 Y278.919
X207.2079 Y278.9335
X207.2074 Y279.0533
X207.1884 Y279.1778
X207.1799 Y279.2098
X207.167 Y279.2458
X207.1142 Y279.3559
X207.0632 Y279.4326
X207.0094 Y279.4948
X206.9441 Y279.554
X206.8655 Y279.6084
X206.757 Y279.6632
X206.7403 Y279.6694
X206.6174 Y279.6995
X206.5142 Y279.709
X206.4613 Y279.7061
X206.4127 Y279.6996 Z-5.9922
X206.3657 Y279.6858 Z-5.9845
X206.3256 Y279.6672 Z-5.9619
X206.2884 Y279.6432 Z-5.9394
X206.2373 Y279.5953 Z-5.8691
X206.2105 Y279.559 Z-5.7806
X206.2025 Y279.5457 Z-5.6825
G0 Z5
X206.7361 Y279.575
G1 Z-3 F1200
Z-7.6825
X206.7266 Y279.5873 Z-7.7806
X206.6961 Y279.6205 Z-7.8691
X206.64 Y279.6625 Z-7.9394
X206.6004 Y279.6823 Z-7.9619
X206.5585 Y279.6964 Z-7.9845
X206.5103 Y279.705 Z-7.9922
X206.4613 Y279.7061 Z-8
X206.3896 Y279.7021 F3500
X206.3556 Y279.6967
X206.3152 Y279.6868
X206.2284 Y279.6567
X206.1488 Y279.6181
X206.1097 Y279.5945
X206.0737 Y279.5688
X205.9868 Y279.4917
X205.9574 Y279.4591
X205.9003 Y279.3816
X205.8597 Y279.3091
X205.8385 Y279.2612
X205.8266 Y279.2278
X205.7944 Y279.086
X205.7927 Y279.0716
X205.7922 Y278.9514
X205.8102 Y278.8273
X205.8134 Y278.8148
X205.8695 Y278.6716
X205.8798 Y278.652
X205.9309 Y278.575
X205.9961 Y278.4997
X206.0673 Y278.436
X206.0916 Y278.4185
X206.2198 Y278.3468
X206.255 Y278.3322
X206.3068 Y278.3152
X206.3385 Y278.3075
X206.462 Y278.2918
X206.5649 Y278.2937
X206.6778 Y278.3127
X206.7457 Y278.3336
X206.8223 Y278.3675
X206.9031 Y278.4159
X206.998 Y278.4932
X207.0245 Y278.5206
X207.0954 Y278.6133
X207.1358 Y278.685
X207.1796 Y278.7968
X207.2063 Y278.919
X207.2079 Y278.9335
X207.2074 Y279.0533
X207.1884 Y279.1778
X207.1799 Y279.2098
X207.167 Y279.2458
X207.1142 Y279.3559
X207.0632 Y279.4326
X207.0094 Y279.4948
X206.9441 Y279.554
X206.8655 Y279.6084
X206.757 Y279.6632
X206.7403 Y279.6694
X206.6174 Y279.6995
X206.5142 Y279.709
X206.4613 Y279.7061
X206.4127 Y279.6996 Z-7.9922
X206.3657 Y279.6858 Z-7.9845
X206.3256 Y279.6672 Z-7.9619
X206.2884 Y279.6432 Z-7.9394
X206.2373 Y279.5953 Z-7.8691
X206.2105 Y279.559 Z-7.7806
X206.2025 Y279.5457 Z-7.6825
G0 Z5
X206.7361 Y279.575
G1 Z-5 F1200
Z-9.6825
X206.7266 Y279.5873 Z-9.7806
X206.6961 Y279.6205 Z-9.8691
X206.64 Y279.6625 Z-9.9394
X206.6004 Y279.6823 Z-9.9619
X206.5585 Y279.6964 Z-9.9845
X206.5103 Y279.705 Z-9.9922
X206.4613 Y279.7061 Z-10
X206.3896 Y279.7021 F3500
X206.3556 Y279.6967
X206.3152 Y279.6868
X206.2284 Y279.6567
X206.1488 Y279.6181
X206.1097 Y279.5945
X206.0737 Y279.5688
X205.9868 Y279.4917
X205.9574 Y279.4591
X205.9003 Y279.3816
X205.8597 Y279.3091
X205.8385 Y279.2612
X205.8266 Y279.2278
X205.7944 Y279.086
X205.7927 Y279.0716
X205.7922 Y278.9514
X205.8102 Y278.8273
X205.8134 Y278.8148
X205.8695 Y278.6716
X205.8798 Y278.652
X205.9309 Y278.575
X205.9961 Y278.4997
X206.0673 Y278.436
X206.0916 Y278.4185
X206.2198 Y278.3468
X206.255 Y278.3322
X206.3068 Y278.3152
X206.3385 Y278.3075
X206.462 Y278.2918
X206.5649 Y278.2937
X206.6778 Y278.3127
X206.7457 Y278.3336
X206.8223 Y278.3675
X206.9031 Y278.4159
X206.998 Y278.4932
X207.0245 Y278.5206
X207.0954 Y278.6133
X207.1358 Y278.685
X207.1796 Y278.7968
X207.2063 Y278.919
X207.2079 Y278.9335
X207.2074 Y279.0533
X207.1884 Y279.1778
X207.1799 Y279.2098
X207.167 Y279.2458
X207.1142 Y279.3559
X207.0632 Y279.4326
X207.0094 Y279.4948
X206.9441 Y279.554
X206.8655 Y279.6084
X206.757 Y279.6632
X206.7403 Y279.6694
X206.6174 Y279.6995
X206.5142 Y279.709
X206.4613 Y279.7061
X206.4127 Y279.6996 Z-9.9922
X206.3657 Y279.6858 Z-9.9845
X206.3256 Y279.6672 Z-9.9619
X206.2884 Y279.6432 Z-9.9394
X206.2373 Y279.5953 Z-9.8691
X206.2105 Y279.559 Z-9.7806
X206.2025 Y279.5457 Z-9.6825
G0 Z5
X206.7361 Y279.575
G1 Z-7 F1200
Z-11.6825
X206.7266 Y279.5873 Z-11.7806
X206.6961 Y279.6205 Z-11.8691
X206.64 Y279.6625 Z-11.9394
X206.6004 Y279.6823 Z-11.9619
X206.5585 Y279.6964 Z-11.9845
X206.5103 Y279.705 Z-11.9922
X206.4613 Y279.7061 Z-12
X206.3896 Y279.7021 F3500
X206.3556 Y279.6967
X206.3152 Y279.6868
X206.2284 Y279.6567
X206.1488 Y279.6181
X206.1097 Y279.5945
X206.0737 Y279.5688
X205.9868 Y279.4917
X205.9574 Y279.4591
X205.9003 Y279.3816
X205.8597 Y279.3091
X205.8385 Y279.2612
X205.8266 Y279.2278
X205.7944 Y279.086
X205.7927 Y279.0716
X205.7922 Y278.9514
X205.8102 Y278.8273
X205.8134 Y278.8148
X205.8695 Y278.6716
X205.8798 Y278.652
X205.9309 Y278.575
X205.9961 Y278.4997
X206.0673 Y278.436
X206.0916 Y278.4185
X206.2198 Y278.3468
X206.255 Y278.3322
X206.3068 Y278.3152
X206.3385 Y278.3075
X206.462 Y278.2918
X206.5649 Y278.2937
X206.6778 Y278.3127
X206.7457 Y278.3336
X206.8223 Y278.3675
X206.9031 Y278.4159
X206.998 Y278.4932
X207.0245 Y278.5206
X207.0954 Y278.6133
X207.1358 Y278.685
X207.1796 Y278.7968
X207.2063 Y278.919
X207.2079 Y278.9335
X207.2074 Y279.0533
X207.1884 Y279.1778
X207.1799 Y279.2098
X207.167 Y279.2458
X207.1142 Y279.3559
X207.0632 Y279.4326
X207.0094 Y279.4948
X206.9441 Y279.554
X206.8655 Y279.6084
X206.757 Y279.6632
X206.7403 Y279.6694
X206.6174 Y279.6995
X206.5142 Y279.709
X206.4613 Y279.7061
X206.4127 Y279.6996 Z-11.9922
X206.3657 Y279.6858 Z-11.9845
X206.3256 Y279.6672 Z-11.9619
X206.2884 Y279.6432 Z-11.9394
X206.2373 Y279.5953 Z-11.8691
X206.2105 Y279.559 Z-11.7806
X206.2025 Y279.5457 Z-11.6825
G0 Z5
X206.7361 Y279.575
G1 Z-9 F1200
Z-13.6825
X206.7266 Y279.5873 Z-13.7806
X206.6961 Y279.6205 Z-13.8691
X206.64 Y279.6625 Z-13.9394
X206.6004 Y279.6823 Z-13.9619
X206.5585 Y279.6964 Z-13.9845
X206.5103 Y279.705 Z-13.9922
X206.4613 Y279.7061 Z-14
X206.3896 Y279.7021 F3500
X206.3556 Y279.6967
X206.3152 Y279.6868
X206.2284 Y279.6567
X206.1488 Y279.6181
X206.1097 Y279.5945
X206.0737 Y279.5688
X205.9868 Y279.4917
X205.9574 Y279.4591
X205.9003 Y279.3816
X205.8597 Y279.3091
X205.8385 Y279.2612
X205.8266 Y279.2278
X205.7944 Y279.086
X205.7927 Y279.0716
X205.7922 Y278.9514
X205.8102 Y278.8273
X205.8134 Y278.8148
X205.8695 Y278.6716
X205.8798 Y278.652
X205.9309 Y278.575
X205.9961 Y278.4997
X206.0673 Y278.436
X206.0916 Y278.4185
X206.2198 Y278.3468
X206.255 Y278.3322
X206.3068 Y278.3152
X206.3385 Y278.3075
X206.462 Y278.2918
X206.5649 Y278.2937
X206.6778 Y278.3127
X206.7457 Y278.3336
X206.8223 Y278.3675
X206.9031 Y278.4159
X206.998 Y278.4932
X207.0245 Y278.5206
X207.0954 Y278.6133
X207.1358 Y278.685
X207.1796 Y278.7968
X207.2063 Y278.919
X207.2079 Y278.9335
X207.2074 Y279.0533
X207.1884 Y279.1778
X207.1799 Y279.2098
X207.167 Y279.2458
X207.1142 Y279.3559
X207.0632 Y279.4326
X207.0094 Y279.4948
X206.9441 Y279.554
X206.8655 Y279.6084
X206.757 Y279.6632
X206.7403 Y279.6694
X206.6174 Y279.6995
X206.5142 Y279.709
X206.4613 Y279.7061
X206.4127 Y279.6996 Z-13.9922
X206.3657 Y279.6858 Z-13.9845
X206.3256 Y279.6672 Z-13.9619
X206.2884 Y279.6432 Z-13.9394
X206.2373 Y279.5953 Z-13.8691
X206.2105 Y279.559 Z-13.7806
X206.2025 Y279.5457 Z-13.6825
G0 Z5
X206.925 Y278.5469
G1 Z-11 F1200
Z-15.6825
X206.9402 Y278.5504 Z-15.7806
X206.983 Y278.5645 Z-15.8691
X207.0445 Y278.598 Z-15.9394
X207.0789 Y278.6258 Z-15.9619
X207.1091 Y278.6581 Z-15.9845
X207.137 Y278.6984 Z-15.9922
X207.1583 Y278.7425 Z-16
X207.1796 Y278.7968 F3500
X207.2063 Y278.919
X207.2079 Y278.9335
X207.2074 Y279.0533
X207.1884 Y279.1778
X207.1799 Y279.2098
X207.167 Y279.2458
X207.1142 Y279.3559
X207.0632 Y279.4326
X207.0094 Y279.4948
X206.9441 Y279.554
X206.8655 Y279.6084
X206.757 Y279.6632
X206.7403 Y279.6694
X206.6174 Y279.6995
X206.5142 Y279.709
X206.3896 Y279.7021
X206.3556 Y279.6967
X206.3152 Y279.6868
X206.2284 Y279.6567
X206.1488 Y279.6181
X206.1097 Y279.5945
X206.0737 Y279.5688
X205.9868 Y279.4917
X205.9574 Y279.4591
X205.9003 Y279.3816
X205.8597 Y279.3091
X205.8385 Y279.2612
X205.8266 Y279.2278
X205.7944 Y279.086
X205.7927 Y279.0716
X205.7922 Y278.9514
X205.8102 Y278.8273
X205.8134 Y278.8148
X205.8695 Y278.6716
X205.8798 Y278.652
X205.9309 Y278.575
X205.9961 Y278.4997
X206.0673 Y278.436
X206.0916 Y278.4185
X206.2198 Y278.3468
X206.255 Y278.3322
X206.3068 Y278.3152
X206.3385 Y278.3075
X206.462 Y278.2918
X206.5649 Y278.2937
X206.6778 Y278.3127
X206.7457 Y278.3336
X206.8223 Y278.3675
X206.9031 Y278.4159
X206.998 Y278.4932
X207.0245 Y278.5206
X207.0954 Y278.6133
X207.1358 Y278.685
X207.1583 Y278.7425
X207.1726 Y278.7894 Z-15.9922
X207.1795 Y278.8379 Z-15.9845
X207.1793 Y278.8821 Z-15.9619
X207.1729 Y278.9259 Z-15.9394
X207.1505 Y278.9923 Z-15.8691
X207.1286 Y279.0317 Z-15.7806
X207.1198 Y279.0445 Z-15.6825
G0 Z5
X206.925 Y278.5469
G1 Z-13 F1200
Z-17.6825
X206.9402 Y278.5504 Z-17.7806
X206.983 Y278.5645 Z-17.8691
X207.0445 Y278.598 Z-17.9394
X207.0789 Y278.6258 Z-17.9619
X207.1091 Y278.6581 Z-17.9845
X207.137 Y278.6984 Z-17.9922
X207.1583 Y278.7425 Z-18
X207.1796 Y278.7968 F3500
X207.2063 Y278.919
X207.2079 Y278.9335
X207.2074 Y279.0533
X207.1884 Y279.1778
X207.1799 Y279.2098
X207.167 Y279.2458
X207.1142 Y279.3559
X207.0632 Y279.4326
X207.0094 Y279.4948
X206.9441 Y279.554
X206.8655 Y279.6084
X206.757 Y279.6632
X206.7403 Y279.6694
X206.6174 Y279.6995
X206.5142 Y279.709
X206.3896 Y279.7021
X206.3556 Y279.6967
X206.3152 Y279.6868
X206.2284 Y279.6567
X206.1488 Y279.6181
X206.1097 Y279.5945
X206.0737 Y279.5688
X205.9868 Y279.4917
X205.9574 Y279.4591
X205.9003 Y279.3816
X205.8597 Y279.3091
X205.8385 Y279.2612
X205.8266 Y279.2278
X205.7944 Y279.086
X205.7927 Y279.0716
X205.7922 Y278.9514
X205.8102 Y278.8273
X205.8134 Y278.8148
X205.8695 Y278.6716
X205.8798 Y278.652
X205.9309 Y278.575
X205.9961 Y278.4997
X206.0673 Y278.436
X206.0916 Y278.4185
X206.2198 Y278.3468
X206.255 Y278.3322
X206.3068 Y278.3152
X206.3385 Y278.3075
X206.462 Y278.2918
X206.5649 Y278.2937
X206.6778 Y278.3127
X206.7457 Y278.3336
X206.8223 Y278.3675
X206.9031 Y278.4159
X206.998 Y278.4932
X207.0245 Y278.5206
X207.0954 Y278.6133
X207.1358 Y278.685
X207.1583 Y278.7425
X207.1726 Y278.7894 Z-17.9922
X207.1795 Y278.8379 Z-17.9845
X207.1793 Y278.8821 Z-17.9619
X207.1729 Y278.9259 Z-17.9394
X207.1505 Y278.9923 Z-17.8691
X207.1286 Y279.0317 Z-17.7806
X207.1198 Y279.0445 Z-17.6825
G0 Z5
X206.925 Y278.5469
G1 Z-15 F1200
Z-19.3825
X206.9402 Y278.5504 Z-19.4806
X206.983 Y278.5645 Z-19.5691
X207.0445 Y278.598 Z-19.6394
X207.0789 Y278.6258 Z-19.6619
X207.1091 Y278.6581 Z-19.6845
X207.137 Y278.6984 Z-19.6922
X207.1583 Y278.7425 Z-19.7
X207.1796 Y278.7968 F3500
X207.2063 Y278.919
X207.2079 Y278.9335
X207.2074 Y279.0533
X207.1884 Y279.1778
X207.1799 Y279.2098
X207.167 Y279.2458
X207.1142 Y279.3559
X207.0632 Y279.4326
X207.0094 Y279.4948
X206.9441 Y279.554
X206.8655 Y279.6084
X206.757 Y279.6632
X206.7403 Y279.6694
X206.6174 Y279.6995
X206.5142 Y279.709
X206.3896 Y279.7021
X206.3556 Y279.6967
X206.3152 Y279.6868
X206.2284 Y279.6567
X206.1488 Y279.6181
X206.1097 Y279.5945
X206.0737 Y279.5688
X205.9868 Y279.4917
X205.9574 Y279.4591
X205.9003 Y279.3816
X205.8597 Y279.3091
X205.8385 Y279.2612
X205.8266 Y279.2278
X205.7944 Y279.086
X205.7927 Y279.0716
X205.7922 Y278.9514
X205.8102 Y278.8273
X205.8134 Y278.8148
X205.8695 Y278.6716
X205.8798 Y278.652
X205.9309 Y278.575
X205.9961 Y278.4997
X206.0673 Y278.436
X206.0916 Y278.4185
X206.2198 Y278.3468
X206.255 Y278.3322
X206.3068 Y278.3152
X206.3385 Y278.3075
X206.462 Y278.2918
X206.5649 Y278.2937
X206.6778 Y278.3127
X206.7457 Y278.3336
X206.8223 Y278.3675
X206.9031 Y278.4159
X206.998 Y278.4932
X207.0245 Y278.5206
X207.0954 Y278.6133
X207.1358 Y278.685
X207.1583 Y278.7425
X207.1726 Y278.7894 Z-19.6922
X207.1795 Y278.8379 Z-19.6845
X207.1793 Y278.8821 Z-19.6619
X207.1729 Y278.9259 Z-19.6394
X207.1505 Y278.9923 Z-19.5691
X207.1286 Y279.0317 Z-19.4806
X207.1198 Y279.0445 Z-19.3825
G0 Z5
X300.4694 Y279.1984
Z2.4173
G1 X300.4631 Y279.185 Z2.3213 F1200
X300.4456 Y279.1455 Z2.2343
X300.4206 Y279.0828 Z2.1644
X300.3929 Y279.002 Z2.1182
X300.3675 Y278.91 Z2.1
G3 X300.4515 Y279.1591 Z1.7783 I1.4655 J-0.3559
X300.5776 Y279.3898 Z1.4566 I1.3815 J-0.6049
X300.7417 Y279.5951 Z1.1349 I1.2554 J-0.8357
X300.9391 Y279.7688 Z0.8132 I1.0913 J-1.041
X301.1636 Y279.9056 Z0.4914 I0.8939 J-1.2146
X301.4084 Y280.0013 Z0.1697 I0.6694 J-1.3514
X301.6662 Y280.053 Z-0.152 I0.4246 J-1.4471
X301.929 Y280.0592 Z-0.4737 I0.1668 J-1.4989
X302.1889 Y280.0197 Z-0.7954 I-0.096 J-1.5051
X302.438 Y279.9357 Z-1.1171 I-0.3559 J-1.4655
X302.6687 Y279.8096 Z-1.4388 I-0.6049 J-1.3815
X302.874 Y279.6454 Z-1.7605 I-0.8357 J-1.2555
X302.7379 Y277.3477 Z-2 I-1.041 J-1.0913
X301.1882 Y279.4139 I-0.7749 J1.0331
X301.8091 Y278.586 I0.3105 J-0.4139 F3500
X301.1882 Y279.4139 I-0.3105 J0.4139
G2 X300.138 Y279.3315 I-0.59 J0.7867
G3 X299.4068 Y278.5732 I-0.2565 J-0.4844
G1 X300.3303 Y276.9735
X302.6651
X303.8387 Y278.9999
X302.665 Y281.0265
X300.3303
X299.1604 Y279
X299.4068 Y278.5732
X299.436 Y278.5365
X299.4745 Y278.51
X302.2469 Y277.1519
X302.2881 Y277.1383
X302.3314 Y277.1364
X302.3736 Y277.1463
G3 X302.1209 Y277.0738 Z-2.3217 I-0.5406 J1.4079 F1200
X301.8595 Y277.0463 Z-2.6434 I-0.2879 J1.4804
X301.5972 Y277.0646 Z-2.9651 I-0.0265 J1.5079
X301.3422 Y277.1281 Z-3.2868 I0.2358 J1.4896
X301.102 Y277.235 Z-3.6086 I0.4908 J1.426
X300.884 Y277.382 Z-3.9303 I0.731 J1.3191
X302.7379 Y277.3477 Z-4 I0.949 J1.1721
X301.1882 Y279.4139 I-0.7749 J1.0331
X301.8091 Y278.586 I0.3105 J-0.4139 F3500
X301.1882 Y279.4139 I-0.3105 J0.4139
G2 X300.138 Y279.3315 I-0.59 J0.7867
G3 X299.4068 Y278.5732 I-0.2565 J-0.4844
G1 X300.3303 Y276.9735
X302.6651
X303.8387 Y278.9999
X302.665 Y281.0265
X300.3303
X299.1604 Y279
X299.4068 Y278.5732
X299.4345 Y278.5327 Z-3.9922
X299.4681 Y278.4971 Z-3.9845
X299.5028 Y278.4697 Z-3.9619
X299.541 Y278.4473 Z-3.9394
X299.6069 Y278.4234 Z-3.8691
X299.6513 Y278.4159 Z-3.7806
X299.6668 Y278.4148 Z-3.6825
G0 Z5
X301.5423 Y278.38
Z3
G1 Z-1 F1200
Z-5.6825
X301.5562 Y278.3731 Z-5.7806
X301.5983 Y278.3569 Z-5.8691
X301.6671 Y278.344 Z-5.9394
X301.7114 Y278.3437 Z-5.9619
X301.7552 Y278.3496 Z-5.9845
X301.8023 Y278.3632 Z-5.9922
X301.8467 Y278.3839 Z-6
X301.8991 Y278.4134 F3500
X301.9731 Y278.4694
X301.9988 Y278.4935
X302.0697 Y278.5759
X302.1204 Y278.6526
X302.1397 Y278.6892
X302.1636 Y278.744
X302.1751 Y278.7772
X302.2023 Y278.8999
X302.2094 Y279.0022
X302.2014 Y279.1051
X302.173 Y279.2287
X302.1675 Y279.2445
X302.1023 Y279.3779
X302.0849 Y279.4052
X302.0584 Y279.4401
X301.9722 Y279.5312
X301.9364 Y279.5616
X301.9061 Y279.5833
X301.8 Y279.6426
X301.6758 Y279.6891
X301.6636 Y279.6921
X301.5399 Y279.7081
X301.4367 Y279.7065
X301.3126 Y279.6859
X301.2897 Y279.6794
X301.2 Y279.6443
X301.1445 Y279.6151
X301.0557 Y279.5537
X300.9919 Y279.4962
X300.939 Y279.4352
X300.8858 Y279.3554
X300.8333 Y279.2467
X300.827 Y279.2286
X300.7986 Y279.1051
X300.7906 Y279.0022
X300.7978 Y278.8999
X300.825 Y278.7773
X300.8311 Y278.7595
X300.8834 Y278.649
X300.9455 Y278.555
X300.966 Y278.5301
X301.0006 Y278.4945
X301.0981 Y278.4152
X301.1895 Y278.3605
X301.2303 Y278.3416
X301.2621 Y278.3299
X301.3844 Y278.3003
X301.4877 Y278.291
X301.6123 Y278.2981
X301.6463 Y278.3037
X301.6758 Y278.3109
X301.7989 Y278.357
X301.8467 Y278.3839
X301.8874 Y278.4112 Z-5.9922
X301.9235 Y278.4444 Z-5.9845
X301.9513 Y278.4788 Z-5.9619
X301.974 Y278.5167 Z-5.9394
X301.9987 Y278.5823 Z-5.8691
X302.0067 Y278.6266 Z-5.7806
X302.0079 Y278.6421 Z-5.6825
G0 Z5
X301.5423 Y278.38
G1 Z-3 F1200
Z-7.6825
X301.5562 Y278.3731 Z-7.7806
X301.5983 Y278.3569 Z-7.8691
X301.6671 Y278.344 Z-7.9394
X301.7114 Y278.3437 Z-7.9619
X301.7552 Y278.3496 Z-7.9845
X301.8023 Y278.3632 Z-7.9922
X301.8467 Y278.3839 Z-8
X301.8991 Y278.4134 F3500
X301.9731 Y278.4694
X301.9988 Y278.4935
X302.0697 Y278.5759
X302.1204 Y278.6526
X302.1397 Y278.6892
X302.1636 Y278.744
X302.1751 Y278.7772
X302.2023 Y278.8999
X302.2094 Y279.0022
X302.2014 Y279.1051
X302.173 Y279.2287
X302.1675 Y279.2445
X302.1023 Y279.3779
X302.0849 Y279.4052
X302.0584 Y279.4401
X301.9722 Y279.5312
X301.9364 Y279.5616
X301.9061 Y279.5833
X301.8 Y279.6426
X301.6758 Y279.6891
X301.6636 Y279.6921
X301.5399 Y279.7081
X301.4367 Y279.7065
X301.3126 Y279.6859
X301.2897 Y279.6794
X301.2 Y279.6443
X301.1445 Y279.6151
X301.0557 Y279.5537
X300.9919 Y279.4962
X300.939 Y279.4352
X300.8858 Y279.3554
X300.8333 Y279.2467
X300.827 Y279.2286
X300.7986 Y279.1051
X300.7906 Y279.0022
X300.7978 Y278.8999
X300.825 Y278.7773
X300.8311 Y278.7595
X300.8834 Y278.649
X300.9455 Y278.555
X300.966 Y278.5301
X301.0006 Y278.4945
X301.0981 Y278.4152
X301.1895 Y278.3605
X301.2303 Y278.3416
X301.2621 Y278.3299
X301.3844 Y278.3003
X301.4877 Y278.291
X301.6123 Y278.2981
X301.6463 Y278.3037
X301.6758 Y278.3109
X301.7989 Y278.357
X301.8467 Y278.3839
X301.8874 Y278.4112 Z-7.9922
X301.9235 Y278.4444 Z-7.9845
X301.9513 Y278.4788 Z-7.9619
X301.974 Y278.5167 Z-7.9394
X301.9987 Y278.5823 Z-7.8691
X302.0067 Y278.6266 Z-7.7806
X302.0079 Y278.6421 Z-7.6825
G0 Z5
X301.5423 Y278.38
G1 Z-5 F1200
Z-9.6825
X301.5562 Y278.3731 Z-9.7806
X301.5983 Y278.3569 Z-9.8691
X301.6671 Y278.344 Z-9.9394
X301.7114 Y278.3437 Z-9.9619
X301.7552 Y278.3496 Z-9.9845
X301.8023 Y278.3632 Z-9.9922
X301.8467 Y278.3839 Z-10
X301.8991 Y278.4134 F3500
X301.9731 Y278.4694
X301.9988 Y278.4935
X302.0697 Y278.5759
X302.1204 Y278.6526
X302.1397 Y278.6892
X302.1636 Y278.744
X302.1751 Y278.7772
X302.2023 Y278.8999
X302.2094 Y279.0022
X302.2014 Y279.1051
X302.173 Y279.2287
X302.1675 Y279.2445
X302.1023 Y279.3779
X302.0849 Y279.4052
X302.0584 Y279.4401
X301.9722 Y279.5312
X301.9364 Y279.5616
X301.9061 Y279.5833
X301.8 Y279.6426
X301.6758 Y279.6891
X301.6636 Y279.6921
X301.5399 Y279.7081
X301.4367 Y279.7065
X301.3126 Y279.6859
X301.2897 Y279.6794
X301.2 Y279.6443
X301.1445 Y279.6151
X301.0557 Y279.5537
X300.9919 Y279.4962
X300.939 Y279.4352
X300.8858 Y279.3554
X300.8333 Y279.2467
X300.827 Y279.2286
X300.7986 Y279.1051
X300.7906 Y279.0022
X300.7978 Y278.8999
X300.825 Y278.7773
X300.8311 Y278.7595
X300.8834 Y278.649
X300.9455 Y278.555
X300.966 Y278.5301
X301.0006 Y278.4945
X301.0981 Y278.4152
X301.1895 Y278.3605
X301.2303 Y278.3416
X301.2621 Y278.3299
X301.3844 Y278.3003
X301.4877 Y278.291
X301.6123 Y278.2981
X301.6463 Y278.3037
X301.6758 Y278.3109
X301.7989 Y278.357
X301.8467 Y278.3839
X301.8874 Y278.4112 Z-9.9922
X301.9235 Y278.4444 Z-9.9845
X301.9513 Y278.4788 Z-9.9619
X301.974 Y278.5167 Z-9.9394
X301.9987 Y278.5823 Z-9.8691
X302.0067 Y278.6266 Z-9.7806
X302.0079 Y278.6421 Z-9.6825
G0 Z5
X301.0128 Y279.3859
G1 Z-7 F1200
Z-11.6825
X300.9984 Y279.3803 Z-11.7806
X300.9581 Y279.3601 Z-11.8691
X300.9021 Y279.3178 Z-11.9394
X300.8722 Y279.2853 Z-11.9619
X300.8471 Y279.2489 Z-11.9845
X300.8254 Y279.205 Z-11.9922
X300.8108 Y279.1582 Z-12
X300.7986 Y279.1051 F3500
X300.7906 Y279.0022
X300.7978 Y278.8999
X300.825 Y278.7773
X300.8311 Y278.7595
X300.8834 Y278.649
X300.9455 Y278.555
X300.966 Y278.5301
X301.0006 Y278.4945
X301.0981 Y278.4152
X301.1895 Y278.3605
X301.2303 Y278.3416
X301.2621 Y278.3299
X301.3844 Y278.3003
X301.4877 Y278.291
X301.6123 Y278.2981
X301.6463 Y278.3037
X301.6758 Y278.3109
X301.7989 Y278.357
X301.8991 Y278.4134
X301.9731 Y278.4694
X301.9988 Y278.4935
X302.0697 Y278.5759
X302.1204 Y278.6526
X302.1397 Y278.6892
X302.1636 Y278.744
X302.1751 Y278.7772
X302.2023 Y278.8999
X302.2094 Y279.0022
X302.2014 Y279.1051
X302.173 Y279.2287
X302.1675 Y279.2445
X302.1023 Y279.3779
X302.0849 Y279.4052
X302.0584 Y279.4401
X301.9722 Y279.5312
X301.9364 Y279.5616
X301.9061 Y279.5833
X301.8 Y279.6426
X301.6758 Y279.6891
X301.6636 Y279.6921
X301.5399 Y279.7081
X301.4367 Y279.7065
X301.3126 Y279.6859
X301.2897 Y279.6794
X301.2 Y279.6443
X301.1445 Y279.6151
X301.0557 Y279.5537
X300.9919 Y279.4962
X300.939 Y279.4352
X300.8858 Y279.3554
X300.8333 Y279.2467
X300.827 Y279.2286
X300.8108 Y279.1582
X300.8036 Y279.1097 Z-11.9922
X300.8039 Y279.0607 Z-11.9845
X300.8106 Y279.017 Z-11.9619
X300.8234 Y278.9747 Z-11.9394
X300.8553 Y278.9123 Z-11.8691
X300.8827 Y278.8765 Z-11.7806
X300.8933 Y278.8651 Z-11.6825
G0 Z5
X301.9467 Y279.4319
G1 Z-9 F1200
Z-13.6825
X301.943 Y279.4471 Z-13.7806
X301.9283 Y279.4896 Z-13.8691
X301.8938 Y279.5507 Z-13.9394
X301.8655 Y279.5846 Z-13.9619
X301.8328 Y279.6143 Z-13.9845
X301.792 Y279.6416 Z-13.9922
X301.7476 Y279.6622 Z-14
X301.6758 Y279.6891 F3500
X301.6636 Y279.6921
X301.5399 Y279.7081
X301.4367 Y279.7065
X301.3126 Y279.6859
X301.2897 Y279.6794
X301.2 Y279.6443
X301.1445 Y279.6151
X301.0557 Y279.5537
X300.9919 Y279.4962
X300.939 Y279.4352
X300.8858 Y279.3554
X300.8333 Y279.2467
X300.827 Y279.2286
X300.7986 Y279.1051
X300.7906 Y279.0022
X300.7978 Y278.8999
X300.825 Y278.7773
X300.8311 Y278.7595
X300.8834 Y278.649
X300.9455 Y278.555
X300.966 Y278.5301
X301.0006 Y278.4945
X301.0981 Y278.4152
X301.1895 Y278.3605
X301.2303 Y278.3416
X301.2621 Y278.3299
X301.3844 Y278.3003
X301.4877 Y278.291
X301.6123 Y278.2981
X301.6463 Y278.3037
X301.6758 Y278.3109
X301.7989 Y278.357
X301.8991 Y278.4134
X301.9731 Y278.4694
X301.9988 Y278.4935
X302.0697 Y278.5759
X302.1204 Y278.6526
X302.1397 Y278.6892
X302.1636 Y278.744
X302.1751 Y278.7772
X302.2023 Y278.8999
X302.2094 Y279.0022
X302.2014 Y279.1051
X302.173 Y279.2287
X302.1675 Y279.2445
X302.1023 Y279.3779
X302.0849 Y279.4052
X302.0584 Y279.4401
X301.9722 Y279.5312
X301.9364 Y279.5616
X301.9061 Y279.5833
X301.8 Y279.6426
X301.7476 Y279.6622
X301.7005 Y279.6758 Z-13.9922
X301.6519 Y279.682 Z-13.9845
X301.6077 Y279.6811 Z-13.9619
X301.564 Y279.674 Z-13.9394
X301.4979 Y279.6506 Z-13.8691
X301.4589 Y279.6281 Z-13.7806
X301.4462 Y279.6191 Z-13.6825
G0 Z5
X301.9467 Y279.4319
G1 Z-11 F1200
Z-15.6825
X301.943 Y279.4471 Z-15.7806
X301.9283 Y279.4896 Z-15.8691
X301.8938 Y279.5507 Z-15.9394
X301.8655 Y279.5846 Z-15.9619
X301.8328 Y279.6143 Z-15.9845
X301.792 Y279.6416 Z-15.9922
X301.7476 Y279.6622 Z-16
X301.6758 Y279.6891 F3500
X301.6636 Y279.6921
X301.5399 Y279.7081
X301.4367 Y279.7065
X301.3126 Y279.6859
X301.2897 Y279.6794
X301.2 Y279.6443
X301.1445 Y279.6151
X301.0557 Y279.5537
X300.9919 Y279.4962
X300.939 Y279.4352
X300.8858 Y279.3554
X300.8333 Y279.2467
X300.827 Y279.2286
X300.7986 Y279.1051
X300.7906 Y279.0022
X300.7978 Y278.8999
X300.825 Y278.7773
X300.8311 Y278.7595
X300.8834 Y278.649
X300.9455 Y278.555
X300.966 Y278.5301
X301.0006 Y278.4945
X301.0981 Y278.4152
X301.1895 Y278.3605
X301.2303 Y278.3416
X301.2621 Y278.3299
X301.3844 Y278.3003
X301.4877 Y278.291
X301.6123 Y278.2981
X301.6463 Y278.3037
X301.6758 Y278.3109
X301.7989 Y278.357
X301.8991 Y278.4134
X301.9731 Y278.4694
X301.9988 Y278.4935
X302.0697 Y278.5759
X302.1204 Y278.6526
X302.1397 Y278.6892
X302.1636 Y278.744
X302.1751 Y278.7772
X302.2023 Y278.8999
X302.2094 Y279.0022
X302.2014 Y279.1051
X302.173 Y279.2287
X302.1675 Y279.2445
X302.1023 Y279.3779
X302.0849 Y279.4052
X302.0584 Y279.4401
X301.9722 Y279.5312
X301.9364 Y279.5616
X301.9061 Y279.5833
X301.8 Y279.6426
X301.7476 Y279.6622
X301.7005 Y279.6758 Z-15.9922
X301.6519 Y279.682 Z-15.9845
X301.6077 Y279.6811 Z-15.9619
X301.564 Y279.674 Z-15.9394
X301.4979 Y279.6506 Z-15.8691
X301.4589 Y279.6281 Z-15.7806
X301.4462 Y279.6191 Z-15.6825
G0 Z5
X301.9467 Y279.4319
G1 Z-13 F1200
Z-17.6825
X301.943 Y279.4471 Z-17.7806
X301.9283 Y279.4896 Z-17.8691
X301.8938 Y279.5507 Z-17.9394
X301.8655 Y279.5846 Z-17.9619
X301.8328 Y279.6143 Z-17.9845
X301.792 Y279.6416 Z-17.9922
X301.7476 Y279.6622 Z-18
X301.6758 Y279.6891 F3500
X301.6636 Y279.6921
X301.5399 Y279.7081
X301.4367 Y279.7065
X301.3126 Y279.6859
X301.2897 Y279.6794
X301.2 Y279.6443
X301.1445 Y279.6151
X301.0557 Y279.5537
X300.9919 Y279.4962
X300.939 Y279.4352
X300.8858 Y279.3554
X300.8333 Y279.2467
X300.827 Y279.2286
X300.7986 Y279.1051
X300.7906 Y279.0022
X300.7978 Y278.8999
X300.825 Y278.7773
X300.8311 Y278.7595
X300.8834 Y278.649
X300.9455 Y278.555
X300.966 Y278.5301
X301.0006 Y278.4945
X301.0981 Y278.4152
X301.1895 Y278.3605
X301.2303 Y278.3416
X301.2621 Y278.3299
X301.3844 Y278.3003
X301.4877 Y278.291
X301.6123 Y278.2981
X301.6463 Y278.3037
X301.6758 Y278.3109
X301.7989 Y278.357
X301.8991 Y278.4134
X301.9731 Y278.4694
X301.9988 Y278.4935
X302.0697 Y278.5759
X302.1204 Y278.6526
X302.1397 Y278.6892
X302.1636 Y278.744
X302.1751 Y278.7772
X302.2023 Y278.8999
X302.2094 Y279.0022
X302.2014 Y279.1051
X302.173 Y279.2287
X302.1675 Y279.2445
X302.1023 Y279.3779
X302.0849 Y279.4052
X302.0584 Y279.4401
X301.9722 Y279.5312
X301.9364 Y279.5616
X301.9061 Y279.5833
X301.8 Y279.6426
X301.7476 Y279.6622
X301.7005 Y279.6758 Z-17.9922
X301.6519 Y279.682 Z-17.9845
X301.6077 Y279.6811 Z-17.9619
X301.564 Y279.674 Z-17.9394
X301.4979 Y279.6506 Z-17.8691
X301.4589 Y279.6281 Z-17.7806
X301.4462 Y279.6191 Z-17.6825
G0 Z5
X301.9467 Y279.4319
G1 Z-15 F1200
Z-19.3825
X301.943 Y279.4471 Z-19.4806
X301.9283 Y279.4896 Z-19.5691
X301.8938 Y279.5507 Z-19.6394
X301.8655 Y279.5846 Z-19.6619
X301.8328 Y279.6143 Z-19.6845
X301.792 Y279.6416 Z-19.6922
X301.7476 Y279.6622 Z-19.7
X301.6758 Y279.6891 F3500
X301.6636 Y279.6921
X301.5399 Y279.7081
X301.4367 Y279.7065
X301.3126 Y279.6859
X301.2897 Y279.6794
X301.2 Y279.6443
X301.1445 Y279.6151
X301.0557 Y279.5537
X300.9919 Y279.4962
X300.939 Y279.4352
X300.8858 Y279.3554
X300.8333 Y279.2467
X300.827 Y279.2286
X300.7986 Y279.1051
X300.7906 Y279.0022
X300.7978 Y278.8999
X300.825 Y278.7773
X300.8311 Y278.7595
X300.8834 Y278.649
X300.9455 Y278.555
X300.966 Y278.5301
X301.0006 Y278.4945
X301.0981 Y278.4152
X301.1895 Y278.3605
X301.2303 Y278.3416
X301.2621 Y278.3299
X301.3844 Y278.3003
X301.4877 Y278.291
X301.6123 Y278.2981
X301.6463 Y278.3037
X301.6758 Y278.3109
X301.7989 Y278.357
X301.8991 Y278.4134
X301.9731 Y278.4694
X301.9988 Y278.4935
X302.0697 Y278.5759
X302.1204 Y278.6526
X302.1397 Y278.6892
X302.1636 Y278.744
X302.1751 Y278.7772
X302.2023 Y278.8999
X302.2094 Y279.0022
X302.2014 Y279.1051
X302.173 Y279.2287
X302.1675 Y279.2445
X302.1023 Y279.3779
X302.0849 Y279.4052
X302.0584 Y279.4401
X301.9722 Y279.5312
X301.9364 Y279.5616
X301.9061 Y279.5833
X301.8 Y279.6426
X301.7476 Y279.6622
X301.7005 Y279.6758 Z-19.6922
X301.6519 Y279.682 Z-19.6845
X301.6077 Y279.6811 Z-19.6619
X301.564 Y279.674 Z-19.6394
X301.4979 Y279.6506 Z-19.5691
X301.4589 Y279.6281 Z-19.4806
X301.4462 Y279.6191 Z-19.3825
G0 Z5
X50.4697 Y279.1985
Z2.4173
G1 X50.4634 Y279.185 Z2.3213 F1200
X50.4459 Y279.1455 Z2.2343
X50.4208 Y279.0829 Z2.1644
X50.3931 Y279.002 Z2.1182
X50.3677 Y278.9101 Z2.1
G3 X50.4518 Y279.1591 Z1.7783 I1.4655 J-0.3559
X50.5778 Y279.3898 Z1.4566 I1.3815 J-0.6049
X50.742 Y279.5952 Z1.1349 I1.2554 J-0.8356
X50.9393 Y279.7688 Z0.8132 I1.0913 J-1.041
X51.1638 Y279.9056 Z0.4914 I0.8939 J-1.2146
X51.4087 Y280.0013 Z0.1697 I0.6694 J-1.3514
X51.6664 Y280.0531 Z-0.152 I0.4246 J-1.4471
X51.9292 Y280.0593 Z-0.4737 I0.1668 J-1.4989
X52.1891 Y280.0197 Z-0.7954 I-0.096 J-1.5051
X52.4382 Y279.9357 Z-1.1171 I-0.3559 J-1.4655
X52.6689 Y279.8096 Z-1.4388 I-0.6049 J-1.3815
X52.8742 Y279.6455 Z-1.7605 I-0.8356 J-1.2554
X52.7381 Y277.3477 Z-2 I-1.0409 J-1.0913
X51.1884 Y279.414 I-0.7749 J1.0331
X51.8094 Y278.5859 I0.3105 J-0.414 F3500
X51.1884 Y279.414 I-0.3105 J0.414
G2 X50.1381 Y279.3316 I-0.5901 J0.7868
G3 X49.4068 Y278.5732 I-0.2565 J-0.4844
G1 X50.3303 Y276.9735
X52.666
X53.8389 Y279
X52.666 Y281.0265
X50.3303
X49.1604 Y279
X49.4068 Y278.5732
X49.4359 Y278.5365
X49.4745 Y278.5099
X52.2471 Y277.1519
X52.2883 Y277.1384
X52.3316 Y277.1364
X52.3739 Y277.1463
G3 X52.1212 Y277.0738 Z-2.3217 I-0.5406 J1.4079 F1200
X51.8597 Y277.0463 Z-2.6434 I-0.2879 J1.4804
X51.5975 Y277.0646 Z-2.9651 I-0.0265 J1.5079
X51.3424 Y277.1282 Z-3.2868 I0.2357 J1.4896
X51.1023 Y277.2351 Z-3.6086 I0.4908 J1.426
X50.8843 Y277.3821 Z-3.9303 I0.731 J1.3191
X52.7381 Y277.3477 Z-4 I0.9489 J1.1721
X51.1884 Y279.414 I-0.7749 J1.0331
X51.8094 Y278.5859 I0.3105 J-0.414 F3500
X51.1884 Y279.414 I-0.3105 J0.414
G2 X50.1381 Y279.3316 I-0.5901 J0.7868
G3 X49.4068 Y278.5732 I-0.2565 J-0.4844
G1 X50.3303 Y276.9735
X52.666
X53.8389 Y279
X52.666 Y281.0265
X50.3303
X49.1604 Y279
X49.4068 Y278.5732
X49.4345 Y278.5327 Z-3.9922
X49.4681 Y278.497 Z-3.9845
X49.5028 Y278.4696 Z-3.9619
X49.541 Y278.4473 Z-3.9394
X49.6069 Y278.4234 Z-3.8691
X49.6513 Y278.4159 Z-3.7806
X49.6668 Y278.4147 Z-3.6825
G0 Z5
X51.5644 Y279.6181
Z3
G1 Z-1 F1200
Z-5.6825
X51.5519 Y279.6273 Z-5.7806
X51.5132 Y279.6504 Z-5.8691
X51.4476 Y279.675 Z-5.9394
X51.404 Y279.6827 Z-5.9619
X51.3599 Y279.6844 Z-5.9845
X51.3111 Y279.6791 Z-5.9922
X51.2638 Y279.6663 Z-6
X51.2015 Y279.6442 F3500
X51.1406 Y279.6127
X51.0654 Y279.5619
X50.9989 Y279.504
X50.9641 Y279.4667
X50.9031 Y279.3846
X50.8583 Y279.3059
X50.8385 Y279.2611
X50.8265 Y279.2277
X50.799 Y279.1066
X50.7905 Y278.9954
X50.7973 Y278.8949
X50.8066 Y278.8411
X50.8134 Y278.8148
X50.8648 Y278.6835
X50.9011 Y278.6187
X50.9603 Y278.5384
X51.0163 Y278.4792
X51.0553 Y278.4457
X51.1388 Y278.3884
X51.2023 Y278.3556
X51.3358 Y278.3082
X51.3485 Y278.3053
X51.4708 Y278.2913
X51.5838 Y278.2948
X51.6509 Y278.3057
X51.7394 Y278.3305
X51.7667 Y278.3411
X51.8743 Y278.3972
X51.9498 Y278.4508
X52.0176 Y278.5139
X52.0705 Y278.5769
X52.117 Y278.6493
X52.1693 Y278.7605
X52.1755 Y278.7782
X52.2063 Y278.919
X52.2079 Y278.9336
X52.2074 Y279.0534
X52.1884 Y279.1778
X52.1799 Y279.2098
X52.167 Y279.2459
X52.1145 Y279.3553
X52.0707 Y279.423
X52.0149 Y279.4888
X51.944 Y279.554
X51.8739 Y279.6032
X51.7673 Y279.6587
X51.7479 Y279.6662
X51.6251 Y279.6984
X51.5236 Y279.7089
X51.3985 Y279.7037
X51.3661 Y279.6988
X51.3358 Y279.6918
X51.2638 Y279.6663
X51.219 Y279.6464 Z-5.9922
X51.1779 Y279.6198 Z-5.9845
X51.1446 Y279.5907 Z-5.9619
X51.1157 Y279.5572 Z-5.9394
X51.0802 Y279.4967 Z-5.8691
X51.0648 Y279.4544 Z-5.7806
X51.0609 Y279.4394 Z-5.6825
G0 Z5
X51.5644 Y279.6181
G1 Z-3 F1200
Z-7.6825
X51.5519 Y279.6273 Z-7.7806
X51.5132 Y279.6504 Z-7.8691
X51.4476 Y279.675 Z-7.9394
X51.404 Y279.6827 Z-7.9619
X51.3599 Y279.6844 Z-7.9845
X51.3111 Y279.6791 Z-7.9922
X51.2638 Y279.6663 Z-8
X51.2015 Y279.6442 F3500
X51.1406 Y279.6127
X51.0654 Y279.5619
X50.9989 Y279.504
X50.9641 Y279.4667
X50.9031 Y279.3846
X50.8583 Y279.3059
X50.8385 Y279.2611
X50.8265 Y279.2277
X50.799 Y279.1066
X50.7905 Y278.9954
X50.7973 Y278.8949
X50.8066 Y278.8411
X50.8134 Y278.8148
X50.8648 Y278.6835
X50.9011 Y278.6187
X50.9603 Y278.5384
X51.0163 Y278.4792
X51.0553 Y278.4457
X51.1388 Y278.3884
X51.2023 Y278.3556
X51.3358 Y278.3082
X51.3485 Y278.3053
X51.4708 Y278.2913
X51.5838 Y278.2948
X51.6509 Y278.3057
X51.7394 Y278.3305
X51.7667 Y278.3411
X51.8743 Y278.3972
X51.9498 Y278.4508
X52.0176 Y278.5139
X52.0705 Y278.5769
X52.117 Y278.6493
X52.1693 Y278.7605
X52.1755 Y278.7782
X52.2063 Y278.919
X52.2079 Y278.9336
X52.2074 Y279.0534
X52.1884 Y279.1778
X52.1799 Y279.2098
X52.167 Y279.2459
X52.1145 Y279.3553
X52.0707 Y279.423
X52.0149 Y279.4888
X51.944 Y279.554
X51.8739 Y279.6032
X51.7673 Y279.6587
X51.7479 Y279.6662
X51.6251 Y279.6984
X51.5236 Y279.7089
X51.3985 Y279.7037
X51.3661 Y279.6988
X51.3358 Y279.6918
X51.2638 Y279.6663
X51.219 Y279.6464 Z-7.9922
X51.1779 Y279.6198 Z-7.9845
X51.1446 Y279.5907 Z-7.9619
X51.1157 Y279.5572 Z-7.9394
X51.0802 Y279.4967 Z-7.8691
X51.0648 Y279.4544 Z-7.7806
X51.0609 Y279.4394 Z-7.6825
G0 Z5
X51.5644 Y279.6181
G1 Z-5 F1200
Z-9.6825
X51.5519 Y279.6273 Z-9.7806
X51.5132 Y279.6504 Z-9.8691
X51.4476 Y279.675 Z-9.9394
X51.404 Y279.6827 Z-9.9619
X51.3599 Y279.6844 Z-9.9845
X51.3111 Y279.6791 Z-9.9922
X51.2638 Y279.6663 Z-10
X51.2015 Y279.6442 F3500
X51.1406 Y279.6127
X51.0654 Y279.5619
X50.9989 Y279.504
X50.9641 Y279.4667
X50.9031 Y279.3846
X50.8583 Y279.3059
X50.8385 Y279.2611
X50.8265 Y279.2277
X50.799 Y279.1066
X50.7905 Y278.9954
X50.7973 Y278.8949
X50.8066 Y278.8411
X50.8134 Y278.8148
X50.8648 Y278.6835
X50.9011 Y278.6187
X50.9603 Y278.5384
X51.0163 Y278.4792
X51.0553 Y278.4457
X51.1388 Y278.3884
X51.2023 Y278.3556
X51.3358 Y278.3082
X51.3485 Y278.3053
X51.4708 Y278.2913
X51.5838 Y278.2948
X51.6509 Y278.3057
X51.7394 Y278.3305
X51.7667 Y278.3411
X51.8743 Y278.3972
X51.9498 Y278.4508
X52.0176 Y278.5139
X52.0705 Y278.5769
X52.117 Y278.6493
X52.1693 Y278.7605
X52.1755 Y278.7782
X52.2063 Y278.919
X52.2079 Y278.9336
X52.2074 Y279.0534
X52.1884 Y279.1778
X52.1799 Y279.2098
X52.167 Y279.2459
X52.1145 Y279.3553
X52.0707 Y279.423
X52.0149 Y279.4888
X51.944 Y279.554
X51.8739 Y279.6032
X51.7673 Y279.6587
X51.7479 Y279.6662
X51.6251 Y279.6984
X51.5236 Y279.7089
X51.3985 Y279.7037
X51.3661 Y279.6988
X51.3358 Y279.6918
X51.2638 Y279.6663
X51.219 Y279.6464 Z-9.9922
X51.1779 Y279.6198 Z-9.9845
X51.1446 Y279.5907 Z-9.9619
X51.1157 Y279.5572 Z-9.9394
X51.0802 Y279.4967 Z-9.8691
X51.0648 Y279.4544 Z-9.7806
X51.0609 Y279.4394 Z-9.6825
G0 Z5
X51.5644 Y279.6181
G1 Z-7 F1200
Z-11.6825
X51.5519 Y279.6273 Z-11.7806
X51.5132 Y279.6504 Z-11.8691
X51.4476 Y279.675 Z-11.9394
X51.404 Y279.6827 Z-11.9619
X51.3599 Y279.6844 Z-11.9845
X51.3111 Y279.6791 Z-11.9922
X51.2638 Y279.6663 Z-12
X51.2015 Y279.6442 F3500
X51.1406 Y279.6127
X51.0654 Y279.5619
X50.9989 Y279.504
X50.9641 Y279.4667
X50.9031 Y279.3846
X50.8583 Y279.3059
X50.8385 Y279.2611
X50.8265 Y279.2277
X50.799 Y279.1066
X50.7905 Y278.9954
X50.7973 Y278.8949
X50.8066 Y278.8411
X50.8134 Y278.8148
X50.8648 Y278.6835
X50.9011 Y278.6187
X50.9603 Y278.5384
X51.0163 Y278.4792
X51.0553 Y278.4457
X51.1388 Y278.3884
X51.2023 Y278.3556
X51.3358 Y278.3082
X51.3485 Y278.3053
X51.4708 Y278.2913
X51.5838 Y278.2948
X51.6509 Y278.3057
X51.7394 Y278.3305
X51.7667 Y278.3411
X51.8743 Y278.3972
X51.9498 Y278.4508
X52.0176 Y278.5139
X52.0705 Y278.5769
X52.117 Y278.6493
X52.1693 Y278.7605
X52.1755 Y278.7782
X52.2063 Y278.919
X52.2079 Y278.9336
X52.2074 Y279.0534
X52.1884 Y279.1778
X52.1799 Y279.2098
X52.167 Y279.2459
X52.1145 Y279.3553
X52.0707 Y279.423
X52.0149 Y279.4888
X51.944 Y279.554
X51.8739 Y279.6032
X51.7673 Y279.6587
X51.7479 Y279.6662
X51.6251 Y279.6984
X51.5236 Y279.7089
X51.3985 Y279.7037
X51.3661 Y279.6988
X51.3358 Y279.6918
X51.2638 Y279.6663
X51.219 Y279.6464 Z-11.9922
X51.1779 Y279.6198 Z-11.9845
X51.1446 Y279.5907 Z-11.9619
X51.1157 Y279.5572 Z-11.9394
X51.0802 Y279.4967 Z-11.8691
X51.0648 Y279.4544 Z-11.7806
X51.0609 Y279.4394 Z-11.6825
G0 Z5
X51.9913 Y278.6191
G1 Z-9 F1200
Z-13.6825
X52.0057 Y278.6249 Z-13.7806
X52.0458 Y278.6455 Z-13.8691
X52.1013 Y278.6883 Z-13.9394
X52.1309 Y278.7211 Z-13.9619
X52.1556 Y278.7578 Z-13.9845
X52.1768 Y278.802 Z-13.9922
X52.191 Y278.8489 Z-14
X52.2063 Y278.919 F3500
X52.2079 Y278.9336
X52.2074 Y279.0534
X52.1884 Y279.1778
X52.1799 Y279.2098
X52.167 Y279.2459
X52.1145 Y279.3553
X52.0707 Y279.423
X52.0149 Y279.4888
X51.944 Y279.554
X51.8739 Y279.6032
X51.7673 Y279.6587
X51.7479 Y279.6662
X51.6251 Y279.6984
X51.5236 Y279.7089
X51.3985 Y279.7037
X51.3661 Y279.6988
X51.3358 Y279.6918
X51.2015 Y279.6442
X51.1406 Y279.6127
X51.0654 Y279.5619
X50.9989 Y279.504
X50.9641 Y279.4667
X50.9031 Y279.3846
X50.8583 Y279.3059
X50.8385 Y279.2611
X50.8265 Y279.2277
X50.799 Y279.1066
X50.7905 Y278.9954
X50.7973 Y278.8949
X50.8066 Y278.8411
X50.8134 Y278.8148
X50.8648 Y278.6835
X50.9011 Y278.6187
X50.9603 Y278.5384
X51.0163 Y278.4792
X51.0553 Y278.4457
X51.1388 Y278.3884
X51.2023 Y278.3556
X51.3358 Y278.3082
X51.3485 Y278.3053
X51.4708 Y278.2913
X51.5838 Y278.2948
X51.6509 Y278.3057
X51.7394 Y278.3305
X51.7667 Y278.3411
X51.8743 Y278.3972
X51.9498 Y278.4508
X52.0176 Y278.5139
X52.0705 Y278.5769
X52.117 Y278.6493
X52.1693 Y278.7605
X52.1755 Y278.7782
X52.191 Y278.8489
X52.1977 Y278.8974 Z-13.9922
X52.1969 Y278.9464 Z-13.9845
X52.1897 Y278.9901 Z-13.9619
X52.1765 Y279.0323 Z-13.9394
X52.144 Y279.0944 Z-13.8691
X52.1162 Y279.1299 Z-13.7806
X52.1055 Y279.1411 Z-13.6825
G0 Z5
X51.0609 Y278.5607
G1 Z-11 F1200
Z-15.6825
X51.0648 Y278.5456 Z-15.7806
X51.0802 Y278.5033 Z-15.8691
X51.1157 Y278.4428 Z-15.9394
X51.1446 Y278.4094 Z-15.9619
X51.1779 Y278.3802 Z-15.9845
X51.219 Y278.3537 Z-15.9922
X51.2638 Y278.3337 Z-16
X51.3358 Y278.3082 F3500
X51.3485 Y278.3053
X51.4708 Y278.2913
X51.5838 Y278.2948
X51.6509 Y278.3057
X51.7394 Y278.3305
X51.7667 Y278.3411
X51.8743 Y278.3972
X51.9498 Y278.4508
X52.0176 Y278.5139
X52.0705 Y278.5769
X52.117 Y278.6493
X52.1693 Y278.7605
X52.1755 Y278.7782
X52.2063 Y278.919
X52.2079 Y278.9336
X52.2074 Y279.0534
X52.1884 Y279.1778
X52.1799 Y279.2098
X52.167 Y279.2459
X52.1145 Y279.3553
X52.0707 Y279.423
X52.0149 Y279.4888
X51.944 Y279.554
X51.8739 Y279.6032
X51.7673 Y279.6587
X51.7479 Y279.6662
X51.6251 Y279.6984
X51.5236 Y279.7089
X51.3985 Y279.7037
X51.3661 Y279.6988
X51.3358 Y279.6918
X51.2015 Y279.6442
X51.1406 Y279.6127
X51.0654 Y279.5619
X50.9989 Y279.504
X50.9641 Y279.4667
X50.9031 Y279.3846
X50.8583 Y279.3059
X50.8385 Y279.2611
X50.8265 Y279.2277
X50.799 Y279.1066
X50.7905 Y278.9954
X50.7973 Y278.8949
X50.8066 Y278.8411
X50.8134 Y278.8148
X50.8648 Y278.6835
X50.9011 Y278.6187
X50.9603 Y278.5384
X51.0163 Y278.4792
X51.0553 Y278.4457
X51.1388 Y278.3884
X51.2023 Y278.3556
X51.2638 Y278.3337
X51.3111 Y278.321 Z-15.9922
X51.3599 Y278.3156 Z-15.9845
X51.404 Y278.3173 Z-15.9619
X51.4476 Y278.3251 Z-15.9394
X51.5132 Y278.3496 Z-15.8691
X51.5519 Y278.3727 Z-15.7806
X51.5644 Y278.3819 Z-15.6825
G0 Z5
X51.0609 Y278.5607
G1 Z-13 F1200
Z-17.6825
X51.0648 Y278.5456 Z-17.7806
X51.0802 Y278.5033 Z-17.8691
X51.1157 Y278.4428 Z-17.9394
X51.1446 Y278.4094 Z-17.9619
X51.1779 Y278.3802 Z-17.9845
X51.219 Y278.3537 Z-17.9922
X51.2638 Y278.3337 Z-18
X51.3358 Y278.3082 F3500
X51.3485 Y278.3053
X51.4708 Y278.2913
X51.5838 Y278.2948
X51.6509 Y278.3057
X51.7394 Y278.3305
X51.7667 Y278.3411
X51.8743 Y278.3972
X51.9498 Y278.4508
X52.0176 Y278.5139
X52.0705 Y278.5769
X52.117 Y278.6493
X52.1693 Y278.7605
X52.1755 Y278.7782
X52.2063 Y278.919
X52.2079 Y278.9336
X52.2074 Y279.0534
X52.1884 Y279.1778
X52.1799 Y279.2098
X52.167 Y279.2459
X52.1145 Y279.3553
X52.0707 Y279.423
X52.0149 Y279.4888
X51.944 Y279.554
X51.8739 Y279.6032
X51.7673 Y279.6587
X51.7479 Y279.6662
X51.6251 Y279.6984
X51.5236 Y279.7089
X51.3985 Y279.7037
X51.3661 Y279.6988
X51.3358 Y279.6918
X51.2015 Y279.6442
X51.1406 Y279.6127
X51.0654 Y279.5619
X50.9989 Y279.504
X50.9641 Y279.4667
X50.9031 Y279.3846
X50.8583 Y279.3059
X50.8385 Y279.2611
X50.8265 Y279.2277
X50.799 Y279.1066
X50.7905 Y278.9954
X50.7973 Y278.8949
X50.8066 Y278.8411
X50.8134 Y278.8148
X50.8648 Y278.6835
X50.9011 Y278.6187
X50.9603 Y278.5384
X51.0163 Y278.4792
X51.0553 Y278.4457
X51.1388 Y278.3884
X51.2023 Y278.3556
X51.2638 Y278.3337
X51.3111 Y278.321 Z-17.9922
X51.3599 Y278.3156 Z-17.9845
X51.404 Y278.3173 Z-17.9619
X51.4476 Y278.3251 Z-17.9394
X51.5132 Y278.3496 Z-17.8691
X51.5519 Y278.3727 Z-17.7806
X51.5644 Y278.3819 Z-17.6825
G0 Z5
X51.0609 Y278.5607
G1 Z-15 F1200
Z-19.3825
X51.0648 Y278.5456 Z-19.4806
X51.0802 Y278.5033 Z-19.5691
X51.1157 Y278.4428 Z-19.6394
X51.1446 Y278.4094 Z-19.6619
X51.1779 Y278.3802 Z-19.6845
X51.219 Y278.3537 Z-19.6922
X51.2638 Y278.3337 Z-19.7
X51.3358 Y278.3082 F3500
X51.3485 Y278.3053
X51.4708 Y278.2913
X51.5838 Y278.2948
X51.6509 Y278.3057
X51.7394 Y278.3305
X51.7667 Y278.3411
X51.8743 Y278.3972
X51.9498 Y278.4508
X52.0176 Y278.5139
X52.0705 Y278.5769
X52.117 Y278.6493
X52.1693 Y278.7605
X52.1755 Y278.7782
X52.2063 Y278.919
X52.2079 Y278.9336
X52.2074 Y279.0534
X52.1884 Y279.1778
X52.1799 Y279.2098
X52.167 Y279.2459
X52.1145 Y279.3553
X52.0707 Y279.423
X52.0149 Y279.4888
X51.944 Y279.554
X51.8739 Y279.6032
X51.7673 Y279.6587
X51.7479 Y279.6662
X51.6251 Y279.6984
X51.5236 Y279.7089
X51.3985 Y279.7037
X51.3661 Y279.6988
X51.3358 Y279.6918
X51.2015 Y279.6442
X51.1406 Y279.6127
X51.0654 Y279.5619
X50.9989 Y279.504
X50.9641 Y279.4667
X50.9031 Y279.3846
X50.8583 Y279.3059
X50.8385 Y279.2611
X50.8265 Y279.2277
X50.799 Y279.1066
X50.7905 Y278.9954
X50.7973 Y278.8949
X50.8066 Y278.8411
X50.8134 Y278.8148
X50.8648 Y278.6835
X50.9011 Y278.6187
X50.9603 Y278.5384
X51.0163 Y278.4792
X51.0553 Y278.4457
X51.1388 Y278.3884
X51.2023 Y278.3556
X51.2638 Y278.3337
X51.3111 Y278.321 Z-19.6922
X51.3599 Y278.3156 Z-19.6845
X51.404 Y278.3173 Z-19.6619
X51.4476 Y278.3251 Z-19.6394
X51.5132 Y278.3496 Z-19.5691
X51.5519 Y278.3727 Z-19.4806
X51.5644 Y278.3819 Z-19.3825
G0 Z5
X14.9232 Y61.6995
Z2.4173
G1 X14.9162 Y61.7126 Z2.3213 F1200
X14.8951 Y61.7503 Z2.2343
X14.8601 Y61.8079 Z2.1644
X14.812 Y61.8786 Z2.1182
X14.7537 Y61.9541 Z2.1
G3 X14.9025 Y61.7374 Z1.7783 I-1.164 J-0.9589
X15.0115 Y61.4981 Z1.4566 I-1.3128 J-0.7422
X15.0772 Y61.2436 Z1.1349 I-1.4218 J-0.503
X15.0977 Y60.9815 Z0.8132 I-1.4875 J-0.2484
X15.0725 Y60.7199 Z0.4914 I-1.5081 J0.0136
X15.0021 Y60.4666 Z0.1697 I-1.4828 J0.2753
X14.8889 Y60.2293 Z-0.152 I-1.4125 J0.5286
X14.7362 Y60.0153 Z-0.4737 I-1.2992 J0.7658
X14.5486 Y59.8311 Z-0.7954 I-1.1465 J0.9798
X14.3319 Y59.6823 Z-1.1171 I-0.9589 J1.164
X14.0927 Y59.5734 Z-1.4388 I-0.7422 J1.3128
X13.8381 Y59.5076 Z-1.7605 I-0.503 J1.4218
X12.0816 Y60.9951 Z-2 I-0.2484 J1.4875
G1 Y60.4198 F3500
G3 X12.7102 Y60.3202 I0.3222
G2 X12.8985 Y60.8597 I12.6846 J-4.1246
G3 X12.8981 Y61.1317 I-0.3684 J0.1355
G2 X12.7093 Y61.6773 I12.3035 J4.564
G3 X12.0816 Y61.5788 I-0.3061 J-0.0985
G1 Y60.9951
X12.0853 Y60.9463 Z-1.9922
X12.0966 Y60.8986 Z-1.9845
X12.113 Y60.8575 Z-1.9619
X12.1348 Y60.8191 Z-1.9394
X12.1799 Y60.7654 Z-1.8691
X12.2147 Y60.7367 Z-1.7806
X12.2275 Y60.728 Z-1.6825
G0 Z5
X13.3181 Y12.3153
Z2.4173
G1 X13.3323 Y12.311 Z2.3213 F1200
X13.3739 Y12.2994 Z2.2343
X13.4395 Y12.2835 Z2.1644
X13.5235 Y12.2678 Z2.1182
X13.6181 Y12.2558 Z2.1
G3 X13.3596 Y12.3032 Z1.7783 I0.1419 J1.5014
X13.1132 Y12.3949 Z1.4566 I0.4005 J1.454
X12.8864 Y12.5279 Z1.1349 I0.6469 J1.3624
X12.6862 Y12.6983 Z0.8132 I0.8736 J1.2293
X12.5187 Y12.9008 Z0.4914 I1.0738 J1.059
X12.3888 Y13.1294 Z0.1697 I1.2414 J0.8564
X12.3006 Y13.377 Z-0.152 I1.3712 J0.6278
X12.2568 Y13.6362 Z-0.4737 I1.4594 J0.3802
X12.2586 Y13.8991 Z-0.7954 I1.5033 J0.121
X12.306 Y14.1577 Z-1.1171 I1.5014 J-0.1419
X12.3977 Y14.4041 Z-1.4388 I1.454 J-0.4005
X12.5307 Y14.6308 Z-1.7605 I1.3624 J-0.6469
X14.8242 Y14.8258 Z-2 I1.2293 J-0.8736
G1 X14.7603 Y14.8899 F3500
G3 X14.0028 Y14.5779 I-0.3145 J-0.312
G1 Y14.3955
G3 X14.3953 Y14.003 I0.3926
G1 X14.5819
G3 X14.8914 Y14.7593 J0.4415
G1 X14.8242 Y14.8258
G2 X14.5243 Y16.4417 I1.021 J1.0252
G3 X14.3706 Y18.0779 I-1.5252 J0.682
G2 X13.603 Y19.3093 I11.788 J8.202
X13.1934 Y20.1792 I6.2542 J3.4764
X12.8477 Y21.0765 I87.8423 J34.3579
G3 X12.2183 Y20.9611 I-0.3041 J-0.1154
G1 X12.2184 Y13.1625
G3 X13.1624 Y12.2186 I0.944
G1 X20.9635
G3 X21.0785 Y12.8477 J0.3251
G2 X14.3706 Y18.0779 I5.08 J13.4322
G1 X14.3398 Y18.116 Z-1.9922
X14.3035 Y18.1489 Z-1.9845
X14.2668 Y18.1736 Z-1.9619
X14.227 Y18.1928 Z-1.9394
X14.1594 Y18.2116 Z-1.8691
X14.1145 Y18.2156 Z-1.7806
X14.099 Y18.2155 Z-1.6825
G0 Z5
X11.6614 Y275.9324
Z2.4173
G1 X11.6598 Y275.9177 Z2.3213 F1200
X11.6558 Y275.8746 Z2.2343
X11.6521 Y275.8073 Z2.1644
X11.6517 Y275.7218 Z2.1182
X11.657 Y275.6266 Z2.1
G3 Y275.8894 Z1.7783 I1.5024 J0.1312
X11.7027 Y276.1483 Z1.4566 I1.5024 J-0.1317
X11.7927 Y276.3953 Z1.1349 I1.4567 J-0.3905
X11.9241 Y276.623 Z0.8132 I1.3667 J-0.6376
X12.0932 Y276.8243 Z0.4914 I1.2353 J-0.8652
X12.2946 Y276.9933 Z0.1697 I1.0663 J-1.0666
X12.5222 Y277.1247 Z-0.152 I0.8648 J-1.2355
X12.7693 Y277.2146 Z-0.4737 I0.6372 J-1.3669
X13.0282 Y277.2602 Z-0.7954 I0.3901 J-1.4568
X13.2911 Z-1.1171 I0.1312 J-1.5024
X13.5499 Y277.2145 Z-1.4388 I-0.1317 J-1.5024
X13.797 Y277.1245 Z-1.7605 I-0.3905 J-1.4567
X14.4024 Y274.9038 Z-2 I-0.6376 J-1.3667
G2 X15.0418 Y275.7587 I10.9502 J-7.523 F3500
X15.1546 Y275.889 I2.1318 J-1.7321
G3 X15.2683 Y276.0185 I-2.5649 J2.3661
X14.9103 Y276.7838 I-0.358 J0.2989
G1 X13.1587 Y276.7837
G3 X12.2147 Y275.8396 I0.0001 J-0.9441
G1 Y272.025
G3 X12.8473 Y271.9096 I0.3268
G2 X13.7895 Y273.9226 I13.5003 J-5.0918
X14.4024 Y274.9038 I11.5631 J-6.5418
G1 X14.427 Y274.9462 Z-1.9922
X14.4447 Y274.9919 Z-1.9845
X14.4545 Y275.035 Z-1.9619
X14.4582 Y275.0791 Z-1.9394
X14.4514 Y275.1489 Z-1.8691
X14.4391 Y275.1922 Z-1.7806
X14.4334 Y275.2066 Z-1.6825
G0 Z5
X339.5258 Y277.0941
Z2.4173
G1 X339.5126 Y277.1009 Z2.3213 F1200
X339.4738 Y277.1199 Z2.2343
X339.4121 Y277.1473 Z2.1644
X339.3324 Y277.178 Z2.1182
X339.2414 Y277.2069 Z2.1
G3 X339.4872 Y277.1135 Z1.7783 I-0.4109 J-1.4511
X339.7129 Y276.9788 Z1.4566 I-0.6566 J-1.3577
X339.9119 Y276.807 Z1.1349 I-0.8824 J-1.223
X340.078 Y276.6033 Z0.8132 I-1.0814 J-1.0512
X340.2063 Y276.3738 Z0.4914 I-1.2475 J-0.8475
X340.2927 Y276.1255 Z0.1697 I-1.3757 J-0.618
X340.3347 Y275.866 Z-0.152 I-1.4621 J-0.3697
X340.331 Y275.6032 Z-0.4737 I-1.5041 J-0.1102
X340.2817 Y275.3449 Z-0.7954 I-1.5004 J0.1526
X340.1883 Y275.0992 Z-1.1171 I-1.4511 J0.4109
X340.0536 Y274.8734 Z-1.4388 I-1.3577 J0.6566
X339.8818 Y274.6744 Z-1.7605 I-1.2231 J0.8824
X337.5908 Y274.8971 Z-2 I-1.0513 J1.0814
G2 X338.8726 Y272.643 I-12.0291 J-8.332 F3500
X339.0187 Y272.2791 I-3.8837 J-1.7704
G3 X339.154 Y271.911 I11.2807 J3.9372
X339.785 Y272.0286 I0.3046 J0.1176
G1 Y275.844
G3 X338.841 Y276.7879 I-0.944
G1 X337.0799 Y276.788
G3 X336.726 Y276.0244 J-0.4638
G2 X337.5908 Y274.8971 I-11.1643 J-9.4593
G1 X337.6216 Y274.859 Z-1.9922
X337.658 Y274.8261 Z-1.9845
X337.6948 Y274.8016 Z-1.9619
X337.7346 Y274.7824 Z-1.9394
X337.8022 Y274.7638 Z-1.8691
X337.8471 Y274.7599 Z-1.7806
X337.8626 Y274.7601 Z-1.6825
G0 Z5
X339.6835 Y13.3242
Z2.4173
G1 X339.6877 Y13.3385 Z2.3213 F1200
X339.6994 Y13.38 Z2.2343
X339.7152 Y13.4457 Z2.1644
X339.7309 Y13.5296 Z2.1182
X339.7428 Y13.6243 Z2.1
G3 X339.6955 Y13.3657 Z1.7783 I-1.5015 J0.1411
X339.604 Y13.1193 Z1.4566 I-1.4542 J0.3997
X339.4711 Y12.8925 Z1.1349 I-1.3627 J0.6461
X339.3008 Y12.6922 Z0.8132 I-1.2298 J0.873
X339.0984 Y12.5245 Z0.4914 I-1.0595 J1.0732
X338.8699 Y12.3945 Z0.1697 I-0.857 J1.2409
X338.6223 Y12.3062 Z-0.152 I-0.6285 J1.3709
X338.3631 Y12.2622 Z-0.4737 I-0.3809 J1.4592
X338.1002 Y12.2639 Z-0.7954 I-0.1218 J1.5032
X337.8416 Y12.3112 Z-1.1171 I0.1411 J1.5015
X337.5952 Y12.4027 Z-1.4388 I0.3997 J1.4542
X337.3684 Y12.5356 Z-1.7605 I0.6461 J1.3627
X337.1721 Y14.829 Z-2 I0.873 J1.2298
G2 X337.0987 Y14.7557 I-10.6618 J10.6063 F3500
G3 X337.4106 Y13.9983 I0.3118 J-0.3145
G1 X337.6121
G3 X338.0047 Y14.3909 J0.3926
G1 Y14.5978
G3 X337.2487 Y14.9066 I-0.441
G2 X337.1721 Y14.829 I-10.7383 J10.5287
X335.6272 Y14.5299 I-0.9926 J0.9875
G3 X334.0607 Y14.3795 I-0.646 J-1.5046
G2 X332.7881 Y13.6482 I-5.4718 J8.0497
X330.9021 Y12.844 I-10.2922 J21.5216
G3 X331.0165 Y12.2152 I0.1144 J-0.304
G1 X338.8438
G3 X339.7878 Y13.1592 J0.944
G1 X339.7877 Y20.9837
G3 X339.1559 Y21.1022 I-0.327
G2 X337.2806 Y17.5971 I-15.4423 J6.0078
X334.5344 Y14.7228 I-10.8135 J7.5823
X334.0607 Y14.3795 I-5.9455 J7.7064
X332.6818 Y14.3822 I-0.6874 J1.0113
G3 X331.3073 Y14.4927 I-0.7835 J-1.1427
G2 X327.4801 Y13.3542 I-5.64 J11.9581
G1 X26.1537 Y13.2417
G2 X17.5889 Y16.5316 J12.7936
X13.3365 Y24.6616 I8.826 J9.7935
G1 X13.243 Y56.0704
G2 X13.5115 Y58.2796 I9.2273 J-0.0005
X14.163 Y60.4075 I19.5518 J-4.8225
G3 X14.1608 Y61.5889 I-1.5981 J0.5877
G2 X13.4258 Y64.628 I12.3622 J4.5983
X13.2407 Y67.7494 I26.217 J3.1209
G1 X13.2436 Y266.8779
G2 X14.8697 Y272.9839 I12.2776 J-0.0002
X19.2276 Y277.5596 I11.5083 J-6.5974
G3 X19.0219 Y278.2625 I-0.2057 J0.3214
G1 X11.6996 Y278.2618
G3 X10.7364 Y277.2985 I0.0001 J-0.9633
G1 X10.7392 Y11.7026
G3 X11.7024 Y10.7394 I0.9633
G1 X340.3004
G3 X341.2636 Y11.7026 J0.9632
G1 X341.2609 Y277.3006
G3 X340.2976 Y278.2638 I-0.9633
G1 X332.978 Y278.2639
G3 X332.7708 Y277.5635 J-0.3809
G2 X337.0334 Y273.079 I-7.2237 J-11.1346
X338.7509 Y267.135 I-11.1033 J-6.4283
G1 X338.7546 Y26.1007
G2 X335.504 Y17.6165 I-12.6979 J0.0002
X331.3073 Y14.4927 I-9.8367 J8.8343
X329.429 Y14.8203 I-0.7065 J1.4978
G3 X327.611 Y15.3947 I-1.4606 J-1.4586
G2 X327.2065 Y15.3312 I-1.9439 J11.0572
G1 X26.1537 Y15.2375
G2 X18.9081 Y18.0293 J10.7984
X15.3164 Y24.9135 I7.5074 J8.296
G1 X15.2562 Y56.0703
G2 X15.4943 Y57.9628 I7.6447 J-0.0004
X16.0603 Y59.7843 I18.0955 J-4.6248
G3 X16.0494 Y62.2368 I-3.2945 J1.2115
G2 X15.3933 Y64.9563 I10.5289 J3.9791
X15.2365 Y67.7493 I24.7973 J2.7927
G1 X15.2394 Y266.8779
G2 X16.8848 Y272.4742 I10.3401 J-0.0002
X21.1969 Y276.4025 I9.5383 J-6.1394
G3 X22.1737 Y278.0099 I-0.8346 J1.6077
G1 X22.1739 Y279.2955
G3 X21.2109 Y280.2586 I-0.9629 J0.0001
G1 X9.7038 Y280.2574
G3 X8.7405 Y279.2941 I0.0001 J-0.9633
G1 X8.7434 Y9.7068
G3 X9.7066 Y8.7435 I0.9633
G1 X342.2963
G3 X343.2595 Y9.7068 J0.9632
G1 X343.2567 Y279.2964
G3 X342.2934 Y280.2596 I-0.9633
G1 X330.7892 Y280.2597
G3 X329.8261 Y279.2965 J-0.9631
G1 X329.8263 Y278.0214
G3 X330.803 Y276.4008 I1.8333 J0.0003
G2 X335.1337 Y272.3714 I-5.3129 J-10.0524
X336.7635 Y266.6851 I-9.1042 J-5.6862
G1 X336.7588 Y26.1008
G2 X333.9991 Y18.9274 I-10.7031 J0.0002
X327.611 Y15.3947 I-8.332 J7.5245
X325.6059 Y16.4368 I-0.3218 J1.8307
G3 X323.6989 Y17.6489 I-1.9066 J-0.8934
G1 X26.1537 Y17.578
G2 X20.4552 Y19.7856 J8.4589
X17.6382 Y25.2088 I5.9615 J6.5398
G1 X17.585 Y56.0702
G2 X17.9144 Y58.1441 I6.695 J-0.0004
X18.7534 Y60.0691 I10.4148 J-3.3938
G3 X18.7578 Y61.9199 I-1.6733 J0.9294
G2 X17.7995 Y64.7601 I7.4682 J4.1017
X17.577 Y67.7493 I19.9657 J2.9889
G1 X17.5799 Y266.8779
G2 X19.2785 Y271.8399 I8.0972 J-0.0001
X23.5618 Y274.8665 I7.1036 J-5.5089
G3 X24.514 Y276.1837 I-0.4353 J1.3174
G1 X24.5148 Y281.6362
G3 X23.5518 Y282.5993 I-0.9629 J0.0002
G1 X7.3632 Y282.5977
G3 X6.4 Y281.6344 I0.0001 J-0.9633
G1 X6.4029 Y7.3663
G3 X7.3661 Y6.403 I0.9633
G1 X344.6368
G3 X345.6 Y7.3662 J0.9632
G1 X345.5971 Y281.6369
G3 X344.6339 Y282.6001 I-0.9633
G1 X328.4483 Y282.6002
G3 X327.4852 Y281.637 J-0.963
G1 X327.4861 Y276.1929
G3 X328.4388 Y274.862 I1.4062 J0.0002
G2 X332.7433 Y271.7342 I-2.9018 J-8.5193
X334.423 Y266.6853 I-6.7485 J-5.049
G1 X334.4183 Y26.1008
G2 X332.2343 Y20.4648 I-8.3644 J0.0002
X326.8855 Y17.6496 I-6.5675 J5.9891
G1 X323.6989 Y17.6489
G2 X321.9573 Y18.8094 I-0.0005 J1.8863
G3 X320.2158 Y19.97 I-1.7412 J-0.7259
G1 X26.1537 Y19.9216
G2 X22.0042 Y21.5441 J6.1172
X19.963 Y25.5045 I4.4144 J4.7815
G1 X19.9229 Y56.07
G2 X20.4789 Y58.446 I5.3563 J-0.0003
X21.9226 Y60.4132 I6.336 J-3.1365
G3 X21.9267 Y61.5822 I-0.5622 J0.5865
G2 X20.7415 Y63.071 I5.2331 J5.3822
X20.0473 Y64.8428 I4.7576 J2.886
X19.9106 Y66.2928 I6.6427 J1.3577
G3 X19.9206 Y67.7493 I-106.9816 J1.458
G1 X19.9235 Y266.8778
G2 X21.4286 Y270.7893 I5.8352 J-0.0001
X25.0694 Y272.8651 I4.9739 J-4.493
X25.4998 Y272.92 I0.5883 J-2.899
X25.9332 Y272.9382 I1.0173 J-19.0264
G3 X26.8545 Y273.888 I-0.0291 J0.9499
G1 X26.856 Y283.9966
G3 X25.9122 Y284.9404 I-0.9437 J0.0002
G1 X5.0031 Y284.9383
G3 X4.0591 Y283.9942 I0.0001 J-0.9441
G1 X4.0621 Y5.0062
G3 X5.0061 Y4.0622 I0.944
G1 X346.9969
G3 X347.9409 Y5.0062 J0.944
G1 X347.938 Y283.9969
G3 X346.994 Y284.9409 I-0.944
G1 X326.0879 Y284.941
G3 X325.144 Y283.9971 J-0.9438
G1 X325.1456 Y273.8933
G3 X326.0591 Y272.941 I0.9533 J0.0001
G2 X329.8017 Y271.5289 I-0.2659 J-6.3707
X331.9304 Y268.1422 I-3.8822 J-4.8024
X332.0471 Y267.418 I-4.9991 J-1.1773
X332.0795 Y266.6852 I-8.2715 J-0.7327
G1 X332.0748 Y26.1009
G2 X330.4672 Y22.0042 I-6.024 J0.0001
X326.5642 Y19.971 I-4.8009 J4.4534
G1 X320.2158 Y19.97
G2 X318.6633 Y21.0047 I-0.0003 J1.6817
G3 X317.1107 Y22.0395 I-1.5523 J-0.6471
G1 X26.1537 Y22.0107
G2 X23.3851 Y23.1118 J4.0312
X22.0354 Y25.7681 I3.0372 J3.2143
G1 X22.012 Y56.0699
G2 X22.9953 Y58.6913 I3.9863 J-0.0002
X25.4078 Y60.112 I3.3434 J-2.9188
X26.1535 Y60.1894 I0.7299 J-3.4026
G1 X72.0693 Y60.1952
G3 X72.764 Y60.7453 I-0.0689 J0.8008
X72.5367 Y61.6017 I-0.7721 J0.2535
X72.1208 Y61.7987 I-0.5349 J-0.5919
G1 X25.7222 Y61.8404
G2 X23.1148 Y63.1669 I0.6135 J4.4318
X22.0157 Y65.878 I2.8253 J2.7238
G1 X22.0126 Y266.8778
G2 X23.0328 Y269.489 I3.8517 J-0.0001
X25.4753 Y270.865 I3.3484 J-3.0879
X26.7291 Y270.9207 I0.8043 J-3.9633
G3 X27.9822 Y270.8518 I1.2353 J11.0453
X28.946 Y271.817 I-0.0015 J0.9653
G1 X28.9481 Y286.0693
G3 X27.9851 Y287.0324 I-0.9629 J0.0002
G1 X2.9306 Y287.0299
G3 X1.9673 Y286.0666 I0.0001 J-0.9633
G1 X1.9703 Y2.9336
G3 X2.9336 Y1.9704 I0.9633
G1 X349.0695
G3 X350.0327 Y2.9336 J0.9632
G1 X350.0297 Y286.0695
G3 X349.0665 Y287.0327 I-0.9633
G1 X324.015 Y287.0328
G3 X323.0519 Y286.0696 J-0.963
G1 X323.0541 Y271.8174
G3 X324.0175 Y270.8539 I0.9636 J0.0001
X326.1821 Y270.869 I0.027 J151.6924
G2 X328.2411 Y270.2012 I0.0474 J-3.362
X329.5317 Y268.6502 I-2.588 J-3.4661
X329.9904 Y266.6853 I-3.9797 J-1.965
G1 X329.9857 Y26.1009
G2 X328.892 Y23.3764 I-3.9406 J0.0001
X326.2777 Y22.0404 I-3.2267 J3.088
G1 X317.1107 Y22.0395
G2 X315.5551 Y23.0765 I-0.0002 J1.6851
G3 X313.9995 Y24.1135 I-1.5556 J-0.6483
G1 X26.1537
G2 X26.0106 Y24.1234 J1.0438
G1 X25.8182 Y24.15
G2 X25.6248 Y24.1959 I0.1431 J1.0339
G1 X25.4323 Y24.2615
G2 X25.2458 Y24.3462 I0.3365 J0.988
G1 X25.0672 Y24.4496
G2 X24.9019 Y24.5684 I0.523 J0.9032
G1 X24.7509 Y24.7008
G2 X24.6261 Y24.8311 I0.6884 J0.7845
G1 X24.5257 Y24.9559
G2 X24.4266 Y25.1031 I0.8133 J0.6542
G1 X24.3322 Y25.273
G2 X24.2527 Y25.4549 I0.9123 J0.5071
G1 X24.1895 Y25.6474
G2 X24.1459 Y25.8409 I0.9918 J0.3252
G1 X24.1215 Y26.0334
G2 X24.1131 Y26.1652 I1.0354 J0.1317
G1 X24.1149 Y56.0698
G2 X24.1283 Y56.2364 I1.0438 J-0.0001
G1 X24.1594 Y56.429
G2 X24.2101 Y56.6225 I1.0303 J-0.1667
G1 X24.2809 Y56.815
G2 X24.3655 Y56.9916 I0.9796 J-0.3602
G1 X24.4614 Y57.1515
G2 X24.5594 Y57.2885 I0.8951 J-0.5369
G1 X24.6565 Y57.4034
G2 X24.7681 Y57.5167 I0.7971 J-0.6739
G1 X24.8945 Y57.6267
G2 X25.0307 Y57.7271 I0.6855 J-0.7871
G1 X25.176 Y57.8171
G2 X25.3344 Y57.8973 I0.5493 J-0.8875
G1 X25.505 Y57.9662
G2 X25.677 Y58.019 I0.3909 J-0.9678
G1 X25.8489 Y58.0559
G2 X25.9785 Y58.0753 I0.2189 J-1.0205
G1 X26.0644 Y58.0826
X26.1537 Y58.0865
X72.0549 Y58.0886
X72.2497 Y58.0989
X72.4383 Y58.1214
X72.6273 Y58.1567
X72.8159 Y58.2048
X73.0064 Y58.2677
X73.1625 Y58.3307
X73.3845 Y58.4389
X73.5708 Y58.5486
X73.7646 Y58.684
X73.8941 Y58.7885
X74.0154 Y58.8984
X74.1375 Y59.0229
X74.2594 Y59.1635
X74.3991 Y59.3502
X74.5225 Y59.5455
X74.6218 Y59.733
X74.7048 Y59.9222
X74.7727 Y60.1106
X74.8258 Y60.2988
X74.866 Y60.4881
X74.8941 Y60.679
X74.9089 Y60.8666
X74.9113 Y61.0479
X74.8933 Y61.3223
X74.8424 Y61.6308
X74.7967 Y61.8098
X74.7344 Y61.9997
X74.6556 Y62.1943
X74.5961 Y62.3188
X74.4521 Y62.5701
X74.3263 Y62.7509
X74.1367 Y62.9771
X73.948 Y63.1635
X73.7542 Y63.3236
X73.5687 Y63.4528
X73.3787 Y63.5645
X73.2427 Y63.6331
X73.0004 Y63.7343
X72.8159 Y63.7952
X72.6274 Y63.8433
X72.4383 Y63.8786
X72.2497 Y63.9011
X72.0549 Y63.9114
X26.1537 Y63.9135
G2 X26.0106 Y63.9234 J1.0437
G1 X25.8182 Y63.95
G2 X25.6248 Y63.9959 I0.1431 J1.0339
G1 X25.4323 Y64.0615
G2 X25.2489 Y64.1445 I0.3365 J0.988
G1 X25.076 Y64.2438
G2 X24.9343 Y64.3416 I0.52 J0.905
G1 X24.8221 Y64.4335
G2 X24.705 Y64.5459 I0.6617 J0.8072
G1 X24.5854 Y64.68
G2 X24.4851 Y64.8123 I0.7789 J0.6948
G1 X24.4029 Y64.9406
G2 X24.3192 Y65.1005 I0.8792 J0.5625
G1 X24.2387 Y65.293
G2 X24.179 Y65.4867 I0.963 J0.4026
G1 X24.1397 Y65.6792
G2 X24.1185 Y65.8848 I1.0226 J0.209
G1 X24.1125 Y67.7458
X24.1154 Y266.8778
G2 X24.1302 Y267.0526 I1.0437
G1 X24.1629 Y267.2451
G2 X24.2153 Y267.4386 I1.029 J-0.1748
G1 X24.2879 Y267.6311
G2 X24.3643 Y267.7911 I0.9766 J-0.3683
G1 X24.4397 Y267.9195
G2 X24.5298 Y268.0493 I0.9002 J-0.5283
G1 X24.6353 Y268.1792
G2 X24.7542 Y268.3032 I0.8101 J-0.6582
G1 X24.8862 Y268.4198
G2 X25.0169 Y268.5182 I0.6912 J-0.7821
G1 X25.1442 Y268.5992
G2 X25.3036 Y268.6823 I0.5605 J-0.8805
G1 X25.4961 Y268.7625
G2 X25.6896 Y268.8217 I0.4011 J-0.9636
G1 X25.882 Y268.8608
G2 X26.0879 Y268.8817 I0.2076 J-1.0229
G1 X29.7443 Y268.8875
X30.9127
X30.9157 Y288.9998
X0.0081 Y288.9968
X0.0001 Y288.9602
X0.0032 Y0.0084
X351.9919 Y0.0032
X351.9999 Y0.0398
X351.9968 Y288.9916
X351.9605 Y288.9998
X321.0844 Y289
X321.0874 Y268.8873
X325.8465 Y268.8865
G2 X325.9894 Y268.8766 I-0.0002 J-1.0438
G1 X326.1819 Y268.85
G2 X326.3753 Y268.8041 I-0.1431 J-1.0339
G1 X326.5677 Y268.7386
G2 X326.7277 Y268.6686 I-0.3365 J-0.988
G1 X326.856 Y268.5992
G2 X326.9839 Y268.5175 I-0.4965 J-0.9181
G1 X327.1104 Y268.4231
G2 X327.2379 Y268.3105 I-0.6245 J-0.8363
G1 X327.3644 Y268.1791
G2 X327.4715 Y268.0481 I-0.752 J-0.7238
G1 X327.56 Y267.9198
G2 X327.6507 Y267.7599 I-0.8591 J-0.5928
G1 X327.7385 Y267.5674
G2 X327.8047 Y267.3737 I-0.9497 J-0.433
G1 X327.85 Y267.1812
G2 X327.8771 Y266.9813 I-1.016 J-0.2393
G1 X327.8868 Y266.7246
X327.8875 Y266.6852
X327.8828 Y26.1009
G2 X327.8642 Y25.9048 I-1.0438
G1 X327.8274 Y25.7123
G2 X327.7705 Y25.5187 I-1.0251 J0.1962
G1 X327.693 Y25.3262
G2 X327.6057 Y25.1562 I-0.9682 J0.3898
G1 X327.512 Y25.0088
G2 X327.4047 Y24.8678 I-0.881 J0.5597
G1 X327.284 Y24.7346
G2 X327.1479 Y24.6089 I-0.7736 J0.7007
G1 X326.997 Y24.4925
G2 X326.856 Y24.4008 I-0.6376 J0.8264
G1 X326.7277 Y24.3314
G2 X326.5677 Y24.2615 I-0.4965 J0.9181
G1 X326.3753 Y24.1959
G2 X326.1819 Y24.15 I-0.3365 J0.988
G1 X325.9894 Y24.1234
G2 X325.8463 Y24.1135 I-0.1431 J1.0339
G1 X313.9995
X313.9506 Y24.1098 Z-1.9922
X313.9029 Y24.0985 Z-1.9845
X313.8618 Y24.0822 Z-1.9619
X313.8234 Y24.0603 Z-1.9394
X313.7697 Y24.0152 Z-1.8691
X313.741 Y23.9804 Z-1.7806
X313.7323 Y23.9676 Z-1.6825
G0 Z5
X339.6835 Y13.3242
Z0.4173
G1 X339.6877 Y13.3385 Z0.3213 F1200
X339.6994 Y13.38 Z0.2343
X339.7152 Y13.4457 Z0.1644
X339.7309 Y13.5296 Z0.1182
X339.7428 Y13.6243 Z0.1
G3 X339.6955 Y13.3657 Z-0.2217 I-1.5015 J0.1411
X339.604 Y13.1193 Z-0.5434 I-1.4542 J0.3997
X339.4711 Y12.8925 Z-0.8651 I-1.3627 J0.6461
X339.3008 Y12.6922 Z-1.1868 I-1.2298 J0.873
X339.0984 Y12.5245 Z-1.5086 I-1.0595 J1.0732
X338.8699 Y12.3945 Z-1.8303 I-0.857 J1.2409
X338.6223 Y12.3062 Z-2.152 I-0.6285 J1.3709
X338.3631 Y12.2622 Z-2.4737 I-0.3809 J1.4592
X338.1002 Y12.2639 Z-2.7954 I-0.1218 J1.5032
X337.8416 Y12.3112 Z-3.1171 I0.1411 J1.5015
X337.5952 Y12.4027 Z-3.4388 I0.3997 J1.4542
X337.3684 Y12.5356 Z-3.7605 I0.6461 J1.3627
X337.1721 Y14.829 Z-4 I0.873 J1.2298
G2 X337.0987 Y14.7557 I-10.6618 J10.6063 F3500
G3 X337.4106 Y13.9983 I0.3118 J-0.3145
G1 X337.6121
G3 X338.0047 Y14.3909 J0.3926
G1 Y14.5978
G3 X337.2487 Y14.9066 I-0.441
G2 X337.1721 Y14.829 I-10.7383 J10.5287
X335.6272 Y14.5299 I-0.9926 J0.9875
G3 X334.0607 Y14.3795 I-0.646 J-1.5046
G2 X332.7881 Y13.6482 I-5.4718 J8.0497
X330.9021 Y12.844 I-10.2922 J21.5216
G3 X331.0165 Y12.2152 I0.1144 J-0.304
G1 X338.8438
G3 X339.7878 Y13.1592 J0.944
G1 X339.7877 Y20.9837
G3 X339.1559 Y21.1022 I-0.327
G2 X337.2806 Y17.5971 I-15.4423 J6.0078
X334.5344 Y14.7228 I-10.8135 J7.5823
X334.0607 Y14.3795 I-5.9455 J7.7064
G1 X334.0229 Y14.3482 Z-3.9922
X333.9904 Y14.3116 Z-3.9845
X333.9662 Y14.2746 Z-3.9619
X333.9474 Y14.2345 Z-3.9394
X333.9294 Y14.1668 Z-3.8691
X333.926 Y14.1219 Z-3.7806
X333.9262 Y14.1063 Z-3.6825
G0 Z5
X339.5258 Y277.0941
Z0.4173
G1 X339.5126 Y277.1009 Z0.3213 F1200
X339.4738 Y277.1199 Z0.2343
X339.4121 Y277.1473 Z0.1644
X339.3324 Y277.178 Z0.1182
X339.2414 Y277.2069 Z0.1
G3 X339.4872 Y277.1135 Z-0.2217 I-0.4109 J-1.4511
X339.7129 Y276.9788 Z-0.5434 I-0.6566 J-1.3577
X339.9119 Y276.807 Z-0.8651 I-0.8824 J-1.223
X340.078 Y276.6033 Z-1.1868 I-1.0814 J-1.0512
X340.2063 Y276.3738 Z-1.5086 I-1.2475 J-0.8475
X340.2927 Y276.1255 Z-1.8303 I-1.3757 J-0.618
X340.3347 Y275.866 Z-2.152 I-1.4621 J-0.3697
X340.331 Y275.6032 Z-2.4737 I-1.5041 J-0.1102
X340.2817 Y275.3449 Z-2.7954 I-1.5004 J0.1526
X340.1883 Y275.0992 Z-3.1171 I-1.4511 J0.4109
X340.0536 Y274.8734 Z-3.4388 I-1.3577 J0.6566
X339.8818 Y274.6744 Z-3.7605 I-1.2231 J0.8824
X337.5908 Y274.8971 Z-4 I-1.0513 J1.0814
G2 X338.8726 Y272.643 I-12.0291 J-8.332 F3500
X339.0187 Y272.2791 I-3.8837 J-1.7704
G3 X339.154 Y271.911 I11.2807 J3.9372
X339.785 Y272.0286 I0.3046 J0.1176
G1 Y275.844
G3 X338.841 Y276.7879 I-0.944
G1 X337.0799 Y276.788
G3 X336.726 Y276.0244 J-0.4638
G2 X337.5908 Y274.8971 I-11.1643 J-9.4593
G1 X337.6216 Y274.859 Z-3.9922
X337.658 Y274.8261 Z-3.9845
X337.6948 Y274.8016 Z-3.9619
X337.7346 Y274.7824 Z-3.9394
X337.8022 Y274.7638 Z-3.8691
X337.8471 Y274.7599 Z-3.7806
X337.8626 Y274.7601 Z-3.6825
G0 Z5
X11.6614 Y275.9324
Z0.4173
G1 X11.6598 Y275.9177 Z0.3213 F1200
X11.6558 Y275.8746 Z0.2343
X11.6521 Y275.8073 Z0.1644
X11.6517 Y275.7218 Z0.1182
X11.657 Y275.6266 Z0.1
G3 Y275.8894 Z-0.2217 I1.5024 J0.1312
X11.7027 Y276.1483 Z-0.5434 I1.5024 J-0.1317
X11.7927 Y276.3953 Z-0.8651 I1.4567 J-0.3905
X11.9241 Y276.623 Z-1.1868 I1.3667 J-0.6376
X12.0932 Y276.8243 Z-1.5086 I1.2353 J-0.8652
X12.2946 Y276.9933 Z-1.8303 I1.0663 J-1.0666
X12.5222 Y277.1247 Z-2.152 I0.8648 J-1.2355
X12.7693 Y277.2146 Z-2.4737 I0.6372 J-1.3669
X13.0282 Y277.2602 Z-2.7954 I0.3901 J-1.4568
X13.2911 Z-3.1171 I0.1312 J-1.5024
X13.5499 Y277.2145 Z-3.4388 I-0.1317 J-1.5024
X13.797 Y277.1245 Z-3.7605 I-0.3905 J-1.4567
X14.4024 Y274.9038 Z-4 I-0.6376 J-1.3667
G2 X15.0418 Y275.7587 I10.9502 J-7.523 F3500
X15.1546 Y275.889 I2.1318 J-1.7321
G3 X15.2683 Y276.0185 I-2.5649 J2.3661
X14.9103 Y276.7838 I-0.358 J0.2989
G1 X13.1587 Y276.7837
G3 X12.2147 Y275.8396 I0.0001 J-0.9441
G1 Y272.025
G3 X12.8473 Y271.9096 I0.3268
G2 X13.7895 Y273.9226 I13.5003 J-5.0918
X14.4024 Y274.9038 I11.5631 J-6.5418
G1 X14.427 Y274.9462 Z-3.9922
X14.4447 Y274.9919 Z-3.9845
X14.4545 Y275.035 Z-3.9619
X14.4582 Y275.0791 Z-3.9394
X14.4514 Y275.1489 Z-3.8691
X14.4391 Y275.1922 Z-3.7806
X14.4334 Y275.2066 Z-3.6825
G0 Z5
X14.9232 Y61.6995
Z0.4173
G1 X14.9162 Y61.7126 Z0.3213 F1200
X14.8951 Y61.7503 Z0.2343
X14.8601 Y61.8079 Z0.1644
X14.812 Y61.8786 Z0.1182
X14.7537 Y61.9541 Z0.1
G3 X14.9025 Y61.7374 Z-0.2217 I-1.164 J-0.9589
X15.0115 Y61.4981 Z-0.5434 I-1.3128 J-0.7422
X15.0772 Y61.2436 Z-0.8651 I-1.4218 J-0.503
X15.0977 Y60.9815 Z-1.1868 I-1.4875 J-0.2484
X15.0725 Y60.7199 Z-1.5086 I-1.5081 J0.0136
X15.0021 Y60.4666 Z-1.8303 I-1.4828 J0.2753
X14.8889 Y60.2293 Z-2.152 I-1.4125 J0.5286
X14.7362 Y60.0153 Z-2.4737 I-1.2992 J0.7658
X14.5486 Y59.8311 Z-2.7954 I-1.1465 J0.9798
X14.3319 Y59.6823 Z-3.1171 I-0.9589 J1.164
X14.0927 Y59.5734 Z-3.4388 I-0.7422 J1.3128
X13.8381 Y59.5076 Z-3.7605 I-0.503 J1.4218
X12.0816 Y60.9951 Z-4 I-0.2484 J1.4875
G1 Y60.4198 F3500
G3 X12.7102 Y60.3202 I0.3222
G2 X12.8985 Y60.8597 I12.6846 J-4.1246
G3 X12.8981 Y61.1317 I-0.3684 J0.1355
G2 X12.7093 Y61.6773 I12.3035 J4.564
G3 X12.0816 Y61.5788 I-0.3061 J-0.0985
G1 Y60.9951
X12.0853 Y60.9463 Z-3.9922
X12.0966 Y60.8986 Z-3.9845
X12.113 Y60.8575 Z-3.9619
X12.1348 Y60.8191 Z-3.9394
X12.1799 Y60.7654 Z-3.8691
X12.2147 Y60.7367 Z-3.7806
X12.2275 Y60.728 Z-3.6825
G0 Z5
X13.3181 Y12.3153
Z0.4173
G1 X13.3323 Y12.311 Z0.3213 F1200
X13.3739 Y12.2994 Z0.2343
X13.4395 Y12.2835 Z0.1644
X13.5235 Y12.2678 Z0.1182
X13.6181 Y12.2558 Z0.1
G3 X13.3596 Y12.3032 Z-0.2217 I0.1419 J1.5014
X13.1132 Y12.3949 Z-0.5434 I0.4005 J1.454
X12.8864 Y12.5279 Z-0.8651 I0.6469 J1.3624
X12.6862 Y12.6983 Z-1.1868 I0.8736 J1.2293
X12.5187 Y12.9008 Z-1.5086 I1.0738 J1.059
X12.3888 Y13.1294 Z-1.8303 I1.2414 J0.8564
X12.3006 Y13.377 Z-2.152 I1.3712 J0.6278
X12.2568 Y13.6362 Z-2.4737 I1.4594 J0.3802
X12.2586 Y13.8991 Z-2.7954 I1.5033 J0.121
X12.306 Y14.1577 Z-3.1171 I1.5014 J-0.1419
X12.3977 Y14.4041 Z-3.4388 I1.454 J-0.4005
X12.5307 Y14.6308 Z-3.7605 I1.3624 J-0.6469
X14.8242 Y14.8258 Z-4 I1.2293 J-0.8736
G1 X14.7603 Y14.8899 F3500
G3 X14.0028 Y14.5779 I-0.3145 J-0.312
G1 Y14.3955
G3 X14.3953 Y14.003 I0.3926
G1 X14.5819
G3 X14.8914 Y14.7593 J0.4415
G1 X14.8242 Y14.8258
G2 X14.5243 Y16.4417 I1.021 J1.0252
G3 X14.3706 Y18.0779 I-1.5252 J0.682
G2 X13.603 Y19.3093 I11.788 J8.202
X13.1934 Y20.1792 I6.2542 J3.4764
X12.8477 Y21.0765 I87.8423 J34.3579
G3 X12.2183 Y20.9611 I-0.3041 J-0.1154
G1 X12.2184 Y13.1625
G3 X13.1624 Y12.2186 I0.944
G1 X20.9635
G3 X21.0785 Y12.8477 J0.3251
G2 X14.3706 Y18.0779 I5.08 J13.4322
X14.3693 Y19.4034 I0.9539 J0.6637
G3 X14.48 Y20.7244 I-1.0919 J0.7566
G2 X13.3365 Y24.6616 I11.935 J5.6008
G1 X13.243 Y56.0704
G2 X13.5115 Y58.2796 I9.2273 J-0.0005
X14.163 Y60.4075 I19.5518 J-4.8225
G3 X14.1608 Y61.5889 I-1.5981 J0.5877
G2 X13.4258 Y64.628 I12.3622 J4.5983
X13.2407 Y67.7494 I26.217 J3.1209
G1 X13.2436 Y266.8779
G2 X14.8697 Y272.9839 I12.2776 J-0.0002
X19.2276 Y277.5596 I11.5083 J-6.5974
G3 X19.0219 Y278.2625 I-0.2057 J0.3214
G1 X11.6996 Y278.2618
G3 X10.7364 Y277.2985 I0.0001 J-0.9633
G1 X10.7392 Y11.7026
G3 X11.7024 Y10.7394 I0.9633
G1 X340.3004
G3 X341.2636 Y11.7026 J0.9632
G1 X341.2609 Y277.3006
G3 X340.2976 Y278.2638 I-0.9633
G1 X332.978 Y278.2639
G3 X332.7708 Y277.5635 J-0.3809
G2 X337.0334 Y273.079 I-7.2237 J-11.1346
X338.7509 Y267.135 I-11.1033 J-6.4283
G1 X338.7546 Y26.1007
G2 X335.504 Y17.6165 I-12.6979 J0.0002
X327.4801 Y13.3542 I-9.8367 J8.8343
G1 X26.1537 Y13.2417
G2 X17.5889 Y16.5316 J12.7936
X14.48 Y20.7244 I8.826 J9.7935
X14.8115 Y22.6023 I1.4993 J0.7036
G3 X15.3905 Y24.4193 I-1.4568 J1.465
G2 X15.3164 Y24.9135 I11.0251 J1.906
G1 X15.2562 Y56.0703
G2 X15.4943 Y57.9628 I7.6447 J-0.0004
X16.0603 Y59.7843 I18.0955 J-4.6248
G3 X16.0494 Y62.2368 I-3.2945 J1.2115
G2 X15.3933 Y64.9563 I10.5289 J3.9791
X15.2365 Y67.7493 I24.7973 J2.7927
G1 X15.2394 Y266.8779
G2 X16.8848 Y272.4742 I10.3401 J-0.0002
X21.1969 Y276.4025 I9.5383 J-6.1394
G3 X22.1737 Y278.0099 I-0.8346 J1.6077
G1 X22.1739 Y279.2955
G3 X21.2109 Y280.2586 I-0.9629 J0.0001
G1 X9.7038 Y280.2574
G3 X8.7405 Y279.2941 I0.0001 J-0.9633
G1 X8.7434 Y9.7068
G3 X9.7066 Y8.7435 I0.9633
G1 X342.2963
G3 X343.2595 Y9.7068 J0.9632
G1 X343.2567 Y279.2964
G3 X342.2934 Y280.2596 I-0.9633
G1 X330.7892 Y280.2597
G3 X329.8261 Y279.2965 J-0.9631
G1 X329.8263 Y278.0214
G3 X330.803 Y276.4008 I1.8333 J0.0003
G2 X335.1337 Y272.3714 I-5.3129 J-10.0524
X336.7635 Y266.6851 I-9.1042 J-5.6862
G1 X336.7588 Y26.1008
G2 X333.9991 Y18.9274 I-10.7031 J0.0002
X327.2065 Y15.3312 I-8.332 J7.5245
G1 X26.1537 Y15.2375
G2 X18.9081 Y18.0293 J10.7984
X15.3905 Y24.4193 I7.5074 J8.296
X16.4289 Y26.4193 I1.8345 J0.3171
G3 X17.6328 Y28.3243 I-0.8995 J1.9014
G1 X17.585 Y56.0702
G2 X17.9144 Y58.1441 I6.695 J-0.0004
X18.7534 Y60.0691 I10.4148 J-3.3938
G3 X18.7578 Y61.9199 I-1.6733 J0.9294
G2 X17.7995 Y64.7601 I7.4682 J4.1017
X17.577 Y67.7493 I19.9657 J2.9889
G1 X17.5799 Y266.8779
G2 X19.2785 Y271.8399 I8.0972 J-0.0001
X23.5618 Y274.8665 I7.1036 J-5.5089
G3 X24.514 Y276.1837 I-0.4353 J1.3174
G1 X24.5148 Y281.6362
G3 X23.5518 Y282.5993 I-0.9629 J0.0002
G1 X7.3632 Y282.5977
G3 X6.4 Y281.6344 I0.0001 J-0.9633
G1 X6.4029 Y7.3663
G3 X7.3661 Y6.403 I0.9633
G1 X344.6368
G3 X345.6 Y7.3662 J0.9632
G1 X345.5971 Y281.6369
G3 X344.6339 Y282.6001 I-0.9633
G1 X328.4483 Y282.6002
G3 X327.4852 Y281.637 J-0.963
G1 X327.4861 Y276.1929
G3 X328.4388 Y274.862 I1.4062 J0.0002
G2 X332.7433 Y271.7342 I-2.9018 J-8.5193
X334.423 Y266.6853 I-6.7485 J-5.049
G1 X334.4183 Y26.1008
G2 X332.2343 Y20.4648 I-8.3644 J0.0002
X326.8855 Y17.6496 I-6.5675 J5.9891
G1 X26.1537 Y17.578
G2 X20.4552 Y19.7856 J8.4589
X17.6382 Y25.2088 I5.9615 J6.5398
G1 X17.6328 Y28.3243
G2 X18.7938 Y30.0712 I1.8898 J0.0033
G3 X19.9547 Y31.8181 I-0.73 J1.7444
G1 X19.9229 Y56.07
G2 X20.4789 Y58.446 I5.3563 J-0.0003
X21.9226 Y60.4132 I6.336 J-3.1365
G3 X21.9267 Y61.5822 I-0.5622 J0.5865
G2 X20.7415 Y63.071 I5.2331 J5.3822
X20.0473 Y64.8428 I4.7576 J2.886
X19.9106 Y66.2928 I6.6427 J1.3577
G3 X19.9206 Y67.7493 I-106.9816 J1.458
G1 X19.9235 Y266.8778
G2 X21.4286 Y270.7893 I5.8352 J-0.0001
X25.0694 Y272.8651 I4.9739 J-4.493
X25.4998 Y272.92 I0.5883 J-2.899
X25.9332 Y272.9382 I1.0173 J-19.0264
G3 X26.8545 Y273.888 I-0.0291 J0.9499
G1 X26.856 Y283.9966
G3 X25.9122 Y284.9404 I-0.9437 J0.0002
G1 X5.0031 Y284.9383
G3 X4.0591 Y283.9942 I0.0001 J-0.9441
G1 X4.0621 Y5.0062
G3 X5.0061 Y4.0622 I0.944
G1 X346.9969
G3 X347.9409 Y5.0062 J0.944
G1 X347.938 Y283.9969
G3 X346.994 Y284.9409 I-0.944
G1 X326.0879 Y284.941
G3 X325.144 Y283.9971 J-0.9438
G1 X325.1456 Y273.8933
G3 X326.0591 Y272.941 I0.9533 J0.0001
G2 X329.8017 Y271.5289 I-0.2659 J-6.3707
X331.9304 Y268.1422 I-3.8822 J-4.8024
X332.0471 Y267.418 I-4.9991 J-1.1773
X332.0795 Y266.6852 I-8.2715 J-0.7327
G1 X332.0748 Y26.1009
G2 X330.4672 Y22.0042 I-6.024 J0.0001
X326.5642 Y19.971 I-4.8009 J4.4534
G1 X26.1537 Y19.9216
G2 X22.0042 Y21.5441 J6.1172
X19.963 Y25.5045 I4.4144 J4.7815
G1 X19.9547 Y31.8181
G2 X20.9915 Y33.3764 I1.6862 J0.0022
G3 X22.0283 Y34.9348 I-0.6508 J1.5571
G1 X22.012 Y56.0699
G2 X22.9953 Y58.6913 I3.9863 J-0.0002
X25.4078 Y60.112 I3.3434 J-2.9188
X26.1535 Y60.1894 I0.7299 J-3.4026
G1 X72.0693 Y60.1952
G3 X72.764 Y60.7453 I-0.0689 J0.8008
X72.5367 Y61.6017 I-0.7721 J0.2535
X72.1208 Y61.7987 I-0.5349 J-0.5919
G1 X25.7222 Y61.8404
G2 X23.1148 Y63.1669 I0.6135 J4.4318
X22.0157 Y65.878 I2.8253 J2.7238
G1 X22.0126 Y266.8778
G2 X23.0328 Y269.489 I3.8517 J-0.0001
X25.4753 Y270.865 I3.3484 J-3.0879
X26.7291 Y270.9207 I0.8043 J-3.9633
G3 X27.9822 Y270.8518 I1.2353 J11.0453
X28.946 Y271.817 I-0.0015 J0.9653
G1 X28.9481 Y286.0693
G3 X27.9851 Y287.0324 I-0.9629 J0.0002
G1 X2.9306 Y287.0299
G3 X1.9673 Y286.0666 I0.0001 J-0.9633
G1 X1.9703 Y2.9336
G3 X2.9336 Y1.9704 I0.9633
G1 X349.0695
G3 X350.0327 Y2.9336 J0.9632
G1 X350.0297 Y286.0695
G3 X349.0665 Y287.0327 I-0.9633
G1 X324.015 Y287.0328
G3 X323.0519 Y286.0696 J-0.963
G1 X323.0541 Y271.8174
G3 X324.0175 Y270.8539 I0.9636 J0.0001
X326.1821 Y270.869 I0.027 J151.6924
G2 X328.2411 Y270.2012 I0.0474 J-3.362
X329.5317 Y268.6502 I-2.588 J-3.4661
X329.9904 Y266.6853 I-3.9797 J-1.965
G1 X329.9857 Y26.1009
G2 X328.892 Y23.3764 I-3.9406 J0.0001
X326.2777 Y22.0404 I-3.2267 J3.088
G1 X26.1537 Y22.0107
G2 X23.3851 Y23.1118 J4.0312
X22.0354 Y25.7681 I3.0372 J3.2143
G1 X22.0283 Y34.9348
G2 X23.0711 Y36.4996 I1.6935 J0.0013
G3 X24.1138 Y38.0644 I-0.6529 J1.5649
G1 X24.1149 Y56.0698
G2 X24.1283 Y56.2364 I1.0438 J-0.0001
G1 X24.1594 Y56.429
G2 X24.2101 Y56.6225 I1.0303 J-0.1667
G1 X24.2809 Y56.815
G2 X24.3655 Y56.9916 I0.9796 J-0.3602
G1 X24.4614 Y57.1515
G2 X24.5594 Y57.2885 I0.8951 J-0.5369
G1 X24.6565 Y57.4034
G2 X24.7681 Y57.5167 I0.7971 J-0.6739
G1 X24.8945 Y57.6267
G2 X25.0307 Y57.7271 I0.6855 J-0.7871
G1 X25.176 Y57.8171
G2 X25.3344 Y57.8973 I0.5493 J-0.8875
G1 X25.505 Y57.9662
G2 X25.677 Y58.019 I0.3909 J-0.9678
G1 X25.8489 Y58.0559
G2 X25.9785 Y58.0753 I0.2189 J-1.0205
G1 X26.0644 Y58.0826
X26.1537 Y58.0865
X72.0549 Y58.0886
X72.2497 Y58.0989
X72.4383 Y58.1214
X72.6273 Y58.1567
X72.8159 Y58.2048
X73.0064 Y58.2677
X73.1625 Y58.3307
X73.3845 Y58.4389
X73.5708 Y58.5486
X73.7646 Y58.684
X73.8941 Y58.7885
X74.0154 Y58.8984
X74.1375 Y59.0229
X74.2594 Y59.1635
X74.3991 Y59.3502
X74.5225 Y59.5455
X74.6218 Y59.733
X74.7048 Y59.9222
X74.7727 Y60.1106
X74.8258 Y60.2988
X74.866 Y60.4881
X74.8941 Y60.679
X74.9089 Y60.8666
X74.9113 Y61.0479
X74.8933 Y61.3223
X74.8424 Y61.6308
X74.7967 Y61.8098
X74.7344 Y61.9997
X74.6556 Y62.1943
X74.5961 Y62.3188
X74.4521 Y62.5701
X74.3263 Y62.7509
X74.1367 Y62.9771
X73.948 Y63.1635
X73.7542 Y63.3236
X73.5687 Y63.4528
X73.3787 Y63.5645
X73.2427 Y63.6331
X73.0004 Y63.7343
X72.8159 Y63.7952
X72.6274 Y63.8433
X72.4383 Y63.8786
X72.2497 Y63.9011
X72.0549 Y63.9114
X26.1537 Y63.9135
G2 X26.0106 Y63.9234 J1.0437
G1 X25.8182 Y63.95
G2 X25.6248 Y63.9959 I0.1431 J1.0339
G1 X25.4323 Y64.0615
G2 X25.2489 Y64.1445 I0.3365 J0.988
G1 X25.076 Y64.2438
G2 X24.9343 Y64.3416 I0.52 J0.905
G1 X24.8221 Y64.4335
G2 X24.705 Y64.5459 I0.6617 J0.8072
G1 X24.5854 Y64.68
G2 X24.4851 Y64.8123 I0.7789 J0.6948
G1 X24.4029 Y64.9406
G2 X24.3192 Y65.1005 I0.8792 J0.5625
G1 X24.2387 Y65.293
G2 X24.179 Y65.4867 I0.963 J0.4026
G1 X24.1397 Y65.6792
G2 X24.1185 Y65.8848 I1.0226 J0.209
G1 X24.1125 Y67.7458
X24.1154 Y266.8778
G2 X24.1302 Y267.0526 I1.0437
G1 X24.1629 Y267.2451
G2 X24.2153 Y267.4386 I1.029 J-0.1748
G1 X24.2879 Y267.6311
G2 X24.3643 Y267.7911 I0.9766 J-0.3683
G1 X24.4397 Y267.9195
G2 X24.5298 Y268.0493 I0.9002 J-0.5283
G1 X24.6353 Y268.1792
G2 X24.7542 Y268.3032 I0.8101 J-0.6582
G1 X24.8862 Y268.4198
G2 X25.0169 Y268.5182 I0.6912 J-0.7821
G1 X25.1442 Y268.5992
G2 X25.3036 Y268.6823 I0.5605 J-0.8805
G1 X25.4961 Y268.7625
G2 X25.6896 Y268.8217 I0.4011 J-0.9636
G1 X25.882 Y268.8608
G2 X26.0879 Y268.8817 I0.2076 J-1.0229
G1 X29.7443 Y268.8875
X30.9127
X30.9157 Y288.9998
X0.0081 Y288.9968
X0.0001 Y288.9602
X0.0032 Y0.0084
X351.9919 Y0.0032
X351.9999 Y0.0398
X351.9968 Y288.9916
X351.9605 Y288.9998
X321.0844 Y289
X321.0874 Y268.8873
X325.8465 Y268.8865
G2 X325.9894 Y268.8766 I-0.0002 J-1.0438
G1 X326.1819 Y268.85
G2 X326.3753 Y268.8041 I-0.1431 J-1.0339
G1 X326.5677 Y268.7386
G2 X326.7277 Y268.6686 I-0.3365 J-0.988
G1 X326.856 Y268.5992
G2 X326.9839 Y268.5175 I-0.4965 J-0.9181
G1 X327.1104 Y268.4231
G2 X327.2379 Y268.3105 I-0.6245 J-0.8363
G1 X327.3644 Y268.1791
G2 X327.4715 Y268.0481 I-0.752 J-0.7238
G1 X327.56 Y267.9198
G2 X327.6507 Y267.7599 I-0.8591 J-0.5928
G1 X327.7385 Y267.5674
G2 X327.8047 Y267.3737 I-0.9497 J-0.433
G1 X327.85 Y267.1812
G2 X327.8771 Y266.9813 I-1.016 J-0.2393
G1 X327.8868 Y266.7246
X327.8875 Y266.6852
X327.8828 Y26.1009
G2 X327.8642 Y25.9048 I-1.0438
G1 X327.8274 Y25.7123
G2 X327.7705 Y25.5187 I-1.0251 J0.1962
G1 X327.693 Y25.3262
G2 X327.6057 Y25.1562 I-0.9682 J0.3898
G1 X327.512 Y25.0088
G2 X327.4047 Y24.8678 I-0.881 J0.5597
G1 X327.284 Y24.7346
G2 X327.1479 Y24.6089 I-0.7736 J0.7007
G1 X326.997 Y24.4925
G2 X326.856 Y24.4008 I-0.6376 J0.8264
G1 X326.7277 Y24.3314
G2 X326.5677 Y24.2615 I-0.4965 J0.9181
G1 X326.3753 Y24.1959
G2 X326.1819 Y24.15 I-0.3365 J0.988
G1 X325.9894 Y24.1234
G2 X325.8463 Y24.1135 I-0.1431 J1.0339
G1 X26.1537
G2 X26.0106 Y24.1234 J1.0438
G1 X25.8182 Y24.15
G2 X25.6248 Y24.1959 I0.1431 J1.0339
G1 X25.4323 Y24.2615
G2 X25.2458 Y24.3462 I0.3365 J0.988
G1 X25.0672 Y24.4496
G2 X24.9019 Y24.5684 I0.523 J0.9032
G1 X24.7509 Y24.7008
G2 X24.6261 Y24.8311 I0.6884 J0.7845
G1 X24.5257 Y24.9559
G2 X24.4266 Y25.1031 I0.8133 J0.6542
G1 X24.3322 Y25.273
G2 X24.2527 Y25.4549 I0.9123 J0.5071
G1 X24.1895 Y25.6474
G2 X24.1459 Y25.8409 I0.9918 J0.3252
G1 X24.1215 Y26.0334
G2 X24.1131 Y26.1652 I1.0354 J0.1317
G1 X24.1138 Y38.0644
X24.11 Y38.1132 Z-3.9922
X24.0988 Y38.1609 Z-3.9845
X24.0824 Y38.202 Z-3.9619
X24.0605 Y38.2404 Z-3.9394
X24.0155 Y38.2941 Z-3.8691
X23.9807 Y38.3228 Z-3.7806
X23.9679 Y38.3315 Z-3.6825
G0 Z5
X14.9232 Y61.6995
Z3
G1 Z-1.5827 F1200
X14.9162 Y61.7126 Z-1.6787
X14.8951 Y61.7503 Z-1.7657
X14.8601 Y61.8079 Z-1.8356
X14.812 Y61.8786 Z-1.8818
X14.7537 Y61.9541 Z-1.9
G3 X14.9025 Y61.7374 Z-2.2217 I-1.164 J-0.9589
X15.0115 Y61.4981 Z-2.5434 I-1.3128 J-0.7422
X15.0772 Y61.2436 Z-2.8651 I-1.4218 J-0.503
X15.0977 Y60.9815 Z-3.1868 I-1.4875 J-0.2484
X15.0725 Y60.7199 Z-3.5086 I-1.5081 J0.0136
X15.0021 Y60.4666 Z-3.8303 I-1.4828 J0.2753
X14.8889 Y60.2293 Z-4.152 I-1.4125 J0.5286
X14.7362 Y60.0153 Z-4.4737 I-1.2992 J0.7658
X14.5486 Y59.8311 Z-4.7954 I-1.1465 J0.9798
X14.3319 Y59.6823 Z-5.1171 I-0.9589 J1.164
X14.0927 Y59.5734 Z-5.4388 I-0.7422 J1.3128
X13.8381 Y59.5076 Z-5.7605 I-0.503 J1.4218
X12.0816 Y60.9951 Z-6 I-0.2484 J1.4875
G1 Y60.4198 F3500
G3 X12.7102 Y60.3202 I0.3222
G2 X12.8985 Y60.8597 I12.6846 J-4.1246
G3 X12.8981 Y61.1317 I-0.3684 J0.1355
G2 X12.7093 Y61.6773 I12.3035 J4.564
G3 X12.0816 Y61.5788 I-0.3061 J-0.0985
G1 Y60.9951
X12.0853 Y60.9463 Z-5.9922
X12.0966 Y60.8986 Z-5.9845
X12.113 Y60.8575 Z-5.9619
X12.1348 Y60.8191 Z-5.9394
X12.1799 Y60.7654 Z-5.8691
X12.2147 Y60.7367 Z-5.7806
X12.2275 Y60.728 Z-5.6825
G0 Z5
X13.3181 Y12.3153
Z3
G1 Z-1.5827 F1200
X13.3323 Y12.311 Z-1.6787
X13.3739 Y12.2994 Z-1.7657
X13.4395 Y12.2835 Z-1.8356
X13.5235 Y12.2678 Z-1.8818
X13.6181 Y12.2558 Z-1.9
G3 X13.3596 Y12.3032 Z-2.2217 I0.1419 J1.5014
X13.1132 Y12.3949 Z-2.5434 I0.4005 J1.454
X12.8864 Y12.5279 Z-2.8651 I0.6469 J1.3624
X12.6862 Y12.6983 Z-3.1868 I0.8736 J1.2293
X12.5187 Y12.9008 Z-3.5086 I1.0738 J1.059
X12.3888 Y13.1294 Z-3.8303 I1.2414 J0.8564
X12.3006 Y13.377 Z-4.152 I1.3712 J0.6278
X12.2568 Y13.6362 Z-4.4737 I1.4594 J0.3802
X12.2586 Y13.8991 Z-4.7954 I1.5033 J0.121
X12.306 Y14.1577 Z-5.1171 I1.5014 J-0.1419
X12.3977 Y14.4041 Z-5.4388 I1.454 J-0.4005
X12.5307 Y14.6308 Z-5.7605 I1.3624 J-0.6469
X14.8242 Y14.8258 Z-6 I1.2293 J-0.8736
G1 X14.7603 Y14.8899 F3500
G3 X14.0028 Y14.5779 I-0.3145 J-0.312
G1 Y14.3955
G3 X14.3953 Y14.003 I0.3926
G1 X14.5819
G3 X14.8914 Y14.7593 J0.4415
G1 X14.8242 Y14.8258
G2 X14.5243 Y16.4417 I1.021 J1.0252
G3 X14.3706 Y18.0779 I-1.5252 J0.682
G2 X13.603 Y19.3093 I11.788 J8.202
X13.1934 Y20.1792 I6.2542 J3.4764
X12.8477 Y21.0765 I87.8423 J34.3579
G3 X12.2183 Y20.9611 I-0.3041 J-0.1154
G1 X12.2184 Y13.1625
G3 X13.1624 Y12.2186 I0.944
G1 X20.9635
G3 X21.0785 Y12.8477 J0.3251
G2 X14.3706 Y18.0779 I5.08 J13.4322
G1 X14.3398 Y18.116 Z-5.9922
X14.3035 Y18.1489 Z-5.9845
X14.2668 Y18.1736 Z-5.9619
X14.227 Y18.1928 Z-5.9394
X14.1594 Y18.2116 Z-5.8691
X14.1145 Y18.2156 Z-5.7806
X14.099 Y18.2155 Z-5.6825
G0 Z5
X11.6614 Y275.9324
Z3
G1 Z-1.5827 F1200
X11.6598 Y275.9177 Z-1.6787
X11.6558 Y275.8746 Z-1.7657
X11.6521 Y275.8073 Z-1.8356
X11.6517 Y275.7218 Z-1.8818
X11.657 Y275.6266 Z-1.9
G3 Y275.8894 Z-2.2217 I1.5024 J0.1312
X11.7027 Y276.1483 Z-2.5434 I1.5024 J-0.1317
X11.7927 Y276.3953 Z-2.8651 I1.4567 J-0.3905
X11.9241 Y276.623 Z-3.1868 I1.3667 J-0.6376
X12.0932 Y276.8243 Z-3.5086 I1.2353 J-0.8652
X12.2946 Y276.9933 Z-3.8303 I1.0663 J-1.0666
X12.5222 Y277.1247 Z-4.152 I0.8648 J-1.2355
X12.7693 Y277.2146 Z-4.4737 I0.6372 J-1.3669
X13.0282 Y277.2602 Z-4.7954 I0.3901 J-1.4568
X13.2911 Z-5.1171 I0.1312 J-1.5024
X13.5499 Y277.2145 Z-5.4388 I-0.1317 J-1.5024
X13.797 Y277.1245 Z-5.7605 I-0.3905 J-1.4567
X14.4024 Y274.9038 Z-6 I-0.6376 J-1.3667
G2 X15.0418 Y275.7587 I10.9502 J-7.523 F3500
X15.1546 Y275.889 I2.1318 J-1.7321
G3 X15.2683 Y276.0185 I-2.5649 J2.3661
X14.9103 Y276.7838 I-0.358 J0.2989
G1 X13.1587 Y276.7837
G3 X12.2147 Y275.8396 I0.0001 J-0.9441
G1 Y272.025
G3 X12.8473 Y271.9096 I0.3268
G2 X13.7895 Y273.9226 I13.5003 J-5.0918
X14.4024 Y274.9038 I11.5631 J-6.5418
G1 X14.427 Y274.9462 Z-5.9922
X14.4447 Y274.9919 Z-5.9845
X14.4545 Y275.035 Z-5.9619
X14.4582 Y275.0791 Z-5.9394
X14.4514 Y275.1489 Z-5.8691
X14.4391 Y275.1922 Z-5.7806
X14.4334 Y275.2066 Z-5.6825
G0 Z5
X339.5258 Y277.0941
Z3
G1 Z-1.5827 F1200
X339.5126 Y277.1009 Z-1.6787
X339.4738 Y277.1199 Z-1.7657
X339.4121 Y277.1473 Z-1.8356
X339.3324 Y277.178 Z-1.8818
X339.2414 Y277.2069 Z-1.9
G3 X339.4872 Y277.1135 Z-2.2217 I-0.4109 J-1.4511
X339.7129 Y276.9788 Z-2.5434 I-0.6566 J-1.3577
X339.9119 Y276.807 Z-2.8651 I-0.8824 J-1.223
X340.078 Y276.6033 Z-3.1868 I-1.0814 J-1.0512
X340.2063 Y276.3738 Z-3.5086 I-1.2475 J-0.8475
X340.2927 Y276.1255 Z-3.8303 I-1.3757 J-0.618
X340.3347 Y275.866 Z-4.152 I-1.4621 J-0.3697
X340.331 Y275.6032 Z-4.4737 I-1.5041 J-0.1102
X340.2817 Y275.3449 Z-4.7954 I-1.5004 J0.1526
X340.1883 Y275.0992 Z-5.1171 I-1.4511 J0.4109
X340.0536 Y274.8734 Z-5.4388 I-1.3577 J0.6566
X339.8818 Y274.6744 Z-5.7605 I-1.2231 J0.8824
X337.5908 Y274.8971 Z-6 I-1.0513 J1.0814
G2 X338.8726 Y272.643 I-12.0291 J-8.332 F3500
X339.0187 Y272.2791 I-3.8837 J-1.7704
G3 X339.154 Y271.911 I11.2807 J3.9372
X339.785 Y272.0286 I0.3046 J0.1176
G1 Y275.844
G3 X338.841 Y276.7879 I-0.944
G1 X337.0799 Y276.788
G3 X336.726 Y276.0244 J-0.4638
G2 X337.5908 Y274.8971 I-11.1643 J-9.4593
G1 X337.6216 Y274.859 Z-5.9922
X337.658 Y274.8261 Z-5.9845
X337.6948 Y274.8016 Z-5.9619
X337.7346 Y274.7824 Z-5.9394
X337.8022 Y274.7638 Z-5.8691
X337.8471 Y274.7599 Z-5.7806
X337.8626 Y274.7601 Z-5.6825
G0 Z5
X339.6835 Y13.3242
Z3
G1 Z-1.5827 F1200
X339.6877 Y13.3385 Z-1.6787
X339.6994 Y13.38 Z-1.7657
X339.7152 Y13.4457 Z-1.8356
X339.7309 Y13.5296 Z-1.8818
X339.7428 Y13.6243 Z-1.9
G3 X339.6955 Y13.3657 Z-2.2217 I-1.5015 J0.1411
X339.604 Y13.1193 Z-2.5434 I-1.4542 J0.3997
X339.4711 Y12.8925 Z-2.8651 I-1.3627 J0.6461
X339.3008 Y12.6922 Z-3.1868 I-1.2298 J0.873
X339.0984 Y12.5245 Z-3.5086 I-1.0595 J1.0732
X338.8699 Y12.3945 Z-3.8303 I-0.857 J1.2409
X338.6223 Y12.3062 Z-4.152 I-0.6285 J1.3709
X338.3631 Y12.2622 Z-4.4737 I-0.3809 J1.4592
X338.1002 Y12.2639 Z-4.7954 I-0.1218 J1.5032
X337.8416 Y12.3112 Z-5.1171 I0.1411 J1.5015
