%
(Made in : Autodesk CAM Post Processor)
(G Code optimized for OpenBuilds OX CNC 1000 x 750 with GRBL V0.9j controller)

(Program Name : 1001)
(1 Operation :)
(1 : Adaptive1)
(  Tool : Flat End Mill 3 Flutes, Diam = 3.175mm, Len = 20mm)
(  Spindle : RPM = 30000, set router dial to 6)
(  Machining time : 40 min 41 sec)

G90 G94
G17
G21

(Operation 1 of 1 : Adaptive1)

G53 G0 Z5
G54
S30000 M3
G4 P1.0
X60.2574 Y-3.2794
Z6
Z5
Z-1.365
G1 Z-1.6825 F3500
X60.2632 Y-3.274 Z-1.7532
X60.2806 Y-3.2582 Z-1.8203
X60.3086 Y-3.2327 Z-1.8805
X60.3457 Y-3.1989 Z-1.9307
X60.3902 Y-3.1583 Z-1.9686
X60.4398 Y-3.1131 Z-1.992
X60.4921 Y-3.0656 Z-2
G3 X61.4509 Y-1.6061 I-2.3695 J2.6013
G1 X61.4739 Y-1.5307
X61.5009 Y-1.4141
X61.5076 Y-1.3772
X61.4108 Y-1.2626
X61.2995 Y-1.162
X61.1783 Y-1.0728
X61.0228 Y-0.9766
X60.8227 Y-0.8739
X60.5618 Y-0.7655
X60.2117 Y-0.6521
X59.7154 Y-0.5344
X58.9862 Y-0.4222
X58.2506 Y-0.3646
X57.5134 Y-0.3346
X56.7758 Y-0.3189
X56.038 Y-0.3107
X55.3002 Y-0.3064
X54.5624 Y-0.3041
X52.3489 Y-0.302
X11.7691 Y-0.3016
X1.4397
X1.2613 Y-0.2548
X0.932 Y-0.0885
X0.6631 Y0.1641
X0.2336 Y0.764
X-0.0117 Y1.4599
X-0.1467 Y2.1852
X-0.2194 Y2.9194
X-0.2582 Y3.6562
X-0.2787 Y4.3938
X-0.2896 Y5.1315
X-0.2953 Y5.8693
X-0.2983 Y6.6071
X-0.3007 Y8.0827
X-0.3016 Y14.7231
Y39.071
Y89.2424
Y139.4138
Y189.5853
Y239.7567
Y271.6292
X-0.3349 Y271.8486
X-0.4316 Y272.0483
X-0.5832 Y272.2104
X-0.776 Y272.3204
X-0.9927 Y272.3683
X-1.2139 Y272.3499
G3 X-1.2532 Y271.7513 I0.0842 J-0.3062
G1 X-1.1881 Y271.7238 Z-1.992
X-1.1263 Y271.6977 Z-1.9686
X-1.0708 Y271.6742 Z-1.9307
X-1.0245 Y271.6547 Z-1.8805
X-0.9896 Y271.64 Z-1.8203
X-0.968 Y271.6308 Z-1.7532
X-0.9607 Y271.6277 Z-1.6825
G0 Z5
X60.8952 Y-2.3272
Z-1.365
G1 Z-1.6825 F3500
X60.9007 Y-2.3215 Z-1.7532
X60.9169 Y-2.3045 Z-1.8203
X60.9431 Y-2.2772 Z-1.8805
X60.9779 Y-2.241 Z-1.9307
X61.0196 Y-2.1975 Z-1.9686
X61.066 Y-2.1491 Z-1.992
X61.1149 Y-2.0981 Z-2
G3 X61.5009 Y-1.4141 I-1.1422 J1.0954
G1 X61.5906 Y-1.0277
X61.5979 Y-0.953
X61.5471 Y-0.8119
X61.4791 Y-0.6782
X61.3969 Y-0.5528
X61.3038 Y-0.4351
X61.1881 Y-0.3115
X61.0382 Y-0.1751
X60.8733 Y-0.0477
X60.6573 Y0.093
X60.3826 Y0.2421
X60.0745 Y0.3785
X59.6593 Y0.5237
X59.1228 Y0.6642
X58.3963 Y0.7932
X57.6623 Y0.868
X56.9258 Y0.9111
X56.1884 Y0.9359
X55.4507 Y0.95
X54.7129 Y0.9581
X53.9751 Y0.9626
X53.2373 Y0.9652
X51.7617 Y0.9674
X45.1213 Y0.9684
X11.9196
X3.0659
X2.7058 Y1.0485
X2.3815 Y1.2243
X2.1036 Y1.467
X1.6426 Y2.0431
X1.3575 Y2.7236
X1.1892 Y3.4419
X1.0923 Y4.1734
X1.0374 Y4.9091
X1.0066 Y5.6463
X0.9895 Y6.3839
X0.98 Y7.1217
X0.9748 Y7.8595
X0.9719 Y8.5973
X0.9694 Y10.0729
X0.9684 Y15.9754
Y41.799
Y91.9704
Y142.1418
Y192.3132
Y242.4847
Y270.5216
X0.954 Y270.9593
X0.918 Y271.2763
X0.8704 Y271.519
X0.81 Y271.7343
X0.7351 Y271.9366
X0.6581 Y272.1017
X0.5388 Y272.2591
X0.3822 Y272.3794
X0.1993 Y272.454
X0.0032 Y272.4777
G3 X-0.1657 Y271.902 I0.0154 J-0.3171
G1 X-0.1081 Y271.861 Z-1.992
X-0.0535 Y271.8221 Z-1.9686
X-0.0045 Y271.7871 Z-1.9307
X0.0365 Y271.7579 Z-1.8805
X0.0673 Y271.736 Z-1.8203
X0.0864 Y271.7223 Z-1.7532
X0.0929 Y271.7177 Z-1.6825
G0 Z5
X60.9849 Y-1.9408
Z-1.365
G1 Z-1.6825 F3500
X60.9904 Y-1.9351 Z-1.7532
X61.0066 Y-1.9181 Z-1.8203
X61.0328 Y-1.8908 Z-1.8805
X61.0676 Y-1.8546 Z-1.9307
X61.1093 Y-1.8111 Z-1.9686
X61.1557 Y-1.7627 Z-1.992
X61.2046 Y-1.7117 Z-2
G3 X61.5906 Y-1.0277 I-1.1422 J1.0954
G1 X61.6156 Y-0.86
X61.6686 Y-0.4303
X61.6708 Y-0.2803
X61.6437 Y-0.1328
X61.5993 Y0.0105
X61.5399 Y0.1482
X61.4686 Y0.2802
X61.3745 Y0.4244
X61.266 Y0.5645
X61.1228 Y0.7216
X60.9571 Y0.8765
X60.7493 Y1.0414
X60.4997 Y1.2087
X60.2016 Y1.3756
X59.8199 Y1.5506
X59.3724 Y1.7138
X58.7916 Y1.8741
X58.0669 Y2.0127
X57.3342 Y2.0999
X56.5984 Y2.1542
X55.8614 Y2.1876
X55.1238 Y2.208
X54.3861 Y2.2204
X53.6483 Y2.2278
X52.9105 Y2.2322
X52.1727 Y2.2348
X50.6971 Y2.2372
X45.5324 Y2.2384
X12.3307
X4.5837
X4.2186 Y2.2912
X3.8762 Y2.4287
X3.5745 Y2.6409
X3.0608 Y3.1706
X2.7289 Y3.8295
X2.5255 Y4.5387
X2.4044 Y5.2665
X2.3336 Y6.001
X2.2927 Y6.7376
X2.2692 Y7.4751
X2.2558 Y8.2128
X2.2482 Y8.9505
X2.2439 Y9.6883
X2.2415 Y10.4262
X2.2394 Y11.9018
X2.2384 Y18.5421
Y43.6278
Y93.7993
Y143.9707
Y194.1421
Y244.3136
Y269.3993
X2.232 Y270.1371
X2.1943 Y270.7345
X2.1275 Y271.1968
X2.0526 Y271.5257
X1.9646 Y271.8064
X1.8799 Y272.0156
X1.8487 Y272.0778
X1.7322 Y272.2468
X1.5738 Y272.3773
X1.3856 Y272.4593
X1.1822 Y272.4866
X0.1442 Y272.4796
X0.0032 Y272.4777
G3 X-0.1657 Y271.902 I0.0154 J-0.3171
G1 X-0.1081 Y271.861 Z-1.992
X-0.0535 Y271.8221 Z-1.9686
X-0.0045 Y271.7871 Z-1.9307
X0.0365 Y271.7579 Z-1.8805
X0.0673 Y271.736 Z-1.8203
X0.0864 Y271.7223 Z-1.7532
X0.0929 Y271.7177 Z-1.6825
G0 Z5
X61.1623 Y-1.4021
Z-1.365
G1 Z-1.6825 F3500
X61.1671 Y-1.3958 Z-1.7532
X61.1815 Y-1.3773 Z-1.8203
X61.2047 Y-1.3473 Z-1.8805
X61.2355 Y-1.3076 Z-1.9307
X61.2723 Y-1.26 Z-1.9686
X61.3134 Y-1.207 Z-1.992
X61.3567 Y-1.1511 Z-2
G3 X61.6686 Y-0.4303 I-1.2511 J0.9692
G1 X61.6733 Y-0.357
X61.6806 Y0.1459
X61.6833 Y0.5735
X61.6766 Y0.7233
X61.649 Y0.8708
X61.6051 Y1.0142
X61.5483 Y1.153
X61.4718 Y1.3017
X61.3812 Y1.4476
X61.2582 Y1.6143
X61.1158 Y1.7779
X60.9314 Y1.9582
X60.72 Y2.1341
X60.4497 Y2.3244
X60.1397 Y2.5074
X59.7393 Y2.7022
X59.2814 Y2.8812
X58.6791 Y3.0623
X57.9578 Y3.2174
X57.2272 Y3.3207
X56.4925 Y3.3886
X55.756 Y3.4327
X55.0188 Y3.461
X54.2812 Y3.479
X53.5434 Y3.4903
X52.8057 Y3.4973
X52.0679 Y3.5017
X51.3301 Y3.5043
X49.8544 Y3.5069
X45.4275 Y3.5083
X12.2259 Y3.5084
X5.9544
X5.5884 Y3.5544
X5.241 Y3.6786
X4.9309 Y3.8784
X4.3982 Y4.3889
X4.0472 Y5.0378
X3.8284 Y5.7425
X3.6963 Y6.4684
X3.6178 Y7.202
X3.5718 Y7.9384
X3.5449 Y8.6757
X3.5294 Y9.4134
X3.5204 Y10.1511
X3.5153 Y10.8889
X3.5123 Y11.6267
X3.5097 Y13.1024
X3.5084 Y17.5292
Y46.304
Y96.4755
Y146.6469
Y196.8183
Y246.9897
Y268.3864
X3.5062 Y269.1242
X3.4893 Y269.8618
X3.4399 Y270.5646
X3.3555 Y271.1207
X3.2689 Y271.4891
X3.1708 Y271.7943
X3.0807 Y272.0124
X3.0445 Y272.0834
X2.9284 Y272.2498
X2.7715 Y272.3784
X2.5856 Y272.4597
X2.3846 Y272.4875
X1.2432 Y272.4869
X1.1822 Y272.4866
G3 X1.0088 Y271.9123 I0.0129 J-0.3172
G1 X1.066 Y271.8708 Z-1.992
X1.1203 Y271.8314 Z-1.9686
X1.169 Y271.7961 Z-1.9307
X1.2097 Y271.7666 Z-1.8805
X1.2404 Y271.7444 Z-1.8203
X1.2594 Y271.7306 Z-1.7532
X1.2658 Y271.7259 Z-1.6825
G0 Z5
X61.2941 Y-0.4509
Z-1.365
G1 Z-1.6825 F3500
X61.2982 Y-0.4441 Z-1.7532
X61.3103 Y-0.424 Z-1.8203
X61.3298 Y-0.3915 Z-1.8805
X61.3557 Y-0.3485 Z-1.9307
X61.3868 Y-0.2969 Z-1.9686
X61.4214 Y-0.2394 Z-1.992
X61.4578 Y-0.1789 Z-2
G3 X61.6833 Y0.5735 I-1.3558 J0.8162
G1 X61.6872 Y1.3195
X61.6874 Y1.6549
X61.68 Y1.8047
X61.6508 Y1.9518
X61.6063 Y2.0951
X61.5498 Y2.234
X61.4705 Y2.391
X61.3751 Y2.5471
X61.2481 Y2.7218
X61.0952 Y2.9001
X60.9035 Y3.0902
X60.6773 Y3.2811
X60.3937 Y3.4839
X60.0617 Y3.6831
X59.6351 Y3.8945
X59.1543 Y4.0864
X58.5225 Y4.2813
X57.8023 Y4.4416
X57.0729 Y4.5527
X56.3391 Y4.6288
X55.603 Y4.6803
X54.866 Y4.7147
X54.1286 Y4.7375
X53.3909 Y4.7523
X52.6532 Y4.7619
X51.9154 Y4.7681
X51.1776 Y4.772
X49.7019 Y4.7759
X46.7507 Y4.778
X12.8112 Y4.7784
X6.9087
X6.561 Y4.9018
X6.2484 Y5.0977
X5.7077 Y5.5996
X5.3469 Y6.2432
X5.1196 Y6.9452
X4.9807 Y7.6698
X4.8975 Y8.4029
X4.8481 Y9.1391
X4.819 Y9.8763
X4.802 Y10.6139
X4.7921 Y11.3517
X4.7863 Y12.0895
X4.783 Y12.8273
X4.7799 Y14.3029
X4.7785 Y17.992
X4.7784 Y48.2424
Y98.4138
Y148.5853
Y198.7567
Y248.9281
Y267.3735
X4.7776 Y268.1113
X4.7712 Y268.8491
X4.7491 Y269.5865
X4.6966 Y270.3225
X4.6137 Y270.9288
X4.5127 Y271.3889
X4.412 Y271.7185
X4.3175 Y271.9573
X4.2602 Y272.0737
X4.1447 Y272.2438
X3.987 Y272.3756
X3.7991 Y272.459
X3.5955 Y272.4875
X2.3846
G3 X2.2079 Y271.9142 I0.0111 J-0.3173
G1 X2.2648 Y271.8724 Z-1.992
X2.3189 Y271.8327 Z-1.9686
X2.3675 Y271.7971 Z-1.9307
X2.408 Y271.7674 Z-1.8805
X2.4385 Y271.745 Z-1.8203
X2.4574 Y271.7311 Z-1.7532
X2.4638 Y271.7264 Z-1.6825
G0 Z5
X61.3033 Y0.6286
Z-1.365
G1 Z-1.6825 F3500
X61.3074 Y0.6354 Z-1.7532
X61.3194 Y0.6556 Z-1.8203
X61.3387 Y0.6881 Z-1.8805
X61.3645 Y0.7313 Z-1.9307
X61.3952 Y0.783 Z-1.9686
X61.4296 Y0.8407 Z-1.992
X61.4657 Y0.9014 Z-2
G3 X61.6874 Y1.6549 I-1.3599 J0.8095
G1 X61.6875 Y2.753
X61.68 Y2.9028
X61.6524 Y3.0503
X61.6101 Y3.1942
X61.5539 Y3.338
X61.4785 Y3.4931
X61.3789 Y3.6621
X61.2574 Y3.8348
X61.0955 Y4.0296
X60.9113 Y4.2181
X60.6703 Y4.4281
X60.3979 Y4.6294
X60.0422 Y4.8504
X59.634 Y5.0606
X59.1267 Y5.2723
X58.4859 Y5.4811
X57.7683 Y5.6526
X57.0407 Y5.775
X56.308 Y5.8616
X55.5727 Y5.9221
X54.8361 Y5.9638
X54.0988 Y5.9924
X53.3612 Y6.0116
X52.6235 Y6.0244
X51.8858 Y6.0329
X51.148 Y6.0385
X50.4102 Y6.0421
X48.9345 Y6.0459
X45.9833 Y6.048
X12.7816 Y6.0484
X8.3547
X7.995 Y6.1304
X7.6638 Y6.2927
X7.0811 Y6.7453
X6.6854 Y7.3681
X6.4334 Y8.0615
X6.2783 Y8.7828
X6.1846 Y9.5147
X6.1287 Y10.2504
X6.0955 Y10.9874
X6.076 Y11.725
X6.0645 Y12.4627
X6.0578 Y13.2005
X6.0539 Y13.9383
X6.0502 Y15.4139
X6.0486 Y18.3652
X6.0484 Y50.8291
Y101.0005
Y151.1719
Y201.3433
Y251.5148
X6.0482 Y267.0089
X6.0461 Y267.7467
X6.0376 Y268.4845
X6.0152 Y269.2219
X5.9688 Y269.9583
X5.8838 Y270.6912
X5.7785 Y271.2302
X5.6748 Y271.6005
X5.5719 Y271.8794
X5.4677 Y272.1043
X5.464 Y272.111
X5.3465 Y272.2668
X5.1923 Y272.3865
X5.0123 Y272.4618
X4.8189 Y272.4875
X3.5955
G3 X3.4187 Y271.9142 I0.0111 J-0.3173
G1 X3.4757 Y271.8724 Z-1.992
X3.5298 Y271.8327 Z-1.9686
X3.5783 Y271.7971 Z-1.9307
X3.6189 Y271.7674 Z-1.8805
X3.6494 Y271.745 Z-1.8203
X3.6683 Y271.7311 Z-1.7532
X3.6747 Y271.7264 Z-1.6825
G0 Z5
X61.3593 Y1.9149
Z-1.365
G1 Z-1.6825 F3500
X61.3633 Y1.9218 Z-1.7532
X61.3753 Y1.942 Z-1.8203
X61.3947 Y1.9745 Z-1.8805
X61.4204 Y2.0177 Z-1.9307
X61.4511 Y2.0694 Z-1.9686
X61.4854 Y2.1271 Z-1.992
X61.5215 Y2.1879 Z-2
G3 X61.6875 Y2.753 I-1.0202 J0.6066
G1 Y3.8344
X61.68 Y3.9842
X61.6591 Y4.1328
X61.6232 Y4.2784
X61.5727 Y4.4243
X61.5071 Y4.5736
X61.4137 Y4.7472
X61.3037 Y4.9172
X61.1537 Y5.1126
X60.9823 Y5.3022
X60.7539 Y5.5173
X60.4976 Y5.7225
X60.1524 Y5.9561
X59.7784 Y6.1675
X59.2805 Y6.3983
X58.6781 Y6.6207
X57.9677 Y6.82
X57.2443 Y6.9649
X56.514 Y7.0698
X55.78 Y7.1452
X55.0442 Y7.1989
X54.3073 Y7.2368
X53.57 Y7.2632
X52.8324 Y7.2814
X52.0947 Y7.2938
X51.3569 Y7.3022
X50.6191 Y7.3078
X49.8813 Y7.3115
X48.4057 Y7.3155
X46.1922 Y7.3177
X29.2225 Y7.3184
X12.9906
X10.0393
X9.6704 Y7.3245
X9.3085 Y7.3956
X8.9728 Y7.5487
X8.6766 Y7.7686
X8.1687 Y8.3038
X7.8367 Y8.9627
X7.6294 Y9.6708
X7.5033 Y10.3977
X7.4277 Y11.1317
X7.3828 Y11.8681
X7.3562 Y12.6054
X7.3406 Y13.3431
X7.3314 Y14.0808
X7.326 Y14.8186
X7.3228 Y15.5564
X7.3199 Y17.0321
X7.3185 Y20.7212
X7.3184 Y53.185
Y103.3564
Y153.5279
Y203.6993
Y253.8707
X7.318 Y266.4136
X7.3159 Y267.1514
X7.3091 Y267.8892
X7.2924 Y268.6268
X7.2592 Y269.3639
X7.2004 Y270.0993
X7.1017 Y270.8072
X6.9822 Y271.3446
X6.8779 Y271.6829
X6.7718 Y271.9489
X6.7091 Y272.0755
X6.5935 Y272.2449
X6.4359 Y272.3761
X6.2483 Y272.4591
X6.0452 Y272.4875
X4.8189
G3 X4.6422 Y271.9142 I0.0111 J-0.3173
G1 X4.6991 Y271.8724 Z-1.992
X4.7532 Y271.8327 Z-1.9686
X4.8018 Y271.7971 Z-1.9307
X4.8423 Y271.7674 Z-1.8805
X4.8728 Y271.745 Z-1.8203
X4.8917 Y271.7311 Z-1.7532
X4.8981 Y271.7264 Z-1.6825
G0 Z5
X61.3039 Y2.808
Z-1.365
G1 Z-1.6825 F3500
X61.308 Y2.8148 Z-1.7532
X61.32 Y2.835 Z-1.8203
X61.3393 Y2.8675 Z-1.8805
X61.365 Y2.9107 Z-1.9307
X61.3958 Y2.9624 Z-1.9686
X61.4301 Y3.0201 Z-1.992
X61.4662 Y3.0809 Z-2
G3 X61.6875 Y3.8344 I-1.3603 J0.8088
G1 Y5.008
X61.68 Y5.1578
X61.6577 Y5.3062
X61.6203 Y5.4514
X61.5707 Y5.593
X61.4974 Y5.7584
X61.407 Y5.9246
X61.2855 Y6.1108
X61.1395 Y6.2995
X60.9515 Y6.5058
X60.724 Y6.7184
X60.4401 Y6.9439
X60.1032 Y7.1699
X59.6667 Y7.4143
X59.1874 Y7.6343
X58.5615 Y7.8626
X57.8503 Y8.059
X57.1272 Y8.2053
X56.3973 Y8.3135
X55.6638 Y8.393
X54.9283 Y8.4508
X54.1916 Y8.4924
X53.4544 Y8.5221
X52.7169 Y8.543
X51.9792 Y8.5576
X51.2415 Y8.5676
X50.5037 Y8.5745
X49.7659 Y8.5792
X49.0281 Y8.5823
X47.5524 Y8.5858
X44.6012 Y8.5879
X12.8751 Y8.5884
X11.3995
X11.0306 Y8.5892
X10.6666 Y8.6495
X10.3234 Y8.7847
X10.0176 Y8.991
X9.4911 Y9.5079
X9.1418 Y10.1578
X8.9219 Y10.8621
X8.7873 Y11.5875
X8.7063 Y12.3209
X8.658 Y13.0571
X8.6294 Y13.7944
X8.6125 Y14.532
X8.6025 Y15.2697
X8.5967 Y16.0075
X8.5932 Y16.7453
X8.59 Y18.221
X8.5885 Y21.91
X8.5884 Y55.8495
Y106.021
Y156.1924
Y206.3638
Y256.5352
X8.5882 Y265.389
X8.5874 Y266.1268
X8.5844 Y266.8646
X8.5763 Y267.6024
X8.559 Y268.34
X8.5268 Y269.0771
X8.4712 Y269.8128
X8.3815 Y270.5452
X8.2671 Y271.1418
X8.1548 Y271.5481
X8.0432 Y271.8538
X7.939 Y272.0807
X7.9232 Y272.1088
X7.8058 Y272.2654
X7.6515 Y272.3859
X7.471 Y272.4616
X7.2769 Y272.4875
X6.0452
G3 X5.8685 Y271.9142 I0.0111 J-0.3173
G1 X5.9254 Y271.8724 Z-1.992
X5.9795 Y271.8327 Z-1.9686
X6.0281 Y271.7971 Z-1.9307
X6.0686 Y271.7674 Z-1.8805
X6.0991 Y271.745 Z-1.8203
X6.118 Y271.7311 Z-1.7532
X6.1245 Y271.7264 Z-1.6825
G0 Z5
X61.3039 Y3.9816
Z-1.365
G1 Z-1.6825 F3500
X61.308 Y3.9884 Z-1.7532
X61.32 Y4.0086 Z-1.8203
X61.3393 Y4.0411 Z-1.8805
X61.365 Y4.0843 Z-1.9307
X61.3958 Y4.1361 Z-1.9686
X61.4301 Y4.1937 Z-1.992
X61.4662 Y4.2545 Z-2
G3 X61.6875 Y5.008 I-1.3603 J0.8088
G1 Y6.1816
X61.68 Y6.3315
X61.658 Y6.4798
X61.6208 Y6.6252
X61.571 Y6.7691
X61.4997 Y6.9316
X61.4065 Y7.1048
X61.2882 Y7.2876
X61.131 Y7.4926
X60.9483 Y7.6948
X60.7105 Y7.9188
X60.4354 Y8.1391
X60.0816 Y8.3786
X59.6614 Y8.6161
X59.156 Y8.8505
X58.5131 Y9.0881
X57.8027 Y9.2874
X57.0805 Y9.4381
X56.3514 Y9.5516
X55.6185 Y9.6363
X54.8834 Y9.6991
X54.147 Y9.7452
X53.4099 Y9.7787
X52.6725 Y9.8028
X51.9349 Y9.8199
X51.1972 Y9.832
X50.4594 Y9.8404
X49.7216 Y9.8462
X48.9838 Y9.8502
X47.5082 Y9.8548
X45.2947 Y9.8574
X36.441 Y9.8584
X12.8309
X12.0931 Y9.8585
X11.7402 Y9.9661
X11.4187 Y10.147
X10.8559 Y10.6241
X10.4753 Y11.2562
X10.2328 Y11.953
X10.083 Y12.6755
X9.9922 Y13.4077
X9.9378 Y14.1435
X9.9053 Y14.8806
X9.8861 Y15.6181
X9.8747 Y16.3559
X9.868 Y17.0936
X9.864 Y17.8315
X9.8603 Y19.3071
X9.8586 Y22.2583
X9.8584 Y58.4113
Y108.5827
Y158.7541
Y208.9256
Y259.097
X9.8581 Y264.9995
X9.8569 Y265.7373
X9.8535 Y266.4751
X9.8455 Y267.2129
X9.8294 Y267.9505
X9.8004 Y268.6878
X9.7523 Y269.424
X9.6773 Y270.158
X9.5619 Y270.8867
X9.4384 Y271.3973
X9.3276 Y271.7343
X9.2218 Y271.9859
X9.169 Y272.0877
X9.0527 Y272.2524
X8.8962 Y272.3797
X8.7112 Y272.4601
X8.5114 Y272.4875
X7.2769
G3 X7.1002 Y271.9142 I0.0111 J-0.3173
G1 X7.1572 Y271.8724 Z-1.992
X7.2113 Y271.8327 Z-1.9686
X7.2598 Y271.7971 Z-1.9307
X7.3003 Y271.7674 Z-1.8805
X7.3308 Y271.745 Z-1.8203
X7.3498 Y271.7311 Z-1.7532
X7.3562 Y271.7264 Z-1.6825
G0 Z5
X61.3039 Y5.1552
Z-1.365
G1 Z-1.6825 F3500
X61.308 Y5.162 Z-1.7532
X61.32 Y5.1822 Z-1.8203
X61.3393 Y5.2147 Z-1.8805
X61.365 Y5.2579 Z-1.9307
X61.3958 Y5.3097 Z-1.9686
X61.4301 Y5.3673 Z-1.992
X61.4662 Y5.4281 Z-2
G3 X61.6875 Y6.1816 I-1.3603 J0.8088
G1 Y7.3553
X61.68 Y7.5051
X61.6596 Y7.6537
X61.6241 Y7.7994
X61.5755 Y7.9447
X61.5069 Y8.1055
X61.4135 Y8.2834
X61.2989 Y8.4644
X61.1433 Y8.6715
X60.9656 Y8.8722
X60.7253 Y9.1033
X60.4579 Y9.322
X60.0971 Y9.5715
X59.6902 Y9.807
X59.1764 Y10.0517
X58.5319 Y10.2972
X57.8235 Y10.5038
X57.1029 Y10.6619
X56.375 Y10.7825
X55.6429 Y10.874
X54.9083 Y10.9429
X54.1723 Y10.9943
X53.4354 Y11.0324
X52.6981 Y11.0602
X51.9606 Y11.0804
X51.2229 Y11.0948
X50.4852 Y11.1051
X49.7474 Y11.1124
X49.0096 Y11.1175
X48.2718 Y11.121
X46.7962 Y11.1251
X44.5827 Y11.1274
X34.9911 Y11.1284
X13.5945
X13.229 Y11.1783
X12.8841 Y11.3094
X12.5753 Y11.5112
X12.0437 Y12.0228
X11.6895 Y12.67
X11.4666 Y13.3734
X11.3303 Y14.0985
X11.2482 Y14.8317
X11.1993 Y15.5679
X11.1702 Y16.3052
X11.1531 Y17.0428
X11.1429 Y17.7805
X11.1369 Y18.5183
X11.1334 Y19.2561
X11.1301 Y20.7317
X11.1285 Y24.4208
X11.1284 Y61.3116
Y111.483
Y161.6544
Y211.8259
Y261.9973
X11.1275 Y264.9485
X11.1255 Y265.6863
X11.1206 Y266.4242
X11.1104 Y267.1619
X11.0914 Y267.8995
X11.059 Y268.6366
X11.0078 Y269.3726
X10.9296 Y270.1063
X10.8144 Y270.835
X10.6872 Y271.3659
X10.5716 Y271.7201
X10.4666 Y271.9712
X10.4073 Y272.0863
X10.291 Y272.2516
X10.1344 Y272.3793
X9.9491 Y272.4599
X9.7489 Y272.4875
X8.5114
G3 X8.3346 Y271.9142 I0.0111 J-0.3173
G1 X8.3916 Y271.8724 Z-1.992
X8.4457 Y271.8327 Z-1.9686
X8.4942 Y271.7971 Z-1.9307
X8.5348 Y271.7674 Z-1.8805
X8.5653 Y271.745 Z-1.8203
X8.5842 Y271.7311 Z-1.7532
X8.5906 Y271.7264 Z-1.6825
G0 Z5
X61.3039 Y6.3288
Z-1.365
G1 Z-1.6825 F3500
X61.308 Y6.3356 Z-1.7532
X61.32 Y6.3558 Z-1.8203
X61.3393 Y6.3883 Z-1.8805
X61.365 Y6.4315 Z-1.9307
X61.3958 Y6.4833 Z-1.9686
X61.4301 Y6.541 Z-1.992
X61.4662 Y6.6017 Z-2
G3 X61.6875 Y7.3553 I-1.3603 J0.8088
G1 Y8.5289
X61.6792 Y8.6957
X61.6597 Y8.8444
X61.625 Y8.9904
X61.5781 Y9.1337
X61.5098 Y9.2964
X61.418 Y9.474
X61.3034 Y9.6576
X61.1508 Y9.8635
X60.9726 Y10.0673
X60.734 Y10.2996
X60.4646 Y10.5227
X60.1048 Y10.7749
X59.6927 Y11.017
X59.1787 Y11.2657
X58.5303 Y11.5174
X57.8233 Y11.7284
X57.1038 Y11.8917
X56.3768 Y12.0177
X55.6453 Y12.1145
X54.9112 Y12.1884
X54.1755 Y12.2443
X53.4389 Y12.2863
X52.7018 Y12.3176
X51.9643 Y12.3406
X51.2267 Y12.3574
X50.489 Y12.3695
X49.7512 Y12.3782
X49.0134 Y12.3844
X48.2756 Y12.3888
X46.8 Y12.3939
X44.5866 Y12.397
X38.684 Y12.3983
X15.074 Y12.3984
X14.7055 Y12.4161
X14.347 Y12.503
X14.0169 Y12.6679
X13.4358 Y13.1224
X13.0406 Y13.7455
X12.7883 Y14.4389
X12.6324 Y15.16
X12.5378 Y15.8918
X12.4811 Y16.6274
X12.4474 Y17.3644
X12.4273 Y18.102
X12.4155 Y18.8397
X12.4085 Y19.5775
X12.4043 Y20.3153
X12.4019 Y21.0531
X12.3996 Y22.5287
X12.3984 Y27.6934
Y63.8464
Y114.0178
Y164.1892
Y214.3606
X12.3981 Y263.7943
X12.3973 Y264.5321
X12.3952 Y265.2699
X12.3905 Y266.0077
X12.381 Y266.7454
X12.364 Y267.4831
X12.3357 Y268.2203
X12.2915 Y268.9568
X12.2258 Y269.6917
X12.1313 Y270.4234
X12.0016 Y271.0918
X11.8826 Y271.5183
X11.7631 Y271.8432
X11.6576 Y272.0716
X11.6358 Y272.1103
X11.5183 Y272.2664
X11.3641 Y272.3863
X11.184 Y272.4618
X10.9903 Y272.4875
X9.7489
G3 X9.5721 Y271.9142 I0.0111 J-0.3173
G1 X9.6291 Y271.8724 Z-1.992
X9.6832 Y271.8327 Z-1.9686
X9.7317 Y271.7971 Z-1.9307
X9.7723 Y271.7674 Z-1.8805
X9.8028 Y271.745 Z-1.8203
X9.8217 Y271.7311 Z-1.7532
X9.8281 Y271.7264 Z-1.6825
G0 Z5
X61.3039 Y7.5024
Z-1.365
G1 Z-1.6825 F3500
X61.308 Y7.5092 Z-1.7532
X61.32 Y7.5294 Z-1.8203
X61.3393 Y7.5619 Z-1.8805
X61.365 Y7.6051 Z-1.9307
X61.3958 Y7.6569 Z-1.9686
X61.4301 Y7.7146 Z-1.992
X61.4662 Y7.7753 Z-2
G3 X61.6875 Y8.5289 I-1.3603 J0.8088
G1 Y9.7947
X61.68 Y9.9445
X61.6552 Y10.0924
X61.6162 Y10.238
X61.5636 Y10.386
X61.4854 Y10.5601
X61.3887 Y10.7358
X61.259 Y10.9325
X61.0997 Y11.1365
X60.898 Y11.3557
X60.651 Y11.5844
X60.3428 Y11.8267
X59.9726 Y12.0725
X59.4946 Y12.3372
X58.9527 Y12.5828
X58.2583 Y12.8324
X57.5466 Y13.0267
X56.8245 Y13.1783
X56.0962 Y13.2964
X55.3641 Y13.3881
X54.6297 Y13.4588
X53.8938 Y13.5129
X53.1572 Y13.554
X52.42 Y13.5849
X51.6826 Y13.608
X50.9449 Y13.625
X50.2072 Y13.6375
X49.4695 Y13.6465
X48.7317 Y13.653
X47.9939 Y13.6577
X46.5183 Y13.6633
X44.3048 Y13.6668
X39.1401 Y13.6683
X16.2678 Y13.6684
X15.9002 Y13.6991
X15.5451 Y13.799
X15.222 Y13.9771
X14.6598 Y14.4548
X14.2798 Y15.0873
X14.0383 Y15.7845
X13.8898 Y16.5072
X13.8 Y17.2395
X13.7464 Y17.9754
X13.7145 Y18.7125
X13.6956 Y19.4501
X13.6844 Y20.1878
X13.6778 Y20.9256
X13.674 Y21.6634
X13.6703 Y23.139
X13.6686 Y26.0903
X13.6684 Y65.9323
Y116.1037
Y166.2751
Y216.4466
X13.6682 Y262.9289
X13.6667 Y264.4045
X13.6639 Y265.1424
X13.6581 Y265.8802
X13.6474 Y266.6179
X13.6289 Y267.3555
X13.5994 Y268.0927
X13.5547 Y268.8292
X13.4898 Y269.5641
X13.3964 Y270.296
X13.2699 Y270.9879
X13.1398 Y271.4745
X13.0225 Y271.8044
X12.917 Y272.0394
X12.8819 Y272.1033
X12.7647 Y272.2621
X12.6098 Y272.3843
X12.4281 Y272.4612
X12.2326 Y272.4875
X10.9903
G3 X10.8136 Y271.9142 I0.0111 J-0.3173
G1 X10.8706 Y271.8724 Z-1.992
X10.9247 Y271.8327 Z-1.9686
X10.9732 Y271.7971 Z-1.9307
X11.0137 Y271.7674 Z-1.8805
X11.0442 Y271.745 Z-1.8203
X11.0632 Y271.7311 Z-1.7532
X11.0696 Y271.7264 Z-1.6825
G0 Z5
X61.3039 Y8.7682
Z-1.365
G1 Z-1.6825 F3500
X61.308 Y8.7751 Z-1.7532
X61.32 Y8.7952 Z-1.8203
X61.3393 Y8.8278 Z-1.8805
X61.365 Y8.871 Z-1.9307
X61.3958 Y8.9227 Z-1.9686
X61.4301 Y8.9804 Z-1.992
X61.4662 Y9.0411 Z-2
G3 X61.6875 Y9.7947 I-1.3603 J0.8088
G1 Y10.9683
X61.68 Y11.1181
X61.6593 Y11.2667
X61.6244 Y11.4125
X61.5718 Y11.5704
X61.5046 Y11.7282
X61.4077 Y11.9131
X61.2911 Y12.0979
X61.1352 Y12.306
X60.943 Y12.5236
X60.7027 Y12.7551
X60.4138 Y12.9918
X60.0436 Y13.2485
X59.617 Y13.4961
X59.0669 Y13.7588
X58.3859 Y14.0192
X57.6778 Y14.2265
X56.9582 Y14.3893
X56.2315 Y14.5172
X55.5005 Y14.6174
X54.7669 Y14.6954
X54.0315 Y14.7558
X53.2952 Y14.8022
X52.5582 Y14.8376
X51.8209 Y14.8644
X51.0833 Y14.8844
X50.3457 Y14.8994
X49.6079 Y14.9104
X48.8702 Y14.9184
X48.1324 Y14.9243
X47.3946 Y14.9285
X45.9189 Y14.9336
X43.7055 Y14.9368
X38.5408 Y14.9383
X17.1442 Y14.9387
X16.7925 Y15.05
X16.4735 Y15.2353
X15.9183 Y15.7213
X15.5434 Y16.3568
X15.305 Y17.055
X15.1581 Y17.7781
X15.0692 Y18.5105
X15.016 Y19.2464
X14.9843 Y19.9835
X14.9655 Y20.7211
X14.9544 Y21.4588
X14.9478 Y22.1966
X14.944 Y22.9344
X14.9403 Y24.41
X14.9386 Y27.3613
X14.9384 Y68.679
Y118.8504
Y169.0218
Y219.1932
X14.9381 Y262.7243
X14.936 Y264.2
X14.9328 Y264.9378
X14.9264 Y265.6755
X14.915 Y266.4133
X14.8962 Y267.1508
X14.867 Y267.8881
X14.8237 Y268.6246
X14.7615 Y269.3598
X14.6739 Y270.0924
X14.5512 Y270.82
X14.4193 Y271.3613
X14.302 Y271.7161
X14.1921 Y271.9763
X14.1335 Y272.0888
X14.0171 Y272.2531
X13.8607 Y272.38
X13.6759 Y272.4601
X13.4764 Y272.4875
X12.2326
G3 X12.0558 Y271.9142 I0.0111 J-0.3173
G1 X12.1128 Y271.8724 Z-1.992
X12.1669 Y271.8327 Z-1.9686
X12.2155 Y271.7971 Z-1.9307
X12.256 Y271.7674 Z-1.8805
X12.2865 Y271.745 Z-1.8203
X12.3054 Y271.7311 Z-1.7532
X12.3118 Y271.7264 Z-1.6825
G0 Z5
X61.3039 Y9.9418
Z-1.365
G1 Z-1.6825 F3500
X61.308 Y9.9487 Z-1.7532
X61.32 Y9.9689 Z-1.8203
X61.3393 Y10.0014 Z-1.8805
X61.365 Y10.0446 Z-1.9307
X61.3958 Y10.0963 Z-1.9686
X61.4301 Y10.154 Z-1.992
X61.4662 Y10.2147 Z-2
G3 X61.6875 Y10.9683 I-1.3603 J0.8088
G1 Y12.2174
X61.68 Y12.3672
X61.656 Y12.5152
X61.6169 Y12.6633
X61.564 Y12.8134
X61.4881 Y12.984
X61.3873 Y13.169
X61.2613 Y13.3615
X61.0949 Y13.576
X60.8993 Y13.7901
X60.6379 Y14.0338
X60.3403 Y14.2695
X59.946 Y14.5333
X59.4825 Y14.7921
X58.9188 Y15.0499
X58.2254 Y15.3019
X57.5149 Y15.5007
X56.794 Y15.6581
X56.0668 Y15.7827
X55.3356 Y15.881
X54.6018 Y15.9583
X53.8665 Y16.0187
X53.1301 Y16.0655
X52.3932 Y16.1016
X51.6559 Y16.1291
X50.9184 Y16.15
X50.1807 Y16.1657
X49.443 Y16.1774
X48.7053 Y16.1861
X47.9675 Y16.1924
X47.2297 Y16.1971
X45.754 Y16.2028
X43.5406 Y16.2065
X39.1137 Y16.2082
X18.4549 Y16.2084
X18.0999 Y16.3087
X17.7762 Y16.4857
X17.2108 Y16.9597
X16.828 Y17.5904
X16.5842 Y18.2868
X16.4338 Y19.0091
X16.3427 Y19.7413
X16.2881 Y20.4771
X16.2556 Y21.2142
X16.2363 Y21.9518
X16.2249 Y22.6895
X16.2181 Y23.4273
X16.2141 Y24.1651
X16.2104 Y25.6407
X16.2086 Y28.592
X16.2084 Y71.3852
Y121.5567
Y171.7281
Y221.8995
X16.208 Y262.4793
X16.2054 Y263.955
X16.2018 Y264.6928
X16.1951 Y265.4306
X16.1836 Y266.1683
X16.1651 Y266.9059
X16.1369 Y267.6432
X16.0957 Y268.3798
X16.0373 Y269.1153
X15.9562 Y269.8487
X15.845 Y270.578
X15.7101 Y271.1995
X15.5876 Y271.6043
X15.4707 Y271.9018
X15.3591 Y272.1302
X15.243 Y272.2784
X15.0928 Y272.3919
X14.9186 Y272.4632
X14.7319 Y272.4875
X13.4764
G3 X13.2997 Y271.9142 I0.0111 J-0.3173
G1 X13.3566 Y271.8724 Z-1.992
X13.4107 Y271.8327 Z-1.9686
X13.4593 Y271.7971 Z-1.9307
X13.4998 Y271.7674 Z-1.8805
X13.5303 Y271.745 Z-1.8203
X13.5492 Y271.7311 Z-1.7532
X13.5557 Y271.7264 Z-1.6825
G0 Z5
X61.3039 Y11.1909
Z-1.365
G1 Z-1.6825 F3500
X61.308 Y11.1977 Z-1.7532
X61.32 Y11.2179 Z-1.8203
X61.3393 Y11.2504 Z-1.8805
X61.365 Y11.2936 Z-1.9307
X61.3958 Y11.3454 Z-1.9686
X61.4301 Y11.4031 Z-1.992
X61.4662 Y11.4638 Z-2
G3 X61.6875 Y12.2174 I-1.3603 J0.8088
G1 Y13.391
X61.6798 Y13.5443
X61.6603 Y13.693
X61.6267 Y13.8392
X61.5755 Y13.9971
X61.51 Y14.1547
X61.4158 Y14.3382
X61.2976 Y14.5288
X61.1454 Y14.7353
X60.9533 Y14.9565
X60.7185 Y15.1864
X60.425 Y15.431
X60.0639 Y15.6857
X59.6291 Y15.9428
X59.0749 Y16.213
X58.3889 Y16.4817
X57.6826 Y16.6948
X56.9645 Y16.8642
X56.2391 Y16.9991
X55.5091 Y17.1063
X54.7762 Y17.1911
X54.0414 Y17.2579
X53.3054 Y17.3104
X52.5687 Y17.3512
X51.8316 Y17.3828
X51.0942 Y17.4071
X50.3566 Y17.4256
X49.6189 Y17.4396
X48.8812 Y17.4501
X48.1434 Y17.4578
X47.4056 Y17.4636
X46.6678 Y17.4678
X45.1922 Y17.4731
X42.9788 Y17.4766
X37.814 Y17.4783
X20.1065 Y17.4784
X19.7383 Y17.5006
X19.3814 Y17.5941
X19.0554 Y17.7668
X18.486 Y18.236
X18.1005 Y18.8651
X17.8553 Y19.561
X17.7042 Y20.2832
X17.6128 Y21.0153
X17.5581 Y21.7511
X17.5255 Y22.4882
X17.5063 Y23.2258
X17.4948 Y23.9635
X17.4881 Y24.7013
X17.4841 Y25.4391
X17.4804 Y26.9147
X17.4786 Y29.866
X17.4784 Y73.397
Y123.5685
Y173.7399
Y223.9113
X17.4782 Y261.5399
X17.4768 Y263.0155
X17.4747 Y263.7533
X17.4707 Y264.4911
X17.4636 Y265.2289
X17.4517 Y265.9666
X17.4331 Y266.7042
X17.4053 Y267.4415
X17.3653 Y268.1783
X17.3094 Y268.9139
X17.2328 Y269.6478
X17.1286 Y270.3782
X16.9921 Y271.0651
X16.8585 Y271.5358
X16.74 Y271.8538
X16.6335 Y272.0816
X16.6155 Y272.1132
X16.4979 Y272.2681
X16.3441 Y272.3871
X16.1645 Y272.462
X15.9717 Y272.4875
X14.7319
G3 X14.5552 Y271.9142 I0.0111 J-0.3173
G1 X14.6122 Y271.8724 Z-1.992
X14.6663 Y271.8327 Z-1.9686
X14.7148 Y271.7971 Z-1.9307
X14.7553 Y271.7674 Z-1.8805
X14.7858 Y271.745 Z-1.8203
X14.8048 Y271.7311 Z-1.7532
X14.8112 Y271.7264 Z-1.6825
G0 Z5
X61.3039 Y12.3645
Z-1.365
G1 Z-1.6825 F3500
X61.308 Y12.3713 Z-1.7532
X61.32 Y12.3915 Z-1.8203
X61.3393 Y12.424 Z-1.8805
X61.365 Y12.4672 Z-1.9307
X61.3958 Y12.519 Z-1.9686
X61.4301 Y12.5767 Z-1.992
X61.4662 Y12.6374 Z-2
G3 X61.6875 Y13.391 I-1.3603 J0.8088
G1 Y14.6568
X61.68 Y14.8066
X61.6566 Y14.9548
X61.618 Y15.1037
X61.566 Y15.2537
X61.4901 Y15.4262
X61.3913 Y15.6096
X61.2649 Y15.8046
X61.0995 Y16.0198
X60.9028 Y16.2372
X60.6413 Y16.4832
X60.3409 Y16.7234
X59.9448 Y16.991
X59.4745 Y17.2565
X58.9054 Y17.5199
X58.2131 Y17.7751
X57.5038 Y17.9782
X56.7841 Y18.1407
X56.0579 Y18.2708
X55.3274 Y18.3749
X54.5943 Y18.4579
X53.8594 Y18.5239
X53.1235 Y18.576
X52.3868 Y18.6169
X51.6497 Y18.6488
X50.9123 Y18.6734
X50.1747 Y18.6924
X49.437 Y18.7069
X48.6993 Y18.7178
X47.9615 Y18.726
X47.2237 Y18.7321
X46.4859 Y18.7366
X45.0103 Y18.7424
X42.7969 Y18.7463
X38.37 Y18.7481
X21.4002 Y18.7484
X21.0319 Y18.7699
X20.6741 Y18.8595
X20.346 Y19.0281
X19.771 Y19.4905
X19.3806 Y20.1165
X19.1316 Y20.8111
X18.9781 Y21.5328
X18.8852 Y22.2647
X18.8295 Y23.0004
X18.7964 Y23.7375
X18.7768 Y24.475
X18.7651 Y25.2128
X18.7583 Y25.9506
X18.7542 Y26.6884
X18.7504 Y28.164
X18.7486 Y31.1152
X18.7484 Y76.122
Y126.2934
Y176.4648
Y226.6362
X18.7481 Y261.3136
X18.7464 Y262.7892
X18.7441 Y263.527
X18.7398 Y264.2648
X18.7324 Y265.0026
X18.7205 Y265.7403
X18.7021 Y266.4779
X18.6751 Y267.2152
X18.6367 Y267.952
X18.5837 Y268.6879
X18.5117 Y269.4222
X18.4149 Y270.1537
X18.2836 Y270.8797
X18.1472 Y271.4118
X18.0292 Y271.7549
X17.9194 Y272.0064
X17.8711 Y272.0966
X17.7543 Y272.2579
X17.5987 Y272.3823
X17.4155 Y272.4607
X17.2181 Y272.4875
X15.9717
G3 X15.795 Y271.9142 I0.0111 J-0.3173
G1 X15.8519 Y271.8724 Z-1.992
X15.906 Y271.8327 Z-1.9686
X15.9546 Y271.7971 Z-1.9307
X15.9951 Y271.7674 Z-1.8805
X16.0256 Y271.745 Z-1.8203
X16.0445 Y271.7311 Z-1.7532
X16.051 Y271.7264 Z-1.6825
G0 Z5
X61.3039 Y13.6303
Z-1.365
G1 Z-1.6825 F3500
X61.308 Y13.6372 Z-1.7532
X61.32 Y13.6573 Z-1.8203
X61.3393 Y13.6899 Z-1.8805
X61.365 Y13.7331 Z-1.9307
X61.3958 Y13.7848 Z-1.9686
X61.4301 Y13.8425 Z-1.992
X61.4662 Y13.9032 Z-2
G3 X61.6875 Y14.6568 I-1.3603 J0.8088
G1 Y15.9058
X61.68 Y16.0557
X61.6543 Y16.2034
X61.6143 Y16.3501
X61.5567 Y16.5099
X61.4802 Y16.6781
X61.3715 Y16.874
X61.2442 Y17.0652
X61.0671 Y17.2899
X60.8653 Y17.5075
X60.5901 Y17.76
X60.285 Y17.9979
X59.8654 Y18.2739
X59.3958 Y18.5314
X58.7884 Y18.8034
X58.0931 Y19.0501
X57.3822 Y19.2475
X56.6616 Y19.4063
X55.935 Y19.5342
X55.2044 Y19.6372
X54.4712 Y19.7199
X53.7364 Y19.786
X53.0005 Y19.8386
X52.2638 Y19.8802
X51.5267 Y19.9129
X50.7893 Y19.9384
X50.0518 Y19.9582
X49.3141 Y19.9733
X48.5764 Y19.9849
X47.8386 Y19.9937
X47.1009 Y20.0003
X46.3631 Y20.0052
X44.8874 Y20.0115
X42.674 Y20.0159
X38.9849 Y20.018
X22.753 Y20.0184
X22.3842 Y20.0274
X22.0225 Y20.1001
X21.6868 Y20.2529
X21.3897 Y20.4717
X20.8792 Y21.0043
X20.5446 Y21.6619
X20.3352 Y22.3694
X20.2075 Y23.0961
X20.1307 Y23.8299
X20.0848 Y24.5663
X20.0576 Y25.3036
X20.0415 Y26.0412
X20.032 Y26.779
X20.0264 Y27.5168
X20.0231 Y28.2546
X20.02 Y29.7302
X20.0185 Y33.4193
X20.0184 Y78.426
Y128.5974
Y178.7689
Y228.9403
X20.0181 Y260.6664
X20.0169 Y262.142
X20.0151 Y262.8798
X20.0118 Y263.6176
X20.0061 Y264.3554
X19.9969 Y265.0931
X19.9826 Y265.8308
X19.9615 Y266.5683
X19.9313 Y267.3055
X19.8896 Y268.0422
X19.8332 Y268.7778
X19.7574 Y269.5117
X19.6558 Y270.2425
X19.519 Y270.9656
X19.3821 Y271.4657
X19.2578 Y271.8087
X19.1502 Y272.0446
X19.1153 Y272.1072
X18.9979 Y272.2645
X18.8434 Y272.3854
X18.6626 Y272.4615
X18.4681 Y272.4875
X17.2181
G3 X17.0414 Y271.9142 I0.0111 J-0.3173
G1 X17.0984 Y271.8724 Z-1.992
X17.1525 Y271.8327 Z-1.9686
X17.201 Y271.7971 Z-1.9307
X17.2415 Y271.7674 Z-1.8805
X17.272 Y271.745 Z-1.8203
X17.291 Y271.7311 Z-1.7532
X17.2974 Y271.7264 Z-1.6825
G0 Z5
X61.3039 Y14.8794
Z-1.365
G1 Z-1.6825 F3500
X61.308 Y14.8862 Z-1.7532
X61.32 Y14.9064 Z-1.8203
X61.3393 Y14.9389 Z-1.8805
X61.365 Y14.9821 Z-1.9307
X61.3958 Y15.0339 Z-1.9686
X61.4301 Y15.0915 Z-1.992
X61.4662 Y15.1523 Z-2
G3 X61.6875 Y15.9058 I-1.3603 J0.8088
G1 Y17.0795
X61.68 Y17.2293
X61.6603 Y17.378
X61.6269 Y17.5242
X61.5762 Y17.6813
X61.5086 Y17.8444
X61.4167 Y18.0238
X61.2919 Y18.2258
X61.1437 Y18.4273
X60.9428 Y18.6591
X60.7151 Y18.8827
X60.4031 Y19.1432
X60.0552 Y19.3893
X59.5976 Y19.6606
X59.0273 Y19.9395
X58.3406 Y20.2094
X57.6351 Y20.4253
X56.918 Y20.5989
X56.1935 Y20.7388
X55.4644 Y20.852
X54.7323 Y20.9434
X53.9982 Y21.0171
X53.2628 Y21.0763
X52.5265 Y21.1236
X51.7896 Y21.1612
X51.0524 Y21.1909
X50.3149 Y21.2141
X49.5773 Y21.2322
X48.8397 Y21.2461
X48.1019 Y21.2568
X47.3642 Y21.265
X46.6264 Y21.2711
X45.8886 Y21.2757
X44.4129 Y21.2817
X42.1995 Y21.2859
X38.5104 Y21.288
X23.7541 Y21.2884
X23.3899 Y21.3469
X23.0455 Y21.4791
X22.7376 Y21.6824
X22.2063 Y22.1944
X21.8526 Y22.8418
X21.6293 Y23.5451
X21.4923 Y24.27
X21.4097 Y25.0032
X21.3603 Y25.7394
X21.3309 Y26.4766
X21.3135 Y27.2142
X21.3032 Y27.952
X21.2971 Y28.6897
X21.2935 Y29.4275
X21.2902 Y30.9032
X21.2886 Y33.8544
X21.2884 Y81.0746
Y131.246
Y181.4174
Y231.5889
X21.2881 Y260.3637
X21.2867 Y261.8393
X21.2849 Y262.5771
X21.2816 Y263.3149
X21.276 Y264.0527
X21.2671 Y264.7905
X21.2535 Y265.5282
X21.2336 Y266.2657
X21.2054 Y267.003
X21.1668 Y267.7398
X21.1147 Y268.4758
X21.0455 Y269.2103
X20.9538 Y269.9424
X20.8323 Y270.6702
X20.6871 Y271.2852
X20.5644 Y271.6652
X20.447 Y271.9488
X20.3778 Y272.0841
X20.2617 Y272.2502
X20.1049 Y272.3787
X19.9191 Y272.4598
X19.7183 Y272.4875
X18.4681
G3 X18.2914 Y271.9142 I0.0111 J-0.3173
G1 X18.3484 Y271.8724 Z-1.992
X18.4025 Y271.8327 Z-1.9686
X18.451 Y271.7971 Z-1.9307
X18.4915 Y271.7674 Z-1.8805
X18.522 Y271.745 Z-1.8203
X18.541 Y271.7311 Z-1.7532
X18.5474 Y271.7264 Z-1.6825
G0 Z5
X61.3039 Y16.053
Z-1.365
G1 Z-1.6825 F3500
X61.308 Y16.0598 Z-1.7532
X61.32 Y16.08 Z-1.8203
X61.3393 Y16.1125 Z-1.8805
X61.365 Y16.1557 Z-1.9307
X61.3958 Y16.2075 Z-1.9686
X61.4301 Y16.2652 Z-1.992
X61.4662 Y16.3259 Z-2
G3 X61.6875 Y17.0795 I-1.3603 J0.8088
G1 Y18.3453
X61.68 Y18.4951
X61.6572 Y18.6433
X61.619 Y18.7926
X61.5665 Y18.9456
X61.4917 Y19.1174
X61.3927 Y19.3024
X61.2677 Y19.4967
X61.0992 Y19.7175
X60.9045 Y19.9341
X60.6367 Y20.1877
X60.3392 Y20.4272
X59.935 Y20.7023
X59.4641 Y20.9701
X58.88 Y21.2429
X58.1885 Y21.5004
X57.4803 Y21.7074
X56.7618 Y21.8748
X56.0366 Y22.0107
X55.3071 Y22.1212
X54.5748 Y22.211
X53.8405 Y22.2837
X53.1051 Y22.3424
X52.3688 Y22.3896
X51.6319 Y22.4273
X50.8947 Y22.4572
X50.1573 Y22.4808
X49.4197 Y22.4993
X48.682 Y22.5136
X47.9443 Y22.5247
X47.2065 Y22.5332
X46.4687 Y22.5397
X45.7309 Y22.5446
X44.2553 Y22.551
X42.0419 Y22.5556
X38.3528 Y22.5579
X25.0721 Y22.5584
X24.7065 Y22.6079
X24.3585 Y22.7301
X24.0455 Y22.9253
X23.5036 Y23.426
X23.1406 Y24.0684
X22.9107 Y24.7695
X22.7694 Y25.4936
X22.684 Y26.2265
X22.6329 Y26.9625
X22.6025 Y27.6997
X22.5844 Y28.4373
X22.5738 Y29.1751
X22.5675 Y29.9128
X22.5637 Y30.6506
X22.5602 Y32.1263
X22.559 Y33.6019
X22.5584 Y56.4742
Y83.7733
Y133.9448
Y184.1162
Y234.2876
X22.558 Y260.1111
X22.5564 Y261.5868
X22.5545 Y262.3246
X22.5511 Y263.0624
X22.5455 Y263.8002
X22.5366 Y264.5379
X22.5234 Y265.2756
X22.5042 Y266.0132
X22.4774 Y266.7505
X22.4407 Y267.4874
X22.3917 Y268.2236
X22.3269 Y268.9586
X22.2421 Y269.6915
X22.1302 Y270.4208
X21.9856 Y271.1106
X21.856 Y271.5498
X21.7326 Y271.8706
X21.6213 Y272.1023
X21.611 Y272.1199
X21.4932 Y272.2722
X21.3401 Y272.3891
X21.162 Y272.4625
X20.9711 Y272.4875
X19.7183
G3 X19.5415 Y271.9142 I0.0111 J-0.3173
G1 X19.5985 Y271.8724 Z-1.992
X19.6526 Y271.8327 Z-1.9686
X19.7011 Y271.7971 Z-1.9307
X19.7417 Y271.7674 Z-1.8805
X19.7722 Y271.745 Z-1.8203
X19.7911 Y271.7311 Z-1.7532
X19.7975 Y271.7264 Z-1.6825
G0 Z5
X61.3039 Y17.3188
Z-1.365
G1 Z-1.6825 F3500
X61.308 Y17.3256 Z-1.7532
X61.32 Y17.3458 Z-1.8203
X61.3393 Y17.3783 Z-1.8805
X61.365 Y17.4216 Z-1.9307
X61.3958 Y17.4733 Z-1.9686
X61.4301 Y17.531 Z-1.992
X61.4662 Y17.5917 Z-2
G3 X61.6875 Y18.3453 I-1.3603 J0.8088
G1 Y19.5943
X61.68 Y19.7441
X61.6555 Y19.8921
X61.6172 Y20.0373
X61.5608 Y20.1981
X61.4867 Y20.3648
X61.38 Y20.5609
X61.2544 Y20.7532
X61.0818 Y20.976
X60.8798 Y21.1974
X60.6116 Y21.4478
X60.3025 Y21.693
X59.8851 Y21.9727
X59.4213 Y22.2321
X58.8102 Y22.5121
X58.117 Y22.7646
X57.4079 Y22.9685
X56.6889 Y23.1343
X55.9636 Y23.2695
X55.2341 Y23.38
X54.5018 Y23.4701
X53.7677 Y23.5435
X53.0323 Y23.6031
X52.296 Y23.6512
X51.5592 Y23.6899
X50.8221 Y23.7208
X50.0846 Y23.7453
X49.3471 Y23.7646
X48.6094 Y23.7798
X47.8717 Y23.7916
X47.1339 Y23.8007
X46.3962 Y23.8076
X45.6584 Y23.8129
X44.1828 Y23.82
X42.7071 Y23.8239
X40.4937 Y23.8267
X34.5912 Y23.8283
X26.4752 Y23.8284
X26.1072 Y23.8544
X25.7507 Y23.9492
X25.4241 Y24.1207
X24.8508 Y24.5852
X24.8203 Y24.6282
X24.7868 Y24.6689
X24.7506 Y24.7071
X24.6642 Y24.7918
X24.6198 Y24.8433
X24.5224 Y24.9594
X24.4522 Y25.0596
X24.4125 Y25.1271
X24.3215 Y25.2947
X24.2845 Y25.3758
X24.25 Y25.4624
X24.1946 Y25.63
X24.1559 Y25.7977
X24.132 Y25.9654
X24.028 Y26.6958
X23.9486 Y27.4293
X23.9005 Y28.1656
X23.8715 Y28.9028
X23.8541 Y29.6404
X23.8437 Y30.3782
X23.8375 Y31.116
X23.8338 Y31.8538
X23.8303 Y33.3294
X23.8286 Y36.2807
X23.8284 Y76.1227
Y126.2941
Y176.4655
Y226.6369
X23.8279 Y259.8386
X23.8262 Y261.3143
X23.8242 Y262.0521
X23.8208 Y262.7899
X23.8152 Y263.5277
X23.8066 Y264.2654
X23.7938 Y265.0031
X23.7755 Y265.7407
X23.7501 Y266.4781
X23.7156 Y267.2151
X23.6697 Y267.9515
X23.6094 Y268.6869
X23.531 Y269.4205
X23.4287 Y270.1512
X23.2934 Y270.8765
X23.1506 Y271.421
X23.0306 Y271.7638
X22.9185 Y272.0166
X22.8731 Y272.1002
X22.7561 Y272.2602
X22.6009 Y272.3834
X22.4185 Y272.461
X22.2221 Y272.4875
X20.9711
G3 X20.7943 Y271.9142 I0.0111 J-0.3173
G1 X20.8513 Y271.8724 Z-1.992
X20.9054 Y271.8327 Z-1.9686
X20.954 Y271.7971 Z-1.9307
X20.9945 Y271.7674 Z-1.8805
X21.025 Y271.745 Z-1.8203
X21.0439 Y271.7311 Z-1.7532
X21.0503 Y271.7264 Z-1.6825
G0 Z5
X23.7919 Y24.9237
Z-1.365
G1 Z-1.6825 F3500
X23.7957 Y24.9307 Z-1.7532
X23.8068 Y24.9514 Z-1.8203
X23.8248 Y24.9847 Z-1.8805
X23.8486 Y25.0289 Z-1.9307
X23.8772 Y25.0819 Z-1.9686
X23.909 Y25.141 Z-1.992
X23.9426 Y25.2032 Z-2
G3 X24.132 Y25.9654 I-1.3931 J0.751
G1 X24.1169 Y26.3261
X24.1125 Y26.4683
Y55.9763
X24.1169 Y56.028
X24.1736 Y56.4897
X24.1767 Y56.5002
X24.3603 Y56.9822
X24.4041 Y57.0598
X24.4861 Y57.2081
X24.5923 Y57.4433
X24.7039 Y57.7547
X24.8201 Y58.185
X24.9401 Y58.8322
X25.016 Y59.5661
X25.0553 Y60.3029
X25.0758 Y61.0404
X25.0865 Y61.7782
X25.0921 Y62.516
X25.0951 Y63.2538
X25.0964 Y63.8575
X25.0657 Y64.0699
X24.9755 Y64.2646
X24.8332 Y64.4253
X24.7875 Y64.4639
X24.7248 Y64.5268
X24.6198 Y64.6432
X24.4516 Y64.8622
X24.3555 Y65.0298
X24.2845 Y65.1818
X24.2141 Y65.3651
X24.168 Y65.5328
X24.1383 Y65.7005
X24.1196 Y65.8681
X24.1136 Y66.0358
X24.1125 Y66.2034
Y266.7231
X24.1146 Y266.8908
X24.1169 Y266.9313
X24.1362 Y267.0585
X24.2325 Y267.4881
X24.2357 Y267.4986
X24.246 Y267.5195
X24.3569 Y267.7767
X24.4377 Y268.0152
X24.5119 Y268.3105
X24.5746 Y268.6845
X24.6146 Y269.1512
X24.6177 Y269.7473
X24.5705 Y270.3755
X24.4812 Y270.9452
X24.3685 Y271.4146
X24.2599 Y271.7466
X24.1585 Y271.9889
X24.108 Y272.0867
X23.9917 Y272.2518
X23.8351 Y272.3794
X23.6499 Y272.46
X23.4498 Y272.4875
X22.2221
G3 X21.9369 Y272.0561 I0.0111 J-0.3173
G1 X22.0019 Y271.8871
X23.648 Y267.6122
X23.6699 Y267.5554
G3 X24.246 Y267.5195 I0.2963 J0.1141
G1 X24.4522 Y267.9388
X24.4931 Y268.0016
X24.5395 Y268.0644
X24.6198 Y268.1614
X24.6826 Y268.2321
X24.7875 Y268.3355
X24.8593 Y268.3997
X24.9712 Y268.4997
X25.0664 Y268.6155
X25.1509 Y268.7395
X25.2333 Y268.8844
X25.3194 Y269.069
X25.3986 Y269.2817
X25.4675 Y269.5252
X25.5267 Y269.8239
X25.5638 Y270.145
X25.5764 Y270.5063
X25.5592 Y270.8848
X25.5126 Y271.2532
X25.4513 Y271.5462
X25.3733 Y271.8109
X25.2962 Y272.0117
X25.2696 Y272.067
X25.1546 Y272.2397
X24.9963 Y272.3736
X24.807 Y272.4585
X24.6017 Y272.4875
X23.4498
G3 X23.1607 Y272.0665 I0.0111 J-0.3173
G1 X23.2235 Y271.8849
X24.3108 Y268.7389
X24.3746 Y268.5543
G3 X24.8593 Y268.3997 I0.3001 J0.1037
G1 X24.9551 Y268.4734
X25.1227 Y268.5831
X25.2904 Y268.6784
X25.3582 Y268.7102
X25.426 Y268.735
X25.5669 Y268.7866
X25.6936 Y268.8668
X25.8098 Y268.9617
X25.915 Y269.0686
X26.0105 Y269.1843
X26.1091 Y269.3268
X26.1984 Y269.4807
X26.2901 Y269.6731
X26.3681 Y269.8773
X26.4398 Y270.1225
X26.4942 Y270.3855
X26.5285 Y270.6616
X26.5413 Y270.9552
X26.5306 Y271.2444
X26.5023 Y271.4837
X26.455 Y271.7202
X26.402 Y271.9058
X26.3643 Y272.0065
X26.2551 Y272.2018
X26.0926 Y272.3555
X25.8916 Y272.4537
X25.6705 Y272.4875
X24.6017
G3 X24.3038 Y272.097 I0.0111 J-0.3173
G1 X24.3554 Y271.8792
X24.9785 Y269.2509
X25.0449 Y268.971
G3 X25.426 Y268.735 I0.3089 J0.0732
G1 X25.7933 Y268.8345
X25.9609 Y268.8737
X26.0117 Y268.8774
X26.1605 Y268.8956
X26.3044 Y268.938
X26.4405 Y269.0012
X26.5677 Y269.0807
X26.6861 Y269.1727
X26.7954 Y269.2754
X26.9023 Y269.3939
X27.0073 Y269.531
X27.1125 Y269.6939
X27.2074 Y269.8706
X27.298 Y270.0776
X27.3755 Y270.3023
X27.4363 Y270.5382
X27.4798 Y270.7895
X27.5032 Y271.0457
X27.5057 Y271.2709
X27.4895 Y271.504
X27.4599 Y271.6996
X27.4198 Y271.8707
X27.387 Y271.973
X27.2822 Y272.1805
X27.1182 Y272.3452
X26.9112 Y272.451
X26.6816 Y272.4875
X25.6705
G3 X25.3659 Y272.1364 I0.0111 J-0.3173
G1 X25.394 Y271.874
X25.6514 Y269.468
X25.6843 Y269.1609
G3 X26.0117 Y268.8774 I0.3157 J0.0338
G1 X26.1286 Y268.8858
X26.4639 Y268.8875
X26.7237
X26.8735 Y268.895
X27.0212 Y268.9213
X27.1637 Y268.9681
X27.2996 Y269.0316
X27.4284 Y269.1085
X27.5495 Y269.1971
X27.6708 Y269.3026
X27.7866 Y269.421
X27.9059 Y269.5643
X28.02 Y269.7262
X28.1257 Y269.9051
X28.2231 Y270.1053
X28.3093 Y270.3254
X28.3789 Y270.5566
X28.4303 Y270.7954
X28.4616 Y271.0314
X28.4724 Y271.2419
X28.4659 Y271.4668
X28.4455 Y271.6528
X28.4135 Y271.8197
X28.3781 Y271.9477
X28.2847 Y272.1617
X28.1354 Y272.3413
X27.9419 Y272.4721
X27.7197 Y272.5438
X27.4862 Y272.5506
X27.2602 Y272.4921
X27.2497 Y272.4877
X26.6816 Y272.4875
G3 X26.3752 Y272.1657 I0.0111 J-0.3173
G1 X26.3794 Y271.8725
X26.413 Y269.5025
X26.4173 Y269.2003
G3 X26.7237 Y268.8875 I0.3175 J0.0045
G1 X27.6374
X27.7872 Y268.895
X27.9341 Y268.9253
X28.0761 Y268.9737
X28.2119 Y269.0373
X28.341 Y269.1136
X28.4632 Y269.2007
X28.5921 Y269.3093
X28.7154 Y269.4315
X28.8395 Y269.5758
X28.9612 Y269.743
X29.0721 Y269.9242
X29.1718 Y270.121
X29.2605 Y270.3376
X29.333 Y270.5655
X29.3874 Y270.8
X29.4215 Y271.0297
X29.4364 Y271.2516
X29.4336 Y271.4659
X29.4169 Y271.6438
X29.3832 Y271.8356
X29.3387 Y272.0069
X29.2872 Y272.1549
X29.2167 Y272.3151
X29.1401 Y272.4568
X29.0584 Y272.5826
X28.9595 Y272.7102
X28.8562 Y272.8234
X28.7465 Y272.9257
X28.6276 Y273.0184
X28.5023 Y273.1008
X28.3836 Y273.1657
X28.185 Y273.2391
X27.9736 Y273.2518
X27.7675 Y273.2029
X27.5845 Y273.0964
X27.44 Y272.9415
X27.3466 Y272.7514
X27.3122 Y272.5424
X27.3592 Y271.7584
X27.4881 Y269.6091
X27.5247 Y268.9973
X27.5351 Y268.9557
X27.5598 Y268.9206
X27.5955 Y268.8968
X27.6374 Y268.8875
X28.5678
X28.7176 Y268.895
X28.8645 Y268.9253
X29.0067 Y268.973
X29.143 Y269.0356
X29.2729 Y269.1106
X29.3974 Y269.1973
X29.5291 Y269.3057
X29.6553 Y269.4278
X29.7821 Y269.572
X29.9064 Y269.7386
X30.0204 Y269.92
X30.1235 Y270.1178
X30.2148 Y270.3337
X30.2896 Y270.5598
X30.3475 Y270.7968
X30.3864 Y271.0396
X30.4056 Y271.283
X30.4052 Y271.5287
X30.3852 Y271.7726
X30.3462 Y272.011
X30.2884 Y272.2444
X30.2125 Y272.471
X30.1199 Y272.688
X30.0115 Y272.8944
X29.8875 Y273.0905
X29.7525 Y273.2702
X29.6105 Y273.4306
X29.4632 Y273.5722
X29.3304 Y273.6808
X29.1794 Y273.7852
X29.0326 Y273.8702
X28.8971 Y273.9347
X28.7451 Y273.9925
X28.5967 Y274.0356
X28.4498 Y274.0659
X28.3008 Y274.0829
X28.1509 Y274.0878
X28.001 Y274.0803
X27.947 Y274.0724
X27.7449 Y274.0129
X27.5678 Y273.8988
X27.4299 Y273.7395
X27.3425 Y273.5478
X27.3125 Y273.3393
X27.3203 Y273.2795
X27.4821 Y272.5728
X28.187 Y269.4939
X28.2694 Y269.134
G3 X28.5678 Y268.8875 I0.3095 J0.0708
G1 X29.4814
X29.6312 Y268.895
X29.7791 Y268.9203
X29.9226 Y268.9638
X30.0606 Y269.0226
X30.1925 Y269.0941
X30.319 Y269.1778
X30.4512 Y269.2813
X30.5783 Y269.3986
X30.7087 Y269.5399
X30.7546 Y269.5983
X30.8409 Y269.7377
X30.8944 Y269.8926
X30.9125 Y270.0555
G3 X30.4029 Y270.2971 I-0.3173 J-0.0111
G1 X30.3304 Y270.2419
X29.3046 Y269.4608
X29.3001 Y269.4574
G3 X29.4814 Y268.8875 I0.1923 J-0.2526
G1 X30.4118
X30.4533
X30.4873
X30.6371 Y268.895
X30.6804 Y268.9073
X30.7152 Y268.9209
X30.7487 Y268.9374
X30.7706 Y268.9629
X30.7816 Y268.9947
X30.7803 Y269.0282
X30.7669 Y269.059
X30.7431 Y269.0828
X30.7124 Y269.0962
X30.6788 Y269.0975
X30.4771 Y269.0674
X30.4456 Y269.0566
X30.4202 Y269.0351
X30.4043 Y269.0058
X30.4001 Y268.9728
X30.408 Y268.9405
X30.4271 Y268.9133
X30.4548 Y268.8948
X30.4873 Y268.8875
X30.5711
X30.613 Y268.8895
X30.6549 Y268.897
X30.6749 Y268.9027
X30.7118 Y268.9171
X30.7487 Y268.9374
X30.7856 Y268.9649
X30.8225 Y269.0014
X30.8516 Y269.0359
X30.8735 Y269.0704
X30.8926 Y269.1123
X30.905 Y269.1542
X30.9114 Y269.1961
X30.9125 Y269.238
Y272.4235
X30.9011 Y272.6507
X30.8786 Y272.8224
X30.8391 Y273.0071
X30.7819 Y273.1982
X30.7078 Y273.3885
X30.6166 Y273.5765
X30.5067 Y273.7631
X30.3795 Y273.9442
X30.2378 Y274.1149
X30.0809 Y274.2757
X29.9108 Y274.424
X29.7301 Y274.5578
X29.5404 Y274.6758
X29.3417 Y274.7783
X29.1362 Y274.8642
X28.9457 Y274.9265
X28.7534 Y274.9725
X28.5657 Y275.0019
X28.4038 Y275.014
X28.229 Y275.013
X28.0658 Y274.9989
X27.9178 Y274.974
X27.8701 Y274.9619
X27.6891 Y274.8891
X27.5333 Y274.7716
X27.4135 Y274.6175
X27.3382 Y274.4375
X27.3125 Y274.244
Y274.1001
G3 X27.4736 Y273.8348 I0.3173 J0.0111
G1 X27.875 Y273.6078
X30.322 Y272.2244
X30.4389 Y272.1582
G3 X30.9125 Y272.4235 I0.1563 J0.2764
G1 Y273.857
X30.905 Y274.0068
X30.8826 Y274.1552
X30.8451 Y274.3004
X30.7946 Y274.4416
X30.7293 Y274.5843
X30.6468 Y274.732
X30.5493 Y274.8777
X30.4301 Y275.0281
X30.2919 Y275.1764
X30.1381 Y275.3168
X29.9683 Y275.4485
X29.7818 Y275.5705
X29.5837 Y275.6785
X29.3737 Y275.7719
X29.1551 Y275.8488
X28.9326 Y275.9075
X28.7341 Y275.9431
X28.5255 Y275.9635
X28.3443 Y275.9666
X28.1729 Y275.9557
X27.9979 Y275.9304
X27.849 Y275.8964
X27.8313 Y275.8908
X27.6223 Y275.7866
X27.4561 Y275.6224
X27.3493 Y275.4147
X27.3125 Y275.1841
Y274.244
G3 X27.5887 Y273.9403 I0.3173 J0.0111
G1 X27.9248 Y273.8964
X30.2997 Y273.5865
X30.5541 Y273.5533
G3 X30.9125 Y273.857 I0.0411 J0.3148
G1 Y274.9384
X30.905 Y275.0882
X30.8818 Y275.2364
X30.8417 Y275.381
X30.7874 Y275.5208
X30.7204 Y275.655
X30.6371 Y275.792
X30.5401 Y275.9259
X30.421 Y276.0655
X30.2824 Y276.2036
X30.1286 Y276.334
X29.9559 Y276.458
X29.764 Y276.5737
X29.5586 Y276.676
X29.3428 Y276.7627
X29.1178 Y276.8326
X28.8882 Y276.8842
X28.6826 Y276.9134
X28.4846 Y276.9254
X28.2836 Y276.9214
X28.1161 Y276.9045
X27.9542 Y276.875
X27.8623 Y276.8505
X27.6834 Y276.7765
X27.5298 Y276.6588
X27.4119 Y276.5053
X27.3378 Y276.3266
X27.3125 Y276.1347
Y275.1841
G3 X27.6036 Y274.8788 I0.3173 J0.0111
G1 X27.9265 Y274.852
X30.2984 Y274.6555
X30.569 Y274.6331
G3 X30.9125 Y274.9384 I0.0262 J0.3164
G1 Y275.9444
X30.905 Y276.0942
X30.8816 Y276.2423
X30.8406 Y276.3866
X30.7849 Y276.5259
X30.7161 Y276.6592
X30.635 Y276.7885
X30.5364 Y276.9208
X30.4161 Y277.0578
X30.2815 Y277.1882
X30.1251 Y277.3171
X29.9489 Y277.44
X29.7564 Y277.5525
X29.5506 Y277.6515
X29.3328 Y277.7355
X29.1071 Y277.8023
X28.8798 Y277.8501
X28.671 Y277.8767
X28.4555 Y277.8868
X28.2765 Y277.8808
X28.0918 Y277.8596
X27.9235 Y277.8265
X27.8524 Y277.8064
X27.6763 Y277.7311
X27.5254 Y277.6131
X27.4099 Y277.4605
X27.3373 Y277.2833
X27.3125 Y277.0934
Y276.1347
G3 X27.6095 Y275.8289 I0.3173 J0.0111
G1 X27.9269 Y275.8085
X30.298 Y275.6564
X30.5749 Y275.6386
G3 X30.9125 Y275.9444 I0.0203 J0.3168
G1 Y276.9503
X30.905 Y277.1001
X30.8779 Y277.2477
X30.8335 Y277.3909
X30.7747 Y277.529
X30.7031 Y277.6608
X30.618 Y277.7904
X30.5165 Y277.9209
X30.3924 Y278.0563
X30.2536 Y278.1854
X30.0948 Y278.3109
X29.9158 Y278.4302
X29.718 Y278.5403
X29.5086 Y278.6357
X29.2885 Y278.7154
X29.0592 Y278.778
X28.8317 Y278.821
X28.6225 Y278.8433
X28.4113 Y278.8487
X28.235 Y278.8391
X28.0495 Y278.8139
X27.8859 Y278.7782
X27.8376 Y278.7635
X27.6263 Y278.6601
X27.4581 Y278.4958
X27.3498 Y278.287
X27.3125 Y278.0547
Y277.0934
G3 X27.6145 Y276.7873 I0.3173 J0.0111
G1 X27.9272 Y276.7722
X30.2978 Y276.6579
X30.5799 Y276.6443
G3 X30.9125 Y276.9503 I0.0153 J0.3171
G1 Y277.9563
X30.905 Y278.1061
X30.873 Y278.2526
X30.8244 Y278.3946
X30.762 Y278.5309
X30.6871 Y278.6609
X30.5987 Y278.7893
X30.4917 Y278.9207
X30.3627 Y279.0554
X30.2195 Y279.1826
X30.0549 Y279.3068
X29.8705 Y279.424
X29.6687 Y279.5305
X29.4557 Y279.6219
X29.2325 Y279.6971
X29.0007 Y279.7549
X28.7753 Y279.7923
X28.5768 Y279.809
X28.3612 Y279.8097
X28.1797 Y279.7958
X28.0187 Y279.7703
X27.8417 Y279.7274
X27.8218 Y279.7209
X27.6163 Y279.6153
X27.4532 Y279.4515
X27.3486 Y279.2454
X27.3125 Y279.0172
Y278.0547
G3 X27.6193 Y277.7485 I0.3173 J0.0111
G1 X27.9274 Y277.7383
X30.2976 Y277.6595
X30.5847 Y277.65
G3 X30.9125 Y277.9563 I0.0105 J0.3173
G1 Y278.8868
X30.905 Y279.0366
X30.8784 Y279.1842
X30.834 Y279.3275
X30.7747 Y279.4652
X30.7029 Y279.597
X30.6181 Y279.725
X30.5132 Y279.8587
X30.3946 Y279.9871
X30.2528 Y280.1179
X30.09 Y280.2454
X29.9131 Y280.3624
X29.7208 Y280.4684
X29.5097 Y280.5635
X29.2873 Y280.643
X29.0585 Y280.7046
X28.8219 Y280.7482
X28.6197 Y280.7689
X28.4101 Y280.7735
X28.2168 Y280.7621
X28.0542 Y280.7394
X27.8826 Y280.7011
X27.8347 Y280.6863
X27.6245 Y280.5826
X27.4572 Y280.4183
X27.3496 Y280.21
X27.3125 Y279.9785
Y279.0172
G3 X27.6159 Y278.711 I0.3173 J0.0111
G1 X27.9273 Y278.6974
X30.2977 Y278.5931
X30.5813 Y278.5807
G3 X30.9125 Y278.8868 I0.0139 J0.3172
G1 Y279.8512
X30.905 Y280.001
X30.878 Y280.1486
X30.8337 Y280.2919
X30.7744 Y280.4297
X30.7023 Y280.5612
X30.6195 Y280.6863
X30.5155 Y280.819
X30.3942 Y280.9505
X30.2561 Y281.078
X30.0934 Y281.2055
X29.9135 Y281.3246
X29.7196 Y281.4316
X29.511 Y281.5257
X29.2888 Y281.6052
X29.06 Y281.6669
X28.8263 Y281.7101
X28.6251 Y281.7308
X28.4103 Y281.7356
X28.2197 Y281.7245
X28.0576 Y281.7019
X27.8826 Y281.663
X27.835 Y281.6483
X27.6247 Y281.5446
X27.4573 Y281.3803
X27.3496 Y281.1719
X27.3125 Y280.9404
Y279.9785
G3 X27.6162 Y279.6724 I0.3173 J0.0111
G1 X27.9273 Y279.659
X30.2977 Y279.5573
X30.5816 Y279.5451
G3 X30.9125 Y279.8512 I0.0136 J0.3172
G1 Y280.8065
X30.905 Y280.9563
X30.8791 Y281.104
X30.8356 Y281.2476
X30.7769 Y281.3856
X30.7055 Y281.5175
X30.6232 Y281.643
X30.52 Y281.7758
X30.4001 Y281.9067
X30.2626 Y282.0346
X30.1011 Y282.1623
X29.9226 Y282.2814
X29.7304 Y282.3885
X29.522 Y282.4835
X29.3004 Y282.5637
X29.0721 Y282.6262
X28.8374 Y282.6706
X28.635 Y282.6922
X28.4208 Y282.6978
X28.2283 Y282.6873
X28.0656 Y282.6653
X27.8913 Y282.6273
X27.8378 Y282.611
X27.6264 Y282.5076
X27.4581 Y282.3433
X27.3499 Y282.1344
X27.3125 Y281.9022
Y280.9404
G3 X27.6155 Y280.6343 I0.3173 J0.0111
G1 X27.9273 Y280.6202
X30.2977 Y280.5132
X30.5809 Y280.5004
G3 X30.9125 Y280.8065 I0.0143 J0.3172
G1 Y281.8124
X30.905 Y281.9622
X30.8729 Y282.1088
X30.8242 Y282.2506
X30.7616 Y282.3869
X30.6866 Y282.5168
X30.5973 Y282.6457
X30.4909 Y282.7757
X30.3618 Y282.9098
X30.2181 Y283.0368
X30.0533 Y283.1605
X29.8697 Y283.2765
X29.6676 Y283.3825
X29.4531 Y283.4738
X29.2293 Y283.5486
X28.9983 Y283.6056
X28.7732 Y283.6423
X28.5738 Y283.6586
X28.3578 Y283.6588
X28.1765 Y283.6444
X28.0151 Y283.6184
X27.8378 Y283.575
X27.82 Y283.5691
X27.6151 Y283.4633
X27.4526 Y283.2995
X27.3484 Y283.0938
X27.3125 Y282.8659
Y281.9022
G3 X27.6202 Y281.5959 I0.3173 J0.0111
G1 X27.9274 Y281.5866
X30.2976 Y281.5149
X30.5856 Y281.5061
G3 X30.9125 Y281.8124 I0.0096 J0.3174
G1 Y282.7429
X30.905 Y282.8927
X30.8779 Y283.0403
X30.8331 Y283.1834
X30.7732 Y283.321
X30.7011 Y283.4525
X30.6158 Y283.5804
X30.5103 Y283.7139
X30.3912 Y283.8421
X30.2489 Y283.9725
X30.0856 Y284.0996
X29.9082 Y284.2161
X29.7156 Y284.3216
X29.504 Y284.4161
X29.2812 Y284.495
X29.052 Y284.5559
X28.8151 Y284.5988
X28.6133 Y284.6189
X28.4035 Y284.6228
X28.2108 Y284.6109
X28.0485 Y284.5877
X27.8766 Y284.5488
X27.8325 Y284.535
X27.6231 Y284.431
X27.4565 Y284.2668
X27.3494 Y284.0588
X27.3125 Y283.8279
Y282.8659
G3 X27.6167 Y282.5598 I0.3173 J0.0111
G1 X27.9273 Y282.5469
X30.2977 Y282.4486
X30.582 Y282.4368
G3 X30.9125 Y282.7429 I0.0132 J0.3172
G1 Y283.7074
X30.905 Y283.8572
X30.8773 Y284.0046
X30.8324 Y284.1477
X30.7725 Y284.2852
X30.6999 Y284.4165
X30.6165 Y284.5416
X30.5118 Y284.6743
X30.3898 Y284.8056
X30.2509 Y284.933
X30.0874 Y285.0602
X29.9068 Y285.1789
X29.7123 Y285.2854
X29.5031 Y285.3789
X29.2804 Y285.4577
X29.0512 Y285.5187
X28.8175 Y285.5611
X28.6169 Y285.581
X28.4022 Y285.5851
X28.2125 Y285.5734
X28.0507 Y285.5503
X27.8757 Y285.5107
X27.8326 Y285.4973
X27.6231 Y285.3932
X27.4565 Y285.229
X27.3494 Y285.0211
X27.3125 Y284.7901
Y283.8279
G3 X27.6169 Y283.5217 I0.3173 J0.0111
G1 X27.9273 Y283.5091
X30.2977 Y283.4128
X30.5823 Y283.4012
G3 X30.9125 Y283.7074 I0.0129 J0.3172
G1 Y284.6626
X30.905 Y284.8124
X30.8783 Y284.96
X30.8341 Y285.1034
X30.7749 Y285.2412
X30.7029 Y285.3728
X30.6202 Y285.498
X30.5161 Y285.631
X30.3958 Y285.7615
X30.2573 Y285.8895
X30.0948 Y286.0171
X29.9158 Y286.1357
X29.723 Y286.2422
X29.5139 Y286.3367
X29.2918 Y286.4164
X29.0632 Y286.4781
X28.8284 Y286.5217
X28.6267 Y286.5425
X28.4127 Y286.5474
X28.2211 Y286.5364
X28.0588 Y286.5139
X27.8844 Y286.4752
X27.8354 Y286.4601
X27.6249 Y286.3565
X27.4574 Y286.1922
X27.3497 Y285.9838
X27.3125 Y285.7521
Y284.7901
G3 X27.6162 Y284.4839 I0.3173 J0.0111
G1 X27.9273 Y284.4706
X30.2977 Y284.3687
X30.5816 Y284.3565
G3 X30.9125 Y284.6626 I0.0136 J0.3172
G1 Y285.5931
X30.905 Y285.7429
X30.8938 Y285.8925
X30.8629 Y286.0393
X30.8151 Y286.1815
X30.7534 Y286.3182
X30.6796 Y286.4488
X30.595 Y286.5726
X30.5014 Y286.6898
X30.3994 Y286.7999
X30.2905 Y286.903
X30.1751 Y286.9989
X30.0544 Y287.0879
X29.9286 Y287.1696
X29.7985 Y287.2443
X29.6645 Y287.3117
X29.5272 Y287.3721
X29.387 Y287.4254
X29.2442 Y287.4713
X29.0994 Y287.5103
X28.9527 Y287.5417
X28.8047 Y287.5659
X28.6556 Y287.5824
X28.5057 Y287.5899
X28.3558 Y287.589
X28.206 Y287.5798
X28.0572 Y287.561
X27.9101 Y287.5316
X27.8601 Y287.518
X27.6819 Y287.4438
X27.5288 Y287.326
X27.4115 Y287.1727
X27.3377 Y286.9943
X27.3125 Y286.8029
Y285.7521
G3 X27.6128 Y285.4461 I0.3173 J0.0111
G1 X27.9271 Y285.4293
X30.2979 Y285.3022
X30.5782 Y285.2871
G3 X30.9125 Y285.5931 I0.017 J0.317
G1 Y286.6745
X30.905 Y286.8243
X30.8774 Y286.9718
X30.8322 Y287.1148
X30.7723 Y287.2523
X30.6997 Y287.3836
X30.6567 Y287.4479
X30.5623 Y287.5775
X30.442 Y287.7173
X30.36 Y287.8825
X30.3214 Y288.0629
X30.3285 Y288.2472
X30.3809 Y288.4241
X30.4754 Y288.5825
X30.585 Y288.6917
X30.5927 Y288.6966
X30.7571 Y288.8416
X30.8719 Y289.0283
X30.927 Y289.2405
G3 X30.2928 Y289.2648 I-0.3167 J0.0225
G1 X30.2777 Y286.6875
G3 X30.9125 Y286.6745 I0.3175 J-0.0019
G1 X30.9128 Y288.8541
X30.9134 Y288.9463
G3 X30.3413 Y289.1269 I-0.3174 J-0.0089
G1 X30.2991 Y289.0702 Z-1.992
X30.2591 Y289.0164 Z-1.9686
X30.2231 Y288.9681 Z-1.9307
X30.1931 Y288.9278 Z-1.8805
X30.1705 Y288.8974 Z-1.8203
X30.1565 Y288.8786 Z-1.7531
X30.1518 Y288.8722 Z-1.6825
G0 Z5
X23.5374 Y56.3893
Z-1.365
G1 Z-1.6825 F3500
X23.5444 Y56.393 Z-1.7532
X23.5653 Y56.4038 Z-1.8203
X23.5988 Y56.4212 Z-1.8805
X23.6434 Y56.4444 Z-1.9307
X23.6968 Y56.4722 Z-1.9686
X23.7564 Y56.5032 Z-1.992
X23.819 Y56.5358 Z-2
G3 X24.4041 Y57.0598 I-0.7303 J1.404
G1 X24.4522 Y57.1373
X24.6198 Y57.3464
X24.7371 Y57.4852
X24.9107 Y57.6384
X24.9283 Y57.6528
X24.9551 Y57.6681
X25.0815 Y57.7489
X25.198 Y57.8434
X25.3043 Y57.9492
X25.4107 Y58.0761
X25.5277 Y58.241
X25.6413 Y58.4318
X25.7623 Y58.6781
X25.8884 Y58.9971
X26.016 Y59.4155
X26.1457 Y60.0075
X26.2453 Y60.7386
X26.3003 Y61.4743
X26.3307 Y62.2115
X26.3476 Y62.9491
X26.3311 Y63.2848
X26.3241 Y63.339
X26.262 Y63.5542
X26.1384 Y63.741
X25.9647 Y63.8823
X25.7567 Y63.9653
X25.6257 Y63.9956
X25.458 Y64.0518
X25.2904 Y64.1224
X25.1227 Y64.2127
X24.9551 Y64.3266
X24.9116 Y64.3592
X24.8332 Y64.4253
G3 X24.3197 Y64.167 I-0.1961 J-0.2497
G1 X24.3215 Y64.1004
X24.4861 Y58.0821
X24.49 Y57.9405
G3 X24.9551 Y57.6681 I0.3174 J0.0087
G1 X25.4371 Y57.9431
X25.6257 Y58.004
X25.7179 Y58.0279
X25.861 Y58.0727
X25.9949 Y58.1403
X26.1201 Y58.223
X26.2372 Y58.3167
X26.3569 Y58.4302
X26.4914 Y58.58
X26.6242 Y58.7541
X26.7592 Y58.9644
X26.9092 Y59.2451
X27.0471 Y59.562
X27.195 Y59.9936
X27.337 Y60.5504
X27.4613 Y61.2777
X27.5347 Y62.0118
X27.5468 Y62.4376
X27.5302 Y62.7586
X27.4978 Y63.0027
X27.4464 Y63.2406
X27.3908 Y63.4253
X27.3843 Y63.4417
X27.274 Y63.6332
X27.1121 Y63.7836
X26.913 Y63.8795
X26.6945 Y63.9125
X26.4639
X26.2962 Y63.918
X25.9609 Y63.9329
X25.7933 Y63.9568
X25.7567 Y63.9653
G3 X25.3783 Y63.6564 I-0.0608 J-0.3116
G1 X25.3763 Y63.4282
X25.3334 Y58.5551
X25.3315 Y58.3406
G3 X25.7179 Y58.0279 I0.3175 J-0.0028
G1 X25.7933 Y58.0474
X25.9609 Y58.0737
X26.1286 Y58.0858
X26.3469 Y58.0872
X26.4967 Y58.0951
X26.6438 Y58.1246
X26.7858 Y58.173
X26.9219 Y58.236
X27.0529 Y58.3128
X27.1828 Y58.4037
X27.3253 Y58.5214
X27.4766 Y58.6685
X27.6265 Y58.8396
X27.7954 Y59.0669
X27.9491 Y59.3128
X28.1212 Y59.6446
X28.282 Y60.0271
X28.4472 Y60.5296
X28.5743 Y61.0549
X28.6533 Y61.5536
X28.6883 Y62.0102
X28.6868 Y62.4181
X28.6617 Y62.7163
X28.6152 Y62.9964
X28.5619 Y63.21
X28.4945 Y63.4101
X28.4714 Y63.4638
X28.3588 Y63.6471
X28.1983 Y63.7902
X28.0034 Y63.8813
X27.7906 Y63.9125
X26.6945
G3 X26.3888 Y63.6164 I0.0111 J-0.3173
G1 X26.3674 Y63.2981
X26.059 Y58.701
X26.0405 Y58.4258
G3 X26.3469 Y58.0872 I0.3168 J-0.0213
G1 X27.3021 Y58.0875
X27.4519 Y58.095
X27.5991 Y58.1235
X27.7423 Y58.1683
X27.8806 Y58.2264
X28.0228 Y58.3013
X28.1723 Y58.3962
X28.3287 Y58.5142
X28.496 Y58.6628
X28.6638 Y58.8378
X28.848 Y59.0638
X29.0227 Y59.3172
X29.2038 Y59.6313
X29.378 Y59.9985
X29.5259 Y60.3887
X29.652 Y60.8238
X29.7454 Y61.2801
X29.7992 Y61.7211
X29.8161 Y62.132
X29.8014 Y62.5057
X29.7664 Y62.7975
X29.7107 Y63.0721
X29.6513 Y63.2786
X29.5749 Y63.4812
X29.5717 Y63.4879
X29.4571 Y63.6621
X29.2984 Y63.7974
X29.1083 Y63.8831
X28.9018 Y63.9125
X27.7906
G3 X27.4856 Y63.6249 I0.0111 J-0.3173
G1 X27.4549 Y63.2988
X27.0222 Y58.7013
X26.9971 Y58.4346
G3 X27.3021 Y58.0875 I0.3161 J-0.0298
G1 X28.3079
X28.4577 Y58.095
X28.606 Y58.1178
X28.7509 Y58.1567
X28.8915 Y58.209
X29.037 Y58.2777
X29.1929 Y58.3673
X29.3547 Y58.4784
X29.5295 Y58.6203
X29.7051 Y58.7881
X29.8862 Y58.9913
X30.0723 Y59.2373
X30.2461 Y59.5102
X30.4214 Y59.8411
X30.5816 Y60.2134
X30.7145 Y60.6061
X30.8205 Y61.0285
X30.8936 Y61.466
X30.9296 Y61.8876
X30.9315 Y62.2794
X30.9041 Y62.6417
X30.8614 Y62.9132
X30.8001 Y63.1682
X30.7362 Y63.3633
X30.6965 Y63.458
X30.5844 Y63.6434
X30.4235 Y63.7885
X30.2276 Y63.8808
X30.0132 Y63.9125
X28.9018
G3 X28.5974 Y63.6313 I0.0111 J-0.3173
G1 X28.5594 Y63.2995
X28.0333 Y58.7008
X28.0036 Y58.4409
G3 X28.3079 Y58.0875 I0.3154 J-0.0361
G1 X29.406
X29.5558 Y58.095
X29.704 Y58.118
X29.8489 Y58.1568
X29.9897 Y58.2086
X30.1409 Y58.2789
X30.2947 Y58.3661
X30.4658 Y58.4822
X30.6348 Y58.618
X30.8181 Y58.7911
X30.9997 Y58.9926
X31.1805 Y59.2289
X31.3656 Y59.5159
X31.5319 Y59.8256
X31.6869 Y60.1803
X31.8231 Y60.5755
X31.931 Y60.9956
X32.0057 Y61.4277
X32.0438 Y61.8461
X32.048 Y62.249
X32.023 Y62.6065
X31.9795 Y62.8939
X31.9201 Y63.1469
X31.8564 Y63.3453
X31.8115 Y63.4542
X31.6998 Y63.641
X31.5387 Y63.7873
X31.3419 Y63.8805
X31.1266 Y63.9125
X30.0132
G3 X29.709 Y63.6321 I0.0111 J-0.3173
G1 X29.6701 Y63.2996
X29.132 Y58.7007
X29.1017 Y58.4417
G3 X29.406 Y58.0875 I0.3153 J-0.0369
G1 X30.4873
X30.641 Y58.0952
X30.7897 Y58.1147
X30.9353 Y58.1506
X31.0771 Y58.1997
X31.2299 Y58.2678
X31.3816 Y58.3506
X31.5523 Y58.4624
X31.7192 Y58.592
X31.9012 Y58.7584
X32.0804 Y58.9507
X32.2624 Y59.1806
X32.448 Y59.4584
X32.6146 Y59.7569
X32.7734 Y60.1046
X32.9142 Y60.4925
X33.0285 Y60.909
X33.1097 Y61.3371
X33.1549 Y61.7571
X33.1658 Y62.1616
X33.1458 Y62.5356
X33.1063 Y62.829
X33.0473 Y63.1
X32.9857 Y63.3029
X32.9306 Y63.4429
X32.8201 Y63.634
X32.6583 Y63.784
X32.4595 Y63.8796
X32.2412 Y63.9125
X31.1266
G3 X30.8226 Y63.634 I0.0111 J-0.3173
G1 X30.7814 Y63.2999
X30.2149 Y58.7005
X30.1832 Y58.4436
G3 X30.4873 Y58.0875 I0.3151 J-0.0388
G1 X31.6608
X31.8106 Y58.095
X31.9582 Y58.1215
X32.1025 Y58.1624
X32.2496 Y58.2192
X32.3963 Y58.2899
X32.5622 Y58.3869
X32.7245 Y58.5002
X32.9061 Y58.6501
X33.0793 Y58.8181
X33.2666 Y59.0317
X33.447 Y59.2741
X33.6227 Y59.5547
X33.7947 Y59.8857
X33.9488 Y60.2515
X34.0762 Y60.6379
X34.1773 Y61.0549
X34.2463 Y61.4883
X34.279 Y61.9101
X34.2778 Y62.303
X34.2494 Y62.6437
X34.2003 Y62.9409
X34.1416 Y63.1767
X34.0736 Y63.379
X34.0375 Y63.4633
X33.9249 Y63.6468
X33.7644 Y63.7901
X33.5694 Y63.8812
X33.3565 Y63.9125
X32.2412
G3 X31.9368 Y63.6305 I0.0111 J-0.3173
G1 X31.8998 Y63.2994
X31.3855 Y58.7009
X31.3563 Y58.4401
G3 X31.6608 Y58.0875 I0.3155 J-0.0353
G1 X32.7588
X32.9086 Y58.095
X33.0568 Y58.1185
X33.2015 Y58.1578
X33.3423 Y58.2097
X33.4971 Y58.2821
X33.6499 Y58.369
X33.8236 Y58.4873
X33.9915 Y58.6226
X34.1772 Y58.7986
X34.3553 Y58.9968
X34.5373 Y59.2355
X34.7207 Y59.5209
X34.8843 Y59.8271
X35.0387 Y60.1818
X35.174 Y60.5765
X35.2811 Y60.9962
X35.3541 Y61.4228
X35.3917 Y61.8437
X35.3953 Y62.244
X35.3693 Y62.6066
X35.3255 Y62.8927
X35.2649 Y63.1487
X35.2008 Y63.3471
X35.156 Y63.4553
X35.0442 Y63.6417
X34.8831 Y63.7877
X34.6866 Y63.8806
X34.4716 Y63.9125
X33.3565
G3 X33.0521 Y63.6315 I0.0111 J-0.3173
G1 X33.0139 Y63.2996
X32.4844 Y58.7008
X32.4545 Y58.4411
G3 X32.7588 Y58.0875 I0.3154 J-0.0363
G1 X33.8401
X33.993 Y58.0952
X34.1417 Y58.1147
X34.2873 Y58.1506
X34.4291 Y58.1996
X34.582 Y58.2678
X34.7335 Y58.3504
X34.904 Y58.4621
X35.0702 Y58.5912
X35.2521 Y58.7575
X35.4304 Y58.9488
X35.6122 Y59.1785
X35.7973 Y59.4554
X35.9633 Y59.7529
X36.1214 Y60.0991
X36.2619 Y60.4861
X36.3759 Y60.9012
X36.4571 Y61.3295
X36.5023 Y61.7494
X36.5132 Y62.1547
X36.4931 Y62.5306
X36.4534 Y62.8251
X36.3941 Y63.0979
X36.3323 Y63.3015
X36.2767 Y63.4429
X36.1662 Y63.6339
X36.0043 Y63.784
X35.8055 Y63.8796
X35.5873 Y63.9125
X34.4716
G3 X34.1675 Y63.6335 I0.0111 J-0.3173
G1 X34.1269 Y63.2998
X33.5673 Y58.7006
X33.536 Y58.4432
G3 X33.8401 Y58.0875 I0.3152 J-0.0383
G1 X35.0136
X35.1634 Y58.095
X35.311 Y58.1216
X35.4553 Y58.1627
X35.6024 Y58.2197
X35.7489 Y58.2904
X35.9147 Y58.3877
X36.0768 Y58.501
X36.258 Y58.6509
X36.431 Y58.8191
X36.6175 Y59.0321
X36.7983 Y59.2755
X36.973 Y59.5552
X37.1443 Y59.8856
X37.2982 Y60.252
X37.4252 Y60.6385
X37.5258 Y61.0549
X37.5944 Y61.4884
X37.6267 Y61.9105
X37.6251 Y62.3036
X37.5963 Y62.6448
X37.5468 Y62.9425
X37.4879 Y63.1782
X37.4196 Y63.3807
X37.3839 Y63.464
X37.2712 Y63.6472
X37.1107 Y63.7903
X36.9159 Y63.8813
X36.7031 Y63.9125
X35.5873
G3 X35.2828 Y63.6301 I0.0111 J-0.3173
G1 X35.2462 Y63.2994
X34.738 Y58.7009
X34.7091 Y58.4397
G3 X35.0136 Y58.0875 I0.3156 J-0.0349
G1 X36.1116
X36.2614 Y58.095
X36.4095 Y58.1188
X36.5542 Y58.1584
X36.6949 Y58.2104
X36.8497 Y58.2831
X37.0024 Y58.3703
X37.176 Y58.4889
X37.3438 Y58.6245
X37.5292 Y58.8007
X37.7072 Y58.9995
X37.8888 Y59.2383
X38.0719 Y59.5242
X38.2352 Y59.8307
X38.389 Y60.1855
X38.5237 Y60.5804
X38.6302 Y61.0003
X38.7026 Y61.4272
X38.7396 Y61.8483
X38.7425 Y62.2488
X38.716 Y62.6109
X38.6718 Y62.8969
X38.6111 Y63.152
X38.5467 Y63.3503
X38.5026 Y63.4563
X38.3907 Y63.6424
X38.2297 Y63.788
X38.0334 Y63.8807
X37.8186 Y63.9125
X36.7031
G3 X36.3988 Y63.6311 I0.0111 J-0.3173
G1 X36.361 Y63.2995
X35.8369 Y58.7008
X35.8073 Y58.4408
G3 X36.1116 Y58.0875 I0.3155 J-0.0359
G1 X37.1929
X37.3427 Y58.095
X37.4915 Y58.1145
X37.6371 Y58.1505
X37.7788 Y58.1995
X37.9318 Y58.2678
X38.0831 Y58.3504
X38.2536 Y58.4621
X38.4195 Y58.591
X38.6016 Y58.7576
X38.7792 Y58.9484
X38.9612 Y59.1784
X39.1458 Y59.4547
X39.3115 Y59.752
X39.4697 Y60.0985
X39.6101 Y60.4858
X39.7239 Y60.901
X39.805 Y61.3292
X39.8501 Y61.7493
X39.8609 Y62.1545
X39.8406 Y62.5306
X39.8008 Y62.8252
X39.7414 Y63.0983
X39.6795 Y63.302
X39.6239 Y63.4431
X39.5134 Y63.6341
X39.3516 Y63.784
X39.1527 Y63.8797
X38.9346 Y63.9125
X37.8186
G3 X37.5145 Y63.6332 I0.0111 J-0.3173
G1 X37.4743 Y63.2998
X36.9199 Y58.7006
X36.8888 Y58.4428
G3 X37.1929 Y58.0875 I0.3152 J-0.038
G1 X38.3664
X38.5162 Y58.095
X38.6638 Y58.1221
X38.8079 Y58.1635
X38.9553 Y58.221
X39.1019 Y58.2922
X39.268 Y58.3901
X39.43 Y58.5041
X39.6113 Y58.6548
X39.7845 Y58.8239
X39.9705 Y59.0374
X40.1519 Y59.2828
X40.3259 Y59.5628
X40.4964 Y59.8937
X40.6502 Y60.2621
X40.7766 Y60.6502
X40.8762 Y61.0666
X40.9437 Y61.5002
X40.9749 Y61.9212
X40.9725 Y62.3127
X40.943 Y62.6524
X40.8928 Y62.9502
X40.8337 Y63.1839
X40.7647 Y63.3869
X40.7307 Y63.4656
X40.6179 Y63.6482
X40.4576 Y63.7908
X40.263 Y63.8814
X40.0507 Y63.9125
X38.9346
G3 X38.6301 Y63.6297 I0.0111 J-0.3173
G1 X38.5939 Y63.2993
X38.0905 Y58.7009
X38.0619 Y58.4394
G3 X38.3664 Y58.0875 I0.3156 J-0.0345
G1 X39.4645
X39.6143 Y58.095
X39.7623 Y58.1193
X39.9069 Y58.1593
X40.0474 Y58.2117
X40.2025 Y58.285
X40.3554 Y58.3728
X40.5291 Y58.492
X40.6968 Y58.6283
X40.8826 Y58.8057
X41.0602 Y59.0049
X41.2422 Y59.2453
X41.4249 Y59.5321
X41.5878 Y59.8396
X41.7411 Y60.1957
X41.8751 Y60.5915
X41.9806 Y61.0116
X42.0519 Y61.4383
X42.0879 Y61.8593
X42.0899 Y62.2592
X42.0627 Y62.6199
X42.0179 Y62.905
X41.957 Y63.1583
X41.8922 Y63.3561
X41.8496 Y63.4579
X41.7376 Y63.6434
X41.5766 Y63.7885
X41.3806 Y63.8808
X41.1663 Y63.9125
X40.0507
G3 X39.7463 Y63.6308 I0.0111 J-0.3173
G1 X39.7089 Y63.2995
X39.1895 Y58.7008
X39.16 Y58.4404
G3 X39.4645 Y58.0875 I0.3155 J-0.0356
G1 X40.5457
X40.6956 Y58.095
X40.8442 Y58.115
X40.9897 Y58.1515
X41.1313 Y58.2009
X41.2847 Y58.2697
X41.4361 Y58.3529
X41.607 Y58.4655
X41.7729 Y58.5951
X41.9554 Y58.7629
X42.1326 Y58.9542
X42.3148 Y59.1856
X42.499 Y59.4629
X42.6644 Y59.7613
X42.8221 Y60.109
X42.9618 Y60.4973
X43.0747 Y60.9132
X43.1548 Y61.3416
X43.1988 Y61.7615
X43.2085 Y62.1661
X43.1874 Y62.541
X43.1471 Y62.834
X43.0873 Y63.1052
X43.0251 Y63.3081
X42.9709 Y63.4449
X42.8602 Y63.6352
X42.6985 Y63.7845
X42.5 Y63.8798
X42.2823 Y63.9125
X41.1663
G3 X40.8621 Y63.6329 I0.0111 J-0.3173
G1 X40.8223 Y63.2997
X40.2724 Y58.7006
X40.2416 Y58.4425
G3 X40.5457 Y58.0875 I0.3153 J-0.0377
G1 X41.7192
X41.869 Y58.095
X42.0165 Y58.1226
X42.1605 Y58.1645
X42.3082 Y58.2226
X42.4552 Y58.2945
X42.6215 Y58.3931
X42.7838 Y58.508
X42.9654 Y58.6597
X43.1385 Y58.8298
X43.3249 Y59.0448
X43.5057 Y59.2909
X43.6797 Y59.5726
X43.8498 Y59.9049
X44.0028 Y60.2743
X44.1284 Y60.6634
X44.2269 Y61.0806
X44.2933 Y61.5146
X44.3233 Y61.9349
X44.3197 Y62.3252
X44.2895 Y62.6622
X44.2386 Y62.9591
X44.1794 Y63.191
X44.1098 Y63.3941
X44.0778 Y63.4675
X43.9648 Y63.6494
X43.8046 Y63.7913
X43.6104 Y63.8816
X43.3986 Y63.9125
X42.2823
G3 X41.9777 Y63.6294 I0.0111 J-0.3173
G1 X41.9419 Y63.2993
X41.4431 Y58.701
X41.4147 Y58.439
G3 X41.7192 Y58.0875 I0.3156 J-0.0342
G1 X42.8173
X42.9671 Y58.095
X43.115 Y58.1199
X43.2595 Y58.1603
X43.3999 Y58.2131
X43.5553 Y58.287
X43.7084 Y58.3754
X43.8823 Y58.4955
X44.0503 Y58.6325
X44.2364 Y58.8112
X44.4136 Y59.011
X44.5958 Y59.2531
X44.7782 Y59.5408
X44.9406 Y59.8493
X45.0936 Y60.207
X45.2268 Y60.6039
X45.3313 Y61.0246
X45.4015 Y61.4511
X45.4364 Y61.8717
X45.4374 Y62.2709
X45.4094 Y62.6297
X45.3641 Y62.9139
X45.303 Y63.1651
X45.2378 Y63.3625
X45.1968 Y63.4596
X45.0846 Y63.6445
X44.9238 Y63.789
X44.7281 Y63.881
X44.5142 Y63.9125
X43.3986
G3 X43.0941 Y63.6305 I0.0111 J-0.3173
G1 X43.057 Y63.2994
X42.542 Y58.7009
X42.5128 Y58.4401
G3 X42.8173 Y58.0875 I0.3155 J-0.0353
G1 X43.8986
X44.0484 Y58.095
X44.197 Y58.1156
X44.3424 Y58.1525
X44.4838 Y58.2023
X44.6375 Y58.2718
X44.7892 Y58.3556
X44.9604 Y58.469
X45.1263 Y58.5993
X45.3094 Y58.7684
X45.4861 Y58.9602
X45.6686 Y59.1933
X45.8524 Y59.4714
X46.0175 Y59.7711
X46.1748 Y60.1203
X46.3138 Y60.5096
X46.4257 Y60.9262
X46.5047 Y61.3547
X46.5476 Y61.7744
X46.5562 Y62.1784
X46.5342 Y62.5519
X46.4934 Y62.8432
X46.4334 Y63.1124
X46.3709 Y63.3145
X46.3181 Y63.4466
X46.2072 Y63.6363
X46.0456 Y63.7851
X45.8474 Y63.8799
X45.6301 Y63.9125
X44.5142
G3 X44.21 Y63.6326 I0.0111 J-0.3173
G1 X44.1705 Y63.2997
X43.625 Y58.7007
X43.5944 Y58.4422
G3 X43.8986 Y58.0875 I0.3153 J-0.0374
G1 X45.0721
X45.2219 Y58.095
X45.3692 Y58.1231
X45.5131 Y58.1655
X45.661 Y58.2241
X45.8085 Y58.2968
X45.975 Y58.3962
X46.1377 Y58.512
X46.3195 Y58.6648
X46.4927 Y58.8358
X46.6793 Y59.0524
X46.8596 Y59.2992
X47.0336 Y59.5827
X47.2033 Y59.9166
X47.3555 Y60.2871
X47.4803 Y60.6772
X47.5778 Y61.0952
X47.6429 Y61.5294
X47.6717 Y61.949
X47.6671 Y62.338
X47.6362 Y62.6723
X47.5846 Y62.9681
X47.5252 Y63.1982
X47.4549 Y63.4014
X47.425 Y63.4694
X47.3119 Y63.6506
X47.1518 Y63.7919
X46.958 Y63.8817
X46.7466 Y63.9125
X45.6301
G3 X45.3255 Y63.6291 I0.0111 J-0.3173
G1 X45.2901 Y63.2993
X44.7957 Y58.701
X44.7675 Y58.4387
G3 X45.0721 Y58.0875 I0.3157 J-0.0339
G1 X46.1701
X46.3199 Y58.095
X46.4678 Y58.1204
X46.6121 Y58.1613
X46.7523 Y58.2145
X46.908 Y58.289
X47.0615 Y58.3781
X47.2355 Y58.4989
X47.4037 Y58.6369
X47.5903 Y58.8169
X47.767 Y59.0172
X47.9496 Y59.261
X48.1314 Y59.5495
X48.2934 Y59.8591
X48.4461 Y60.2185
X48.5786 Y60.6165
X48.6821 Y61.0378
X48.7512 Y61.4641
X48.785 Y61.8842
Y62.2826
X48.7562 Y62.6396
X48.7103 Y62.9227
X48.649 Y63.172
X48.5835 Y63.3688
X48.5442 Y63.4614
X48.4318 Y63.6455
X48.2711 Y63.7895
X48.0758 Y63.8811
X47.8623 Y63.9125
X46.7466
G3 X46.4421 Y63.6302 I0.0111 J-0.3173
G1 X46.4054 Y63.2994
X45.8946 Y58.7009
X45.8656 Y58.4399
G3 X46.1701 Y58.0875 I0.3156 J-0.035
G1 X47.2514
X47.4012 Y58.095
X47.5497 Y58.1162
X47.695 Y58.1535
X47.8363 Y58.2037
X47.9903 Y58.2738
X48.1423 Y58.3583
X48.3138 Y58.4725
X48.4797 Y58.6035
X48.6633 Y58.7739
X48.8396 Y58.9662
X49.0225 Y59.201
X49.2058 Y59.4799
X49.3706 Y59.781
X49.5275 Y60.1315
X49.6658 Y60.5219
X49.7768 Y60.9392
X49.8546 Y61.3677
X49.8964 Y61.7873
X49.9041 Y62.1905
X49.8812 Y62.5625
X49.8399 Y62.8523
X49.7795 Y63.1195
X49.7167 Y63.3208
X49.6654 Y63.4483
X49.5544 Y63.6374
X49.3928 Y63.7856
X49.195 Y63.8801
X48.9782 Y63.9125
X47.8623
G3 X47.5581 Y63.6323 I0.0111 J-0.3173
G1 X47.5189 Y63.2997
X46.9776 Y58.7007
X46.9472 Y58.4419
G3 X47.2514 Y58.0875 I0.3153 J-0.0371
G1 X48.4249
X48.5747 Y58.095
X48.7219 Y58.1237
X48.8657 Y58.1665
X49.0138 Y58.2257
X49.1618 Y58.2991
X49.3284 Y58.3992
X49.4915 Y58.516
X49.6735 Y58.6698
X49.8468 Y58.8418
X50.0338 Y59.0601
X50.2135 Y59.3075
X50.3876 Y59.5928
X50.5569 Y59.9282
X50.7083 Y60.2997
X50.8322 Y60.6908
X50.9287 Y61.1097
X50.9926 Y61.5441
X51.0202 Y61.9629
X51.0145 Y62.3506
X50.983 Y62.6822
X50.9308 Y62.977
X50.8711 Y63.2052
X50.8001 Y63.4085
X50.7724 Y63.4712
X50.6591 Y63.6517
X50.4991 Y63.7925
X50.3057 Y63.8819
X50.0948 Y63.9125
X48.9782
G3 X48.6736 Y63.6288 I0.0111 J-0.3173
G1 X48.6384 Y63.2992
X48.1483 Y58.701
X48.1203 Y58.4385
G3 X48.4249 Y58.0875 I0.3157 J-0.0337
G1 X49.5229
X49.6728 Y58.095
X49.8205 Y58.121
X49.9647 Y58.1623
X50.1048 Y58.2159
X50.2607 Y58.2909
X50.4146 Y58.3808
X50.5886 Y58.5022
X50.7572 Y58.6412
X50.944 Y58.8223
X51.1205 Y59.0233
X51.3033 Y59.2688
X51.4846 Y59.558
X51.6463 Y59.8689
X51.7986 Y60.2299
X51.9303 Y60.6289
X52.0329 Y61.0507
X52.1009 Y61.4767
X52.1336 Y61.8965
X52.1326 Y62.294
X52.1031 Y62.6493
X52.0567 Y62.9313
X51.9953 Y63.1786
X51.9294 Y63.375
X51.8917 Y63.463
X51.7792 Y63.6466
X51.6186 Y63.79
X51.4236 Y63.8812
X51.2106 Y63.9125
X50.0948
G3 X49.7903 Y63.63 I0.0111 J-0.3173
G1 X49.7539 Y63.2994
X49.2472 Y58.7009
X49.2184 Y58.4396
G3 X49.5229 Y58.0875 I0.3156 J-0.0348
G1 X50.6042
X50.754 Y58.095
X50.9025 Y58.1167
X51.0476 Y58.1545
X51.1888 Y58.2051
X51.343 Y58.2757
X51.4953 Y58.3609
X51.667 Y58.4759
X51.8331 Y58.6076
X52.0172 Y58.7793
X52.1931 Y58.9722
X52.3763 Y59.2085
X52.5591 Y59.4882
X52.7238 Y59.7906
X52.8802 Y60.1426
X53.0178 Y60.534
X53.1278 Y60.9519
X53.2046 Y61.3805
X53.2453 Y61.7998
X53.252 Y62.2024
X53.2283 Y62.5729
X53.1865 Y62.8612
X53.1259 Y63.1264
X53.0628 Y63.327
X53.0129 Y63.45
X52.9017 Y63.6384
X52.7403 Y63.7861
X52.5428 Y63.8802
X52.3264 Y63.9125
X51.2106
G3 X50.9063 Y63.632 I0.0111 J-0.3173
G1 X50.8675 Y63.2996
X50.3302 Y58.7007
X50.3 Y58.4416
G3 X50.6042 Y58.0875 I0.3154 J-0.0368
G1 X51.7777
X51.9275 Y58.095
X52.0747 Y58.1242
X52.2183 Y58.1674
X52.3665 Y58.2271
X52.5151 Y58.3014
X52.6817 Y58.4021
X52.8454 Y58.5199
X53.0275 Y58.6746
X53.2009 Y58.8477
X53.3882 Y59.0676
X53.5674 Y59.3157
X53.7415 Y59.6027
X53.9104 Y59.9396
X54.0611 Y60.312
X54.1841 Y60.7041
X54.2796 Y61.1238
X54.3424 Y61.5583
X54.3688 Y61.9764
X54.3621 Y62.3629
X54.3299 Y62.6919
X54.2771 Y62.9856
X54.2172 Y63.2121
X54.1456 Y63.4155
X54.12 Y63.4731
X54.0065 Y63.6528
X53.8467 Y63.793
X53.6536 Y63.882
X53.4432 Y63.9125
X52.3264
G3 X52.0217 Y63.6286 I0.0111 J-0.3173
G1 X51.9869 Y63.2992
X51.5008 Y58.701
X51.4731 Y58.4382
G3 X51.7777 Y58.0875 I0.3157 J-0.0334
G1 X52.8758
X53.0256 Y58.095
X53.1732 Y58.1215
X53.3173 Y58.1632
X53.4573 Y58.2172
X53.6132 Y58.2927
X53.7676 Y58.3834
X53.9416 Y58.5054
X54.1106 Y58.6455
X54.2976 Y58.8276
X54.4739 Y59.0293
X54.6571 Y59.2764
X54.8378 Y59.5662
X54.9992 Y59.8784
X55.1511 Y60.2409
X55.2821 Y60.641
X55.3838 Y61.0633
X55.4507 Y61.4891
X55.4824 Y61.9083
X55.4804 Y62.3051
X55.4502 Y62.6586
X55.4033 Y62.9396
X55.3417 Y63.1851
X55.2754 Y63.381
X55.2394 Y63.4646
X55.1267 Y63.6476
X54.9663 Y63.7905
X54.7716 Y63.8813
X54.559 Y63.9125
X53.4432
G3 X53.1387 Y63.6297 I0.0111 J-0.3173
G1 X53.1026 Y63.2993
X52.5998 Y58.7009
X52.5712 Y58.4393
G3 X52.8758 Y58.0875 I0.3156 J-0.0345
G1 X53.9571
X54.1069 Y58.095
X54.2552 Y58.1172
X54.4003 Y58.1555
X54.5413 Y58.2064
X54.6957 Y58.2776
X54.8484 Y58.3634
X55.0203 Y58.4791
X55.1865 Y58.6116
X55.3709 Y58.7845
X55.5466 Y58.978
X55.7301 Y59.2159
X55.9124 Y59.4963
X56.0769 Y59.8001
X56.2329 Y60.1534
X56.3697 Y60.5458
X56.4789 Y60.9643
X56.5546 Y61.393
X56.5943 Y61.812
X56.6 Y62.2139
X56.5756 Y62.5829
X56.5332 Y62.8699
X56.4724 Y63.1331
X56.409 Y63.333
X56.3606 Y63.4516
X56.2492 Y63.6394
X56.0879 Y63.7866
X55.8907 Y63.8803
X55.6747 Y63.9125
X54.559
G3 X54.2547 Y63.6318 I0.0111 J-0.3173
G1 X54.2161 Y63.2996
X53.6828 Y58.7007
X53.6528 Y58.4414
G3 X53.9571 Y58.0875 I0.3154 J-0.0366
G1 X55.1306
X55.2804 Y58.095
X55.4274 Y58.1247
X55.5709 Y58.1684
X55.7191 Y58.2285
X55.8684 Y58.3036
X56.035 Y58.4049
X56.1992 Y58.5237
X56.3814 Y58.6794
X56.555 Y58.8536
X56.7426 Y59.0749
X56.9213 Y59.3237
X57.0953 Y59.6123
X57.2639 Y59.9507
X57.4138 Y60.324
X57.536 Y60.7171
X57.6306 Y61.1375
X57.6922 Y61.5722
X57.7175 Y61.9895
X57.7098 Y62.3749
X57.677 Y62.7013
X57.6236 Y62.9939
X57.5635 Y63.2188
X57.4913 Y63.4222
X57.4677 Y63.4748
X57.3541 Y63.6539
X57.1944 Y63.7935
X57.0017 Y63.8821
X56.7917 Y63.9125
X55.6747
G3 X55.37 Y63.6283 I0.0111 J-0.3173
G1 X55.3355 Y63.2992
X54.8535 Y58.7011
X54.8259 Y58.4379
G3 X55.1306 Y58.0875 I0.3158 J-0.0331
G1 X56.2286
X56.3784 Y58.095
X56.526 Y58.122
X56.6699 Y58.1642
X56.8097 Y58.2185
X56.9656 Y58.2944
X57.1207 Y58.386
X57.2944 Y58.5085
X57.4641 Y58.6496
X57.6512 Y58.8327
X57.8272 Y59.0351
X58.0107 Y59.2839
X58.1908 Y59.5742
X58.352 Y59.8877
X58.5036 Y60.2517
X58.6339 Y60.6527
X58.7346 Y61.0756
X58.8005 Y61.5011
X58.8312 Y61.9199
X58.8284 Y62.3158
X58.7975 Y62.6676
X58.7501 Y62.9476
X58.6883 Y63.1914
X58.6216 Y63.3869
X58.5873 Y63.4662
X58.4744 Y63.6486
X58.3141 Y63.791
X58.1197 Y63.8815
X57.9075 Y63.9125
X56.7917
G3 X56.4872 Y63.6294 I0.0111 J-0.3173
G1 X56.4513 Y63.2993
X55.9524 Y58.701
X55.924 Y58.4391
G3 X56.2286 Y58.0875 I0.3156 J-0.0342
G1 X57.3099
X57.4597 Y58.095
X57.608 Y58.1177
X57.7529 Y58.1564
X57.8938 Y58.2078
X58.0483 Y58.2794
X58.2014 Y58.3659
X58.3734 Y58.4823
X58.5399 Y58.6156
X58.7246 Y58.7896
X58.9001 Y58.9837
X59.0838 Y59.2231
X59.2656 Y59.5041
X59.4299 Y59.8094
X59.5856 Y60.164
X59.7217 Y60.5573
X59.83 Y60.9764
X59.9047 Y61.4051
X59.9434 Y61.8238
X59.9482 Y62.2251
X59.923 Y62.5926
X59.8801 Y62.8783
X59.8192 Y63.1396
X59.7554 Y63.3389
X59.7085 Y63.4532
X59.5969 Y63.6404
X59.4357 Y63.7871
X59.2388 Y63.8804
X59.0232 Y63.9125
X57.9075
G3 X57.6032 Y63.6315 I0.0111 J-0.3173
G1 X57.5649 Y63.2996
X57.0354 Y58.7008
X57.0056 Y58.4411
G3 X57.3099 Y58.0875 I0.3154 J-0.0363
G1 X58.4079
X58.5578 Y58.095
X58.7063 Y58.1157
X58.8517 Y58.1525
X58.9931 Y58.2026
X59.1449 Y58.2711
X59.298 Y58.3557
X59.4667 Y58.4674
X59.6354 Y58.5998
X59.8151 Y58.7657
X59.9966 Y58.9626
X60.1758 Y59.1914
X60.3606 Y59.471
X60.5277 Y59.774
X60.6834 Y60.1195
X60.8216 Y60.5064
X60.9334 Y60.9221
X61.0127 Y61.352
X61.0558 Y61.7726
X61.0647 Y62.1792
X61.0428 Y62.5512
X61.0018 Y62.8445
X60.9422 Y63.1118
X60.8798 Y63.3138
X60.8268 Y63.4464
X60.716 Y63.6362
X60.5543 Y63.785
X60.3562 Y63.8799
X60.1389 Y63.9125
X59.0232
G3 X58.719 Y63.6326 I0.0111 J-0.3173
G1 X58.6795 Y63.2997
X58.1344 Y58.7007
X58.1037 Y58.4422
G3 X58.4079 Y58.0875 I0.3153 J-0.0374
G1 X59.5814
X59.7312 Y58.095
X59.8786 Y58.1232
X60.0224 Y58.1656
X60.1705 Y58.2245
X60.318 Y58.2972
X60.4848 Y58.3969
X60.6479 Y58.5131
X60.8297 Y58.6661
X61.003 Y58.8374
X61.1892 Y59.0537
X61.3697 Y59.3012
X61.5432 Y59.5841
X61.7126 Y59.9179
X61.8648 Y60.289
X61.9895 Y60.6797
X62.087 Y61.0984
X62.1518 Y61.5326
X62.1804 Y61.9523
X62.1756 Y62.3405
X62.1445 Y62.6743
X62.0928 Y62.9701
X62.0334 Y63.1996
X61.9629 Y63.403
X61.9335 Y63.4698
X61.8204 Y63.6508
X61.6603 Y63.792
X61.4666 Y63.8817
X61.2553 Y63.9125
X60.1389
G3 X59.8342 Y63.6291 I0.0111 J-0.3173
G1 X59.7988 Y63.2993
X59.305 Y58.701
X59.2768 Y58.4387
G3 X59.5814 Y58.0875 I0.3157 J-0.0339
G1 X60.6627
X60.8125 Y58.095
X60.9607 Y58.1185
X61.1055 Y58.1577
X61.2462 Y58.2096
X61.4 Y58.2814
X61.5532 Y58.3686
X61.725 Y58.4856
X61.8933 Y58.6211
X62.0794 Y58.7974
X62.2549 Y58.9927
X62.4395 Y59.2348
X62.6192 Y59.5142
X62.7833 Y59.8212
X62.9392 Y60.1791
X63.075 Y60.5751
X63.1819 Y60.9942
X63.2547 Y61.419
X63.2923 Y61.8385
X63.2958 Y62.237
X63.2696 Y62.6043
X63.2262 Y62.888
X63.1648 Y63.1476
X63.1007 Y63.3461
X63.0555 Y63.4552
X62.9438 Y63.6417
X62.7827 Y63.7877
X62.5861 Y63.8806
X62.3711 Y63.9125
X61.2553
G3 X60.9509 Y63.6312 I0.0111 J-0.3173
G1 X60.9131 Y63.2995
X60.388 Y58.7008
X60.3583 Y58.4408
G3 X60.6627 Y58.0875 I0.3154 J-0.036
G1 X61.7608
X61.9106 Y58.095
X62.0591 Y58.1163
X62.2043 Y58.1538
X62.3456 Y58.2042
X62.4981 Y58.2737
X62.6511 Y58.3587
X62.8207 Y58.4718
X62.989 Y58.6046
X63.1696 Y58.7724
X63.3506 Y58.9698
X63.5306 Y59.201
X63.7155 Y59.4824
X63.8819 Y59.7864
X64.0369 Y60.1331
X64.1743 Y60.5212
X64.2849 Y60.9371
X64.3629 Y61.3672
X64.4047 Y61.7873
X64.4123 Y62.1932
X64.3895 Y62.5632
X64.3479 Y62.855
X64.288 Y63.1199
X64.2252 Y63.3211
X64.1739 Y63.4484
X64.0629 Y63.6374
X63.9013 Y63.7856
X63.7035 Y63.8801
X63.4867 Y63.9125
X62.3711
G3 X62.0669 Y63.6323 I0.0111 J-0.3173
G1 X62.0277 Y63.2996
X61.487 Y58.7007
X61.4565 Y58.4419
G3 X61.7608 Y58.0875 I0.3153 J-0.0371
G1 X62.9343
X63.0841 Y58.095
X63.2313 Y58.1238
X63.375 Y58.1667
X63.5233 Y58.2262
X63.6716 Y58.2999
X63.8385 Y58.4003
X64.0022 Y58.5177
X64.1843 Y58.6718
X64.3576 Y58.8442
X64.5443 Y59.0624
X64.7241 Y59.3105
X64.8976 Y59.5953
X65.0666 Y59.9308
X65.218 Y60.3029
X65.3417 Y60.6945
X65.438 Y61.1142
X65.5016 Y61.5485
X65.5288 Y61.9673
X65.5228 Y62.3543
X65.4911 Y62.6852
X65.4387 Y62.9797
X65.379 Y63.2073
X65.3078 Y63.4108
X65.2807 Y63.4718
X65.1674 Y63.6521
X65.0074 Y63.7926
X64.8141 Y63.8819
X64.6034 Y63.9125
X63.4867
G3 X63.1821 Y63.6288 I0.0111 J-0.3173
G1 X63.147 Y63.2992
X62.6576 Y58.701
X62.6296 Y58.4384
G3 X62.9343 Y58.0875 I0.3157 J-0.0336
G1 X64.0155
X64.1654 Y58.095
X64.3134 Y58.1191
X64.4581 Y58.1588
X64.5987 Y58.211
X64.7523 Y58.2833
X64.9063 Y58.3714
X65.0777 Y58.4887
X65.2469 Y58.6257
X65.4329 Y58.8028
X65.6084 Y58.9991
X65.7934 Y59.2428
X65.9721 Y59.5223
X66.1363 Y59.8313
X66.2918 Y60.1908
X66.4268 Y60.5878
X66.5328 Y61.0073
X66.6045 Y61.4319
X66.6409 Y61.8509
X66.6435 Y62.2485
X66.6164 Y62.6144
X66.5725 Y62.8968
X66.511 Y63.1545
X66.4465 Y63.3524
X66.4029 Y63.4569
X66.291 Y63.6427
X66.13 Y63.7882
X65.9338 Y63.8807
X65.7192 Y63.9125
X64.6034
G3 X64.299 Y63.6309 I0.0111 J-0.3173
G1 X64.2615 Y63.2995
X63.7406 Y58.7008
X63.7111 Y58.4405
G3 X64.0155 Y58.0875 I0.3155 J-0.0357
G1 X65.1136
X65.2634 Y58.095
X65.4118 Y58.1169
X65.5569 Y58.1548
X65.6981 Y58.2056
X65.8512 Y58.2758
X66.0041 Y58.3614
X66.1744 Y58.4755
X66.3424 Y58.6088
X66.5237 Y58.7781
X66.7042 Y58.9761
X66.8846 Y59.209
X67.0693 Y59.4918
X67.2351 Y59.7966
X67.3898 Y60.1449
X67.5264 Y60.534
X67.636 Y60.9506
X67.7129 Y61.3808
X67.7536 Y61.8008
X67.7601 Y62.2059
X67.7365 Y62.574
X67.6942 Y62.8645
X67.6342 Y63.1272
X67.571 Y63.3277
X67.5213 Y63.4502
X67.41 Y63.6385
X67.2486 Y63.7862
X67.0511 Y63.8802
X66.8348 Y63.9125
X65.7192
G3 X65.4149 Y63.632 I0.0111 J-0.3173
G1 X65.3761 Y63.2996
X64.8395 Y58.7007
X64.8093 Y58.4416
G3 X65.1136 Y58.0875 I0.3154 J-0.0368
G1 X66.2871
X66.4369 Y58.095
X66.584 Y58.1244
X66.7276 Y58.1677
X66.876 Y58.2277
X67.025 Y58.3023
X67.1919 Y58.4033
X67.3561 Y58.5218
X67.5384 Y58.6769
X67.7118 Y58.8504
X67.8988 Y59.0702
X68.0781 Y59.3189
X68.2516 Y59.6056
X68.4202 Y59.9427
X68.5707 Y60.3157
X68.6936 Y60.7083
X68.7889 Y61.1288
X68.8512 Y61.5633
X68.8773 Y61.9813
X68.8702 Y62.3671
X68.8378 Y62.6952
X68.7848 Y62.9886
X68.7249 Y63.2144
X68.653 Y63.4179
X68.6281 Y63.4737
X68.5146 Y63.6532
X68.3548 Y63.7932
X68.1619 Y63.882
X67.9516 Y63.9125
X66.8348
G3 X66.5301 Y63.6285 I0.0111 J-0.3173
G1 X66.4954 Y63.2992
X66.0102 Y58.701
X65.9824 Y58.4381
G3 X66.2871 Y58.0875 I0.3157 J-0.0333
G1 X67.3684
X67.5182 Y58.095
X67.6661 Y58.1197
X67.8107 Y58.1598
X67.9511 Y58.2124
X68.1045 Y58.285
X68.2593 Y58.3741
X68.4304 Y58.4918
X68.6004 Y58.6301
X68.7862 Y58.8079
X68.9619 Y59.0053
X69.1472 Y59.2507
X69.325 Y59.5302
X69.4892 Y59.841
X69.6443 Y60.202
X69.7786 Y60.6001
X69.8837 Y61.0199
X69.9542 Y61.4445
X69.9897 Y61.863
X69.9913 Y62.2598
X69.9634 Y62.6242
X69.919 Y62.9054
X69.8573 Y63.1612
X69.7925 Y63.3584
X69.7505 Y63.4585
X69.6384 Y63.6438
X69.4775 Y63.7887
X69.2816 Y63.8809
X69.0674 Y63.9125
X67.9516
G3 X67.6472 Y63.6306 I0.0111 J-0.3173
G1 X67.61 Y63.2994
X67.0932 Y58.7008
X67.0639 Y58.4403
G3 X67.3684 Y58.0875 I0.3155 J-0.0355
G1 X68.4664
X68.6162 Y58.095
X68.7645 Y58.1174
X68.9096 Y58.1558
X69.0506 Y58.207
X69.2042 Y58.2779
X69.3571 Y58.364
X69.528 Y58.4791
X69.6958 Y58.613
X69.8777 Y58.7837
X70.0578 Y58.9822
X70.2385 Y59.2168
X70.423 Y59.5009
X70.5883 Y59.8066
X70.7426 Y60.1563
X70.8785 Y60.5465
X70.9871 Y60.9637
X71.0629 Y61.3941
X71.1025 Y61.8139
X71.108 Y62.2183
X71.0836 Y62.5844
X71.0407 Y62.8738
X70.9805 Y63.1342
X70.917 Y63.3341
X70.8688 Y63.452
X70.7573 Y63.6396
X70.596 Y63.7867
X70.3989 Y63.8803
X70.183 Y63.9125
X69.0674
G3 X68.7631 Y63.6317 I0.0111 J-0.3173
G1 X68.7246 Y63.2996
X68.1922 Y58.7007
X68.1621 Y58.4413
G3 X68.4664 Y58.0875 I0.3154 J-0.0365
G1 X69.5477
X69.7078 Y58.0955
X69.8565 Y58.115
X70.0022 Y58.1509
X70.1439 Y58.2001
X70.2955 Y58.2676
X70.4479 Y58.3508
X70.6169 Y58.4614
X70.7847 Y58.5918
X70.9644 Y58.756
X71.1452 Y58.9501
X71.3245 Y59.1766
X71.5095 Y59.4533
X71.6764 Y59.7524
X71.8335 Y60.0961
X71.9734 Y60.4815
X72.0873 Y60.8964
X72.1687 Y61.3255
X72.214 Y61.7465
X72.225 Y62.1535
X72.2048 Y62.5293
X72.165 Y62.8251
X72.1058 Y63.0973
X72.0441 Y63.3009
X71.9882 Y63.4429
X71.8777 Y63.6339
X71.7159 Y63.7839
X71.517 Y63.8796
X71.2988 Y63.9125
X70.183
G3 X69.879 Y63.6338 I0.0111 J-0.3173
G1 X69.8381 Y63.2998
X69.2751 Y58.7005
X69.2436 Y58.4434
G3 X69.5477 Y58.0875 I0.3151 J-0.0386
G1 X70.7212
X70.871 Y58.095
X71.0188 Y58.1209
X71.1632 Y58.1613
X71.3096 Y58.2174
X71.4556 Y58.2873
X71.6208 Y58.3833
X71.7826 Y58.4957
X71.9634 Y58.6441
X72.1359 Y58.8106
X72.3225 Y59.0221
X72.502 Y59.2621
X72.6774 Y59.5404
X72.8494 Y59.8694
X73.0033 Y60.232
X73.1311 Y60.6163
X73.2334 Y61.033
X73.3036 Y61.4667
X73.3376 Y61.8904
X73.3374 Y62.2874
X73.3096 Y62.6317
X73.2613 Y62.9295
X73.2024 Y63.1688
X73.1351 Y63.3707
X73.1165 Y63.4144
X72.9947 Y63.6095
X72.819 Y63.7579
X72.6063 Y63.8453
G3 X72.2442 Y63.6397 I-0.0627 J-0.3112
G1 X72.1339 Y63.3273
X70.4962 Y58.6897
X70.4329 Y58.5105
G3 X70.7212 Y58.0875 I0.2994 J-0.1057
G1 X71.5594
X71.8193 Y58.0898
X71.969 Y58.0991
X72.1172 Y58.1218
X72.2622 Y58.1605
X72.4031 Y58.2119
X72.5566 Y58.2832
X72.7088 Y58.3692
X72.8814 Y58.486
X73.0487 Y58.6201
X73.2326 Y58.7934
X73.4111 Y58.991
X73.5916 Y59.2263
X73.7749 Y59.5097
X73.9387 Y59.8141
X74.0929 Y60.1659
X74.2288 Y60.5587
X74.337 Y60.9779
X74.4113 Y61.405
X74.4502 Y61.8264
X74.4549 Y62.2281
X74.444 Y62.3862
X74.4201 Y62.5284
X74.3692 Y62.6632
X74.2932 Y62.7856
G3 X73.7676 Y62.7331 I-0.2452 J-0.2017
G1 X73.6917 Y62.5903
X71.6114 Y58.6788
X71.5462 Y58.5563
G3 X71.8193 Y58.0898 I0.2803 J-0.1491
G1 X72.0623 Y58.0927
X72.23 Y58.0976
X72.3976 Y58.1187
X72.5653 Y58.145
X72.7329 Y58.1849
X72.9005 Y58.2333
X73.0682 Y58.2939
X73.1478 Y58.3235
X73.4035 Y58.4509
X73.4785 Y58.4911
X73.5711 Y58.5486
X73.7387 Y58.668
X73.9064 Y58.8042
X74.074 Y58.9557
X74.11 Y58.9941
X74.2589 Y59.1618
X74.4093 Y59.3728
X74.4933 Y59.4971
X74.5829 Y59.6647
X74.667 Y59.8324
X74.7331 Y60.0001
X74.7906 Y60.1677
X74.8332 Y60.3354
X74.8664 Y60.503
X74.8916 Y60.6707
X74.9046 Y60.8384
X74.9122 Y61.0428
X74.892 Y61.3413
X74.8635 Y61.509
X74.8324 Y61.6767
X74.7279 Y62.012
X74.6601 Y62.1796
X74.577 Y62.3513
X74.4826 Y62.5149
X74.4093 Y62.6339
X74.2417 Y62.8529
X74.0995 Y63.0179
X74.074 Y63.0443
X73.9064 Y63.193
X73.7387 Y63.3341
X73.4584 Y63.5209
X73.4035 Y63.5517
X73.1192 Y63.6886
X72.9005 Y63.7669
X72.7329 Y63.8151
X72.5603 Y63.8562
X72.3976 Y63.8814
X72.23 Y63.9024
X72.0623 Y63.9073
X71.7271 Y63.9113
X71.5594 Y63.9125
X71.2988
G3 X71.1221 Y63.3392 I0.0111 J-0.3173
G1 X71.179 Y63.2974 Z-1.992
X71.2331 Y63.2577 Z-1.9686
X71.2817 Y63.2221 Z-1.9307
X71.3222 Y63.1924 Z-1.8805
X71.3527 Y63.17 Z-1.8203
X71.3716 Y63.1561 Z-1.7532
X71.3781 Y63.1514 Z-1.6825
G0 Z5
X61.3039 Y18.5679
Z-1.365
G1 Z-1.6825 F3500
X61.308 Y18.5747 Z-1.7532
X61.32 Y18.5949 Z-1.8203
X61.3393 Y18.6274 Z-1.8805
X61.365 Y18.6706 Z-1.9307
X61.3958 Y18.7224 Z-1.9686
X61.4301 Y18.78 Z-1.992
X61.4662 Y18.8408 Z-2
G3 X61.6875 Y19.5943 I-1.3603 J0.8088
G1 Y20.4326
X61.6893 Y20.6283
X61.6901 Y20.6562
X61.71 Y20.6818
X61.7315 Y20.7125
X61.7319 Y20.8625
X61.7149 Y21.0115
X61.6839 Y21.1583
X61.6374 Y21.3122
X61.5705 Y21.4831
X61.4845 Y21.6593
X61.3619 Y21.8664
X61.2196 Y22.0679
X61.0232 Y22.3035
X60.8028 Y22.5284
X60.4961 Y22.7948
X60.1609 Y23.0417
X59.7064 Y23.3231
X59.1548 Y23.6061
X58.4741 Y23.8889
X57.7722 Y24.1164
X57.176 Y24.2705
X57.0293 Y24.2931
X56.881 Y24.286
X56.7372 Y24.2495
X56.6393 Y24.2138
X56.4717 Y24.1665
X56.304 Y24.1358
X56.1364 Y24.121
X55.9688 Y24.1125
X26.4639
X26.2962 Y24.118
X25.9609 Y24.133
X25.7933 Y24.1568
X25.6257 Y24.1956
X25.458 Y24.2519
X25.3662 Y24.2888
X25.2904 Y24.3238
X25.1227 Y24.4154
X25.0528 Y24.4564
X24.9551 Y24.5256
X24.8112 Y24.6498
X24.7875 Y24.6709
X24.7506 Y24.7071
G3 X24.223 Y24.4215 I-0.2143 J-0.2343
G1 X24.2344 Y24.3518 Z-1.992
X24.2452 Y24.2855 Z-1.9686
X24.2549 Y24.2261 Z-1.9307
X24.2631 Y24.1765 Z-1.8805
X24.2692 Y24.1392 Z-1.8203
X24.273 Y24.116 Z-1.7532
X24.2742 Y24.1081 Z-1.6825
G0 Z5
X60.8928 Y19.9431
Z-1.365
G1 Z-1.6825 F3500
X60.8991 Y19.9479 Z-1.7532
X60.9176 Y19.9623 Z-1.8203
X60.9476 Y19.9854 Z-1.8805
X60.9873 Y20.0162 Z-1.9307
X61.035 Y20.053 Z-1.9686
X61.0881 Y20.0941 Z-1.992
X61.144 Y20.1373 Z-2
G3 X61.71 Y20.6818 I-2.2298 J2.8842
G1 X61.7262 Y20.7027
X61.7443 Y20.7122
X61.8362 Y20.7124
X61.8737 Y20.7143
X61.9826 Y20.8174
X62.0637 Y20.9436
X62.1221 Y21.0818
X62.1608 Y21.2267
X62.1825 Y21.3751
X62.1887 Y21.525
X62.1815 Y21.6748
X62.1599 Y21.8395
X62.1226 Y22.0138
X62.066 Y22.2027
X61.9866 Y22.4066
X61.8807 Y22.6249
X61.7416 Y22.861
X61.5759 Y23.097
X61.3514 Y23.3674
X61.1002 Y23.6248
X60.7656 Y23.9167
X60.4269 Y24.1672
X60.2915 Y24.2467
X60.1424 Y24.2959
X59.9863 Y24.3125
X56.9746
X56.9074 Y24.3067
X56.8738 Y24.2997
X56.8402 Y24.2888
X56.807 Y24.2748
X56.7372 Y24.2495
G3 X56.6956 Y23.6811 I0.1189 J-0.2944
G1 X56.763 Y23.6416
X61.1448 Y21.0734
X61.6866 Y20.7558
G3 X61.8362 Y20.7124 I0.1605 J0.2739
G1 X62.1375 Y20.7125
X62.2874 Y20.72
X62.4136 Y20.801
X62.524 Y20.9025
X62.6187 Y21.0189
X62.6982 Y21.1461
X62.7634 Y21.2812
X62.8148 Y21.4221
X62.8532 Y21.5671
X62.8805 Y21.7189
X62.8975 Y21.8913
X62.9008 Y22.0762
X62.8884 Y22.2737
X62.8567 Y22.4935
X62.8061 Y22.7165
X62.7287 Y22.9634
X62.6219 Y23.2278
X62.4907 Y23.4898
X62.3139 Y23.7817
X62.1526 Y24.0052
X61.9886 Y24.1701
X61.7815 Y24.276
X61.5518 Y24.3125
X59.9863
G3 X59.7404 Y23.8088 I0.0111 J-0.3173
G1 X59.7982 Y23.729
X61.5998 Y21.2457
X61.8916 Y20.8434
G3 X62.1375 Y20.7125 I0.257 J0.1864
G1 X62.599
X62.7488 Y20.72
X62.8906 Y20.7688
X63.0221 Y20.8411
X63.1419 Y20.9313
X63.2498 Y21.0355
X63.3456 Y21.1509
X63.4296 Y21.2752
X63.5025 Y21.4063
X63.5675 Y21.5504
X63.6263 Y21.7147
X63.673 Y21.8878
X63.7092 Y22.0835
X63.7314 Y22.2992
X63.7364 Y22.5234
X63.722 Y22.7717
X63.6846 Y23.0405
X63.6238 Y23.3138
X63.5419 Y23.5797
X63.4435 Y23.8265
X63.4069 Y23.9004
X63.2913 Y24.0698
X63.1337 Y24.2011
X62.9461 Y24.2841
X62.743 Y24.3125
X61.5518
G3 X61.2635 Y23.8895 I0.0111 J-0.3173
G1 X61.3268 Y23.7103
X62.1756 Y21.3065
X62.3107 Y20.9241
G3 X62.599 Y20.7125 I0.2994 J0.1057
G1 X63.2281
X63.3779 Y20.72
X63.5235 Y20.7561
X63.6617 Y20.8142
X63.7913 Y20.8898
X63.9115 Y20.9796
X64.0219 Y21.0811
X64.1223 Y21.1926
X64.215 Y21.3142
X64.3048 Y21.454
X64.3914 Y21.6162
X64.4667 Y21.7894
X64.5351 Y21.989
X64.5913 Y22.2096
X64.6309 Y22.441
X64.6536 Y22.6956
X64.6559 Y22.9671
X64.6383 Y23.2123
X64.6023 Y23.4467
X64.5542 Y23.6498
X64.4976 Y23.8248
X64.4849 Y23.8555
X64.3731 Y24.0419
X64.212 Y24.1878
X64.0156 Y24.2806
X63.8006 Y24.3125
X62.743
G3 X62.4407 Y23.9439 I0.0111 J-0.3173
G1 X62.4805 Y23.7009
X62.8694 Y21.3232
X62.9258 Y20.9786
G3 X63.2281 Y20.7125 I0.3133 J0.0513
G1 X64.0155
X64.1654 Y20.72
X64.3108 Y20.7567
X64.45 Y20.8126
X64.5819 Y20.8841
X64.7057 Y20.9687
X64.821 Y21.0646
X64.9309 Y21.1724
X65.0405 Y21.2988
X65.1504 Y21.4482
X65.2507 Y21.6105
X65.3478 Y21.8
X65.4349 Y22.01
X65.5066 Y22.2318
X65.5629 Y22.4698
X65.6011 Y22.7192
X65.6191 Y22.9694
X65.6173 Y23.1795
X65.5976 Y23.4005
X65.566 Y23.5849
X65.5235 Y23.7519
X65.503 Y23.8117
X65.3962 Y24.0142
X65.2328 Y24.1745
X65.0283 Y24.2772
X64.8021 Y24.3125
X63.8006
G3 X63.495 Y23.9722 I0.0111 J-0.3173
G1 X63.5149 Y23.6982
X63.6868 Y21.3267
X63.71 Y21.0069
G3 X64.0155 Y20.7125 I0.3167 J0.023
G1 X64.8538
X65.0036 Y20.72
X65.1498 Y20.7536
X65.2905 Y20.8056
X65.4247 Y20.8725
X65.5519 Y20.952
X65.6744 Y21.0449
X65.7938 Y21.1516
X65.9149 Y21.2785
X66.0364 Y21.4285
X66.1484 Y21.5919
X66.256 Y21.7797
X66.3529 Y21.9855
X66.4364 Y22.2073
X66.5029 Y22.4392
X66.5512 Y22.6784
X66.5788 Y22.9097
X66.5866 Y23.1149
X66.5775 Y23.3333
X66.5553 Y23.5136
X66.5213 Y23.679
X66.4924 Y23.7785
X66.4162 Y23.9529
X66.2982 Y24.1021
X66.146 Y24.2164
X65.9697 Y24.2881
X65.781 Y24.3125
X64.8021
G3 X64.4957 Y23.9897 I0.0111 J-0.3173
G1 X64.5008 Y23.6975
X64.5421 Y21.3275
X64.5474 Y21.0243
G3 X64.8538 Y20.7125 I0.3175 J0.0055
G1 X65.692
X65.8418 Y20.72
X65.9899 Y20.7435
X66.1337 Y20.7863
X66.2719 Y20.8446
X66.4036 Y20.9164
X66.5302 Y21.0011
X66.6532 Y21.0985
X66.781 Y21.2177
X66.9082 Y21.3569
X67.0278 Y21.5111
X67.1438 Y21.6884
X67.2504 Y21.8838
X67.3443 Y22.0947
X67.4226 Y22.3172
X67.4836 Y22.5483
X67.5253 Y22.7806
X67.5462 Y22.9946
X67.5499 Y23.2122
X67.5385 Y23.3923
X67.5114 Y23.5799
X67.4736 Y23.7459
X67.4586 Y23.7936
X67.3544 Y24.0027
X67.1902 Y24.1689
X66.9825 Y24.2757
X66.7518 Y24.3125
X65.781
G3 X65.4748 Y24.0047 I0.0111 J-0.3173
G1 X65.4655 Y23.6976
X65.3943 Y21.3274
X65.3857 Y21.0393
G3 X65.692 Y20.7125 I0.3174 J-0.0095
G1 X66.6224
X66.7722 Y20.72
X66.9204 Y20.743
X67.0646 Y20.7845
X67.2032 Y20.8418
X67.3355 Y20.9123
X67.4614 Y20.994
X67.5922 Y21.0951
X67.7209 Y21.2123
X67.8475 Y21.3476
X67.974 Y21.5067
X68.0922 Y21.6827
X68.1988 Y21.8727
X68.2945 Y22.0812
X68.3749 Y22.3011
X68.4389 Y22.5321
X68.4843 Y22.7689
X68.507 Y22.9761
X68.5132 Y23.1887
X68.5031 Y23.3857
X68.4812 Y23.5506
X68.4441 Y23.7233
X68.4254 Y23.7852
X68.3224 Y23.9973
X68.158 Y24.1662
X67.9488 Y24.275
X67.716 Y24.3125
X66.7518
G3 X66.4457 Y24.009 I0.0111 J-0.3173
G1 X66.4321 Y23.6977
X66.3286 Y21.3273
X66.3163 Y21.0437
G3 X66.6224 Y20.7125 I0.3172 J-0.0138
G1 X67.6282
X67.778 Y20.72
X67.9248 Y20.751
X68.0669 Y20.799
X68.2034 Y20.8611
X68.3335 Y20.9358
X68.463 Y21.0252
X68.5909 Y21.1297
X68.7242 Y21.2577
X68.8515 Y21.4013
X68.9743 Y21.5646
X69.0901 Y21.7475
X69.1961 Y21.949
X69.2878 Y22.1635
X69.3629 Y22.3874
X69.4202 Y22.6186
X69.4573 Y22.8444
X69.4739 Y23.0447
X69.4744 Y23.2619
X69.4601 Y23.4439
X69.4342 Y23.6058
X69.3909 Y23.7837
X69.3842 Y23.8042
X69.2784 Y24.0094
X69.1147 Y24.1721
X68.9088 Y24.2765
X68.6807 Y24.3125
X67.716
G3 X67.4098 Y24.0046 I0.0111 J-0.3173
G1 X67.4007 Y23.6976
X67.3305 Y21.3274
X67.3219 Y21.0392
G3 X67.6282 Y20.7125 I0.3174 J-0.0094
G1 X68.5419
X68.6917 Y20.72
X68.8397 Y20.7443
X68.9835 Y20.787
X69.1218 Y20.8449
X69.2542 Y20.9156
X69.382 Y20.9989
X69.5143 Y21.1013
X69.6423 Y21.2178
X69.7733 Y21.358
X69.9002 Y21.5177
X70.017 Y21.6917
X70.1242 Y21.883
X70.2207 Y22.0932
X70.3017 Y22.315
X70.3648 Y22.5434
X70.4101 Y22.78
X70.4328 Y22.9868
X70.4387 Y23.1937
X70.4285 Y23.3913
X70.4066 Y23.5563
X70.3701 Y23.7256
X70.3521 Y23.7854
X70.249 Y23.9974
X70.0846 Y24.1663
X69.8754 Y24.275
X69.6427 Y24.3125
X68.6807
G3 X68.3747 Y24.0101 I0.0111 J-0.3173
G1 X68.3601 Y23.6978
X68.249 Y21.3273
X68.2358 Y21.0447
G3 X68.5419 Y20.7125 I0.3172 J-0.0149
G1 X69.5477
X69.6975 Y20.72
X69.8443 Y20.7511
X69.9864 Y20.7991
X70.123 Y20.8611
X70.2531 Y20.9357
X70.3821 Y21.0244
X70.5116 Y21.1298
X70.6456 Y21.258
X70.7728 Y21.401
X70.8966 Y21.5649
X71.0133 Y21.7484
X71.1195 Y21.9494
X71.2114 Y22.1634
X71.2868 Y22.3871
X71.3446 Y22.6179
X71.382 Y22.8433
X71.3989 Y23.043
X71.3998 Y23.2597
X71.3858 Y23.4418
X71.3603 Y23.6034
X71.3174 Y23.781
X71.3102 Y23.8029
X71.2047 Y24.0086
X71.0409 Y24.1717
X70.8347 Y24.2764
X70.6064 Y24.3125
X69.6427
G3 X69.3365 Y24.0054 I0.0111 J-0.3173
G1 X69.3266 Y23.6976
X69.2507 Y21.3274
X69.2415 Y21.04
G3 X69.5477 Y20.7125 I0.3173 J-0.0102
G1 X70.4781
X70.6279 Y20.72
X70.7756 Y20.7463
X70.919 Y20.7905
X71.0567 Y20.8498
X71.1885 Y20.9215
X71.316 Y21.0059
X71.4495 Y21.1106
X71.5777 Y21.229
X71.7081 Y21.3703
X71.8354 Y21.5328
X71.9523 Y21.7094
X72.0581 Y21.9013
X72.1532 Y22.1123
X72.2327 Y22.3347
X72.2943 Y22.5635
X72.3381 Y22.8003
X72.3589 Y23.0032
X72.3635 Y23.213
X72.3522 Y23.4067
X72.3295 Y23.5696
X72.2912 Y23.7413
X72.2761 Y23.7902
X72.1724 Y24.0005
X72.0081 Y24.1678
X71.7998 Y24.2754
X71.5683 Y24.3125
X70.6064
G3 X70.3003 Y24.0089 I0.0111 J-0.3173
G1 X70.2868 Y23.6977
X70.1843 Y21.3273
X70.172 Y21.0435
G3 X70.4781 Y20.7125 I0.3172 J-0.0137
G1 X71.484
X71.6338 Y20.72
X71.7802 Y20.7528
X71.9219 Y20.802
X72.0579 Y20.8651
X72.1875 Y20.9407
X72.3158 Y21.0301
X72.4462 Y21.1375
X72.5803 Y21.2673
X72.7069 Y21.4114
X72.8307 Y21.5775
X72.9467 Y21.7624
X73.0521 Y21.9649
X73.1429 Y22.1797
X73.2171 Y22.4041
X73.2734 Y22.6354
X73.3094 Y22.8602
X73.325 Y23.0591
X73.3246 Y23.2745
X73.3096 Y23.4552
X73.2831 Y23.6164
X73.2393 Y23.7934
X73.2347 Y23.8071
X73.1285 Y24.0113
X72.9649 Y24.173
X72.7595 Y24.2768
X72.5322 Y24.3125
X71.5683
G3 X71.262 Y24.0042 I0.0111 J-0.3173
G1 X71.2533 Y23.6976
X71.1859 Y21.3275
X71.1777 Y21.0388
G3 X71.484 Y20.7125 I0.3174 J-0.009
G1 X72.3976
X72.5474 Y20.72
X72.6953 Y20.7455
X72.8388 Y20.7891
X72.9768 Y20.8478
X73.1089 Y20.9189
X73.2377 Y21.0037
X73.3699 Y21.1068
X73.4984 Y21.2248
X73.63 Y21.3666
X73.7564 Y21.527
X73.873 Y21.7022
X73.9798 Y21.8947
X74.0757 Y22.1058
X74.1559 Y22.328
X74.2181 Y22.5568
X74.2625 Y22.7935
X74.2841 Y22.9984
X74.2893 Y23.2052
X74.2783 Y23.4013
X74.2559 Y23.5652
X74.2186 Y23.7348
X74.2023 Y23.7882
X74.0988 Y23.9992
X73.9345 Y24.1672
X73.7258 Y24.2752
X73.4938 Y24.3125
X72.5322
G3 X72.2262 Y24.0096 I0.0111 J-0.3173
G1 X72.212 Y23.6978
X72.1044 Y21.3273
X72.0915 Y21.0442
G3 X72.3976 Y20.7125 I0.3172 J-0.0144
G1 X73.4035
X73.5533 Y20.72
X73.6998 Y20.752
X73.8417 Y20.8006
X73.978 Y20.8632
X74.1079 Y20.9383
X74.2363 Y21.0272
X74.3666 Y21.1338
X74.5007 Y21.2629
X74.6276 Y21.4064
X74.7516 Y21.5716
X74.8681 Y21.756
X74.9739 Y21.9577
X75.0652 Y22.1719
X75.14 Y22.3961
X75.1971 Y22.627
X75.2338 Y22.8522
X75.2501 Y23.0513
X75.2503 Y23.2672
X75.2359 Y23.4486
X75.2099 Y23.6099
X75.1665 Y23.7872
X75.1606 Y23.8049
X75.0548 Y24.0099
X74.8911 Y24.1724
X74.6853 Y24.2766
X74.4575 Y24.3125
X73.4938
G3 X73.1876 Y24.0049 I0.0111 J-0.3173
G1 X73.1782 Y23.6976
X73.106 Y21.3274
X73.0972 Y21.0395
G3 X73.4035 Y20.7125 I0.3174 J-0.0097
G1 X74.3339
X74.4837 Y20.72
X74.6312 Y20.7471
X74.7744 Y20.7919
X74.9119 Y20.8517
X75.0434 Y20.9238
X75.1714 Y21.0091
X75.305 Y21.1145
X75.4332 Y21.2336
X75.5637 Y21.3759
X75.6908 Y21.5391
X75.8073 Y21.7165
X75.9128 Y21.9092
X76.0074 Y22.1207
X76.0863 Y22.3435
X76.1472 Y22.5727
X76.1902 Y22.8095
X76.2103 Y23.0113
X76.2143 Y23.2211
X76.2024 Y23.4138
X76.1793 Y23.5761
X76.1404 Y23.748
X76.1266 Y23.7924
X76.0225 Y24.0019
X75.8583 Y24.1685
X75.6504 Y24.2756
X75.4194 Y24.3125
X74.4575
G3 X74.1513 Y24.0084 I0.0111 J-0.3173
G1 X74.1384 Y23.6977
X74.0396 Y21.3273
X74.0277 Y21.043
G3 X74.3339 Y20.7125 I0.3172 J-0.0132
G1 X75.2982
X75.448 Y20.72
X75.5955 Y20.7476
X75.7386 Y20.7925
X75.8762 Y20.8524
X76.0075 Y20.9249
X76.1326 Y21.0082
X76.2653 Y21.1129
X76.3966 Y21.2348
X76.5239 Y21.3736
X76.6512 Y21.537
X76.7699 Y21.7176
X76.8764 Y21.9121
X76.9701 Y22.1212
X77.0489 Y22.3439
X77.1099 Y22.573
X77.1524 Y22.8067
X77.1724 Y23.0074
X77.1765 Y23.2221
X77.1649 Y23.4119
X77.1418 Y23.5737
X77.1023 Y23.7487
X77.0888 Y23.7922
X76.9847 Y24.0018
X76.8205 Y24.1684
X76.6126 Y24.2756
X76.3815 Y24.3125
X75.4194
G3 X75.1132 Y24.0082 I0.0111 J-0.3173
G1 X75.1005 Y23.6977
X75.0037 Y21.3273
X74.9921 Y21.0428
G3 X75.2982 Y20.7125 I0.3172 J-0.013
G1 X76.2534
X76.4032 Y20.72
X76.5508 Y20.7467
X76.6942 Y20.7908
X76.832 Y20.8499
X76.9636 Y20.9218
X77.0888 Y21.0045
X77.2219 Y21.1086
X77.3524 Y21.2288
X77.4804 Y21.3671
X77.608 Y21.5295
X77.7266 Y21.7085
X77.8332 Y21.9012
X77.9278 Y22.1103
X78.0075 Y22.3323
X78.0693 Y22.5609
X78.113 Y22.7957
X78.1339 Y22.9974
X78.1389 Y23.2115
X78.1279 Y23.4031
X78.1055 Y23.5655
X78.0669 Y23.7399
X78.0517 Y23.7893
X77.948 Y23.9999
X77.7837 Y24.1675
X77.5752 Y24.2753
X77.3435 Y24.3125
X76.3815
G3 X76.0754 Y24.0089 I0.0111 J-0.3173
G1 X76.062 Y23.6977
X75.9595 Y21.3273
X75.9472 Y21.0435
G3 X76.2534 Y20.7125 I0.3172 J-0.0137
G1 X77.1838
X77.3336 Y20.72
X77.482 Y20.742
X77.6264 Y20.7824
X77.7655 Y20.8386
X77.8986 Y20.9077
X78.0252 Y20.9881
X78.1584 Y21.0888
X78.2873 Y21.2037
X78.4167 Y21.339
X78.5457 Y21.4978
X78.6652 Y21.6716
X78.7734 Y21.8598
X78.8711 Y22.0667
X78.9544 Y22.2871
X79.0199 Y22.5144
X79.0676 Y22.7495
X79.0927 Y22.9575
X79.1011 Y23.1679
X79.093 Y23.3668
X79.0728 Y23.5327
X79.038 Y23.7033
X79.0165 Y23.7776
X78.9405 Y23.9522
X78.8224 Y24.1017
X78.6702 Y24.2162
X78.4938 Y24.288
X78.3049 Y24.3125
X77.3435
G3 X77.0376 Y24.0123 I0.0111 J-0.3173
G1 X77.0206 Y23.6979
X76.8929 Y21.3272
