%
(Made in : Autodesk CAM Post Processor)
(G Code optimized for OpenBuilds OX CNC 1000 x 750 with GRBL V0.9j controller)

(Program Name : 1001)
(2 Operations :)
(1 : Contour2)
(  Tool : Flat End Mill 2 Flutes, Diam = 1.9mm, Len = 12.7mm)
(  Spindle : RPM = 30000, set router dial to 6)
(  Machining time : 10 min 40 sec)
(2 : Horizontal1)
(  Tool : Flat End Mill 2 Flutes, Diam = 1.9mm, Len = 12.7mm)
(  Spindle : RPM = 30000, set router dial to 6)
(  Machining time : 4 min 54 sec)

G90 G94
G17
G21

(Operation 1 of 2 : Contour2)

G53 G0 Z5
G54
S30000 M3
G4 P1.0
X23.9583 Y24.9679
Z6
Z1.1892
G1 Z-0.81 F3200
X23.9642 Y24.9706 Z-0.8592
X23.9813 Y24.9787 Z-0.905
X24.0086 Y24.9916 Z-0.9444
X24.0442 Y25.0084 Z-0.9745
X24.0857 Y25.028 Z-0.9935
X24.1301 Y25.0489 Z-1
X25.2368 Y25.5711
X25.2785 Y25.598
X25.3119 Y25.6347
X25.3346 Y25.6788
X25.3451 Y25.7273
X25.3427 Y25.7768
X25.3276 Y25.824
X25.3071 Y25.8758
X25.289 Y25.9308
X25.2745 Y25.9858
X25.2634 Y26.0409
X25.2557 Y26.0959
X25.2513 Y26.151
X25.25 Y26.206
Y55.9309
X25.2509 Y56.041
X25.2549 Y56.096
X25.2621 Y56.1511
X25.2727 Y56.2061
X25.2866 Y56.2612
X25.3042 Y56.3162
X25.3256 Y56.3713
X25.3276 Y56.376
X25.3522 Y56.4287
X25.381 Y56.4814
X25.4077 Y56.5241
X25.4377 Y56.5669
X25.4566 Y56.5915
X25.4989 Y56.6411
X25.5478 Y56.6907
X25.5595 Y56.7015
X25.6087 Y56.7435
X25.6579 Y56.7801
X25.7063 Y56.8116
X25.768 Y56.8461
X25.823 Y56.872
X25.8781 Y56.8938
X25.924 Y56.909
X25.97 Y56.9217
X25.9882 Y56.9261
X26.0432 Y56.937
X26.0983 Y56.9445
X26.1533 Y56.9489
X26.2084 Y56.95
X71.9001
X72.0102 Y56.9502
X72.1203 Y56.952
X72.2304 Y56.9568
X72.3405 Y56.9645
X72.4506 Y56.9753
X72.5607 Y56.9892
X72.6708 Y57.006
X72.7809 Y57.0263
X72.8092 Y57.0318
X72.891 Y57.0493
X73.0011 Y57.0758
X73.1112 Y57.1057
X73.2213 Y57.1385
X73.2315 Y57.1419
X73.3314 Y57.1754
X73.4415 Y57.2153
X73.534 Y57.252
X73.5516 Y57.2593
X73.6617 Y57.3069
X73.7718 Y57.3583
X73.7797 Y57.3621
X73.8819 Y57.414
X73.9886 Y57.4722
X73.992 Y57.4741
X74.1021 Y57.5383
X74.1728 Y57.5823
X74.2122 Y57.6079
X74.3223 Y57.6822
X74.3368 Y57.6924
X74.4324 Y57.762
X74.4852 Y57.8025
X74.5425 Y57.8479
X74.6209 Y57.9126
X74.6526 Y57.9401
X74.7457 Y58.0227
X74.7627 Y58.0387
X74.8604 Y58.1327
X74.8728 Y58.1453
X74.9663 Y58.2428
X74.9829 Y58.2611
X75.0649 Y58.3529
X75.093 Y58.3858
X75.1568 Y58.463
X75.2031 Y58.5215
X75.2423 Y58.5731
X75.3132 Y58.671
X75.3219 Y58.6832
X75.396 Y58.7933
X75.4233 Y58.836
X75.4646 Y58.9034
X75.5292 Y59.0135
X75.5334 Y59.0209
X75.5891 Y59.1236
X75.6435 Y59.2314
X75.6446 Y59.2337
X75.6955 Y59.3438
X75.7435 Y59.4538
X75.7536 Y59.479
X75.7862 Y59.5639
X75.8267 Y59.674
X75.863 Y59.7841
X75.8637 Y59.7865
X75.8959 Y59.8942
X75.9253 Y60.0043
X75.9518 Y60.1144
X75.9738 Y60.2205
X75.9746 Y60.2245
X75.9945 Y60.3346
X76.0114 Y60.4447
X76.0255 Y60.5548
X76.0361 Y60.6649
X76.0437 Y60.775
X76.0485 Y60.885
X76.05 Y60.9951
X76.0487 Y61.1052
X76.0443 Y61.2153
X76.0368 Y61.3254
X76.0265 Y61.4355
X76.0128 Y61.5456
X75.9961 Y61.6557
X75.9765 Y61.7658
X75.9738 Y61.7795
X75.954 Y61.8759
X75.9277 Y61.986
X75.8987 Y62.0961
X75.8659 Y62.2062
X75.8637 Y62.2136
X75.8302 Y62.3162
X75.7898 Y62.4263
X75.7536 Y62.521
X75.7476 Y62.5364
X75.6999 Y62.6465
X75.6493 Y62.7566
X75.6435 Y62.7686
X75.5942 Y62.8667
X75.5347 Y62.9768
X75.5334 Y62.9791
X75.4705 Y63.0869
X75.4233 Y63.1641
X75.4024 Y63.197
X75.3286 Y63.3071
X75.3132 Y63.329
X75.2494 Y63.4172
X75.2031 Y63.4785
X75.1647 Y63.5273
X75.093 Y63.6142
X75.0735 Y63.6374
X74.9829 Y63.739
X74.9752 Y63.7474
X74.8728 Y63.8548
X74.87 Y63.8575
X74.7627 Y63.9613
X74.756 Y63.9676
X74.6526 Y64.0599
X74.6321 Y64.0777
X74.5425 Y64.1521
X74.4977 Y64.1878
X74.4324 Y64.2381
X74.3507 Y64.2979
X74.3223 Y64.3178
X74.2122 Y64.3921
X74.1878 Y64.408
X74.1021 Y64.4617
X74.0059 Y64.5181
X73.992 Y64.5259
X73.8819 Y64.5861
X73.7997 Y64.6282
X73.7718 Y64.6417
X73.6617 Y64.6931
X73.5574 Y64.7383
X73.5516 Y64.7407
X73.4415 Y64.7847
X73.3314 Y64.8246
X73.2611 Y64.8484
X73.2213 Y64.8615
X73.1112 Y64.8943
X73.0011 Y64.9242
X72.891 Y64.9507
X72.8552 Y64.9585
X72.7809 Y64.9737
X72.6708 Y64.994
X72.5607 Y65.0108
X72.4506 Y65.0247
X72.3405 Y65.0355
X72.2304 Y65.0432
X72.1203 Y65.048
X72.0102 Y65.0498
X71.9001 Y65.05
X26.2084
X26.1533 Y65.0511
X26.0983 Y65.0555
X26.0558 Y65.061
X26.0132 Y65.0686
X25.9882 Y65.0739
X25.9331 Y65.0883
X25.8781 Y65.1062
X25.823 Y65.128
X25.768 Y65.1539
X25.7227 Y65.1786
X25.6579 Y65.2199
X25.6141 Y65.2522
X25.5703 Y65.2887
X25.5478 Y65.3093
X25.5034 Y65.3541
X25.4644 Y65.3988
X25.4377 Y65.4331
X25.4109 Y65.471
X25.3868 Y65.5089
X25.356 Y65.564
X25.3298 Y65.619
X25.3276 Y65.624
X25.3068 Y65.6766
X25.2895 Y65.7291
X25.2749 Y65.7841
X25.2637 Y65.8392
X25.2559 Y65.8942
X25.2514 Y65.9493
X25.25 Y66.0594
Y266.7573
X25.2524 Y266.8674
X25.2579 Y266.9224
X25.2668 Y266.9775
X25.2789 Y267.0325
X25.2946 Y267.0876
X25.3098 Y267.1318
X25.3276 Y267.176
X25.3373 Y267.1977
X25.3648 Y267.2527
X25.3971 Y267.3078
X25.4377 Y267.3669
X25.4784 Y267.4178
X25.5112 Y267.4543
X25.5478 Y267.4907
X25.5896 Y267.528
X25.6238 Y267.5553
X25.6579 Y267.5801
X25.7052 Y267.611
X25.7526 Y267.638
X25.768 Y267.6461
X25.823 Y267.672
X25.8781 Y267.6938
X25.9331 Y267.7117
X25.9882 Y267.7261
X26.0432 Y267.737
X26.0983 Y267.7445
X26.1404 Y267.7481
X26.2084 Y267.75
X32.0484
X32.05 Y267.7517
Y288.9959
X32.0514 Y289.051
X32.0559 Y289.106
X32.0638 Y289.161
X32.0749 Y289.2161
X32.0895 Y289.2711
X32.1078 Y289.3262
X32.1289 Y289.379
X32.1538 Y289.4318
X32.1561 Y289.4363
X32.1869 Y289.4913
X32.2228 Y289.5464
X32.2639 Y289.6006
X32.3133 Y289.6565
X32.3437 Y289.6868
X32.374 Y289.7146
X32.4064 Y289.7417
X32.4388 Y289.7665
X32.4841 Y289.7977
X32.5392 Y289.8307
X32.5942 Y289.859
X32.6339 Y289.8766
X32.7043 Y289.9028
X32.7594 Y289.919
X32.8144 Y289.9317
X32.8695 Y289.941
X32.9245 Y289.947
X33.0346 Y289.95
X318.9654
X319.0755 Y289.947
X319.1306 Y289.941
X319.1856 Y289.9317
X319.2407 Y289.919
X319.2957 Y289.9028
X319.3661 Y289.8766
X319.4058 Y289.859
X319.4609 Y289.8307
X319.5159 Y289.7977
X319.5612 Y289.7665
X319.5936 Y289.7417
X319.626 Y289.7146
X319.6564 Y289.6868
X319.6867 Y289.6565
X319.7361 Y289.6006
X319.7772 Y289.5464
X319.8131 Y289.4913
X319.8439 Y289.4363
X319.8462 Y289.4318
X319.8712 Y289.379
X319.8923 Y289.3262
X319.9105 Y289.2711
X319.9251 Y289.2161
X319.9363 Y289.161
X319.9441 Y289.106
X319.9487 Y289.051
X319.95 Y288.9959
Y267.7517
X319.9516 Y267.75
X325.7916
X325.8597 Y267.7481
X325.9017 Y267.7445
X325.9568 Y267.737
X326.0118 Y267.7261
X326.0669 Y267.7118
X326.1219 Y267.6938
X326.177 Y267.672
X326.232 Y267.6461
X326.2475 Y267.638
X326.2948 Y267.611
X326.3421 Y267.5801
X326.3763 Y267.5553
X326.4104 Y267.528
X326.4522 Y267.4907
X326.4888 Y267.4543
X326.5217 Y267.4178
X326.5623 Y267.3669
X326.6029 Y267.3078
X326.6352 Y267.2527
X326.6628 Y267.1977
X326.6725 Y267.176
X326.6902 Y267.1318
X326.7054 Y267.0876
X326.7211 Y267.0325
X326.7333 Y266.9775
X326.7421 Y266.9224
X326.7476 Y266.8674
X326.75 Y266.7573
Y26.206
X326.7487 Y26.151
X326.7443 Y26.0959
X326.7366 Y26.0409
X326.7256 Y25.9858
X326.7111 Y25.9308
X326.693 Y25.8758
X326.6725 Y25.824
X326.6449 Y25.7657
X326.6143 Y25.7106
X326.5785 Y25.6556
X326.5623 Y25.6331
X326.5277 Y25.5893
X326.4886 Y25.5455
X326.4522 Y25.5093
X326.408 Y25.4701
X326.3638 Y25.4354
X326.3421 Y25.4199
X326.2871 Y25.3844
X326.232 Y25.3539
X326.1707 Y25.3253
X326.1219 Y25.3062
X326.0669 Y25.2883
X326.0118 Y25.2739
X325.9568 Y25.263
X325.9017 Y25.2555
X325.8467 Y25.2512
X325.7916 Y25.25
X296.0645
X295.9544 Y25.2511
X295.8994 Y25.2554
X295.8443 Y25.2629
X295.7893 Y25.2737
X295.7342 Y25.288
X295.6818 Y25.3049
X295.6294 Y25.3253
X295.6241 Y25.3275
X295.5691 Y25.3534
X295.514 Y25.3837
X295.4751 Y25.4082
X295.4362 Y25.4354
X295.4201 Y25.4476
X295.4181 Y25.4491
X295.416 Y25.45
X56.584
X56.582 Y25.4491
X56.58 Y25.4476
X56.5638 Y25.4354
X56.5249 Y25.4082
X56.486 Y25.3837
X56.431 Y25.3534
X56.3759 Y25.3275
X56.3707 Y25.3253
X56.3182 Y25.3049
X56.2658 Y25.2879
X56.2108 Y25.2737
X56.1557 Y25.2629
X56.1007 Y25.2554
X56.0456 Y25.2511
X55.9355 Y25.25
X26.2084
X26.1533 Y25.2512
X26.0983 Y25.2555
X26.0432 Y25.263
X25.9882 Y25.2739
X25.9331 Y25.2883
X25.8781 Y25.3062
X25.8294 Y25.3253
X25.768 Y25.3539
X25.7129 Y25.3844
X25.6579 Y25.4199
X25.6362 Y25.4354
X25.592 Y25.4701
X25.5478 Y25.5093
X25.5115 Y25.5455
X25.4723 Y25.5893
X25.4377 Y25.6331
X25.4215 Y25.6556
X25.3858 Y25.7106
X25.3551 Y25.7657
X25.3276 Y25.824
X25.3096 Y25.869
X25.2939 Y25.9147
X25.2805 Y25.9613 Z-1.0001
X25.2696 Y26.0084
X25.261 Y26.056
X25.2549 Y26.104 Z-1.0002
X25.2512 Y26.1523 Z-1.0003
X25.25 Y26.2007 Z-1.0004
Y26.3942 Z-1.0008
Y26.5878 Z-1.0015
Y26.7814 Z-1.0023
Y26.975 Z-1.0033
Y27.1685 Z-1.0045
Y27.3621 Z-1.0058
Y27.5557 Z-1.0073
Y27.7493 Z-1.009
Y27.9428 Z-1.0109
Y28.1364 Z-1.0129
Y28.33 Z-1.0151
Y28.5236 Z-1.0174
Y28.7171 Z-1.0199
Y28.9107 Z-1.0225
Y29.1043 Z-1.0253
Y29.2979 Z-1.0283
Y29.4914 Z-1.0314
Y29.685 Z-1.0347
Y29.8786 Z-1.0381
Y30.0722 Z-1.0416
Y30.2657 Z-1.0453
Y30.4593 Z-1.0491
Y30.6529 Z-1.0531
Y30.8465 Z-1.0572
Y31.04 Z-1.0614
Y31.2336 Z-1.0658
Y31.4272 Z-1.0702
Y31.6208 Z-1.0749
Y31.8143 Z-1.0796
Y32.0079 Z-1.0845
Y32.2015 Z-1.0894
Y32.2983 Z-1.092
Y32.3951 Z-1.0945
Y32.4919 Z-1.0971
Y32.5886 Z-1.0997
Y32.6854 Z-1.1024
Y32.7822 Z-1.1051
Y32.879 Z-1.1078
Y32.9758 Z-1.1105
Y33.0726 Z-1.1133
Y33.1694 Z-1.1161
Y33.2661 Z-1.1189
Y33.3629 Z-1.1217
Y33.4597 Z-1.1246
Y33.5565 Z-1.1275
Y33.6533 Z-1.1304
Y33.7501 Z-1.1334
Y33.8469 Z-1.1363
Y33.9437 Z-1.1393
Y34.0404 Z-1.1423
Y34.1372 Z-1.1454
Y34.234 Z-1.1485
Y34.3308 Z-1.1516
Y34.4276 Z-1.1547
Y34.5244 Z-1.1578
Y34.6212 Z-1.161
Y34.718 Z-1.1642
Y34.8147 Z-1.1674
Y34.9115 Z-1.1706
Y35.0083 Z-1.1739
Y35.1051 Z-1.1772
Y35.2019 Z-1.1805
Y35.2987 Z-1.1838
Y35.3955 Z-1.1871
Y35.589 Z-1.1939
Y35.6858 Z-1.1972
Y35.7826 Z-1.2006
Y35.8794 Z-1.204
Y35.9762 Z-1.2074
Y36.073 Z-1.2108
Y36.1698 Z-1.2141
Y36.2666 Z-1.2175
Y36.3633 Z-1.2209
Y36.4601 Z-1.2243
Y36.5569 Z-1.2277
Y36.6537 Z-1.231
Y36.7505 Z-1.2344
Y36.9441 Z-1.2412
Y37.2344 Z-1.2513
Y37.5248 Z-1.2614
Y37.8152 Z-1.2716
Y38.1055 Z-1.2817
Y38.3959 Z-1.2919
Y38.6862 Z-1.302
Y38.9766 Z-1.3121
Y39.267 Z-1.3223
Y39.5573 Z-1.3324
Y39.8477 Z-1.3426
Y40.3316 Z-1.3595
Y40.8156 Z-1.3764
Y41.2995 Z-1.3933
Y41.977 Z-1.4169
Y42.8481 Z-1.4473
Y44.2999 Z-1.498
Y51.2686 Z-1.7413
Y51.559 Z-1.7515
Y51.8493 Z-1.7616
Y51.9461 Z-1.765
Y52.0429 Z-1.7684
Y52.1397 Z-1.7717
Y52.2365 Z-1.7751
Y52.3333 Z-1.7785
Y52.43 Z-1.7819
Y52.5268 Z-1.7853
Y52.6236 Z-1.7886
Y52.7204 Z-1.792
Y52.8172 Z-1.7954
Y52.914 Z-1.7988
Y53.0108 Z-1.8022
Y53.1076 Z-1.8055
Y53.2043 Z-1.8089
Y53.3011 Z-1.8123
Y53.3979 Z-1.8156
Y53.4947 Z-1.819
Y53.5915 Z-1.8223
Y53.6883 Z-1.8255
Y53.7851 Z-1.8288
Y53.8819 Z-1.832
Y53.9786 Z-1.8353
Y54.0754 Z-1.8385
Y54.1722 Z-1.8416
Y54.269 Z-1.8448
Y54.3658 Z-1.8479
Y54.4626 Z-1.851
Y54.5594 Z-1.8541
Y54.6562 Z-1.8571
Y54.7529 Z-1.8601
Y54.8497 Z-1.8631
Y54.9465 Z-1.8661
Y55.0433 Z-1.8691
Y55.1401 Z-1.872
Y55.2369 Z-1.8749
Y55.3337 Z-1.8778
Y55.4305 Z-1.8806
Y55.5272 Z-1.8834
Y55.624 Z-1.8862
Y55.7208 Z-1.889
Y55.8176 Z-1.8917
Y55.9144 Z-1.8945
X25.2501 Y56.0112 Z-1.8971
X25.2519 Y56.0595 Z-1.8985
X25.2562 Y56.1077 Z-1.8998
X25.2629 Y56.1557 Z-1.9011
X25.272 Y56.2032 Z-1.9024
X25.2836 Y56.2502 Z-1.9037
X25.2975 Y56.2965 Z-1.905
X25.3138 Y56.3421 Z-1.9063
X25.3323 Y56.3868 Z-1.9076
X25.3532 Y56.4305 Z-1.9089
X25.3762 Y56.4731 Z-1.9101
X25.4014 Y56.5144 Z-1.9114
X25.4286 Y56.5544 Z-1.9126
X25.4578 Y56.593 Z-1.9139
X25.489 Y56.63 Z-1.9151
X25.522 Y56.6654 Z-1.9163
X25.5568 Y56.6991 Z-1.9176
X25.5932 Y56.7309 Z-1.9188
X25.6312 Y56.7609 Z-1.92
X25.6707 Y56.7889 Z-1.9212
X25.7116 Y56.8148 Z-1.9224
X25.7537 Y56.8386 Z-1.9236
X25.797 Y56.8603 Z-1.9247
X25.8413 Y56.8797 Z-1.9259
X25.8866 Y56.8968 Z-1.9271
X25.9326 Y56.9116 Z-1.9282
X25.9794 Y56.924 Z-1.9294
X26.0268 Y56.9341 Z-1.9305
X26.0745 Y56.9417 Z-1.9316
X26.1227 Y56.9468 Z-1.9327
X26.171 Y56.9496 Z-1.9339
X26.2678 Y56.95 Z-1.9361
X26.4613 Z-1.9404
X26.6549 Z-1.9445
X26.8485 Z-1.9486
X27.0421 Z-1.9525
X27.2356 Z-1.9562
X27.4292 Z-1.9599
X27.6228 Z-1.9634
X27.8164 Z-1.9667
X28.0099 Z-1.9699
X28.2035 Z-1.9729
X28.3971 Z-1.9758
X28.5907 Z-1.9786
X28.7842 Z-1.9812
X28.9778 Z-1.9836
X29.1714 Z-1.9859
X29.365 Z-1.988
X29.5585 Z-1.9899
X29.7521 Z-1.9917
X29.9457 Z-1.9933
X30.1393 Z-1.9948
X30.3328 Z-1.996
X30.5264 Z-1.9971
X30.72 Z-1.9981
X30.9136 Z-1.9988
X31.1071 Z-1.9994
X31.3007 Z-1.9998
X31.4943 Z-2
X31.6081
X71.9001
X72.0102 Y56.9502
X72.1203 Y56.952
X72.2304 Y56.9568
X72.3405 Y56.9645
X72.4506 Y56.9753
X72.5607 Y56.9892
X72.6708 Y57.006
X72.7809 Y57.0263
X72.8092 Y57.0318
X72.891 Y57.0493
X73.0011 Y57.0758
X73.1112 Y57.1057
X73.2213 Y57.1385
X73.2315 Y57.1419
X73.3314 Y57.1754
X73.4415 Y57.2153
X73.534 Y57.252
X73.5516 Y57.2593
X73.6617 Y57.3069
X73.7718 Y57.3583
X73.7797 Y57.3621
X73.8819 Y57.414
X73.9886 Y57.4722
X73.992 Y57.4741
X74.1021 Y57.5383
X74.1728 Y57.5823
X74.2122 Y57.6079
X74.3223 Y57.6822
X74.3368 Y57.6924
X74.4324 Y57.762
X74.4852 Y57.8025
X74.5425 Y57.8479
X74.6209 Y57.9126
X74.6526 Y57.9401
X74.7457 Y58.0227
X74.7627 Y58.0387
X74.8604 Y58.1327
X74.8728 Y58.1453
X74.9663 Y58.2428
X74.9829 Y58.2611
X75.0649 Y58.3529
X75.093 Y58.3858
X75.1568 Y58.463
X75.2031 Y58.5215
X75.2423 Y58.5731
X75.3132 Y58.671
X75.3219 Y58.6832
X75.396 Y58.7933
X75.4233 Y58.836
X75.4646 Y58.9034
X75.5292 Y59.0135
X75.5334 Y59.0209
X75.5891 Y59.1236
X75.6435 Y59.2314
X75.6446 Y59.2337
X75.6955 Y59.3438
X75.7435 Y59.4538
X75.7536 Y59.479
X75.7862 Y59.5639
X75.8267 Y59.674
X75.863 Y59.7841
X75.8637 Y59.7865
X75.8959 Y59.8942
X75.9253 Y60.0043
X75.9518 Y60.1144
X75.9738 Y60.2205
X75.9746 Y60.2245
X75.9945 Y60.3346
X76.0114 Y60.4447
X76.0255 Y60.5548
X76.0361 Y60.6649
X76.0437 Y60.775
X76.0485 Y60.885
X76.05 Y60.9951
X76.0487 Y61.1052
X76.0443 Y61.2153
X76.0368 Y61.3254
X76.0265 Y61.4355
X76.0128 Y61.5456
X75.9961 Y61.6557
X75.9765 Y61.7658
X75.9738 Y61.7795
X75.954 Y61.8759
X75.9277 Y61.986
X75.8987 Y62.0961
X75.8659 Y62.2062
X75.8637 Y62.2136
X75.8302 Y62.3162
X75.7898 Y62.4263
X75.7536 Y62.521
X75.7476 Y62.5364
X75.6999 Y62.6465
X75.6493 Y62.7566
X75.6435 Y62.7686
X75.5942 Y62.8667
X75.5347 Y62.9768
X75.5334 Y62.9791
X75.4705 Y63.0869
X75.4233 Y63.1641
X75.4024 Y63.197
X75.3286 Y63.3071
X75.3132 Y63.329
X75.2494 Y63.4172
X75.2031 Y63.4785
X75.1647 Y63.5273
X75.093 Y63.6142
X75.0735 Y63.6374
X74.9829 Y63.739
X74.9752 Y63.7474
X74.8728 Y63.8548
X74.87 Y63.8575
X74.7627 Y63.9613
X74.756 Y63.9676
X74.6526 Y64.0599
X74.6321 Y64.0777
X74.5425 Y64.1521
X74.4977 Y64.1878
X74.4324 Y64.2381
X74.3507 Y64.2979
X74.3223 Y64.3178
X74.2122 Y64.3921
X74.1878 Y64.408
X74.1021 Y64.4617
X74.0059 Y64.5181
X73.992 Y64.5259
X73.8819 Y64.5861
X73.7997 Y64.6282
X73.7718 Y64.6417
X73.6617 Y64.6931
X73.5574 Y64.7383
X73.5516 Y64.7407
X73.4415 Y64.7847
X73.3314 Y64.8246
X73.2611 Y64.8484
X73.2213 Y64.8615
X73.1112 Y64.8943
X73.0011 Y64.9242
X72.891 Y64.9507
X72.8552 Y64.9585
X72.7809 Y64.9737
X72.6708 Y64.994
X72.5607 Y65.0108
X72.4506 Y65.0247
X72.3405 Y65.0355
X72.2304 Y65.0432
X72.1203 Y65.048
X72.0102 Y65.0498
X71.9001 Y65.05
X26.2084
X26.1533 Y65.0511
X26.0983 Y65.0555
X26.0558 Y65.061
X26.0132 Y65.0686
X25.9882 Y65.0739
X25.9331 Y65.0883
X25.8781 Y65.1062
X25.823 Y65.128
X25.768 Y65.1539
X25.7227 Y65.1786
X25.6579 Y65.2199
X25.6141 Y65.2522
X25.5703 Y65.2887
X25.5478 Y65.3093
X25.5034 Y65.3541
X25.4644 Y65.3988
X25.4377 Y65.4331
X25.4109 Y65.471
X25.3868 Y65.5089
X25.356 Y65.564
X25.3298 Y65.619
X25.3276 Y65.624
X25.3068 Y65.6766
X25.2895 Y65.7291
X25.2749 Y65.7841
X25.2637 Y65.8392
X25.2559 Y65.8942
X25.2514 Y65.9493
X25.25 Y66.0594
Y266.7573
X25.2524 Y266.8674
X25.2579 Y266.9224
X25.2668 Y266.9775
X25.2789 Y267.0325
X25.2946 Y267.0876
X25.3098 Y267.1318
X25.3276 Y267.176
X25.3373 Y267.1977
X25.3648 Y267.2527
X25.3971 Y267.3078
X25.4377 Y267.3669
X25.4784 Y267.4178
X25.5112 Y267.4543
X25.5478 Y267.4907
X25.5896 Y267.528
X25.6238 Y267.5553
X25.6579 Y267.5801
X25.7052 Y267.611
X25.7526 Y267.638
X25.768 Y267.6461
X25.823 Y267.672
X25.8781 Y267.6938
X25.9331 Y267.7117
X25.9882 Y267.7261
X26.0432 Y267.737
X26.0983 Y267.7445
X26.1404 Y267.7481
X26.2084 Y267.75
X32.0484
X32.05 Y267.7517
Y288.9959
X32.0514 Y289.051
X32.0559 Y289.106
X32.0638 Y289.161
X32.0749 Y289.2161
X32.0895 Y289.2711
X32.1078 Y289.3262
X32.1289 Y289.379
X32.1538 Y289.4318
X32.1561 Y289.4363
X32.1869 Y289.4913
X32.2228 Y289.5464
X32.2639 Y289.6006
X32.3133 Y289.6565
X32.3437 Y289.6868
X32.374 Y289.7146
X32.4064 Y289.7417
X32.4388 Y289.7665
X32.4841 Y289.7977
X32.5392 Y289.8307
X32.5942 Y289.859
X32.6339 Y289.8766
X32.7043 Y289.9028
X32.7594 Y289.919
X32.8144 Y289.9317
X32.8695 Y289.941
X32.9245 Y289.947
X33.0346 Y289.95
X318.9654
X319.0755 Y289.947
X319.1306 Y289.941
X319.1856 Y289.9317
X319.2407 Y289.919
X319.2957 Y289.9028
X319.3661 Y289.8766
X319.4058 Y289.859
X319.4609 Y289.8307
X319.5159 Y289.7977
X319.5612 Y289.7665
X319.5936 Y289.7417
X319.626 Y289.7146
X319.6564 Y289.6868
X319.6867 Y289.6565
X319.7361 Y289.6006
X319.7772 Y289.5464
X319.8131 Y289.4913
X319.8439 Y289.4363
X319.8462 Y289.4318
X319.8712 Y289.379
X319.8923 Y289.3262
X319.9105 Y289.2711
X319.9251 Y289.2161
X319.9363 Y289.161
X319.9441 Y289.106
X319.9487 Y289.051
X319.95 Y288.9959
Y267.7517
X319.9516 Y267.75
X325.7916
X325.8597 Y267.7481
X325.9017 Y267.7445
X325.9568 Y267.737
X326.0118 Y267.7261
X326.0669 Y267.7118
X326.1219 Y267.6938
X326.177 Y267.672
X326.232 Y267.6461
X326.2475 Y267.638
X326.2948 Y267.611
X326.3421 Y267.5801
X326.3763 Y267.5553
X326.4104 Y267.528
X326.4522 Y267.4907
X326.4888 Y267.4543
X326.5217 Y267.4178
X326.5623 Y267.3669
X326.6029 Y267.3078
X326.6352 Y267.2527
X326.6628 Y267.1977
X326.6725 Y267.176
X326.6902 Y267.1318
X326.7054 Y267.0876
X326.7211 Y267.0325
X326.7333 Y266.9775
X326.7421 Y266.9224
X326.7476 Y266.8674
X326.75 Y266.7573
Y26.206
X326.7487 Y26.151
X326.7443 Y26.0959
X326.7366 Y26.0409
X326.7256 Y25.9858
X326.7111 Y25.9308
X326.693 Y25.8758
X326.6725 Y25.824
X326.6449 Y25.7657
X326.6143 Y25.7106
X326.5785 Y25.6556
X326.5623 Y25.6331
X326.5277 Y25.5893
X326.4886 Y25.5455
X326.4522 Y25.5093
X326.408 Y25.4701
X326.3638 Y25.4354
X326.3421 Y25.4199
X326.2871 Y25.3844
X326.232 Y25.3539
X326.1707 Y25.3253
X326.1219 Y25.3062
X326.0669 Y25.2883
X326.0118 Y25.2739
X325.9568 Y25.263
X325.9017 Y25.2555
X325.8467 Y25.2512
X325.7916 Y25.25
X296.0645
X295.9544 Y25.2511
X295.8994 Y25.2554
X295.8443 Y25.2629
X295.7893 Y25.2737
X295.7342 Y25.288
X295.6818 Y25.3049
X295.6294 Y25.3253
X295.6241 Y25.3275
X295.5691 Y25.3534
X295.514 Y25.3837
X295.4751 Y25.4082
X295.4362 Y25.4354
X295.4201 Y25.4476
X295.4181 Y25.4491
X295.416 Y25.45
X56.584
X56.582 Y25.4491
X56.58 Y25.4476
X56.5638 Y25.4354
X56.5249 Y25.4082
X56.486 Y25.3837
X56.431 Y25.3534
X56.3759 Y25.3275
X56.3707 Y25.3253
X56.3182 Y25.3049
X56.2658 Y25.2879
X56.2108 Y25.2737
X56.1557 Y25.2629
X56.1007 Y25.2554
X56.0456 Y25.2511
X55.9355 Y25.25
X26.2084
X26.1533 Y25.2512
X26.0983 Y25.2555
X26.0432 Y25.263
X25.9882 Y25.2739
X25.9331 Y25.2883
X25.8781 Y25.3062
X25.8294 Y25.3253
X25.768 Y25.3539
X25.7129 Y25.3844
X25.6579 Y25.4199
X25.6362 Y25.4354
X25.592 Y25.4701
X25.5478 Y25.5093
X25.5115 Y25.5455
X25.4723 Y25.5893
X25.4377 Y25.6331
X25.4215 Y25.6556
X25.3858 Y25.7106
X25.3551 Y25.7657
X25.3276 Y25.824
X25.3071 Y25.8758
X25.289 Y25.9308
X25.2745 Y25.9858
X25.2634 Y26.0409
X25.2557 Y26.0959
X25.2513 Y26.151
X25.25 Y26.206
Y55.9309
X25.2509 Y56.041
X25.2549 Y56.096
X25.2621 Y56.1511
X25.2727 Y56.2061
X25.2866 Y56.2612
X25.3042 Y56.3162
X25.3256 Y56.3713
X25.3276 Y56.376
X25.3522 Y56.4287
X25.381 Y56.4814
X25.4077 Y56.5241
X25.4377 Y56.5669
X25.4566 Y56.5915
X25.4989 Y56.6411
X25.5478 Y56.6907
X25.5595 Y56.7015
X25.6087 Y56.7435
X25.6579 Y56.7801
X25.7063 Y56.8116
X25.768 Y56.8461
X25.823 Y56.872
X25.8781 Y56.8938
X25.924 Y56.909
X25.97 Y56.9217
X25.9882 Y56.9261
X26.0432 Y56.937
X26.0983 Y56.9445
X26.1533 Y56.9489
X26.2084 Y56.95
X31.6081
X31.8017 Z-2.0001
X31.9952 Z-2.0004
X32.1888 Z-2.0008
X32.3824 Z-2.0015
X32.576 Z-2.0023
X32.7695 Z-2.0033
X32.9631 Z-2.0045
X33.1567 Z-2.0058
X33.3503 Z-2.0073
X33.5438 Z-2.009
X33.7374 Z-2.0109
X33.931 Z-2.0129
X34.1246 Z-2.0151
X34.3181 Z-2.0174
X34.5117 Z-2.0199
X34.7053 Z-2.0225
X34.8989 Z-2.0253
X35.0924 Z-2.0283
X35.286 Z-2.0314
X35.4796 Z-2.0347
X35.6732 Z-2.0381
X35.8667 Z-2.0416
X36.0603 Z-2.0453
X36.2539 Z-2.0491
X36.4475 Z-2.0531
X36.641 Z-2.0572
X36.8346 Z-2.0614
X37.0282 Z-2.0658
X37.2218 Z-2.0702
X37.4153 Z-2.0749
X37.6089 Z-2.0796
X37.8025 Z-2.0845
X37.9961 Z-2.0894
X38.0928 Z-2.092
X38.1896 Z-2.0945
X38.2864 Z-2.0971
X38.3832 Z-2.0997
X38.48 Z-2.1024
X38.5768 Z-2.1051
X38.6736 Z-2.1078
X38.7704 Z-2.1105
X38.8671 Z-2.1133
X38.9639 Z-2.1161
X39.0607 Z-2.1189
X39.1575 Z-2.1217
X39.2543 Z-2.1246
X39.3511 Z-2.1275
X39.4479 Z-2.1304
X39.5447 Z-2.1334
X39.6414 Z-2.1363
X39.7382 Z-2.1393
X39.835 Z-2.1423
X39.9318 Z-2.1454
X40.0286 Z-2.1485
X40.1254 Z-2.1516
X40.2222 Z-2.1547
X40.319 Z-2.1578
X40.4157 Z-2.161
X40.5125 Z-2.1642
X40.6093 Z-2.1674
X40.7061 Z-2.1706
X40.8029 Z-2.1739
X40.8997 Z-2.1772
X40.9965 Z-2.1805
X41.0933 Z-2.1838
X41.19 Z-2.1871
X41.3836 Z-2.1939
X41.4804 Z-2.1972
X41.5772 Z-2.2006
X41.674 Z-2.204
X41.7708 Z-2.2074
X41.8675 Z-2.2108
X41.9643 Z-2.2141
X42.0611 Z-2.2175
X42.1579 Z-2.2209
X42.2547 Z-2.2243
X42.3515 Z-2.2277
X42.4483 Z-2.231
X42.5451 Z-2.2344
X42.7386 Z-2.2412
X43.029 Z-2.2513
X43.3194 Z-2.2614
X43.6097 Z-2.2716
X43.9001 Z-2.2817
X44.1904 Z-2.2919
X44.4808 Z-2.302
X44.7712 Z-2.3121
X45.0615 Z-2.3223
X45.3519 Z-2.3324
X45.6423 Z-2.3426
X46.1262 Z-2.3595
X46.6101 Z-2.3764
X47.0941 Z-2.3933
X47.7716 Z-2.4169
X48.6427 Z-2.4473
X50.0945 Z-2.498
X57.0632 Z-2.7413
X57.3535 Z-2.7515
X57.6439 Z-2.7616
X57.7407 Z-2.765
X57.8375 Z-2.7684
X57.9342 Z-2.7717
X58.031 Z-2.7751
X58.1278 Z-2.7785
X58.2246 Z-2.7819
X58.3214 Z-2.7853
X58.4182 Z-2.7886
X58.515 Z-2.792
X58.6118 Z-2.7954
X58.7085 Z-2.7988
X58.8053 Z-2.8022
X58.9021 Z-2.8055
X58.9989 Z-2.8089
X59.0957 Z-2.8123
X59.1925 Z-2.8156
X59.2893 Z-2.819
X59.3861 Z-2.8223
X59.4828 Z-2.8255
X59.5796 Z-2.8288
X59.6764 Z-2.832
X59.7732 Z-2.8353
X59.87 Z-2.8385
X59.9668 Z-2.8416
X60.0636 Z-2.8448
X60.1604 Z-2.8479
X60.2571 Z-2.851
X60.3539 Z-2.8541
X60.4507 Z-2.8571
X60.5475 Z-2.8601
X60.6443 Z-2.8631
X60.7411 Z-2.8661
X60.8379 Z-2.8691
X60.9347 Z-2.872
X61.0314 Z-2.8749
X61.1282 Z-2.8778
X61.225 Z-2.8806
X61.3218 Z-2.8834
X61.4186 Z-2.8862
X61.5154 Z-2.889
X61.6122 Z-2.8917
X61.709 Z-2.8945
X61.8057 Z-2.8971
X61.9025 Z-2.8998
X61.9993 Z-2.9024
X62.0961 Z-2.905
X62.1929 Z-2.9076
X62.2897 Z-2.9101
X62.3865 Z-2.9126
X62.58 Z-2.9176
X62.7736 Z-2.9224
X62.9672 Z-2.9271
X63.1608 Z-2.9316
X63.3543 Z-2.9361
X63.5479 Z-2.9404
X63.7415 Z-2.9445
X63.9351 Z-2.9486
X64.1286 Z-2.9525
X64.3222 Z-2.9562
X64.5158 Z-2.9599
X64.7094 Z-2.9634
X64.9029 Z-2.9667
X65.0965 Z-2.9699
X65.2901 Z-2.9729
X65.4837 Z-2.9758
X65.6772 Z-2.9786
X65.8708 Z-2.9812
X66.0644 Z-2.9836
X66.258 Z-2.9859
X66.4515 Z-2.988
X66.6451 Z-2.9899
X66.8387 Z-2.9917
X67.0323 Z-2.9933
X67.2258 Z-2.9948
X67.4194 Z-2.996
X67.613 Z-2.9971
X67.8066 Z-2.9981
X68.0001 Z-2.9988
X68.1937 Z-2.9994
X68.3873 Z-2.9998
X68.5809 Z-3
X68.6947
X71.9001
X72.0102 Y56.9502
X72.1203 Y56.952
X72.2304 Y56.9568
X72.3405 Y56.9645
X72.4506 Y56.9753
X72.5607 Y56.9892
X72.6708 Y57.006
X72.7809 Y57.0263
X72.8092 Y57.0318
X72.891 Y57.0493
X73.0011 Y57.0758
X73.1112 Y57.1057
X73.2213 Y57.1385
X73.2315 Y57.1419
X73.3314 Y57.1754
X73.4415 Y57.2153
X73.534 Y57.252
X73.5516 Y57.2593
X73.6617 Y57.3069
X73.7718 Y57.3583
X73.7797 Y57.3621
X73.8819 Y57.414
X73.9886 Y57.4722
X73.992 Y57.4741
X74.1021 Y57.5383
X74.1728 Y57.5823
X74.2122 Y57.6079
X74.3223 Y57.6822
X74.3368 Y57.6924
X74.4324 Y57.762
X74.4852 Y57.8025
X74.5425 Y57.8479
X74.6209 Y57.9126
X74.6526 Y57.9401
X74.7457 Y58.0227
X74.7627 Y58.0387
X74.8604 Y58.1327
X74.8728 Y58.1453
X74.9663 Y58.2428
X74.9829 Y58.2611
X75.0649 Y58.3529
X75.093 Y58.3858
X75.1568 Y58.463
X75.2031 Y58.5215
X75.2423 Y58.5731
X75.3132 Y58.671
X75.3219 Y58.6832
X75.396 Y58.7933
X75.4233 Y58.836
X75.4646 Y58.9034
X75.5292 Y59.0135
X75.5334 Y59.0209
X75.5891 Y59.1236
X75.6435 Y59.2314
X75.6446 Y59.2337
X75.6955 Y59.3438
X75.7435 Y59.4538
X75.7536 Y59.479
X75.7862 Y59.5639
X75.8267 Y59.674
X75.863 Y59.7841
X75.8637 Y59.7865
X75.8959 Y59.8942
X75.9253 Y60.0043
X75.9518 Y60.1144
X75.9738 Y60.2205
X75.9746 Y60.2245
X75.9945 Y60.3346
X76.0114 Y60.4447
X76.0255 Y60.5548
X76.0361 Y60.6649
X76.0437 Y60.775
X76.0485 Y60.885
X76.05 Y60.9951
X76.0487 Y61.1052
X76.0443 Y61.2153
X76.0368 Y61.3254
X76.0265 Y61.4355
X76.0128 Y61.5456
X75.9961 Y61.6557
X75.9765 Y61.7658
X75.9738 Y61.7795
X75.954 Y61.8759
X75.9277 Y61.986
X75.8987 Y62.0961
X75.8659 Y62.2062
X75.8637 Y62.2136
X75.8302 Y62.3162
X75.7898 Y62.4263
X75.7536 Y62.521
X75.7476 Y62.5364
X75.6999 Y62.6465
X75.6493 Y62.7566
X75.6435 Y62.7686
X75.5942 Y62.8667
X75.5347 Y62.9768
X75.5334 Y62.9791
X75.4705 Y63.0869
X75.4233 Y63.1641
X75.4024 Y63.197
X75.3286 Y63.3071
X75.3132 Y63.329
X75.2494 Y63.4172
X75.2031 Y63.4785
X75.1647 Y63.5273
X75.093 Y63.6142
X75.0735 Y63.6374
X74.9829 Y63.739
X74.9752 Y63.7474
X74.8728 Y63.8548
X74.87 Y63.8575
X74.7627 Y63.9613
X74.756 Y63.9676
X74.6526 Y64.0599
X74.6321 Y64.0777
X74.5425 Y64.1521
X74.4977 Y64.1878
X74.4324 Y64.2381
X74.3507 Y64.2979
X74.3223 Y64.3178
X74.2122 Y64.3921
X74.1878 Y64.408
X74.1021 Y64.4617
X74.0059 Y64.5181
X73.992 Y64.5259
X73.8819 Y64.5861
X73.7997 Y64.6282
X73.7718 Y64.6417
X73.6617 Y64.6931
X73.5574 Y64.7383
X73.5516 Y64.7407
X73.4415 Y64.7847
X73.3314 Y64.8246
X73.2611 Y64.8484
X73.2213 Y64.8615
X73.1112 Y64.8943
X73.0011 Y64.9242
X72.891 Y64.9507
X72.8552 Y64.9585
X72.7809 Y64.9737
X72.6708 Y64.994
X72.5607 Y65.0108
X72.4506 Y65.0247
X72.3405 Y65.0355
X72.2304 Y65.0432
X72.1203 Y65.048
X72.0102 Y65.0498
X71.9001 Y65.05
X26.2084
X26.1533 Y65.0511
X26.0983 Y65.0555
X26.0558 Y65.061
X26.0132 Y65.0686
X25.9882 Y65.0739
X25.9331 Y65.0883
X25.8781 Y65.1062
X25.823 Y65.128
X25.768 Y65.1539
X25.7227 Y65.1786
X25.6579 Y65.2199
X25.6141 Y65.2522
X25.5703 Y65.2887
X25.5478 Y65.3093
X25.5034 Y65.3541
X25.4644 Y65.3988
X25.4377 Y65.4331
X25.4109 Y65.471
X25.3868 Y65.5089
X25.356 Y65.564
X25.3298 Y65.619
X25.3276 Y65.624
X25.3068 Y65.6766
X25.2895 Y65.7291
X25.2749 Y65.7841
X25.2637 Y65.8392
X25.2559 Y65.8942
X25.2514 Y65.9493
X25.25 Y66.0594
Y266.7573
X25.2524 Y266.8674
X25.2579 Y266.9224
X25.2668 Y266.9775
X25.2789 Y267.0325
X25.2946 Y267.0876
X25.3098 Y267.1318
X25.3276 Y267.176
X25.3373 Y267.1977
X25.3648 Y267.2527
X25.3971 Y267.3078
X25.4377 Y267.3669
X25.4784 Y267.4178
X25.5112 Y267.4543
X25.5478 Y267.4907
X25.5896 Y267.528
X25.6238 Y267.5553
X25.6579 Y267.5801
X25.7052 Y267.611
X25.7526 Y267.638
X25.768 Y267.6461
X25.823 Y267.672
X25.8781 Y267.6938
X25.9331 Y267.7117
X25.9882 Y267.7261
X26.0432 Y267.737
X26.0983 Y267.7445
X26.1404 Y267.7481
X26.2084 Y267.75
X32.0484
X32.05 Y267.7517
Y288.9959
X32.0514 Y289.051
X32.0559 Y289.106
X32.0638 Y289.161
X32.0749 Y289.2161
X32.0895 Y289.2711
X32.1078 Y289.3262
X32.1289 Y289.379
X32.1538 Y289.4318
X32.1561 Y289.4363
X32.1869 Y289.4913
X32.2228 Y289.5464
X32.2639 Y289.6006
X32.3133 Y289.6565
X32.3437 Y289.6868
X32.374 Y289.7146
X32.4064 Y289.7417
X32.4388 Y289.7665
X32.4841 Y289.7977
X32.5392 Y289.8307
X32.5942 Y289.859
X32.6339 Y289.8766
X32.7043 Y289.9028
X32.7594 Y289.919
X32.8144 Y289.9317
X32.8695 Y289.941
X32.9245 Y289.947
X33.0346 Y289.95
X318.9654
X319.0755 Y289.947
X319.1306 Y289.941
X319.1856 Y289.9317
X319.2407 Y289.919
X319.2957 Y289.9028
X319.3661 Y289.8766
X319.4058 Y289.859
X319.4609 Y289.8307
X319.5159 Y289.7977
X319.5612 Y289.7665
X319.5936 Y289.7417
X319.626 Y289.7146
X319.6564 Y289.6868
X319.6867 Y289.6565
X319.7361 Y289.6006
X319.7772 Y289.5464
X319.8131 Y289.4913
X319.8439 Y289.4363
X319.8462 Y289.4318
X319.8712 Y289.379
X319.8923 Y289.3262
X319.9105 Y289.2711
X319.9251 Y289.2161
X319.9363 Y289.161
X319.9441 Y289.106
X319.9487 Y289.051
X319.95 Y288.9959
Y267.7517
X319.9516 Y267.75
X325.7916
X325.8597 Y267.7481
X325.9017 Y267.7445
X325.9568 Y267.737
X326.0118 Y267.7261
X326.0669 Y267.7118
X326.1219 Y267.6938
X326.177 Y267.672
X326.232 Y267.6461
X326.2475 Y267.638
X326.2948 Y267.611
X326.3421 Y267.5801
X326.3763 Y267.5553
X326.4104 Y267.528
X326.4522 Y267.4907
X326.4888 Y267.4543
X326.5217 Y267.4178
X326.5623 Y267.3669
X326.6029 Y267.3078
X326.6352 Y267.2527
X326.6628 Y267.1977
X326.6725 Y267.176
X326.6902 Y267.1318
X326.7054 Y267.0876
X326.7211 Y267.0325
X326.7333 Y266.9775
X326.7421 Y266.9224
X326.7476 Y266.8674
X326.75 Y266.7573
Y26.206
X326.7487 Y26.151
X326.7443 Y26.0959
X326.7366 Y26.0409
X326.7256 Y25.9858
X326.7111 Y25.9308
X326.693 Y25.8758
X326.6725 Y25.824
X326.6449 Y25.7657
X326.6143 Y25.7106
X326.5785 Y25.6556
X326.5623 Y25.6331
X326.5277 Y25.5893
X326.4886 Y25.5455
X326.4522 Y25.5093
X326.408 Y25.4701
X326.3638 Y25.4354
X326.3421 Y25.4199
X326.2871 Y25.3844
X326.232 Y25.3539
X326.1707 Y25.3253
X326.1219 Y25.3062
X326.0669 Y25.2883
X326.0118 Y25.2739
X325.9568 Y25.263
X325.9017 Y25.2555
X325.8467 Y25.2512
X325.7916 Y25.25
X296.0645
X295.9544 Y25.2511
X295.8994 Y25.2554
X295.8443 Y25.2629
X295.7893 Y25.2737
X295.7342 Y25.288
X295.6818 Y25.3049
X295.6294 Y25.3253
X295.6241 Y25.3275
X295.5691 Y25.3534
X295.514 Y25.3837
X295.4751 Y25.4082
X295.4362 Y25.4354
X295.4201 Y25.4476
X295.4181 Y25.4491
X295.416 Y25.45
X56.584
X56.582 Y25.4491
X56.58 Y25.4476
X56.5638 Y25.4354
X56.5249 Y25.4082
X56.486 Y25.3837
X56.431 Y25.3534
X56.3759 Y25.3275
X56.3707 Y25.3253
X56.3182 Y25.3049
X56.2658 Y25.2879
X56.2108 Y25.2737
X56.1557 Y25.2629
X56.1007 Y25.2554
X56.0456 Y25.2511
X55.9355 Y25.25
X26.2084
X26.1533 Y25.2512
X26.0983 Y25.2555
X26.0432 Y25.263
X25.9882 Y25.2739
X25.9331 Y25.2883
X25.8781 Y25.3062
X25.8294 Y25.3253
X25.768 Y25.3539
X25.7129 Y25.3844
X25.6579 Y25.4199
X25.6362 Y25.4354
X25.592 Y25.4701
X25.5478 Y25.5093
X25.5115 Y25.5455
X25.4723 Y25.5893
X25.4377 Y25.6331
X25.4215 Y25.6556
X25.3858 Y25.7106
X25.3551 Y25.7657
X25.3276 Y25.824
X25.3071 Y25.8758
X25.289 Y25.9308
X25.2745 Y25.9858
X25.2634 Y26.0409
X25.2557 Y26.0959
X25.2513 Y26.151
X25.25 Y26.206
Y55.9309
X25.2509 Y56.041
X25.2549 Y56.096
X25.2621 Y56.1511
X25.2727 Y56.2061
X25.2866 Y56.2612
X25.3042 Y56.3162
X25.3256 Y56.3713
X25.3276 Y56.376
X25.3522 Y56.4287
X25.381 Y56.4814
X25.4077 Y56.5241
X25.4377 Y56.5669
X25.4566 Y56.5915
X25.4989 Y56.6411
X25.5478 Y56.6907
X25.5595 Y56.7015
X25.6087 Y56.7435
X25.6579 Y56.7801
X25.7063 Y56.8116
X25.768 Y56.8461
X25.823 Y56.872
X25.8781 Y56.8938
X25.924 Y56.909
X25.97 Y56.9217
X25.9882 Y56.9261
X26.0432 Y56.937
X26.0983 Y56.9445
X26.1533 Y56.9489
X26.2084 Y56.95
X68.6947
X68.8882 Z-3.0001
X69.0818 Z-3.0004
X69.2754 Z-3.0008
X69.469 Z-3.0015
X69.6625 Z-3.0023
X69.8561 Z-3.0033
X70.0497 Z-3.0045
X70.2432 Z-3.0058
X70.4368 Z-3.0073
X70.6304 Z-3.009
X70.824 Z-3.0109
X71.0175 Z-3.0129
X71.2111 Z-3.0151
X71.4047 Z-3.0174
X71.5983 Z-3.0199
X71.7918 Z-3.0225
X71.9854 Y56.9501 Z-3.0253
X72.1789 Y56.954 Z-3.0283
X72.372 Y56.9674 Z-3.0314
X72.5643 Y56.9897 Z-3.0347
X72.7553 Y57.0213 Z-3.0381
X72.9445 Y57.0619 Z-3.0416
X73.1317 Y57.1114 Z-3.0453
X73.3161 Y57.1701 Z-3.0491
X73.4976 Y57.2373 Z-3.0531
X73.6757 Y57.3132 Z-3.0572
X73.85 Y57.3974 Z-3.0614
X74.02 Y57.4899 Z-3.0658
X74.1854 Y57.5905 Z-3.0702
X74.3459 Y57.6987 Z-3.0749
X74.5008 Y57.8147 Z-3.0796
X74.6501 Y57.9379 Z-3.0845
X74.7935 Y58.0679 Z-3.0894
X74.863 Y58.1353 Z-3.092
X74.9305 Y58.2047 Z-3.0945
X74.9962 Y58.2757 Z-3.0971
X75.0606 Y58.348 Z-3.0997
X75.1232 Y58.4218 Z-3.1024
X75.1841 Y58.497 Z-3.1051
X75.2429 Y58.5739 Z-3.1078
X75.2998 Y58.6522 Z-3.1105
X75.355 Y58.7317 Z-3.1133
X75.4085 Y58.8123 Z-3.1161
X75.4593 Y58.8947 Z-3.1189
X75.509 Y58.9778 Z-3.1217
X75.5562 Y59.0623 Z-3.1246
X75.6017 Y59.1477 Z-3.1275
X75.6449 Y59.2343 Z-3.1304
X75.6858 Y59.3221 Z-3.1334
X75.7251 Y59.4105 Z-3.1363
X75.7618 Y59.5001 Z-3.1393
X75.7962 Y59.5905 Z-3.1423
X75.8294 Y59.6814 Z-3.1454
X75.8597 Y59.7734 Z-3.1485
X75.8876 Y59.866 Z-3.1516
X75.9137 Y59.9593 Z-3.1547
X75.9374 Y60.0531 Z-3.1578
X75.9593 Y60.1474 Z-3.161
X75.978 Y60.2423 Z-3.1642
X75.995 Y60.3376 Z-3.1674
X76.0098 Y60.4333 Z-3.1706
X76.0224 Y60.5292 Z-3.1739
X76.0326 Y60.6255 Z-3.1772
X76.0406 Y60.7219 Z-3.1805
X76.046 Y60.8186 Z-3.1838
X76.0491 Y60.9153 Z-3.1871
X76.05 Y61.0121 Z-3.1905
X76.0486 Y61.1089 Z-3.1939
X76.0449 Y61.2056 Z-3.1972
X76.0387 Y61.3022 Z-3.2006
X76.0302 Y61.3986 Z-3.204
X76.0195 Y61.4948 Z-3.2074
X76.0064 Y61.5907 Z-3.2108
X75.9911 Y61.6863 Z-3.2141
X75.9734 Y61.7814 Z-3.2175
X75.954 Y61.8762 Z-3.2209
X75.9316 Y61.9704 Z-3.2243
X75.9076 Y62.0642 Z-3.2276
X75.8808 Y62.1572 Z-3.231
X75.8523 Y62.2497 Z-3.2344
X75.8212 Y62.3413 Z-3.2378
X75.7877 Y62.4321 Z-3.2412
X75.753 Y62.5225 Z-3.2446
X75.7156 Y62.6117 Z-3.2479
X75.6757 Y62.6999 Z-3.2513
X75.6342 Y62.7874 Z-3.2547
X75.5905 Y62.8737 Z-3.2581
X75.5446 Y62.9589 Z-3.2614
X75.4971 Y63.0432 Z-3.2648
X75.4467 Y63.1259 Z-3.2682
X75.3952 Y63.2079 Z-3.2716
X75.3414 Y63.2883 Z-3.275
X75.2857 Y63.3675 Z-3.2783
X75.2285 Y63.4456 Z-3.2817
X75.169 Y63.5219 Z-3.2851
X75.1076 Y63.5967 Z-3.2885
X75.0446 Y63.6702 Z-3.2919
X74.9799 Y63.7422 Z-3.2952
X74.9139 Y63.813 Z-3.2986
X74.8457 Y63.8816 Z-3.302
X74.7759 Y63.9487 Z-3.3054
X74.7046 Y64.0142 Z-3.3088
X74.6318 Y64.078 Z-3.3121
X74.5576 Y64.14 Z-3.3155
X74.4817 Y64.2002 Z-3.3189
X74.4046 Y64.2587 Z-3.3223
X74.326 Y64.3152 Z-3.3257
X74.2461 Y64.3697 Z-3.329
X74.1651 Y64.4228 Z-3.3324
X74.0826 Y64.4734 Z-3.3358
X73.9989 Y64.522 Z-3.3392
X73.9142 Y64.5687 Z-3.3426
X73.8285 Y64.6137 Z-3.3459
X73.7416 Y64.6564 Z-3.3493
X73.6536 Y64.6967 Z-3.3527
X73.5648 Y64.7352 Z-3.3561
X73.4751 Y64.7715 Z-3.3595
X73.3846 Y64.8058 Z-3.3628
X73.2932 Y64.8378 Z-3.3662
X73.2012 Y64.8677 Z-3.3696
X73.1084 Y64.8951 Z-3.373
X73.015 Y64.9206 Z-3.3763
X72.921 Y64.9438 Z-3.3797
X72.8265 Y64.9647 Z-3.3831
X72.7315 Y64.9832 Z-3.3865
X72.6361 Y64.9995 Z-3.3899
X72.5404 Y65.0136 Z-3.3932
X72.4443 Y65.0254 Z-3.3966
X72.348 Y65.0349 Z-3.4
X72.2514 Y65.0421 Z-3.4034
X72.1548 Y65.0468 Z-3.4068
X72.058 Y65.0493 Z-3.4101
X71.9612 Y65.05 Z-3.4135
X71.0901 Z-3.4439
X69.8319 Z-3.4879
X60.5403 Z-3.8123
X60.4435 Z-3.8156
X60.3468 Z-3.8189
X60.25 Z-3.8222
X60.1532 Z-3.8255
X60.0564 Z-3.8288
X59.9596 Z-3.832
X59.8628 Z-3.8352
X59.766 Z-3.8384
X59.6692 Z-3.8416
X59.5725 Z-3.8448
X59.4757 Z-3.8479
X59.3789 Z-3.851
X59.2821 Z-3.8541
X59.1853 Z-3.8571
X59.0885 Z-3.8601
X58.9917 Z-3.8631
X58.8949 Z-3.8661
X58.7982 Z-3.8691
X58.7014 Z-3.872
X58.6046 Z-3.8749
X58.5078 Z-3.8778
X58.411 Z-3.8806
X58.3142 Z-3.8834
X58.2174 Z-3.8862
X58.1206 Z-3.889
X58.0239 Z-3.8917
X57.9271 Z-3.8944
X57.8303 Z-3.8971
X57.7335 Z-3.8998
X57.6367 Z-3.9024
X57.5399 Z-3.905
X57.4431 Z-3.9076
X57.3463 Z-3.9101
X57.2496 Z-3.9126
X57.056 Z-3.9176
X56.8624 Z-3.9224
X56.6688 Z-3.9271
X56.4753 Z-3.9316
X56.2817 Z-3.9361
X56.0881 Z-3.9404
X55.8945 Z-3.9445
X55.701 Z-3.9486
X55.5074 Z-3.9525
X55.3138 Z-3.9562
X55.1202 Z-3.9599
X54.9267 Z-3.9633
X54.7331 Z-3.9667
X54.5395 Z-3.9699
X54.3459 Z-3.9729
X54.1524 Z-3.9758
X53.9588 Z-3.9786
X53.7652 Z-3.9812
X53.5716 Z-3.9836
X53.3781 Z-3.9859
X53.1845 Z-3.988
X52.9909 Z-3.9899
X52.7973 Z-3.9917
X52.6038 Z-3.9933
X52.4102 Z-3.9948
X52.2166 Z-3.996
X52.023 Z-3.9971
X51.8295 Z-3.9981
X51.6359 Z-3.9988
X51.4423 Z-3.9994
X51.2487 Z-3.9998
X51.0552 Z-4
X50.9409
X26.2084
X26.1533 Y65.0511
X26.0983 Y65.0555
X26.0558 Y65.061
X26.0132 Y65.0686
X25.9882 Y65.0739
X25.9331 Y65.0883
X25.8781 Y65.1062
X25.823 Y65.128
X25.768 Y65.1539
X25.7227 Y65.1786
X25.6579 Y65.2199
X25.6141 Y65.2522
X25.5703 Y65.2887
X25.5478 Y65.3093
X25.5034 Y65.3541
X25.4644 Y65.3988
X25.4377 Y65.4331
X25.4109 Y65.471
X25.3868 Y65.5089
X25.356 Y65.564
X25.3298 Y65.619
X25.3276 Y65.624
X25.3068 Y65.6766
X25.2895 Y65.7291
X25.2749 Y65.7841
X25.2637 Y65.8392
X25.2559 Y65.8942
X25.2514 Y65.9493
X25.25 Y66.0594
Y266.7573
X25.2524 Y266.8674
X25.2579 Y266.9224
X25.2668 Y266.9775
X25.2789 Y267.0325
X25.2946 Y267.0876
X25.3098 Y267.1318
X25.3276 Y267.176
X25.3373 Y267.1977
X25.3648 Y267.2527
X25.3971 Y267.3078
X25.4377 Y267.3669
X25.4784 Y267.4178
X25.5112 Y267.4543
X25.5478 Y267.4907
X25.5896 Y267.528
X25.6238 Y267.5553
X25.6579 Y267.5801
X25.7052 Y267.611
X25.7526 Y267.638
X25.768 Y267.6461
X25.823 Y267.672
X25.8781 Y267.6938
X25.9331 Y267.7117
X25.9882 Y267.7261
X26.0432 Y267.737
X26.0983 Y267.7445
X26.1404 Y267.7481
X26.2084 Y267.75
X32.0484
X32.05 Y267.7517
Y288.9959
X32.0514 Y289.051
X32.0559 Y289.106
X32.0638 Y289.161
X32.0749 Y289.2161
X32.0895 Y289.2711
X32.1078 Y289.3262
X32.1289 Y289.379
X32.1538 Y289.4318
X32.1561 Y289.4363
X32.1869 Y289.4913
X32.2228 Y289.5464
X32.2639 Y289.6006
X32.3133 Y289.6565
X32.3437 Y289.6868
X32.374 Y289.7146
X32.4064 Y289.7417
X32.4388 Y289.7665
X32.4841 Y289.7977
X32.5392 Y289.8307
X32.5942 Y289.859
X32.6339 Y289.8766
X32.7043 Y289.9028
X32.7594 Y289.919
X32.8144 Y289.9317
X32.8695 Y289.941
X32.9245 Y289.947
X33.0346 Y289.95
X318.9654
X319.0755 Y289.947
X319.1306 Y289.941
X319.1856 Y289.9317
X319.2407 Y289.919
X319.2957 Y289.9028
X319.3661 Y289.8766
X319.4058 Y289.859
X319.4609 Y289.8307
X319.5159 Y289.7977
X319.5612 Y289.7665
X319.5936 Y289.7417
X319.626 Y289.7146
X319.6564 Y289.6868
X319.6867 Y289.6565
X319.7361 Y289.6006
X319.7772 Y289.5464
X319.8131 Y289.4913
X319.8439 Y289.4363
X319.8462 Y289.4318
X319.8712 Y289.379
X319.8923 Y289.3262
X319.9105 Y289.2711
X319.9251 Y289.2161
X319.9363 Y289.161
X319.9441 Y289.106
X319.9487 Y289.051
X319.95 Y288.9959
Y267.7517
X319.9516 Y267.75
X325.7916
X325.8597 Y267.7481
X325.9017 Y267.7445
X325.9568 Y267.737
X326.0118 Y267.7261
X326.0669 Y267.7118
X326.1219 Y267.6938
X326.177 Y267.672
X326.232 Y267.6461
X326.2475 Y267.638
X326.2948 Y267.611
X326.3421 Y267.5801
X326.3763 Y267.5553
X326.4104 Y267.528
X326.4522 Y267.4907
X326.4888 Y267.4543
X326.5217 Y267.4178
X326.5623 Y267.3669
X326.6029 Y267.3078
X326.6352 Y267.2527
X326.6628 Y267.1977
X326.6725 Y267.176
X326.6902 Y267.1318
X326.7054 Y267.0876
X326.7211 Y267.0325
X326.7333 Y266.9775
X326.7421 Y266.9224
X326.7476 Y266.8674
X326.75 Y266.7573
Y26.206
X326.7487 Y26.151
X326.7443 Y26.0959
X326.7366 Y26.0409
X326.7256 Y25.9858
X326.7111 Y25.9308
X326.693 Y25.8758
X326.6725 Y25.824
X326.6449 Y25.7657
X326.6143 Y25.7106
X326.5785 Y25.6556
X326.5623 Y25.6331
X326.5277 Y25.5893
X326.4886 Y25.5455
X326.4522 Y25.5093
X326.408 Y25.4701
X326.3638 Y25.4354
X326.3421 Y25.4199
X326.2871 Y25.3844
X326.232 Y25.3539
X326.1707 Y25.3253
X326.1219 Y25.3062
X326.0669 Y25.2883
X326.0118 Y25.2739
X325.9568 Y25.263
X325.9017 Y25.2555
X325.8467 Y25.2512
X325.7916 Y25.25
X296.0645
X295.9544 Y25.2511
X295.8994 Y25.2554
X295.8443 Y25.2629
X295.7893 Y25.2737
X295.7342 Y25.288
X295.6818 Y25.3049
X295.6294 Y25.3253
X295.6241 Y25.3275
X295.5691 Y25.3534
X295.514 Y25.3837
X295.4751 Y25.4082
X295.4362 Y25.4354
X295.4201 Y25.4476
X295.4181 Y25.4491
X295.416 Y25.45
X56.584
X56.582 Y25.4491
X56.58 Y25.4476
X56.5638 Y25.4354
X56.5249 Y25.4082
X56.486 Y25.3837
X56.431 Y25.3534
X56.3759 Y25.3275
X56.3707 Y25.3253
X56.3182 Y25.3049
X56.2658 Y25.2879
X56.2108 Y25.2737
X56.1557 Y25.2629
X56.1007 Y25.2554
X56.0456 Y25.2511
X55.9355 Y25.25
X26.2084
X26.1533 Y25.2512
X26.0983 Y25.2555
X26.0432 Y25.263
X25.9882 Y25.2739
X25.9331 Y25.2883
X25.8781 Y25.3062
X25.8294 Y25.3253
X25.768 Y25.3539
X25.7129 Y25.3844
X25.6579 Y25.4199
X25.6362 Y25.4354
X25.592 Y25.4701
X25.5478 Y25.5093
X25.5115 Y25.5455
X25.4723 Y25.5893
X25.4377 Y25.6331
X25.4215 Y25.6556
X25.3858 Y25.7106
X25.3551 Y25.7657
X25.3276 Y25.824
X25.3071 Y25.8758
X25.289 Y25.9308
X25.2745 Y25.9858
X25.2634 Y26.0409
X25.2557 Y26.0959
X25.2513 Y26.151
X25.25 Y26.206
Y55.9309
X25.2509 Y56.041
X25.2549 Y56.096
X25.2621 Y56.1511
X25.2727 Y56.2061
X25.2866 Y56.2612
X25.3042 Y56.3162
X25.3256 Y56.3713
X25.3276 Y56.376
X25.3522 Y56.4287
X25.381 Y56.4814
X25.4077 Y56.5241
X25.4377 Y56.5669
X25.4566 Y56.5915
X25.4989 Y56.6411
X25.5478 Y56.6907
X25.5595 Y56.7015
X25.6087 Y56.7435
X25.6579 Y56.7801
X25.7063 Y56.8116
X25.768 Y56.8461
X25.823 Y56.872
X25.8781 Y56.8938
X25.924 Y56.909
X25.97 Y56.9217
X25.9882 Y56.9261
X26.0432 Y56.937
X26.0983 Y56.9445
X26.1533 Y56.9489
X26.2084 Y56.95
X68.6947
X71.9001
X72.0102 Y56.9502
X72.1203 Y56.952
X72.2304 Y56.9568
X72.3405 Y56.9645
X72.4506 Y56.9753
X72.5607 Y56.9892
X72.6708 Y57.006
X72.7809 Y57.0263
X72.8092 Y57.0318
X72.891 Y57.0493
X73.0011 Y57.0758
X73.1112 Y57.1057
X73.2213 Y57.1385
X73.2315 Y57.1419
X73.3314 Y57.1754
X73.4415 Y57.2153
X73.534 Y57.252
X73.5516 Y57.2593
X73.6617 Y57.3069
X73.7718 Y57.3583
X73.7797 Y57.3621
X73.8819 Y57.414
X73.9886 Y57.4722
X73.992 Y57.4741
X74.1021 Y57.5383
X74.1728 Y57.5823
X74.2122 Y57.6079
X74.3223 Y57.6822
X74.3368 Y57.6924
X74.4324 Y57.762
X74.4852 Y57.8025
X74.5425 Y57.8479
X74.6209 Y57.9126
X74.6526 Y57.9401
X74.7457 Y58.0227
X74.7627 Y58.0387
X74.8604 Y58.1327
X74.8728 Y58.1453
X74.9663 Y58.2428
X74.9829 Y58.2611
X75.0649 Y58.3529
X75.093 Y58.3858
X75.1568 Y58.463
X75.2031 Y58.5215
X75.2423 Y58.5731
X75.3132 Y58.671
X75.3219 Y58.6832
X75.396 Y58.7933
X75.4233 Y58.836
X75.4646 Y58.9034
X75.5292 Y59.0135
X75.5334 Y59.0209
X75.5891 Y59.1236
X75.6435 Y59.2314
X75.6446 Y59.2337
X75.6955 Y59.3438
X75.7435 Y59.4538
X75.7536 Y59.479
X75.7862 Y59.5639
X75.8267 Y59.674
X75.863 Y59.7841
X75.8637 Y59.7865
X75.8959 Y59.8942
X75.9253 Y60.0043
X75.9518 Y60.1144
X75.9738 Y60.2205
X75.9746 Y60.2245
X75.9945 Y60.3346
X76.0114 Y60.4447
X76.0255 Y60.5548
X76.0361 Y60.6649
X76.0437 Y60.775
X76.0485 Y60.885
X76.05 Y60.9951
X76.0487 Y61.1052
X76.0443 Y61.2153
X76.0368 Y61.3254
X76.0265 Y61.4355
X76.0128 Y61.5456
X75.9961 Y61.6557
X75.9765 Y61.7658
X75.9738 Y61.7795
X75.954 Y61.8759
X75.9277 Y61.986
X75.8987 Y62.0961
X75.8659 Y62.2062
X75.8637 Y62.2136
X75.8302 Y62.3162
X75.7898 Y62.4263
X75.7536 Y62.521
X75.7476 Y62.5364
X75.6999 Y62.6465
X75.6493 Y62.7566
X75.6435 Y62.7686
X75.5942 Y62.8667
X75.5347 Y62.9768
X75.5334 Y62.9791
X75.4705 Y63.0869
X75.4233 Y63.1641
X75.4024 Y63.197
X75.3286 Y63.3071
X75.3132 Y63.329
X75.2494 Y63.4172
X75.2031 Y63.4785
X75.1647 Y63.5273
X75.093 Y63.6142
X75.0735 Y63.6374
X74.9829 Y63.739
X74.9752 Y63.7474
X74.8728 Y63.8548
X74.87 Y63.8575
X74.7627 Y63.9613
X74.756 Y63.9676
X74.6526 Y64.0599
X74.6321 Y64.0777
X74.5425 Y64.1521
X74.4977 Y64.1878
X74.4324 Y64.2381
X74.3507 Y64.2979
X74.3223 Y64.3178
X74.2122 Y64.3921
X74.1878 Y64.408
X74.1021 Y64.4617
X74.0059 Y64.5181
X73.992 Y64.5259
X73.8819 Y64.5861
X73.7997 Y64.6282
X73.7718 Y64.6417
X73.6617 Y64.6931
X73.5574 Y64.7383
X73.5516 Y64.7407
X73.4415 Y64.7847
X73.3314 Y64.8246
X73.2611 Y64.8484
X73.2213 Y64.8615
X73.1112 Y64.8943
X73.0011 Y64.9242
X72.891 Y64.9507
X72.8552 Y64.9585
X72.7809 Y64.9737
X72.6708 Y64.994
X72.5607 Y65.0108
X72.4506 Y65.0247
X72.3405 Y65.0355
X72.2304 Y65.0432
X72.1203 Y65.048
X72.0102 Y65.0498
X71.9001 Y65.05
X50.9409
X50.7474 Z-4.0001
X50.5538 Z-4.0004
X50.3602 Z-4.0008
X50.1666 Z-4.0015
X49.9731 Z-4.0023
X49.7795 Z-4.0033
X49.5859 Z-4.0045
X49.3923 Z-4.0058
X49.1988 Z-4.0073
X49.0052 Z-4.009
X48.8116 Z-4.0109
X48.618 Z-4.0129
X48.4245 Z-4.0151
X48.2309 Z-4.0174
X48.0373 Z-4.0199
X47.8437 Z-4.0225
X47.6502 Z-4.0253
X47.4566 Z-4.0283
X47.263 Z-4.0314
X47.0694 Z-4.0347
X46.8759 Z-4.0381
X46.6823 Z-4.0416
X46.4887 Z-4.0453
X46.2952 Z-4.0491
X46.1016 Z-4.0531
X45.908 Z-4.0572
X45.7144 Z-4.0614
X45.5209 Z-4.0658
X45.3273 Z-4.0702
X45.1337 Z-4.0749
X44.9401 Z-4.0796
X44.7466 Z-4.0845
X44.553 Z-4.0894
X44.4562 Z-4.092
X44.3594 Z-4.0945
X44.2626 Z-4.0971
X44.1658 Z-4.0997
X44.069 Z-4.1024
X43.9723 Z-4.1051
X43.8755 Z-4.1078
X43.7787 Z-4.1105
X43.6819 Z-4.1133
X43.5851 Z-4.1161
X43.4883 Z-4.1189
X43.3915 Z-4.1217
X43.2947 Z-4.1246
X43.198 Z-4.1275
X43.1012 Z-4.1304
X43.0044 Z-4.1334
X42.9076 Z-4.1363
X42.8108 Z-4.1393
X42.714 Z-4.1423
X42.6172 Z-4.1454
X42.5204 Z-4.1485
X42.4237 Z-4.1516
X42.3269 Z-4.1547
X42.2301 Z-4.1578
X42.1333 Z-4.161
X42.0365 Z-4.1642
X41.9397 Z-4.1674
X41.8429 Z-4.1706
X41.7461 Z-4.1739
X41.6494 Z-4.1772
X41.5526 Z-4.1805
X41.4558 Z-4.1838
X41.359 Z-4.1871
X41.1654 Z-4.1939
X41.0686 Z-4.1972
X40.9718 Z-4.2006
X40.8751 Z-4.204
X40.7783 Z-4.2074
X40.6815 Z-4.2108
X40.5847 Z-4.2141
X40.4879 Z-4.2175
X40.3911 Z-4.2209
X40.2943 Z-4.2243
X40.1975 Z-4.2277
X40.1008 Z-4.231
X40.004 Z-4.2344
X39.8104 Z-4.2412
X39.52 Z-4.2513
X39.2297 Z-4.2614
X38.9393 Z-4.2716
X38.6489 Z-4.2817
X38.3586 Z-4.2919
X38.0682 Z-4.302
X37.7779 Z-4.3121
X37.4875 Z-4.3223
X37.1971 Z-4.3324
X36.9068 Z-4.3426
X36.4228 Z-4.3595
X35.9389 Z-4.3764
X35.455 Z-4.3933
X34.7775 Z-4.4169
X33.9064 Z-4.4473
X32.4546 Z-4.498
X26.2602 Z-4.7143
X26.1634 Y65.0507 Z-4.7177
X26.1151 Y65.0538 Z-4.7194
X26.067 Y65.0594 Z-4.7211
X26.0193 Y65.0674 Z-4.7227
X25.972 Y65.0778 Z-4.7244
X25.9254 Y65.0906 Z-4.7261
X25.8794 Y65.1057 Z-4.7278
X25.8343 Y65.1232 Z-4.7295
X25.7901 Y65.143 Z-4.7312
X25.747 Y65.165 Z-4.7329
X25.705 Y65.1891 Z-4.7345
X25.6644 Y65.2154 Z-4.7362
X25.6251 Y65.2437 Z-4.7379
X25.5874 Y65.274 Z-4.7396
X25.5512 Y65.3061 Z-4.7413
X25.5167 Y65.34 Z-4.743
X25.484 Y65.3757 Z-4.7447
X25.4531 Y65.413 Z-4.7464
X25.4242 Y65.4518 Z-4.748
X25.3973 Y65.492 Z-4.7497
X25.3724 Y65.5335 Z-4.7514
X25.3498 Y65.5763 Z-4.7531
X25.3293 Y65.6201 Z-4.7548
X25.3111 Y65.665 Z-4.7565
X25.2952 Y65.7107 Z-4.7582
X25.2816 Y65.7571 Z-4.7599
X25.2704 Y65.8042 Z-4.7615
X25.2617 Y65.8518 Z-4.7632
X25.2553 Y65.8998 Z-4.7649
X25.2514 Y65.9481 Z-4.7666
X25.25 Y65.9964 Z-4.7683
Y66.0932 Z-4.7717
Y66.19 Z-4.775
Y66.2868 Z-4.7784
Y66.3836 Z-4.7818
Y66.4804 Z-4.7852
Y66.5771 Z-4.7886
Y66.6739 Z-4.7919
Y66.7707 Z-4.7953
Y66.8675 Z-4.7987
Y66.9643 Z-4.8021
Y67.0611 Z-4.8055
Y67.1579 Z-4.8088
Y67.2547 Z-4.8122
Y67.3514 Z-4.8156
Y67.4482 Z-4.8189
Y67.545 Z-4.8222
Y67.6418 Z-4.8255
Y67.7386 Z-4.8287
Y67.8354 Z-4.832
Y67.9322 Z-4.8352
Y68.029 Z-4.8384
Y68.1257 Z-4.8415
Y68.2225 Z-4.8447
Y68.3193 Z-4.8478
Y68.4161 Z-4.8509
Y68.5129 Z-4.854
Y68.6097 Z-4.857
Y68.7065 Z-4.8601
Y68.8033 Z-4.8631
Y68.9 Z-4.8661
Y68.9968 Z-4.869
Y69.0936 Z-4.8719
Y69.1904 Z-4.8748
Y69.2872 Z-4.8777
Y69.384 Z-4.8806
Y69.4808 Z-4.8834
Y69.5776 Z-4.8862
Y69.6743 Z-4.8889
Y69.7711 Z-4.8917
Y69.8679 Z-4.8944
Y69.9647 Z-4.8971
Y70.0615 Z-4.8997
Y70.1583 Z-4.9024
Y70.2551 Z-4.905
Y70.3519 Z-4.9075
Y70.4486 Z-4.9101
Y70.5454 Z-4.9126
Y70.739 Z-4.9175
Y70.9326 Z-4.9223
Y71.1262 Z-4.927
Y71.3197 Z-4.9316
Y71.5133 Z-4.936
Y71.7069 Z-4.9403
Y71.9005 Z-4.9445
Y72.094 Z-4.9485
Y72.2876 Z-4.9524
Y72.4812 Z-4.9562
Y72.6748 Z-4.9598
Y72.8683 Z-4.9633
Y73.0619 Z-4.9667
Y73.2555 Z-4.9699
Y73.4491 Z-4.9729
Y73.6426 Z-4.9758
Y73.8362 Z-4.9785
Y74.0298 Z-4.9811
Y74.2233 Z-4.9836
Y74.4169 Z-4.9858
Y74.6105 Z-4.9879
Y74.8041 Z-4.9899
Y74.9976 Z-4.9917
Y75.1912 Z-4.9933
Y75.3848 Z-4.9947
Y75.5784 Z-4.996
Y75.7719 Z-4.9971
Y75.9655 Z-4.9981
Y76.1591 Z-4.9988
Y76.3527 Z-4.9994
Y76.5462 Z-4.9998
Y76.7398 Z-5
Y76.8559
Y266.7573
X25.2524 Y266.8674
X25.2579 Y266.9224
X25.2668 Y266.9775
X25.2789 Y267.0325
X25.2946 Y267.0876
X25.3098 Y267.1318
X25.3276 Y267.176
X25.3373 Y267.1977
X25.3648 Y267.2527
X25.3971 Y267.3078
X25.4377 Y267.3669
X25.4784 Y267.4178
X25.5112 Y267.4543
X25.5478 Y267.4907
X25.5896 Y267.528
X25.6238 Y267.5553
X25.6579 Y267.5801
X25.7052 Y267.611
X25.7526 Y267.638
X25.768 Y267.6461
X25.823 Y267.672
X25.8781 Y267.6938
X25.9331 Y267.7117
X25.9882 Y267.7261
X26.0432 Y267.737
X26.0983 Y267.7445
X26.1404 Y267.7481
X26.2084 Y267.75
X32.0484
X32.05 Y267.7517
Y288.9959
X32.0514 Y289.051
X32.0559 Y289.106
X32.0638 Y289.161
X32.0749 Y289.2161
X32.0895 Y289.2711
X32.1078 Y289.3262
X32.1289 Y289.379
X32.1538 Y289.4318
X32.1561 Y289.4363
X32.1869 Y289.4913
X32.2228 Y289.5464
X32.2639 Y289.6006
X32.3133 Y289.6565
X32.3437 Y289.6868
X32.374 Y289.7146
X32.4064 Y289.7417
X32.4388 Y289.7665
X32.4841 Y289.7977
X32.5392 Y289.8307
X32.5942 Y289.859
X32.6339 Y289.8766
X32.7043 Y289.9028
X32.7594 Y289.919
X32.8144 Y289.9317
X32.8695 Y289.941
X32.9245 Y289.947
X33.0346 Y289.95
X318.9654
X319.0755 Y289.947
X319.1306 Y289.941
X319.1856 Y289.9317
X319.2407 Y289.919
X319.2957 Y289.9028
X319.3661 Y289.8766
X319.4058 Y289.859
X319.4609 Y289.8307
X319.5159 Y289.7977
X319.5612 Y289.7665
X319.5936 Y289.7417
X319.626 Y289.7146
X319.6564 Y289.6868
X319.6867 Y289.6565
X319.7361 Y289.6006
X319.7772 Y289.5464
X319.8131 Y289.4913
X319.8439 Y289.4363
X319.8462 Y289.4318
X319.8712 Y289.379
X319.8923 Y289.3262
X319.9105 Y289.2711
X319.9251 Y289.2161
X319.9363 Y289.161
X319.9441 Y289.106
X319.9487 Y289.051
X319.95 Y288.9959
Y267.7517
X319.9516 Y267.75
X325.7916
X325.8597 Y267.7481
X325.9017 Y267.7445
X325.9568 Y267.737
X326.0118 Y267.7261
X326.0669 Y267.7118
X326.1219 Y267.6938
X326.177 Y267.672
X326.232 Y267.6461
X326.2475 Y267.638
X326.2948 Y267.611
X326.3421 Y267.5801
X326.3763 Y267.5553
X326.4104 Y267.528
X326.4522 Y267.4907
X326.4888 Y267.4543
X326.5217 Y267.4178
X326.5623 Y267.3669
X326.6029 Y267.3078
X326.6352 Y267.2527
X326.6628 Y267.1977
X326.6725 Y267.176
X326.6902 Y267.1318
X326.7054 Y267.0876
X326.7211 Y267.0325
X326.7333 Y266.9775
X326.7421 Y266.9224
X326.7476 Y266.8674
X326.75 Y266.7573
Y26.206
X326.7487 Y26.151
X326.7443 Y26.0959
X326.7366 Y26.0409
X326.7256 Y25.9858
X326.7111 Y25.9308
X326.693 Y25.8758
X326.6725 Y25.824
X326.6449 Y25.7657
X326.6143 Y25.7106
X326.5785 Y25.6556
X326.5623 Y25.6331
X326.5277 Y25.5893
X326.4886 Y25.5455
X326.4522 Y25.5093
X326.408 Y25.4701
X326.3638 Y25.4354
X326.3421 Y25.4199
X326.2871 Y25.3844
X326.232 Y25.3539
X326.1707 Y25.3253
X326.1219 Y25.3062
X326.0669 Y25.2883
X326.0118 Y25.2739
X325.9568 Y25.263
X325.9017 Y25.2555
X325.8467 Y25.2512
X325.7916 Y25.25
X296.0645
X295.9544 Y25.2511
X295.8994 Y25.2554
X295.8443 Y25.2629
X295.7893 Y25.2737
X295.7342 Y25.288
X295.6818 Y25.3049
X295.6294 Y25.3253
X295.6241 Y25.3275
X295.5691 Y25.3534
X295.514 Y25.3837
X295.4751 Y25.4082
X295.4362 Y25.4354
X295.4201 Y25.4476
X295.4181 Y25.4491
X295.416 Y25.45
X56.584
X56.582 Y25.4491
X56.58 Y25.4476
X56.5638 Y25.4354
X56.5249 Y25.4082
X56.486 Y25.3837
X56.431 Y25.3534
X56.3759 Y25.3275
X56.3707 Y25.3253
X56.3182 Y25.3049
X56.2658 Y25.2879
X56.2108 Y25.2737
X56.1557 Y25.2629
X56.1007 Y25.2554
X56.0456 Y25.2511
X55.9355 Y25.25
X26.2084
X26.1533 Y25.2512
X26.0983 Y25.2555
X26.0432 Y25.263
X25.9882 Y25.2739
X25.9331 Y25.2883
X25.8781 Y25.3062
X25.8294 Y25.3253
X25.768 Y25.3539
X25.7129 Y25.3844
X25.6579 Y25.4199
X25.6362 Y25.4354
X25.592 Y25.4701
X25.5478 Y25.5093
X25.5115 Y25.5455
X25.4723 Y25.5893
X25.4377 Y25.6331
X25.4215 Y25.6556
X25.3858 Y25.7106
X25.3551 Y25.7657
X25.3276 Y25.824
X25.3071 Y25.8758
X25.289 Y25.9308
X25.2745 Y25.9858
X25.2634 Y26.0409
X25.2557 Y26.0959
X25.2513 Y26.151
X25.25 Y26.206
Y55.9309
X25.2509 Y56.041
X25.2549 Y56.096
X25.2621 Y56.1511
X25.2727 Y56.2061
X25.2866 Y56.2612
X25.3042 Y56.3162
X25.3256 Y56.3713
X25.3276 Y56.376
X25.3522 Y56.4287
X25.381 Y56.4814
X25.4077 Y56.5241
X25.4377 Y56.5669
X25.4566 Y56.5915
X25.4989 Y56.6411
X25.5478 Y56.6907
X25.5595 Y56.7015
X25.6087 Y56.7435
X25.6579 Y56.7801
X25.7063 Y56.8116
X25.768 Y56.8461
X25.823 Y56.872
X25.8781 Y56.8938
X25.924 Y56.909
X25.97 Y56.9217
X25.9882 Y56.9261
X26.0432 Y56.937
X26.0983 Y56.9445
X26.1533 Y56.9489
X26.2084 Y56.95
X71.9001
X72.0102 Y56.9502
X72.1203 Y56.952
X72.2304 Y56.9568
X72.3405 Y56.9645
X72.4506 Y56.9753
X72.5607 Y56.9892
X72.6708 Y57.006
X72.7809 Y57.0263
X72.8092 Y57.0318
X72.891 Y57.0493
X73.0011 Y57.0758
X73.1112 Y57.1057
X73.2213 Y57.1385
X73.2315 Y57.1419
X73.3314 Y57.1754
X73.4415 Y57.2153
X73.534 Y57.252
X73.5516 Y57.2593
X73.6617 Y57.3069
X73.7718 Y57.3583
X73.7797 Y57.3621
X73.8819 Y57.414
X73.9886 Y57.4722
X73.992 Y57.4741
X74.1021 Y57.5383
X74.1728 Y57.5823
X74.2122 Y57.6079
X74.3223 Y57.6822
X74.3368 Y57.6924
X74.4324 Y57.762
X74.4852 Y57.8025
X74.5425 Y57.8479
X74.6209 Y57.9126
X74.6526 Y57.9401
X74.7457 Y58.0227
X74.7627 Y58.0387
X74.8604 Y58.1327
X74.8728 Y58.1453
X74.9663 Y58.2428
X74.9829 Y58.2611
X75.0649 Y58.3529
X75.093 Y58.3858
X75.1568 Y58.463
X75.2031 Y58.5215
X75.2423 Y58.5731
X75.3132 Y58.671
X75.3219 Y58.6832
X75.396 Y58.7933
X75.4233 Y58.836
X75.4646 Y58.9034
X75.5292 Y59.0135
X75.5334 Y59.0209
X75.5891 Y59.1236
X75.6435 Y59.2314
X75.6446 Y59.2337
X75.6955 Y59.3438
X75.7435 Y59.4538
X75.7536 Y59.479
X75.7862 Y59.5639
X75.8267 Y59.674
X75.863 Y59.7841
X75.8637 Y59.7865
X75.8959 Y59.8942
X75.9253 Y60.0043
X75.9518 Y60.1144
X75.9738 Y60.2205
X75.9746 Y60.2245
X75.9945 Y60.3346
X76.0114 Y60.4447
X76.0255 Y60.5548
X76.0361 Y60.6649
X76.0437 Y60.775
X76.0485 Y60.885
X76.05 Y60.9951
X76.0487 Y61.1052
X76.0443 Y61.2153
X76.0368 Y61.3254
X76.0265 Y61.4355
X76.0128 Y61.5456
X75.9961 Y61.6557
X75.9765 Y61.7658
X75.9738 Y61.7795
X75.954 Y61.8759
X75.9277 Y61.986
X75.8987 Y62.0961
X75.8659 Y62.2062
X75.8637 Y62.2136
X75.8302 Y62.3162
X75.7898 Y62.4263
X75.7536 Y62.521
X75.7476 Y62.5364
X75.6999 Y62.6465
X75.6493 Y62.7566
X75.6435 Y62.7686
X75.5942 Y62.8667
X75.5347 Y62.9768
X75.5334 Y62.9791
X75.4705 Y63.0869
X75.4233 Y63.1641
X75.4024 Y63.197
X75.3286 Y63.3071
X75.3132 Y63.329
X75.2494 Y63.4172
X75.2031 Y63.4785
X75.1647 Y63.5273
X75.093 Y63.6142
X75.0735 Y63.6374
X74.9829 Y63.739
X74.9752 Y63.7474
X74.8728 Y63.8548
X74.87 Y63.8575
X74.7627 Y63.9613
X74.756 Y63.9676
X74.6526 Y64.0599
X74.6321 Y64.0777
X74.5425 Y64.1521
X74.4977 Y64.1878
X74.4324 Y64.2381
X74.3507 Y64.2979
X74.3223 Y64.3178
X74.2122 Y64.3921
X74.1878 Y64.408
X74.1021 Y64.4617
X74.0059 Y64.5181
X73.992 Y64.5259
X73.8819 Y64.5861
X73.7997 Y64.6282
X73.7718 Y64.6417
X73.6617 Y64.6931
X73.5574 Y64.7383
X73.5516 Y64.7407
X73.4415 Y64.7847
X73.3314 Y64.8246
X73.2611 Y64.8484
X73.2213 Y64.8615
X73.1112 Y64.8943
X73.0011 Y64.9242
X72.891 Y64.9507
X72.8552 Y64.9585
X72.7809 Y64.9737
X72.6708 Y64.994
X72.5607 Y65.0108
X72.4506 Y65.0247
X72.3405 Y65.0355
X72.2304 Y65.0432
X72.1203 Y65.048
X72.0102 Y65.0498
X71.9001 Y65.05
X26.2084
X26.1533 Y65.0511
X26.0983 Y65.0555
X26.0558 Y65.061
X26.0132 Y65.0686
X25.9882 Y65.0739
X25.9331 Y65.0883
X25.8781 Y65.1062
X25.823 Y65.128
X25.768 Y65.1539
X25.7227 Y65.1786
X25.6579 Y65.2199
X25.6141 Y65.2522
X25.5703 Y65.2887
X25.5478 Y65.3093
X25.5034 Y65.3541
X25.4644 Y65.3988
X25.4377 Y65.4331
X25.4109 Y65.471
X25.3868 Y65.5089
X25.356 Y65.564
X25.3298 Y65.619
X25.3276 Y65.624
X25.3068 Y65.6766
X25.2895 Y65.7291
X25.2749 Y65.7841
X25.2637 Y65.8392
X25.2559 Y65.8942
X25.2514 Y65.9493
X25.25 Y66.0594
Y76.8559
Y77.0494 Z-5.0001
Y77.243 Z-5.0004
Y77.4366 Z-5.0008
Y77.6301 Z-5.0015
Y77.8237 Z-5.0023
Y78.0173 Z-5.0033
Y78.2109 Z-5.0045
Y78.4044 Z-5.0058
Y78.598 Z-5.0073
Y78.7916 Z-5.009
Y78.9852 Z-5.0109
Y79.1787 Z-5.0129
Y79.3723 Z-5.0151
Y79.5659 Z-5.0174
Y79.7595 Z-5.0199
Y79.953 Z-5.0225
Y80.1466 Z-5.0253
Y80.3402 Z-5.0283
Y80.5338 Z-5.0314
Y80.7273 Z-5.0347
Y80.9209 Z-5.0381
Y81.1145 Z-5.0416
Y81.3081 Z-5.0453
Y81.5016 Z-5.0491
Y81.6952 Z-5.0531
Y81.8888 Z-5.0572
Y82.0824 Z-5.0614
Y82.2759 Z-5.0658
Y82.4695 Z-5.0702
Y82.6631 Z-5.0749
Y82.8567 Z-5.0796
Y83.0502 Z-5.0845
Y83.2438 Z-5.0894
Y83.3406 Z-5.092
Y83.4374 Z-5.0945
Y83.5342 Z-5.0971
Y83.631 Z-5.0997
Y83.7278 Z-5.1024
Y83.8245 Z-5.1051
Y83.9213 Z-5.1078
Y84.0181 Z-5.1105
Y84.1149 Z-5.1133
Y84.2117 Z-5.1161
Y84.3085 Z-5.1189
Y84.4053 Z-5.1217
Y84.5021 Z-5.1246
Y84.5988 Z-5.1275
Y84.6956 Z-5.1304
Y84.7924 Z-5.1334
Y84.8892 Z-5.1363
Y84.986 Z-5.1393
Y85.0828 Z-5.1423
Y85.1796 Z-5.1454
Y85.2764 Z-5.1485
Y85.3731 Z-5.1516
Y85.4699 Z-5.1547
Y85.5667 Z-5.1578
Y85.6635 Z-5.161
Y85.7603 Z-5.1642
Y85.8571 Z-5.1674
Y85.9539 Z-5.1706
Y86.0506 Z-5.1739
Y86.1474 Z-5.1772
Y86.2442 Z-5.1805
Y86.341 Z-5.1838
Y86.4378 Z-5.1871
Y86.6314 Z-5.1939
Y86.7282 Z-5.1972
Y86.8249 Z-5.2006
Y86.9217 Z-5.204
Y87.0185 Z-5.2074
Y87.1153 Z-5.2108
Y87.2121 Z-5.2141
Y87.3089 Z-5.2175
Y87.4057 Z-5.2209
Y87.5025 Z-5.2243
Y87.5992 Z-5.2277
Y87.696 Z-5.231
Y87.7928 Z-5.2344
Y87.9864 Z-5.2412
Y88.2768 Z-5.2513
Y88.5671 Z-5.2614
Y88.8575 Z-5.2716
Y89.1478 Z-5.2817
Y89.4382 Z-5.2919
Y89.7286 Z-5.302
Y90.0189 Z-5.3121
Y90.3093 Z-5.3223
Y90.5997 Z-5.3324
Y90.89 Z-5.3426
Y91.374 Z-5.3595
Y91.8579 Z-5.3764
Y92.3418 Z-5.3933
Y93.0193 Z-5.4169
Y93.8904 Z-5.4473
Y95.3422 Z-5.498
Y102.3109 Z-5.7413
Y102.6013 Z-5.7515
Y102.8916 Z-5.7616
Y102.9884 Z-5.765
Y103.0852 Z-5.7684
Y103.182 Z-5.7717
Y103.2788 Z-5.7751
Y103.3756 Z-5.7785
Y103.4724 Z-5.7819
Y103.5692 Z-5.7853
Y103.6659 Z-5.7886
Y103.7627 Z-5.792
Y103.8595 Z-5.7954
Y103.9563 Z-5.7988
Y104.0531 Z-5.8022
Y104.1499 Z-5.8055
Y104.2467 Z-5.8089
Y104.3435 Z-5.8123
Y104.4402 Z-5.8156
Y104.537 Z-5.819
Y104.6338 Z-5.8223
Y104.7306 Z-5.8255
Y104.8274 Z-5.8288
Y104.9242 Z-5.832
Y105.021 Z-5.8353
Y105.1178 Z-5.8385
Y105.2145 Z-5.8416
Y105.3113 Z-5.8448
Y105.4081 Z-5.8479
Y105.5049 Z-5.851
Y105.6017 Z-5.8541
Y105.6985 Z-5.8571
Y105.7953 Z-5.8601
Y105.8921 Z-5.8631
Y105.9888 Z-5.8661
Y106.0856 Z-5.8691
Y106.1824 Z-5.872
Y106.2792 Z-5.8749
Y106.376 Z-5.8778
Y106.4728 Z-5.8806
Y106.5696 Z-5.8834
Y106.6664 Z-5.8862
Y106.7631 Z-5.889
Y106.8599 Z-5.8917
Y106.9567 Z-5.8945
Y107.0535 Z-5.8971
Y107.1503 Z-5.8998
Y107.2471 Z-5.9024
Y107.3439 Z-5.905
Y107.4407 Z-5.9076
Y107.5374 Z-5.9101
Y107.6342 Z-5.9126
Y107.8278 Z-5.9176
Y108.0214 Z-5.9224
Y108.215 Z-5.9271
Y108.4085 Z-5.9316
Y108.6021 Z-5.9361
Y108.7957 Z-5.9404
Y108.9893 Z-5.9445
Y109.1828 Z-5.9486
Y109.3764 Z-5.9525
Y109.57 Z-5.9562
Y109.7635 Z-5.9599
Y109.9571 Z-5.9634
Y110.1507 Z-5.9667
Y110.3443 Z-5.9699
Y110.5378 Z-5.9729
Y110.7314 Z-5.9758
Y110.925 Z-5.9786
Y111.1186 Z-5.9812
Y111.3121 Z-5.9836
Y111.5057 Z-5.9859
Y111.6993 Z-5.988
Y111.8929 Z-5.9899
Y112.0864 Z-5.9917
Y112.28 Z-5.9933
Y112.4736 Z-5.9948
Y112.6672 Z-5.996
Y112.8607 Z-5.9971
Y113.0543 Z-5.9981
Y113.2479 Z-5.9988
Y113.4415 Z-5.9994
Y113.635 Z-5.9998
Y113.8286 Z-6
Y113.9424
Y266.7573
X25.2524 Y266.8674
X25.2579 Y266.9224
X25.2668 Y266.9775
X25.2789 Y267.0325
X25.2946 Y267.0876
X25.3098 Y267.1318
X25.3276 Y267.176
X25.3373 Y267.1977
X25.3648 Y267.2527
X25.3971 Y267.3078
X25.4377 Y267.3669
X25.4784 Y267.4178
X25.5112 Y267.4543
X25.5478 Y267.4907
X25.5896 Y267.528
X25.6238 Y267.5553
X25.6579 Y267.5801
X25.7052 Y267.611
X25.7526 Y267.638
X25.768 Y267.6461
X25.823 Y267.672
X25.8781 Y267.6938
X25.9331 Y267.7117
X25.9882 Y267.7261
X26.0432 Y267.737
X26.0983 Y267.7445
X26.1404 Y267.7481
X26.2084 Y267.75
X32.0484
X32.05 Y267.7517
Y288.9959
X32.0514 Y289.051
X32.0559 Y289.106
X32.0638 Y289.161
X32.0749 Y289.2161
X32.0895 Y289.2711
X32.1078 Y289.3262
X32.1289 Y289.379
X32.1538 Y289.4318
X32.1561 Y289.4363
X32.1869 Y289.4913
X32.2228 Y289.5464
X32.2639 Y289.6006
X32.3133 Y289.6565
X32.3437 Y289.6868
X32.374 Y289.7146
X32.4064 Y289.7417
X32.4388 Y289.7665
X32.4841 Y289.7977
X32.5392 Y289.8307
X32.5942 Y289.859
X32.6339 Y289.8766
X32.7043 Y289.9028
X32.7594 Y289.919
X32.8144 Y289.9317
X32.8695 Y289.941
X32.9245 Y289.947
X33.0346 Y289.95
X318.9654
X319.0755 Y289.947
X319.1306 Y289.941
X319.1856 Y289.9317
X319.2407 Y289.919
X319.2957 Y289.9028
X319.3661 Y289.8766
X319.4058 Y289.859
X319.4609 Y289.8307
X319.5159 Y289.7977
X319.5612 Y289.7665
X319.5936 Y289.7417
X319.626 Y289.7146
X319.6564 Y289.6868
X319.6867 Y289.6565
X319.7361 Y289.6006
X319.7772 Y289.5464
X319.8131 Y289.4913
X319.8439 Y289.4363
X319.8462 Y289.4318
X319.8712 Y289.379
X319.8923 Y289.3262
X319.9105 Y289.2711
X319.9251 Y289.2161
X319.9363 Y289.161
X319.9441 Y289.106
X319.9487 Y289.051
X319.95 Y288.9959
Y267.7517
X319.9516 Y267.75
X325.7916
X325.8597 Y267.7481
X325.9017 Y267.7445
X325.9568 Y267.737
X326.0118 Y267.7261
X326.0669 Y267.7118
X326.1219 Y267.6938
X326.177 Y267.672
X326.232 Y267.6461
X326.2475 Y267.638
X326.2948 Y267.611
X326.3421 Y267.5801
X326.3763 Y267.5553
X326.4104 Y267.528
X326.4522 Y267.4907
X326.4888 Y267.4543
X326.5217 Y267.4178
X326.5623 Y267.3669
X326.6029 Y267.3078
X326.6352 Y267.2527
X326.6628 Y267.1977
X326.6725 Y267.176
X326.6902 Y267.1318
X326.7054 Y267.0876
X326.7211 Y267.0325
X326.7333 Y266.9775
X326.7421 Y266.9224
X326.7476 Y266.8674
X326.75 Y266.7573
Y26.206
X326.7487 Y26.151
X326.7443 Y26.0959
X326.7366 Y26.0409
X326.7256 Y25.9858
X326.7111 Y25.9308
X326.693 Y25.8758
X326.6725 Y25.824
X326.6449 Y25.7657
X326.6143 Y25.7106
X326.5785 Y25.6556
X326.5623 Y25.6331
X326.5277 Y25.5893
X326.4886 Y25.5455
X326.4522 Y25.5093
X326.408 Y25.4701
X326.3638 Y25.4354
X326.3421 Y25.4199
X326.2871 Y25.3844
X326.232 Y25.3539
X326.1707 Y25.3253
X326.1219 Y25.3062
X326.0669 Y25.2883
X326.0118 Y25.2739
X325.9568 Y25.263
X325.9017 Y25.2555
X325.8467 Y25.2512
X325.7916 Y25.25
X296.0645
X295.9544 Y25.2511
X295.8994 Y25.2554
X295.8443 Y25.2629
X295.7893 Y25.2737
X295.7342 Y25.288
X295.6818 Y25.3049
X295.6294 Y25.3253
X295.6241 Y25.3275
X295.5691 Y25.3534
X295.514 Y25.3837
X295.4751 Y25.4082
X295.4362 Y25.4354
X295.4201 Y25.4476
X295.4181 Y25.4491
X295.416 Y25.45
X56.584
X56.582 Y25.4491
X56.58 Y25.4476
X56.5638 Y25.4354
X56.5249 Y25.4082
X56.486 Y25.3837
X56.431 Y25.3534
X56.3759 Y25.3275
X56.3707 Y25.3253
X56.3182 Y25.3049
X56.2658 Y25.2879
X56.2108 Y25.2737
X56.1557 Y25.2629
X56.1007 Y25.2554
X56.0456 Y25.2511
X55.9355 Y25.25
X26.2084
X26.1533 Y25.2512
X26.0983 Y25.2555
X26.0432 Y25.263
X25.9882 Y25.2739
X25.9331 Y25.2883
X25.8781 Y25.3062
X25.8294 Y25.3253
X25.768 Y25.3539
X25.7129 Y25.3844
X25.6579 Y25.4199
X25.6362 Y25.4354
X25.592 Y25.4701
X25.5478 Y25.5093
X25.5115 Y25.5455
X25.4723 Y25.5893
X25.4377 Y25.6331
X25.4215 Y25.6556
X25.3858 Y25.7106
X25.3551 Y25.7657
X25.3276 Y25.824
X25.3071 Y25.8758
X25.289 Y25.9308
X25.2745 Y25.9858
X25.2634 Y26.0409
X25.2557 Y26.0959
X25.2513 Y26.151
X25.25 Y26.206
Y55.9309
X25.2509 Y56.041
X25.2549 Y56.096
X25.2621 Y56.1511
X25.2727 Y56.2061
X25.2866 Y56.2612
X25.3042 Y56.3162
X25.3256 Y56.3713
X25.3276 Y56.376
X25.3522 Y56.4287
X25.381 Y56.4814
X25.4077 Y56.5241
X25.4377 Y56.5669
X25.4566 Y56.5915
X25.4989 Y56.6411
X25.5478 Y56.6907
X25.5595 Y56.7015
X25.6087 Y56.7435
X25.6579 Y56.7801
X25.7063 Y56.8116
X25.768 Y56.8461
X25.823 Y56.872
X25.8781 Y56.8938
X25.924 Y56.909
X25.97 Y56.9217
X25.9882 Y56.9261
X26.0432 Y56.937
X26.0983 Y56.9445
X26.1533 Y56.9489
X26.2084 Y56.95
X71.9001
X72.0102 Y56.9502
X72.1203 Y56.952
X72.2304 Y56.9568
X72.3405 Y56.9645
X72.4506 Y56.9753
X72.5607 Y56.9892
X72.6708 Y57.006
X72.7809 Y57.0263
X72.8092 Y57.0318
X72.891 Y57.0493
X73.0011 Y57.0758
X73.1112 Y57.1057
X73.2213 Y57.1385
X73.2315 Y57.1419
X73.3314 Y57.1754
X73.4415 Y57.2153
X73.534 Y57.252
X73.5516 Y57.2593
X73.6617 Y57.3069
X73.7718 Y57.3583
X73.7797 Y57.3621
X73.8819 Y57.414
X73.9886 Y57.4722
X73.992 Y57.4741
X74.1021 Y57.5383
X74.1728 Y57.5823
X74.2122 Y57.6079
X74.3223 Y57.6822
X74.3368 Y57.6924
X74.4324 Y57.762
X74.4852 Y57.8025
X74.5425 Y57.8479
X74.6209 Y57.9126
X74.6526 Y57.9401
X74.7457 Y58.0227
X74.7627 Y58.0387
X74.8604 Y58.1327
X74.8728 Y58.1453
X74.9663 Y58.2428
X74.9829 Y58.2611
X75.0649 Y58.3529
X75.093 Y58.3858
X75.1568 Y58.463
X75.2031 Y58.5215
X75.2423 Y58.5731
X75.3132 Y58.671
X75.3219 Y58.6832
X75.396 Y58.7933
X75.4233 Y58.836
X75.4646 Y58.9034
X75.5292 Y59.0135
X75.5334 Y59.0209
X75.5891 Y59.1236
X75.6435 Y59.2314
X75.6446 Y59.2337
X75.6955 Y59.3438
X75.7435 Y59.4538
X75.7536 Y59.479
X75.7862 Y59.5639
X75.8267 Y59.674
X75.863 Y59.7841
X75.8637 Y59.7865
X75.8959 Y59.8942
X75.9253 Y60.0043
X75.9518 Y60.1144
X75.9738 Y60.2205
X75.9746 Y60.2245
X75.9945 Y60.3346
X76.0114 Y60.4447
X76.0255 Y60.5548
X76.0361 Y60.6649
X76.0437 Y60.775
X76.0485 Y60.885
X76.05 Y60.9951
X76.0487 Y61.1052
X76.0443 Y61.2153
X76.0368 Y61.3254
X76.0265 Y61.4355
X76.0128 Y61.5456
X75.9961 Y61.6557
X75.9765 Y61.7658
X75.9738 Y61.7795
X75.954 Y61.8759
X75.9277 Y61.986
X75.8987 Y62.0961
X75.8659 Y62.2062
X75.8637 Y62.2136
X75.8302 Y62.3162
X75.7898 Y62.4263
X75.7536 Y62.521
X75.7476 Y62.5364
X75.6999 Y62.6465
X75.6493 Y62.7566
X75.6435 Y62.7686
X75.5942 Y62.8667
X75.5347 Y62.9768
X75.5334 Y62.9791
X75.4705 Y63.0869
X75.4233 Y63.1641
X75.4024 Y63.197
X75.3286 Y63.3071
X75.3132 Y63.329
X75.2494 Y63.4172
X75.2031 Y63.4785
X75.1647 Y63.5273
X75.093 Y63.6142
X75.0735 Y63.6374
X74.9829 Y63.739
X74.9752 Y63.7474
X74.8728 Y63.8548
X74.87 Y63.8575
X74.7627 Y63.9613
X74.756 Y63.9676
X74.6526 Y64.0599
X74.6321 Y64.0777
X74.5425 Y64.1521
X74.4977 Y64.1878
X74.4324 Y64.2381
X74.3507 Y64.2979
X74.3223 Y64.3178
X74.2122 Y64.3921
X74.1878 Y64.408
X74.1021 Y64.4617
X74.0059 Y64.5181
X73.992 Y64.5259
X73.8819 Y64.5861
X73.7997 Y64.6282
X73.7718 Y64.6417
X73.6617 Y64.6931
X73.5574 Y64.7383
X73.5516 Y64.7407
X73.4415 Y64.7847
X73.3314 Y64.8246
X73.2611 Y64.8484
X73.2213 Y64.8615
X73.1112 Y64.8943
X73.0011 Y64.9242
X72.891 Y64.9507
X72.8552 Y64.9585
X72.7809 Y64.9737
X72.6708 Y64.994
X72.5607 Y65.0108
X72.4506 Y65.0247
X72.3405 Y65.0355
X72.2304 Y65.0432
X72.1203 Y65.048
X72.0102 Y65.0498
X71.9001 Y65.05
X26.2084
X26.1533 Y65.0511
X26.0983 Y65.0555
X26.0558 Y65.061
X26.0132 Y65.0686
X25.9882 Y65.0739
X25.9331 Y65.0883
X25.8781 Y65.1062
X25.823 Y65.128
X25.768 Y65.1539
X25.7227 Y65.1786
X25.6579 Y65.2199
X25.6141 Y65.2522
X25.5703 Y65.2887
X25.5478 Y65.3093
X25.5034 Y65.3541
X25.4644 Y65.3988
X25.4377 Y65.4331
X25.4109 Y65.471
X25.3868 Y65.5089
X25.356 Y65.564
X25.3298 Y65.619
X25.3276 Y65.624
X25.3068 Y65.6766
X25.2895 Y65.7291
X25.2749 Y65.7841
X25.2637 Y65.8392
X25.2559 Y65.8942
X25.2514 Y65.9493
X25.25 Y66.0594
Y113.9424
Y114.136 Z-6.0001
Y114.3296 Z-6.0004
Y114.5231 Z-6.0008
Y114.7167 Z-6.0015
Y114.9103 Z-6.0023
Y115.1039 Z-6.0033
Y115.2974 Z-6.0045
Y115.491 Z-6.0058
Y115.6846 Z-6.0073
Y115.8782 Z-6.009
Y116.0717 Z-6.0109
Y116.2653 Z-6.0129
Y116.4589 Z-6.0151
Y116.6525 Z-6.0174
Y116.846 Z-6.0199
Y117.0396 Z-6.0225
Y117.2332 Z-6.0253
Y117.4268 Z-6.0283
Y117.6203 Z-6.0314
Y117.8139 Z-6.0347
Y118.0075 Z-6.0381
Y118.2011 Z-6.0416
Y118.3946 Z-6.0453
Y118.5882 Z-6.0491
Y118.7818 Z-6.0531
Y118.9754 Z-6.0572
Y119.1689 Z-6.0614
Y119.3625 Z-6.0658
Y119.5561 Z-6.0702
Y119.7497 Z-6.0749
Y119.9432 Z-6.0796
Y120.1368 Z-6.0845
Y120.3304 Z-6.0894
Y120.4272 Z-6.092
Y120.524 Z-6.0945
Y120.6207 Z-6.0971
Y120.7175 Z-6.0997
Y120.8143 Z-6.1024
Y120.9111 Z-6.1051
Y121.0079 Z-6.1078
Y121.1047 Z-6.1105
Y121.2015 Z-6.1133
Y121.2983 Z-6.1161
Y121.395 Z-6.1189
Y121.4918 Z-6.1217
Y121.5886 Z-6.1246
Y121.6854 Z-6.1275
Y121.7822 Z-6.1304
Y121.879 Z-6.1334
Y121.9758 Z-6.1363
Y122.0725 Z-6.1393
Y122.1693 Z-6.1423
Y122.2661 Z-6.1454
Y122.3629 Z-6.1485
Y122.4597 Z-6.1516
Y122.5565 Z-6.1547
Y122.6533 Z-6.1578
Y122.7501 Z-6.161
Y122.8468 Z-6.1642
Y122.9436 Z-6.1674
Y123.0404 Z-6.1706
Y123.1372 Z-6.1739
Y123.234 Z-6.1772
Y123.3308 Z-6.1805
Y123.4276 Z-6.1838
Y123.5244 Z-6.1871
Y123.7179 Z-6.1939
Y123.8147 Z-6.1972
Y123.9115 Z-6.2006
Y124.0083 Z-6.204
Y124.1051 Z-6.2074
Y124.2019 Z-6.2108
Y124.2987 Z-6.2141
Y124.3954 Z-6.2175
Y124.4922 Z-6.2209
Y124.589 Z-6.2243
Y124.6858 Z-6.2277
Y124.7826 Z-6.231
Y124.8794 Z-6.2344
Y125.073 Z-6.2412
Y125.3633 Z-6.2513
Y125.6537 Z-6.2614
Y125.944 Z-6.2716
Y126.2344 Z-6.2817
Y126.5248 Z-6.2919
Y126.8151 Z-6.302
Y127.1055 Z-6.3121
Y127.3959 Z-6.3223
Y127.6862 Z-6.3324
Y127.9766 Z-6.3426
Y128.4605 Z-6.3595
Y128.9445 Z-6.3764
Y129.4284 Z-6.3933
Y130.1059 Z-6.4169
Y130.977 Z-6.4473
Y132.4288 Z-6.498
Y139.3975 Z-6.7413
Y139.6879 Z-6.7515
Y139.9782 Z-6.7616
Y140.075 Z-6.765
Y140.1718 Z-6.7684
Y140.2686 Z-6.7717
Y140.3654 Z-6.7751
Y140.4621 Z-6.7785
Y140.5589 Z-6.7819
Y140.6557 Z-6.7853
Y140.7525 Z-6.7886
Y140.8493 Z-6.792
Y140.9461 Z-6.7954
Y141.0429 Z-6.7988
Y141.1397 Z-6.8022
Y141.2365 Z-6.8055
Y141.3332 Z-6.8089
Y141.43 Z-6.8123
Y141.5268 Z-6.8156
Y141.6236 Z-6.819
Y141.7204 Z-6.8223
Y141.8172 Z-6.8255
Y141.914 Z-6.8288
Y142.0107 Z-6.832
Y142.1075 Z-6.8353
Y142.2043 Z-6.8385
Y142.3011 Z-6.8416
Y142.3979 Z-6.8448
Y142.4947 Z-6.8479
Y142.5915 Z-6.851
Y142.6882 Z-6.8541
Y142.785 Z-6.8571
Y142.8818 Z-6.8601
Y142.9786 Z-6.8631
Y143.0754 Z-6.8661
Y143.1722 Z-6.8691
Y143.269 Z-6.872
Y143.3658 Z-6.8749
Y143.4626 Z-6.8778
Y143.5593 Z-6.8806
Y143.6561 Z-6.8834
Y143.7529 Z-6.8862
Y143.8497 Z-6.889
Y143.9465 Z-6.8917
Y144.0433 Z-6.8945
Y144.1401 Z-6.8971
Y144.2368 Z-6.8998
Y144.3336 Z-6.9024
Y144.4304 Z-6.905
Y144.5272 Z-6.9076
Y144.624 Z-6.9101
Y144.7208 Z-6.9126
Y144.9144 Z-6.9176
Y145.1079 Z-6.9224
Y145.3015 Z-6.9271
Y145.4951 Z-6.9316
Y145.6887 Z-6.9361
Y145.8822 Z-6.9404
Y146.0758 Z-6.9445
Y146.2694 Z-6.9486
Y146.463 Z-6.9525
Y146.6565 Z-6.9562
Y146.8501 Z-6.9599
Y147.0437 Z-6.9634
Y147.2373 Z-6.9667
Y147.4308 Z-6.9699
Y147.6244 Z-6.9729
Y147.818 Z-6.9758
Y148.0116 Z-6.9786
Y148.2051 Z-6.9812
Y148.3987 Z-6.9836
Y148.5923 Z-6.9859
Y148.7859 Z-6.988
Y148.9794 Z-6.9899
Y149.173 Z-6.9917
Y149.3666 Z-6.9933
Y149.5602 Z-6.9948
Y149.7537 Z-6.996
Y149.9473 Z-6.9971
Y150.1409 Z-6.9981
Y150.3345 Z-6.9988
Y150.528 Z-6.9994
Y150.7216 Z-6.9998
Y150.9152 Z-7
Y151.029
Y266.7573
X25.2524 Y266.8674
X25.2579 Y266.9224
X25.2668 Y266.9775
X25.2789 Y267.0325
X25.2946 Y267.0876
X25.3098 Y267.1318
X25.3276 Y267.176
X25.3373 Y267.1977
X25.3648 Y267.2527
X25.3971 Y267.3078
X25.4377 Y267.3669
X25.4784 Y267.4178
X25.5112 Y267.4543
X25.5478 Y267.4907
X25.5896 Y267.528
X25.6238 Y267.5553
X25.6579 Y267.5801
X25.7052 Y267.611
X25.7526 Y267.638
X25.768 Y267.6461
X25.823 Y267.672
X25.8781 Y267.6938
X25.9331 Y267.7117
X25.9882 Y267.7261
X26.0432 Y267.737
X26.0983 Y267.7445
X26.1404 Y267.7481
X26.2084 Y267.75
X32.0484
X32.05 Y267.7517
Y288.9959
X32.0514 Y289.051
X32.0559 Y289.106
X32.0638 Y289.161
X32.0749 Y289.2161
X32.0895 Y289.2711
X32.1078 Y289.3262
X32.1289 Y289.379
X32.1538 Y289.4318
X32.1561 Y289.4363
X32.1869 Y289.4913
X32.2228 Y289.5464
X32.2639 Y289.6006
X32.3133 Y289.6565
X32.3437 Y289.6868
X32.374 Y289.7146
X32.4064 Y289.7417
X32.4388 Y289.7665
X32.4841 Y289.7977
X32.5392 Y289.8307
X32.5942 Y289.859
X32.6339 Y289.8766
X32.7043 Y289.9028
X32.7594 Y289.919
X32.8144 Y289.9317
X32.8695 Y289.941
X32.9245 Y289.947
X33.0346 Y289.95
X318.9654
X319.0755 Y289.947
X319.1306 Y289.941
X319.1856 Y289.9317
X319.2407 Y289.919
X319.2957 Y289.9028
X319.3661 Y289.8766
X319.4058 Y289.859
X319.4609 Y289.8307
X319.5159 Y289.7977
X319.5612 Y289.7665
X319.5936 Y289.7417
X319.626 Y289.7146
X319.6564 Y289.6868
X319.6867 Y289.6565
X319.7361 Y289.6006
X319.7772 Y289.5464
X319.8131 Y289.4913
X319.8439 Y289.4363
X319.8462 Y289.4318
X319.8712 Y289.379
X319.8923 Y289.3262
X319.9105 Y289.2711
X319.9251 Y289.2161
X319.9363 Y289.161
X319.9441 Y289.106
X319.9487 Y289.051
X319.95 Y288.9959
Y267.7517
X319.9516 Y267.75
X325.7916
X325.8597 Y267.7481
X325.9017 Y267.7445
X325.9568 Y267.737
X326.0118 Y267.7261
X326.0669 Y267.7118
X326.1219 Y267.6938
X326.177 Y267.672
X326.232 Y267.6461
X326.2475 Y267.638
X326.2948 Y267.611
X326.3421 Y267.5801
X326.3763 Y267.5553
X326.4104 Y267.528
X326.4522 Y267.4907
X326.4888 Y267.4543
X326.5217 Y267.4178
X326.5623 Y267.3669
X326.6029 Y267.3078
X326.6352 Y267.2527
X326.6628 Y267.1977
X326.6725 Y267.176
X326.6902 Y267.1318
X326.7054 Y267.0876
X326.7211 Y267.0325
X326.7333 Y266.9775
X326.7421 Y266.9224
X326.7476 Y266.8674
X326.75 Y266.7573
Y26.206
X326.7487 Y26.151
X326.7443 Y26.0959
X326.7366 Y26.0409
X326.7256 Y25.9858
X326.7111 Y25.9308
X326.693 Y25.8758
X326.6725 Y25.824
X326.6449 Y25.7657
X326.6143 Y25.7106
X326.5785 Y25.6556
X326.5623 Y25.6331
X326.5277 Y25.5893
X326.4886 Y25.5455
X326.4522 Y25.5093
X326.408 Y25.4701
X326.3638 Y25.4354
X326.3421 Y25.4199
X326.2871 Y25.3844
X326.232 Y25.3539
X326.1707 Y25.3253
X326.1219 Y25.3062
X326.0669 Y25.2883
X326.0118 Y25.2739
X325.9568 Y25.263
X325.9017 Y25.2555
X325.8467 Y25.2512
X325.7916 Y25.25
X296.0645
X295.9544 Y25.2511
X295.8994 Y25.2554
X295.8443 Y25.2629
X295.7893 Y25.2737
X295.7342 Y25.288
X295.6818 Y25.3049
X295.6294 Y25.3253
X295.6241 Y25.3275
X295.5691 Y25.3534
X295.514 Y25.3837
X295.4751 Y25.4082
X295.4362 Y25.4354
X295.4201 Y25.4476
X295.4181 Y25.4491
X295.416 Y25.45
X56.584
X56.582 Y25.4491
X56.58 Y25.4476
X56.5638 Y25.4354
X56.5249 Y25.4082
X56.486 Y25.3837
X56.431 Y25.3534
X56.3759 Y25.3275
X56.3707 Y25.3253
X56.3182 Y25.3049
X56.2658 Y25.2879
X56.2108 Y25.2737
X56.1557 Y25.2629
X56.1007 Y25.2554
X56.0456 Y25.2511
X55.9355 Y25.25
X26.2084
X26.1533 Y25.2512
X26.0983 Y25.2555
X26.0432 Y25.263
X25.9882 Y25.2739
X25.9331 Y25.2883
X25.8781 Y25.3062
X25.8294 Y25.3253
X25.768 Y25.3539
X25.7129 Y25.3844
X25.6579 Y25.4199
X25.6362 Y25.4354
X25.592 Y25.4701
X25.5478 Y25.5093
X25.5115 Y25.5455
X25.4723 Y25.5893
X25.4377 Y25.6331
X25.4215 Y25.6556
X25.3858 Y25.7106
X25.3551 Y25.7657
X25.3276 Y25.824
X25.3071 Y25.8758
X25.289 Y25.9308
X25.2745 Y25.9858
X25.2634 Y26.0409
X25.2557 Y26.0959
X25.2513 Y26.151
X25.25 Y26.206
Y55.9309
X25.2509 Y56.041
X25.2549 Y56.096
X25.2621 Y56.1511
X25.2727 Y56.2061
X25.2866 Y56.2612
X25.3042 Y56.3162
X25.3256 Y56.3713
X25.3276 Y56.376
X25.3522 Y56.4287
X25.381 Y56.4814
X25.4077 Y56.5241
X25.4377 Y56.5669
X25.4566 Y56.5915
X25.4989 Y56.6411
X25.5478 Y56.6907
X25.5595 Y56.7015
X25.6087 Y56.7435
X25.6579 Y56.7801
X25.7063 Y56.8116
X25.768 Y56.8461
X25.823 Y56.872
X25.8781 Y56.8938
X25.924 Y56.909
X25.97 Y56.9217
X25.9882 Y56.9261
X26.0432 Y56.937
X26.0983 Y56.9445
X26.1533 Y56.9489
X26.2084 Y56.95
X71.9001
X72.0102 Y56.9502
X72.1203 Y56.952
X72.2304 Y56.9568
X72.3405 Y56.9645
X72.4506 Y56.9753
X72.5607 Y56.9892
X72.6708 Y57.006
X72.7809 Y57.0263
X72.8092 Y57.0318
X72.891 Y57.0493
X73.0011 Y57.0758
X73.1112 Y57.1057
X73.2213 Y57.1385
X73.2315 Y57.1419
X73.3314 Y57.1754
X73.4415 Y57.2153
X73.534 Y57.252
X73.5516 Y57.2593
X73.6617 Y57.3069
X73.7718 Y57.3583
X73.7797 Y57.3621
X73.8819 Y57.414
X73.9886 Y57.4722
X73.992 Y57.4741
X74.1021 Y57.5383
X74.1728 Y57.5823
X74.2122 Y57.6079
X74.3223 Y57.6822
X74.3368 Y57.6924
X74.4324 Y57.762
X74.4852 Y57.8025
X74.5425 Y57.8479
X74.6209 Y57.9126
X74.6526 Y57.9401
X74.7457 Y58.0227
X74.7627 Y58.0387
X74.8604 Y58.1327
X74.8728 Y58.1453
X74.9663 Y58.2428
X74.9829 Y58.2611
X75.0649 Y58.3529
X75.093 Y58.3858
X75.1568 Y58.463
X75.2031 Y58.5215
X75.2423 Y58.5731
X75.3132 Y58.671
X75.3219 Y58.6832
X75.396 Y58.7933
X75.4233 Y58.836
X75.4646 Y58.9034
X75.5292 Y59.0135
X75.5334 Y59.0209
X75.5891 Y59.1236
X75.6435 Y59.2314
X75.6446 Y59.2337
X75.6955 Y59.3438
X75.7435 Y59.4538
X75.7536 Y59.479
X75.7862 Y59.5639
X75.8267 Y59.674
X75.863 Y59.7841
X75.8637 Y59.7865
X75.8959 Y59.8942
X75.9253 Y60.0043
X75.9518 Y60.1144
X75.9738 Y60.2205
X75.9746 Y60.2245
X75.9945 Y60.3346
X76.0114 Y60.4447
X76.0255 Y60.5548
X76.0361 Y60.6649
X76.0437 Y60.775
X76.0485 Y60.885
X76.05 Y60.9951
X76.0487 Y61.1052
X76.0443 Y61.2153
X76.0368 Y61.3254
X76.0265 Y61.4355
X76.0128 Y61.5456
X75.9961 Y61.6557
X75.9765 Y61.7658
X75.9738 Y61.7795
X75.954 Y61.8759
X75.9277 Y61.986
X75.8987 Y62.0961
X75.8659 Y62.2062
X75.8637 Y62.2136
X75.8302 Y62.3162
X75.7898 Y62.4263
X75.7536 Y62.521
X75.7476 Y62.5364
X75.6999 Y62.6465
X75.6493 Y62.7566
X75.6435 Y62.7686
X75.5942 Y62.8667
X75.5347 Y62.9768
X75.5334 Y62.9791
X75.4705 Y63.0869
X75.4233 Y63.1641
X75.4024 Y63.197
X75.3286 Y63.3071
X75.3132 Y63.329
X75.2494 Y63.4172
X75.2031 Y63.4785
X75.1647 Y63.5273
X75.093 Y63.6142
X75.0735 Y63.6374
X74.9829 Y63.739
X74.9752 Y63.7474
X74.8728 Y63.8548
X74.87 Y63.8575
X74.7627 Y63.9613
X74.756 Y63.9676
X74.6526 Y64.0599
X74.6321 Y64.0777
X74.5425 Y64.1521
X74.4977 Y64.1878
X74.4324 Y64.2381
X74.3507 Y64.2979
X74.3223 Y64.3178
X74.2122 Y64.3921
X74.1878 Y64.408
X74.1021 Y64.4617
X74.0059 Y64.5181
X73.992 Y64.5259
X73.8819 Y64.5861
X73.7997 Y64.6282
X73.7718 Y64.6417
X73.6617 Y64.6931
X73.5574 Y64.7383
X73.5516 Y64.7407
X73.4415 Y64.7847
X73.3314 Y64.8246
X73.2611 Y64.8484
X73.2213 Y64.8615
X73.1112 Y64.8943
X73.0011 Y64.9242
X72.891 Y64.9507
X72.8552 Y64.9585
X72.7809 Y64.9737
X72.6708 Y64.994
X72.5607 Y65.0108
X72.4506 Y65.0247
X72.3405 Y65.0355
X72.2304 Y65.0432
X72.1203 Y65.048
X72.0102 Y65.0498
X71.9001 Y65.05
X26.2084
X26.1533 Y65.0511
X26.0983 Y65.0555
X26.0558 Y65.061
X26.0132 Y65.0686
X25.9882 Y65.0739
X25.9331 Y65.0883
X25.8781 Y65.1062
X25.823 Y65.128
X25.768 Y65.1539
X25.7227 Y65.1786
X25.6579 Y65.2199
X25.6141 Y65.2522
X25.5703 Y65.2887
X25.5478 Y65.3093
X25.5034 Y65.3541
X25.4644 Y65.3988
X25.4377 Y65.4331
X25.4109 Y65.471
X25.3868 Y65.5089
X25.356 Y65.564
X25.3298 Y65.619
X25.3276 Y65.624
X25.3068 Y65.6766
X25.2895 Y65.7291
X25.2749 Y65.7841
X25.2637 Y65.8392
X25.2559 Y65.8942
X25.2514 Y65.9493
X25.25 Y66.0594
Y113.9424
Y151.029
Y151.2225 Z-7.0001
Y151.4161 Z-7.0004
Y151.6097 Z-7.0008
Y151.8033 Z-7.0015
Y151.9969 Z-7.0023
Y152.1904 Z-7.0033
Y152.384 Z-7.0045
Y152.5776 Z-7.0058
Y152.7711 Z-7.0073
Y152.9647 Z-7.009
Y153.1583 Z-7.0109
Y153.3519 Z-7.0129
Y153.5455 Z-7.0151
Y153.739 Z-7.0174
Y153.9326 Z-7.0199
Y154.1262 Z-7.0225
Y154.3197 Z-7.0253
Y154.5133 Z-7.0283
Y154.7069 Z-7.0314
Y154.9005 Z-7.0347
Y155.094 Z-7.0381
Y155.2876 Z-7.0416
Y155.4812 Z-7.0453
Y155.6748 Z-7.0491
Y155.8683 Z-7.0531
Y156.0619 Z-7.0572
Y156.2555 Z-7.0614
Y156.4491 Z-7.0658
Y156.6426 Z-7.0702
Y156.8362 Z-7.0749
Y157.0298 Z-7.0796
Y157.2234 Z-7.0845
Y157.4169 Z-7.0894
Y157.5137 Z-7.092
Y157.6105 Z-7.0945
Y157.7073 Z-7.0971
Y157.8041 Z-7.0997
Y157.9009 Z-7.1024
Y157.9977 Z-7.1051
Y158.0945 Z-7.1078
Y158.1912 Z-7.1105
Y158.288 Z-7.1133
Y158.3848 Z-7.1161
Y158.4816 Z-7.1189
Y158.5784 Z-7.1217
Y158.6752 Z-7.1246
Y158.772 Z-7.1275
Y158.8688 Z-7.1304
Y158.9655 Z-7.1334
Y159.0623 Z-7.1363
Y159.1591 Z-7.1393
Y159.2559 Z-7.1423
Y159.3527 Z-7.1454
Y159.4495 Z-7.1485
Y159.5463 Z-7.1516
Y159.6431 Z-7.1547
Y159.7398 Z-7.1578
Y159.8366 Z-7.161
Y159.9334 Z-7.1642
Y160.0302 Z-7.1674
Y160.127 Z-7.1706
Y160.2238 Z-7.1739
Y160.3206 Z-7.1772
Y160.4174 Z-7.1805
Y160.5141 Z-7.1838
Y160.6109 Z-7.1871
Y160.8045 Z-7.1939
Y160.9013 Z-7.1972
Y160.9981 Z-7.2006
Y161.0949 Z-7.204
Y161.1917 Z-7.2074
Y161.2884 Z-7.2108
Y161.3852 Z-7.2141
Y161.482 Z-7.2175
Y161.5788 Z-7.2209
Y161.6756 Z-7.2243
Y161.7724 Z-7.2277
Y161.8692 Z-7.231
Y161.9659 Z-7.2344
Y162.1595 Z-7.2412
Y162.4499 Z-7.2513
Y162.7402 Z-7.2614
Y163.0306 Z-7.2716
Y163.321 Z-7.2817
Y163.6113 Z-7.2919
Y163.9017 Z-7.302
Y164.1921 Z-7.3121
Y164.4824 Z-7.3223
Y164.7728 Z-7.3324
Y165.0631 Z-7.3426
Y165.5471 Z-7.3595
Y166.031 Z-7.3764
Y166.515 Z-7.3933
Y167.1925 Z-7.4169
Y168.0636 Z-7.4473
Y169.5154 Z-7.498
Y176.4841 Z-7.7413
Y176.7744 Z-7.7515
Y177.0648 Z-7.7616
Y177.1616 Z-7.765
Y177.2583 Z-7.7684
Y177.3551 Z-7.7717
Y177.4519 Z-7.7751
Y177.5487 Z-7.7785
Y177.6455 Z-7.7819
Y177.7423 Z-7.7853
Y177.8391 Z-7.7886
Y177.9359 Z-7.792
Y178.0326 Z-7.7954
Y178.1294 Z-7.7988
Y178.2262 Z-7.8022
Y178.323 Z-7.8055
Y178.4198 Z-7.8089
Y178.5166 Z-7.8123
Y178.6134 Z-7.8156
Y178.7102 Z-7.819
Y178.8069 Z-7.8223
Y178.9037 Z-7.8255
Y179.0005 Z-7.8288
Y179.0973 Z-7.832
Y179.1941 Z-7.8353
Y179.2909 Z-7.8385
Y179.3877 Z-7.8416
Y179.4845 Z-7.8448
Y179.5812 Z-7.8479
Y179.678 Z-7.851
Y179.7748 Z-7.8541
Y179.8716 Z-7.8571
Y179.9684 Z-7.8601
Y180.0652 Z-7.8631
Y180.162 Z-7.8661
Y180.2588 Z-7.8691
Y180.3555 Z-7.872
Y180.4523 Z-7.8749
Y180.5491 Z-7.8778
Y180.6459 Z-7.8806
Y180.7427 Z-7.8834
Y180.8395 Z-7.8862
Y180.9363 Z-7.889
Y181.0331 Z-7.8917
Y181.1298 Z-7.8945
Y181.2266 Z-7.8971
Y181.3234 Z-7.8998
Y181.4202 Z-7.9024
Y181.517 Z-7.905
Y181.6138 Z-7.9076
Y181.7106 Z-7.9101
Y181.8074 Z-7.9126
Y182.0009 Z-7.9176
Y182.1945 Z-7.9224
Y182.3881 Z-7.9271
Y182.5816 Z-7.9316
Y182.7752 Z-7.9361
Y182.9688 Z-7.9404
Y183.1624 Z-7.9445
Y183.356 Z-7.9486
Y183.5495 Z-7.9525
Y183.7431 Z-7.9562
Y183.9367 Z-7.9599
Y184.1302 Z-7.9634
Y184.3238 Z-7.9667
Y184.5174 Z-7.9699
Y184.711 Z-7.9729
Y184.9045 Z-7.9758
Y185.0981 Z-7.9786
Y185.2917 Z-7.9812
Y185.4853 Z-7.9836
Y185.6788 Z-7.9859
Y185.8724 Z-7.988
Y186.066 Z-7.9899
Y186.2596 Z-7.9917
Y186.4531 Z-7.9933
Y186.6467 Z-7.9948
Y186.8403 Z-7.996
Y187.0339 Z-7.9971
Y187.2274 Z-7.9981
Y187.421 Z-7.9988
Y187.6146 Z-7.9994
Y187.8082 Z-7.9998
Y188.0017 Z-8
Y188.1155
Y266.7573
X25.2524 Y266.8674
X25.2579 Y266.9224
X25.2668 Y266.9775
X25.2789 Y267.0325
X25.2946 Y267.0876
X25.3098 Y267.1318
X25.3276 Y267.176
X25.3373 Y267.1977
X25.3648 Y267.2527
X25.3971 Y267.3078
X25.4377 Y267.3669
X25.4784 Y267.4178
X25.5112 Y267.4543
X25.5478 Y267.4907
X25.5896 Y267.528
X25.6238 Y267.5553
X25.6579 Y267.5801
X25.7052 Y267.611
X25.7526 Y267.638
X25.768 Y267.6461
X25.823 Y267.672
X25.8781 Y267.6938
X25.9331 Y267.7117
X25.9882 Y267.7261
X26.0432 Y267.737
X26.0983 Y267.7445
X26.1404 Y267.7481
X26.2084 Y267.75
X32.0484
X32.05 Y267.7517
Y288.9959
X32.0514 Y289.051
X32.0559 Y289.106
X32.0638 Y289.161
X32.0749 Y289.2161
X32.0895 Y289.2711
X32.1078 Y289.3262
X32.1289 Y289.379
X32.1538 Y289.4318
X32.1561 Y289.4363
X32.1869 Y289.4913
X32.2228 Y289.5464
X32.2639 Y289.6006
X32.3133 Y289.6565
X32.3437 Y289.6868
X32.374 Y289.7146
X32.4064 Y289.7417
X32.4388 Y289.7665
X32.4841 Y289.7977
X32.5392 Y289.8307
X32.5942 Y289.859
X32.6339 Y289.8766
X32.7043 Y289.9028
X32.7594 Y289.919
X32.8144 Y289.9317
X32.8695 Y289.941
X32.9245 Y289.947
X33.0346 Y289.95
X318.9654
X319.0755 Y289.947
X319.1306 Y289.941
X319.1856 Y289.9317
X319.2407 Y289.919
X319.2957 Y289.9028
X319.3661 Y289.8766
X319.4058 Y289.859
X319.4609 Y289.8307
X319.5159 Y289.7977
X319.5612 Y289.7665
X319.5936 Y289.7417
X319.626 Y289.7146
X319.6564 Y289.6868
X319.6867 Y289.6565
X319.7361 Y289.6006
X319.7772 Y289.5464
X319.8131 Y289.4913
X319.8439 Y289.4363
X319.8462 Y289.4318
X319.8712 Y289.379
X319.8923 Y289.3262
X319.9105 Y289.2711
X319.9251 Y289.2161
X319.9363 Y289.161
X319.9441 Y289.106
X319.9487 Y289.051
X319.95 Y288.9959
Y267.7517
X319.9516 Y267.75
X325.7916
X325.8597 Y267.7481
X325.9017 Y267.7445
X325.9568 Y267.737
X326.0118 Y267.7261
X326.0669 Y267.7118
X326.1219 Y267.6938
X326.177 Y267.672
X326.232 Y267.6461
X326.2475 Y267.638
X326.2948 Y267.611
X326.3421 Y267.5801
X326.3763 Y267.5553
X326.4104 Y267.528
X326.4522 Y267.4907
X326.4888 Y267.4543
X326.5217 Y267.4178
X326.5623 Y267.3669
X326.6029 Y267.3078
X326.6352 Y267.2527
X326.6628 Y267.1977
X326.6725 Y267.176
X326.6902 Y267.1318
X326.7054 Y267.0876
X326.7211 Y267.0325
X326.7333 Y266.9775
X326.7421 Y266.9224
X326.7476 Y266.8674
X326.75 Y266.7573
Y26.206
X326.7487 Y26.151
X326.7443 Y26.0959
X326.7366 Y26.0409
X326.7256 Y25.9858
X326.7111 Y25.9308
X326.693 Y25.8758
X326.6725 Y25.824
X326.6449 Y25.7657
X326.6143 Y25.7106
X326.5785 Y25.6556
X326.5623 Y25.6331
X326.5277 Y25.5893
X326.4886 Y25.5455
X326.4522 Y25.5093
X326.408 Y25.4701
X326.3638 Y25.4354
X326.3421 Y25.4199
X326.2871 Y25.3844
X326.232 Y25.3539
X326.1707 Y25.3253
X326.1219 Y25.3062
X326.0669 Y25.2883
X326.0118 Y25.2739
X325.9568 Y25.263
X325.9017 Y25.2555
X325.8467 Y25.2512
X325.7916 Y25.25
X296.0645
X295.9544 Y25.2511
X295.8994 Y25.2554
X295.8443 Y25.2629
X295.7893 Y25.2737
X295.7342 Y25.288
X295.6818 Y25.3049
X295.6294 Y25.3253
X295.6241 Y25.3275
X295.5691 Y25.3534
X295.514 Y25.3837
X295.4751 Y25.4082
X295.4362 Y25.4354
X295.4201 Y25.4476
X295.4181 Y25.4491
X295.416 Y25.45
X56.584
X56.582 Y25.4491
X56.58 Y25.4476
X56.5638 Y25.4354
X56.5249 Y25.4082
X56.486 Y25.3837
X56.431 Y25.3534
X56.3759 Y25.3275
X56.3707 Y25.3253
X56.3182 Y25.3049
X56.2658 Y25.2879
X56.2108 Y25.2737
X56.1557 Y25.2629
X56.1007 Y25.2554
X56.0456 Y25.2511
X55.9355 Y25.25
X26.2084
X26.1533 Y25.2512
X26.0983 Y25.2555
X26.0432 Y25.263
X25.9882 Y25.2739
X25.9331 Y25.2883
X25.8781 Y25.3062
X25.8294 Y25.3253
X25.768 Y25.3539
X25.7129 Y25.3844
X25.6579 Y25.4199
X25.6362 Y25.4354
X25.592 Y25.4701
X25.5478 Y25.5093
X25.5115 Y25.5455
X25.4723 Y25.5893
X25.4377 Y25.6331
X25.4215 Y25.6556
X25.3858 Y25.7106
X25.3551 Y25.7657
X25.3276 Y25.824
X25.3071 Y25.8758
X25.289 Y25.9308
X25.2745 Y25.9858
X25.2634 Y26.0409
X25.2557 Y26.0959
X25.2513 Y26.151
X25.25 Y26.206
Y55.9309
X25.2509 Y56.041
X25.2549 Y56.096
X25.2621 Y56.1511
X25.2727 Y56.2061
X25.2866 Y56.2612
X25.3042 Y56.3162
X25.3256 Y56.3713
X25.3276 Y56.376
X25.3522 Y56.4287
X25.381 Y56.4814
X25.4077 Y56.5241
X25.4377 Y56.5669
X25.4566 Y56.5915
X25.4989 Y56.6411
X25.5478 Y56.6907
X25.5595 Y56.7015
X25.6087 Y56.7435
X25.6579 Y56.7801
X25.7063 Y56.8116
X25.768 Y56.8461
X25.823 Y56.872
X25.8781 Y56.8938
X25.924 Y56.909
X25.97 Y56.9217
X25.9882 Y56.9261
X26.0432 Y56.937
X26.0983 Y56.9445
X26.1533 Y56.9489
X26.2084 Y56.95
X71.9001
X72.0102 Y56.9502
X72.1203 Y56.952
X72.2304 Y56.9568
X72.3405 Y56.9645
X72.4506 Y56.9753
X72.5607 Y56.9892
X72.6708 Y57.006
X72.7809 Y57.0263
X72.8092 Y57.0318
X72.891 Y57.0493
X73.0011 Y57.0758
X73.1112 Y57.1057
X73.2213 Y57.1385
X73.2315 Y57.1419
X73.3314 Y57.1754
X73.4415 Y57.2153
X73.534 Y57.252
X73.5516 Y57.2593
X73.6617 Y57.3069
X73.7718 Y57.3583
X73.7797 Y57.3621
X73.8819 Y57.414
X73.9886 Y57.4722
X73.992 Y57.4741
X74.1021 Y57.5383
X74.1728 Y57.5823
X74.2122 Y57.6079
X74.3223 Y57.6822
X74.3368 Y57.6924
X74.4324 Y57.762
X74.4852 Y57.8025
X74.5425 Y57.8479
X74.6209 Y57.9126
X74.6526 Y57.9401
X74.7457 Y58.0227
X74.7627 Y58.0387
X74.8604 Y58.1327
X74.8728 Y58.1453
X74.9663 Y58.2428
X74.9829 Y58.2611
X75.0649 Y58.3529
X75.093 Y58.3858
X75.1568 Y58.463
X75.2031 Y58.5215
X75.2423 Y58.5731
X75.3132 Y58.671
X75.3219 Y58.6832
X75.396 Y58.7933
X75.4233 Y58.836
X75.4646 Y58.9034
X75.5292 Y59.0135
X75.5334 Y59.0209
X75.5891 Y59.1236
X75.6435 Y59.2314
X75.6446 Y59.2337
X75.6955 Y59.3438
X75.7435 Y59.4538
X75.7536 Y59.479
X75.7862 Y59.5639
X75.8267 Y59.674
X75.863 Y59.7841
X75.8637 Y59.7865
X75.8959 Y59.8942
X75.9253 Y60.0043
X75.9518 Y60.1144
X75.9738 Y60.2205
X75.9746 Y60.2245
X75.9945 Y60.3346
X76.0114 Y60.4447
X76.0255 Y60.5548
X76.0361 Y60.6649
X76.0437 Y60.775
X76.0485 Y60.885
X76.05 Y60.9951
X76.0487 Y61.1052
X76.0443 Y61.2153
X76.0368 Y61.3254
X76.0265 Y61.4355
X76.0128 Y61.5456
X75.9961 Y61.6557
X75.9765 Y61.7658
X75.9738 Y61.7795
X75.954 Y61.8759
X75.9277 Y61.986
X75.8987 Y62.0961
X75.8659 Y62.2062
X75.8637 Y62.2136
X75.8302 Y62.3162
X75.7898 Y62.4263
X75.7536 Y62.521
X75.7476 Y62.5364
X75.6999 Y62.6465
X75.6493 Y62.7566
X75.6435 Y62.7686
X75.5942 Y62.8667
X75.5347 Y62.9768
X75.5334 Y62.9791
X75.4705 Y63.0869
X75.4233 Y63.1641
X75.4024 Y63.197
X75.3286 Y63.3071
X75.3132 Y63.329
X75.2494 Y63.4172
X75.2031 Y63.4785
X75.1647 Y63.5273
X75.093 Y63.6142
X75.0735 Y63.6374
X74.9829 Y63.739
X74.9752 Y63.7474
X74.8728 Y63.8548
X74.87 Y63.8575
X74.7627 Y63.9613
X74.756 Y63.9676
X74.6526 Y64.0599
X74.6321 Y64.0777
X74.5425 Y64.1521
X74.4977 Y64.1878
X74.4324 Y64.2381
X74.3507 Y64.2979
X74.3223 Y64.3178
X74.2122 Y64.3921
X74.1878 Y64.408
X74.1021 Y64.4617
X74.0059 Y64.5181
X73.992 Y64.5259
X73.8819 Y64.5861
X73.7997 Y64.6282
X73.7718 Y64.6417
X73.6617 Y64.6931
X73.5574 Y64.7383
X73.5516 Y64.7407
X73.4415 Y64.7847
X73.3314 Y64.8246
X73.2611 Y64.8484
X73.2213 Y64.8615
X73.1112 Y64.8943
X73.0011 Y64.9242
X72.891 Y64.9507
X72.8552 Y64.9585
X72.7809 Y64.9737
X72.6708 Y64.994
X72.5607 Y65.0108
X72.4506 Y65.0247
X72.3405 Y65.0355
X72.2304 Y65.0432
X72.1203 Y65.048
X72.0102 Y65.0498
X71.9001 Y65.05
X26.2084
X26.1533 Y65.0511
X26.0983 Y65.0555
X26.0558 Y65.061
X26.0132 Y65.0686
X25.9882 Y65.0739
X25.9331 Y65.0883
X25.8781 Y65.1062
X25.823 Y65.128
X25.768 Y65.1539
X25.7227 Y65.1786
X25.6579 Y65.2199
X25.6141 Y65.2522
X25.5703 Y65.2887
X25.5478 Y65.3093
X25.5034 Y65.3541
X25.4644 Y65.3988
X25.4377 Y65.4331
X25.4109 Y65.471
X25.3868 Y65.5089
X25.356 Y65.564
X25.3298 Y65.619
X25.3276 Y65.624
X25.3068 Y65.6766
X25.2895 Y65.7291
X25.2749 Y65.7841
X25.2637 Y65.8392
X25.2559 Y65.8942
X25.2514 Y65.9493
X25.25 Y66.0594
Y151.029
Y188.1155
Y188.3091 Z-8.0001
Y188.5027 Z-8.0004
Y188.6963 Z-8.0008
Y188.8898 Z-8.0015
Y189.0834 Z-8.0023
Y189.277 Z-8.0033
Y189.4706 Z-8.0045
Y189.6641 Z-8.0058
Y189.8577 Z-8.0073
Y190.0513 Z-8.009
Y190.2449 Z-8.0109
Y190.4384 Z-8.0129
Y190.632 Z-8.0151
Y190.8256 Z-8.0174
Y191.0192 Z-8.0199
Y191.2127 Z-8.0225
Y191.4063 Z-8.0253
Y191.5999 Z-8.0283
Y191.7935 Z-8.0314
Y191.987 Z-8.0347
Y192.1806 Z-8.0381
Y192.3742 Z-8.0416
Y192.5678 Z-8.0453
Y192.7613 Z-8.0491
Y192.9549 Z-8.0531
Y193.1485 Z-8.0572
Y193.3421 Z-8.0614
Y193.5356 Z-8.0658
Y193.7292 Z-8.0702
Y193.9228 Z-8.0749
Y194.1164 Z-8.0796
Y194.3099 Z-8.0845
Y194.5035 Z-8.0894
Y194.6003 Z-8.092
Y194.6971 Z-8.0945
Y194.7939 Z-8.0971
Y194.8907 Z-8.0997
Y194.9874 Z-8.1024
Y195.0842 Z-8.1051
Y195.181 Z-8.1078
Y195.2778 Z-8.1105
Y195.3746 Z-8.1133
Y195.4714 Z-8.1161
Y195.5682 Z-8.1189
Y195.665 Z-8.1217
Y195.7617 Z-8.1246
Y195.8585 Z-8.1275
Y195.9553 Z-8.1304
Y196.0521 Z-8.1334
Y196.1489 Z-8.1363
Y196.2457 Z-8.1393
Y196.3425 Z-8.1424
Y196.4393 Z-8.1454
Y196.536 Z-8.1485
Y196.6328 Z-8.1516
Y196.7296 Z-8.1547
Y196.8264 Z-8.1578
Y196.9232 Z-8.161
Y197.02 Z-8.1642
Y197.1168 Z-8.1674
Y197.2135 Z-8.1706
Y197.3103 Z-8.1739
Y197.4071 Z-8.1772
Y197.5039 Z-8.1805
Y197.6007 Z-8.1838
Y197.6975 Z-8.1871
Y197.8911 Z-8.1939
Y197.9879 Z-8.1972
Y198.0846 Z-8.2006
Y198.1814 Z-8.204
Y198.2782 Z-8.2074
Y198.375 Z-8.2108
Y198.4718 Z-8.2141
Y198.5686 Z-8.2175
Y198.6654 Z-8.2209
Y198.7621 Z-8.2243
Y198.8589 Z-8.2277
Y198.9557 Z-8.231
Y199.0525 Z-8.2344
Y199.2461 Z-8.2412
Y199.5365 Z-8.2513
Y199.8268 Z-8.2614
Y200.1172 Z-8.2716
Y200.4075 Z-8.2817
Y200.6979 Z-8.2919
Y200.9883 Z-8.302
Y201.2786 Z-8.3121
Y201.569 Z-8.3223
Y201.8593 Z-8.3324
Y202.1497 Z-8.3426
Y202.6336 Z-8.3595
Y203.1176 Z-8.3764
Y203.6015 Z-8.3933
Y204.279 Z-8.4169
Y205.1501 Z-8.4473
Y206.6019 Z-8.498
Y213.5706 Z-8.7413
Y213.861 Z-8.7515
Y214.1513 Z-8.7616
Y214.2481 Z-8.765
Y214.3449 Z-8.7684
Y214.4417 Z-8.7717
Y214.5385 Z-8.7751
Y214.6353 Z-8.7785
Y214.7321 Z-8.7819
Y214.8288 Z-8.7853
Y214.9256 Z-8.7886
Y215.0224 Z-8.792
Y215.1192 Z-8.7954
Y215.216 Z-8.7988
Y215.3128 Z-8.8022
Y215.4096 Z-8.8055
Y215.5064 Z-8.8089
Y215.6031 Z-8.8123
Y215.6999 Z-8.8156
Y215.7967 Z-8.819
Y215.8935 Z-8.8223
Y215.9903 Z-8.8255
Y216.0871 Z-8.8288
Y216.1839 Z-8.832
Y216.2807 Z-8.8353
Y216.3774 Z-8.8385
Y216.4742 Z-8.8416
Y216.571 Z-8.8448
Y216.6678 Z-8.8479
Y216.7646 Z-8.851
Y216.8614 Z-8.8541
Y216.9582 Z-8.8571
Y217.055 Z-8.8601
Y217.1517 Z-8.8631
Y217.2485 Z-8.8661
Y217.3453 Z-8.8691
Y217.4421 Z-8.872
Y217.5389 Z-8.8749
Y217.6357 Z-8.8778
Y217.7325 Z-8.8806
Y217.8293 Z-8.8834
Y217.926 Z-8.8862
Y218.0228 Z-8.889
Y218.1196 Z-8.8917
Y218.2164 Z-8.8945
Y218.3132 Z-8.8971
Y218.41 Z-8.8998
Y218.5068 Z-8.9024
Y218.6036 Z-8.905
Y218.7003 Z-8.9076
Y218.7971 Z-8.9101
Y218.8939 Z-8.9126
Y219.0875 Z-8.9176
Y219.2811 Z-8.9224
Y219.4746 Z-8.9271
Y219.6682 Z-8.9316
Y219.8618 Z-8.9361
Y220.0554 Z-8.9404
Y220.2489 Z-8.9445
Y220.4425 Z-8.9486
Y220.6361 Z-8.9525
Y220.8297 Z-8.9562
Y221.0232 Z-8.9599
Y221.2168 Z-8.9634
Y221.4104 Z-8.9667
Y221.604 Z-8.9699
Y221.7975 Z-8.9729
Y221.9911 Z-8.9758
Y222.1847 Z-8.9786
Y222.3783 Z-8.9812
Y222.5718 Z-8.9836
Y222.7654 Z-8.9859
Y222.959 Z-8.988
Y223.1526 Z-8.9899
Y223.3461 Z-8.9917
Y223.5397 Z-8.9933
Y223.7333 Z-8.9948
Y223.9269 Z-8.996
Y224.1204 Z-8.9971
Y224.314 Z-8.9981
Y224.5076 Z-8.9988
Y224.7012 Z-8.9994
Y224.8947 Z-8.9998
Y225.0883 Z-9
Y225.2021
Y266.7573
X25.2524 Y266.8674
X25.2579 Y266.9224
X25.2668 Y266.9775
X25.2789 Y267.0325
X25.2946 Y267.0876
X25.3098 Y267.1318
X25.3276 Y267.176
X25.3373 Y267.1977
X25.3648 Y267.2527
X25.3971 Y267.3078
X25.4377 Y267.3669
X25.4784 Y267.4178
X25.5112 Y267.4543
X25.5478 Y267.4907
X25.5896 Y267.528
X25.6238 Y267.5553
X25.6579 Y267.5801
X25.7052 Y267.611
X25.7526 Y267.638
X25.768 Y267.6461
X25.823 Y267.672
X25.8781 Y267.6938
X25.9331 Y267.7117
X25.9882 Y267.7261
X26.0432 Y267.737
X26.0983 Y267.7445
X26.1404 Y267.7481
X26.2084 Y267.75
X32.0484
X32.05 Y267.7517
Y288.9959
X32.0514 Y289.051
X32.0559 Y289.106
X32.0638 Y289.161
X32.0749 Y289.2161
X32.0895 Y289.2711
X32.1078 Y289.3262
X32.1289 Y289.379
X32.1538 Y289.4318
X32.1561 Y289.4363
X32.1869 Y289.4913
X32.2228 Y289.5464
X32.2639 Y289.6006
X32.3133 Y289.6565
X32.3437 Y289.6868
X32.374 Y289.7146
X32.4064 Y289.7417
X32.4388 Y289.7665
X32.4841 Y289.7977
X32.5392 Y289.8307
X32.5942 Y289.859
X32.6339 Y289.8766
X32.7043 Y289.9028
X32.7594 Y289.919
X32.8144 Y289.9317
X32.8695 Y289.941
X32.9245 Y289.947
X33.0346 Y289.95
X318.9654
X319.0755 Y289.947
X319.1306 Y289.941
X319.1856 Y289.9317
X319.2407 Y289.919
X319.2957 Y289.9028
X319.3661 Y289.8766
X319.4058 Y289.859
X319.4609 Y289.8307
X319.5159 Y289.7977
X319.5612 Y289.7665
X319.5936 Y289.7417
X319.626 Y289.7146
X319.6564 Y289.6868
X319.6867 Y289.6565
X319.7361 Y289.6006
X319.7772 Y289.5464
X319.8131 Y289.4913
X319.8439 Y289.4363
X319.8462 Y289.4318
X319.8712 Y289.379
X319.8923 Y289.3262
X319.9105 Y289.2711
X319.9251 Y289.2161
X319.9363 Y289.161
X319.9441 Y289.106
X319.9487 Y289.051
X319.95 Y288.9959
Y267.7517
X319.9516 Y267.75
X325.7916
X325.8597 Y267.7481
X325.9017 Y267.7445
X325.9568 Y267.737
X326.0118 Y267.7261
X326.0669 Y267.7118
X326.1219 Y267.6938
X326.177 Y267.672
X326.232 Y267.6461
X326.2475 Y267.638
X326.2948 Y267.611
X326.3421 Y267.5801
X326.3763 Y267.5553
X326.4104 Y267.528
X326.4522 Y267.4907
X326.4888 Y267.4543
X326.5217 Y267.4178
X326.5623 Y267.3669
X326.6029 Y267.3078
X326.6352 Y267.2527
X326.6628 Y267.1977
X326.6725 Y267.176
X326.6902 Y267.1318
X326.7054 Y267.0876
X326.7211 Y267.0325
X326.7333 Y266.9775
X326.7421 Y266.9224
X326.7476 Y266.8674
X326.75 Y266.7573
Y26.206
X326.7487 Y26.151
X326.7443 Y26.0959
X326.7366 Y26.0409
X326.7256 Y25.9858
X326.7111 Y25.9308
X326.693 Y25.8758
X326.6725 Y25.824
X326.6449 Y25.7657
X326.6143 Y25.7106
X326.5785 Y25.6556
X326.5623 Y25.6331
X326.5277 Y25.5893
X326.4886 Y25.5455
X326.4522 Y25.5093
X326.408 Y25.4701
X326.3638 Y25.4354
X326.3421 Y25.4199
X326.2871 Y25.3844
X326.232 Y25.3539
X326.1707 Y25.3253
X326.1219 Y25.3062
X326.0669 Y25.2883
X326.0118 Y25.2739
X325.9568 Y25.263
X325.9017 Y25.2555
X325.8467 Y25.2512
X325.7916 Y25.25
X296.0645
X295.9544 Y25.2511
X295.8994 Y25.2554
X295.8443 Y25.2629
X295.7893 Y25.2737
X295.7342 Y25.288
X295.6818 Y25.3049
X295.6294 Y25.3253
X295.6241 Y25.3275
X295.5691 Y25.3534
X295.514 Y25.3837
X295.4751 Y25.4082
X295.4362 Y25.4354
X295.4201 Y25.4476
X295.4181 Y25.4491
X295.416 Y25.45
X56.584
X56.582 Y25.4491
X56.58 Y25.4476
X56.5638 Y25.4354
X56.5249 Y25.4082
X56.486 Y25.3837
X56.431 Y25.3534
X56.3759 Y25.3275
X56.3707 Y25.3253
X56.3182 Y25.3049
X56.2658 Y25.2879
X56.2108 Y25.2737
X56.1557 Y25.2629
X56.1007 Y25.2554
X56.0456 Y25.2511
X55.9355 Y25.25
X26.2084
X26.1533 Y25.2512
X26.0983 Y25.2555
X26.0432 Y25.263
X25.9882 Y25.2739
X25.9331 Y25.2883
X25.8781 Y25.3062
X25.8294 Y25.3253
X25.768 Y25.3539
X25.7129 Y25.3844
X25.6579 Y25.4199
X25.6362 Y25.4354
X25.592 Y25.4701
X25.5478 Y25.5093
X25.5115 Y25.5455
X25.4723 Y25.5893
X25.4377 Y25.6331
X25.4215 Y25.6556
X25.3858 Y25.7106
X25.3551 Y25.7657
X25.3276 Y25.824
X25.3071 Y25.8758
X25.289 Y25.9308
X25.2745 Y25.9858
X25.2634 Y26.0409
X25.2557 Y26.0959
X25.2513 Y26.151
X25.25 Y26.206
Y55.9309
X25.2509 Y56.041
X25.2549 Y56.096
X25.2621 Y56.1511
X25.2727 Y56.2061
X25.2866 Y56.2612
X25.3042 Y56.3162
X25.3256 Y56.3713
X25.3276 Y56.376
X25.3522 Y56.4287
X25.381 Y56.4814
X25.4077 Y56.5241
X25.4377 Y56.5669
X25.4566 Y56.5915
X25.4989 Y56.6411
X25.5478 Y56.6907
X25.5595 Y56.7015
X25.6087 Y56.7435
X25.6579 Y56.7801
X25.7063 Y56.8116
X25.768 Y56.8461
X25.823 Y56.872
X25.8781 Y56.8938
X25.924 Y56.909
X25.97 Y56.9217
X25.9882 Y56.9261
X26.0432 Y56.937
X26.0983 Y56.9445
X26.1533 Y56.9489
X26.2084 Y56.95
X71.9001
X72.0102 Y56.9502
X72.1203 Y56.952
X72.2304 Y56.9568
X72.3405 Y56.9645
X72.4506 Y56.9753
X72.5607 Y56.9892
X72.6708 Y57.006
X72.7809 Y57.0263
X72.8092 Y57.0318
X72.891 Y57.0493
X73.0011 Y57.0758
X73.1112 Y57.1057
X73.2213 Y57.1385
X73.2315 Y57.1419
X73.3314 Y57.1754
X73.4415 Y57.2153
X73.534 Y57.252
X73.5516 Y57.2593
X73.6617 Y57.3069
X73.7718 Y57.3583
X73.7797 Y57.3621
X73.8819 Y57.414
X73.9886 Y57.4722
X73.992 Y57.4741
X74.1021 Y57.5383
X74.1728 Y57.5823
X74.2122 Y57.6079
X74.3223 Y57.6822
X74.3368 Y57.6924
X74.4324 Y57.762
X74.4852 Y57.8025
X74.5425 Y57.8479
X74.6209 Y57.9126
X74.6526 Y57.9401
X74.7457 Y58.0227
X74.7627 Y58.0387
X74.8604 Y58.1327
X74.8728 Y58.1453
X74.9663 Y58.2428
X74.9829 Y58.2611
X75.0649 Y58.3529
X75.093 Y58.3858
X75.1568 Y58.463
X75.2031 Y58.5215
X75.2423 Y58.5731
X75.3132 Y58.671
X75.3219 Y58.6832
X75.396 Y58.7933
X75.4233 Y58.836
X75.4646 Y58.9034
