%
(Made in : Autodesk CAM Post Processor)
(G Code optimized for OpenBuilds OX CNC 1000 x 750 with GRBL V0.9j controller)

(Program Name : 1001)
(2 Operations :)
(1 : Contour2)
(  Tool : Flat End Mill 2 Flutes, Diam = 1.9mm, Len = 12.7mm)
(  Spindle : RPM = 30000, set router dial to 6)
(  Machining time : 10 min 41 sec)
(2 : Horizontal1)
(  Tool : Flat End Mill 2 Flutes, Diam = 1.9mm, Len = 12.7mm)
(  Spindle : RPM = 30000, set router dial to 6)
(  Machining time : 4 min 55 sec)

G90 G94
G17
G21

(Operation 1 of 2 : Contour2)

G53 G0 Z5
G54
S30000 M3
G4 P1.0
X24.0298 Y24.8448
Z6
Z1.1884
G1 Z-0.81 F3200
X24.0355 Y24.8479 Z-0.8592
X24.0522 Y24.8569 Z-0.905
X24.0788 Y24.8712 Z-0.9444
X24.1135 Y24.8898 Z-0.9745
X24.1538 Y24.9116 Z-0.9935
X24.1971 Y24.9349 Z-1
X25.2745 Y25.5152
X25.3147 Y25.5442
X25.346 Y25.5826
X25.3663 Y25.6279
X25.3743 Y25.6768
X25.3692 Y25.7262
X25.3516 Y25.7726
X25.3425 Y25.7912
X25.3184 Y25.8462
X25.2982 Y25.9013
X25.2818 Y25.9564
X25.2689 Y26.0114
X25.2595 Y26.0665
X25.2533 Y26.1215
X25.25 Y26.2317
Y55.9639
X25.2529 Y56.074
X25.2588 Y56.1291
X25.268 Y56.1842
X25.2806 Y56.2392
X25.2968 Y56.2943
X25.3166 Y56.3493
X25.3404 Y56.4044
X25.3516 Y56.4275
X25.375 Y56.471
X25.4014 Y56.5145
X25.4299 Y56.5562
X25.4618 Y56.5979
X25.4843 Y56.6246
X25.5252 Y56.6687
X25.5719 Y56.7127
X25.5978 Y56.7348
X25.6399 Y56.7673
X25.682 Y56.7963
X25.7238 Y56.822
X25.7657 Y56.8449
X25.7921 Y56.858
X25.8472 Y56.882
X25.9022 Y56.9021
X25.9573 Y56.9185
X26.0124 Y56.9313
X26.0674 Y56.9407
X26.1225 Y56.9468
X26.2326 Y56.95
X71.9337
X72.0438 Y56.9505
X72.1539 Y56.9532
X72.1978 Y56.955
X72.2641 Y56.9587
X72.3742 Y56.9676
X72.4843 Y56.9792
X72.5944 Y56.9939
X72.7046 Y57.012
X72.8147 Y57.0329
X72.9248 Y57.0572
X72.9583 Y57.0651
X73.0349 Y57.0847
X73.1451 Y57.1154
X73.2552 Y57.1497
X73.3309 Y57.1752
X73.3653 Y57.1871
X73.4754 Y57.2286
X73.5855 Y57.2735
X73.6128 Y57.2854
X73.6957 Y57.3225
X73.8058 Y57.3748
X73.8462 Y57.3955
X73.9159 Y57.4322
X74.026 Y57.4933
X74.0469 Y57.5056
X74.1362 Y57.5593
X74.2241 Y57.6157
X74.2463 Y57.6305
X74.3564 Y57.7061
X74.3836 Y57.7258
X74.4665 Y57.7881
X74.5275 Y57.836
X74.5767 Y57.8758
X74.6595 Y57.9461
X74.6868 Y57.9699
X74.7811 Y58.0562
X74.7969 Y58.0712
X74.8935 Y58.1663
X74.907 Y58.18
X74.9968 Y58.2764
X75.0171 Y58.2988
X75.0937 Y58.3866
X75.1273 Y58.4267
X75.1839 Y58.4967
X75.2374 Y58.5665
X75.2671 Y58.6068
X75.3449 Y58.7169
X75.3475 Y58.7207
X75.4178 Y58.827
X75.4576 Y58.8919
X75.4851 Y58.9372
X75.548 Y59.0473
X75.5678 Y59.0833
X75.6067 Y59.1574
X75.6605 Y59.2675
X75.6779 Y59.3049
X75.7108 Y59.3776
X75.757 Y59.4878
X75.788 Y59.5688
X75.7989 Y59.5979
X75.8385 Y59.708
X75.8733 Y59.8181
X75.8981 Y59.9019
X75.9056 Y59.9282
X75.9337 Y60.0383
X75.9595 Y60.1485
X75.9809 Y60.2586
X76.0001 Y60.3687
X76.0082 Y60.4221
X76.0163 Y60.4788
X76.029 Y60.5889
X76.0388 Y60.6991
X76.0456 Y60.8092
X76.0492 Y60.9193
X76.05 Y61.0294
X76.0476 Y61.1395
X76.0423 Y61.2497
X76.0341 Y61.3598
X76.0225 Y61.4699
X76.0082 Y61.5779
X76.0079 Y61.58
X75.9903 Y61.6901
X75.9697 Y61.8003
X75.9462 Y61.9104
X75.9189 Y62.0205
X75.8981 Y62.0981
X75.8886 Y62.1306
X75.8553 Y62.2407
X75.8177 Y62.3509
X75.788 Y62.4312
X75.7769 Y62.461
X75.7329 Y62.5711
X75.6843 Y62.6812
X75.6779 Y62.6951
X75.6323 Y62.7913
X75.5761 Y62.9015
X75.5678 Y62.9167
X75.515 Y63.0116
X75.4576 Y63.1081
X75.4493 Y63.1217
X75.3794 Y63.2318
X75.3475 Y63.2793
X75.304 Y63.3419
X75.2374 Y63.4335
X75.2235 Y63.4521
X75.1364 Y63.5622
X75.1273 Y63.5733
X75.0428 Y63.6723
X75.0171 Y63.7012
X74.9426 Y63.7824
X74.907 Y63.82
X74.8344 Y63.8925
X74.7969 Y63.9288
X74.7176 Y64.0026
X74.6868 Y64.0301
X74.5905 Y64.1128
X74.5767 Y64.1242
X74.4665 Y64.2119
X74.4521 Y64.2229
X74.3564 Y64.2939
X74.3006 Y64.333
X74.2463 Y64.3695
X74.1362 Y64.4407
X74.1322 Y64.4431
X74.026 Y64.5067
X73.9429 Y64.5532
X73.9159 Y64.5678
X73.8058 Y64.6252
X73.7265 Y64.6634
X73.6957 Y64.6776
X73.5855 Y64.7265
X73.4754 Y64.7714
X73.4701 Y64.7735
X73.3653 Y64.813
X73.2552 Y64.8503
X73.1485 Y64.8836
X73.1451 Y64.8847
X73.0349 Y64.9153
X72.9248 Y64.9429
X72.8147 Y64.9671
X72.7046 Y64.988
X72.6721 Y64.9937
X72.5944 Y65.0061
X72.4843 Y65.0208
X72.3742 Y65.0324
X72.2641 Y65.0413
X72.1539 Y65.0469
X72.0438 Y65.0495
X71.9337 Y65.05
X26.2326
X26.1225 Y65.0532
X26.0674 Y65.0593
X26.0124 Y65.0687
X25.9573 Y65.0815
X25.9022 Y65.0979
X25.8847 Y65.1038
X25.8384 Y65.1215
X25.7921 Y65.142
X25.7371 Y65.1704
X25.682 Y65.2037
X25.6665 Y65.214
X25.6192 Y65.2483
X25.5719 Y65.2873
X25.5325 Y65.3241
X25.4951 Y65.3631
X25.4618 Y65.4021
X25.4369 Y65.4342
X25.399 Y65.4893
X25.3664 Y65.5443
X25.3516 Y65.5725
X25.3322 Y65.6135
X25.3151 Y65.6544
X25.2955 Y65.7095
X25.2797 Y65.7646
X25.2673 Y65.8196
X25.2583 Y65.8747
X25.2526 Y65.9297
X25.2501 Y65.9848
X25.25 Y66.0949
Y266.7327
X25.251 Y266.8428
X25.2551 Y266.8978
X25.2624 Y266.9529
X25.2731 Y267.008
X25.2872 Y267.063
X25.3049 Y267.1181
X25.3264 Y267.1731
X25.3516 Y267.2274
X25.3821 Y267.2833
X25.4173 Y267.3383
X25.4581 Y267.3934
X25.4618 Y267.3979
X25.5078 Y267.4507
X25.5616 Y267.5035
X25.5719 Y267.5127
X25.6269 Y267.5577
X25.682 Y267.5963
X25.7096 Y267.6136
X25.7509 Y267.6371
X25.7921 Y267.658
X25.8472 Y267.682
X25.9022 Y267.7021
X25.9782 Y267.7237
X26.0124 Y267.7313
X26.0674 Y267.7407
X26.1225 Y267.7468
X26.2326 Y267.75
X32.0486
X32.05 Y267.7513
Y288.9768
X32.0505 Y289.0319
X32.054 Y289.0869
X32.0601 Y289.1383
X32.0691 Y289.1897
X32.0707 Y289.197
X32.0841 Y289.2521
X32.101 Y289.3072
X32.1218 Y289.3622
X32.1465 Y289.4173
X32.1793 Y289.4784
X32.2098 Y289.5274
X32.2468 Y289.5789
X32.2894 Y289.6305
X32.2957 Y289.6375
X32.3476 Y289.6906
X32.3995 Y289.7361
X32.4139 Y289.7476
X32.4617 Y289.7828
X32.5096 Y289.8137
X32.5506 Y289.837
X32.5916 Y289.8578
X32.6198 Y289.8706
X32.6748 Y289.8926
X32.7299 Y289.9108
X32.7849 Y289.9254
X32.84 Y289.9364
X32.8951 Y289.9442
X32.9501 Y289.9487
X33.0602 Y289.95
X318.9398
X319.0499 Y289.9487
X319.105 Y289.9442
X319.16 Y289.9364
X319.2151 Y289.9254
X319.2701 Y289.9108
X319.3252 Y289.8926
X319.3803 Y289.8706
X319.4084 Y289.8578
X319.4494 Y289.837
X319.4904 Y289.8137
X319.5383 Y289.7828
X319.5862 Y289.7476
X319.6005 Y289.7361
X319.6524 Y289.6906
X319.7044 Y289.6375
X319.7106 Y289.6305
X319.7532 Y289.5789
X319.7902 Y289.5274
X319.8208 Y289.4784
X319.8535 Y289.4173
X319.8783 Y289.3622
X319.899 Y289.3072
X319.916 Y289.2521
X319.9294 Y289.197
X319.9309 Y289.1897
X319.9399 Y289.1383
X319.946 Y289.0869
X319.9495 Y289.0319
X319.95 Y288.9768
Y267.7513
X319.9514 Y267.75
X325.7674
X325.8775 Y267.7468
X325.9326 Y267.7407
X325.9877 Y267.7313
X326.0219 Y267.7237
X326.0978 Y267.7021
X326.1528 Y267.6821
X326.2079 Y267.658
X326.2492 Y267.6371
X326.2905 Y267.6136
X326.318 Y267.5963
X326.3731 Y267.5577
X326.4282 Y267.5127
X326.4384 Y267.5035
X326.4922 Y267.4507
X326.5383 Y267.3979
X326.5419 Y267.3934
X326.5828 Y267.3383
X326.6179 Y267.2833
X326.6484 Y267.2275
X326.6737 Y267.1731
X326.6952 Y267.1181
X326.7129 Y267.063
X326.727 Y267.008
X326.7376 Y266.9529
X326.745 Y266.8978
X326.7491 Y266.8428
X326.75 Y266.7327
Y26.2317
X326.7468 Y26.1215
X326.7406 Y26.0665
X326.7311 Y26.0114
X326.7182 Y25.9564
X326.7018 Y25.9013
X326.6817 Y25.8462
X326.6576 Y25.7912
X326.6484 Y25.7725
X326.6238 Y25.7268
X326.5958 Y25.6811
X326.5686 Y25.6416
X326.5383 Y25.6021
X326.5119 Y25.5709
X326.47 Y25.5265
X326.4282 Y25.4873
X326.3968 Y25.4608
X326.3574 Y25.4307
X326.318 Y25.4037
X326.2719 Y25.3755
X326.2257 Y25.3507
X326.2079 Y25.342
X326.1528 Y25.318
X326.0978 Y25.2979
X326.0427 Y25.2815
X325.9877 Y25.2687
X325.9326 Y25.2593
X325.8775 Y25.2532
X325.7674 Y25.25
X26.2326
X26.1225 Y25.2532
X26.0674 Y25.2593
X26.0124 Y25.2687
X25.9573 Y25.2815
X25.9022 Y25.2979
X25.8472 Y25.318
X25.7921 Y25.342
X25.7744 Y25.3507
X25.7282 Y25.3755
X25.682 Y25.4037
X25.6426 Y25.4307
X25.6033 Y25.4608
X25.5719 Y25.4873
X25.53 Y25.5265
X25.4881 Y25.5709
X25.4618 Y25.6021
X25.4315 Y25.6416
X25.4043 Y25.6811
X25.3763 Y25.7268
X25.3516 Y25.7726
X25.331 Y25.8163
X25.3125 Y25.8611
X25.2964 Y25.9067 Z-1.0001
X25.2827 Y25.9531
X25.2713 Y26.0001
X25.2623 Y26.0477 Z-1.0002
X25.2558 Y26.0957 Z-1.0003
X25.2517 Y26.1439 Z-1.0004
X25.25 Y26.3375 Z-1.0008
Y26.531 Z-1.0015
Y26.7246 Z-1.0023
Y26.9182 Z-1.0033
Y27.1117 Z-1.0045
Y27.3053 Z-1.0058
Y27.4989 Z-1.0073
Y27.6925 Z-1.009
Y27.886 Z-1.0109
Y28.0796 Z-1.0129
Y28.2732 Z-1.0151
Y28.4668 Z-1.0174
Y28.6603 Z-1.0199
Y28.8539 Z-1.0225
Y29.0475 Z-1.0253
Y29.2411 Z-1.0283
Y29.4346 Z-1.0314
Y29.6282 Z-1.0347
Y29.8218 Z-1.0381
Y30.0154 Z-1.0416
Y30.2089 Z-1.0453
Y30.4025 Z-1.0491
Y30.5961 Z-1.0531
Y30.7897 Z-1.0572
Y30.9832 Z-1.0614
Y31.1768 Z-1.0658
Y31.3704 Z-1.0702
Y31.564 Z-1.0749
Y31.7575 Z-1.0796
Y31.9511 Z-1.0845
Y32.1447 Z-1.0894
Y32.2415 Z-1.092
Y32.3383 Z-1.0945
Y32.4351 Z-1.0971
Y32.5318 Z-1.0997
Y32.6286 Z-1.1024
Y32.7254 Z-1.1051
Y32.8222 Z-1.1078
Y32.919 Z-1.1105
Y33.0158 Z-1.1133
Y33.1126 Z-1.1161
Y33.2094 Z-1.1189
Y33.3061 Z-1.1217
Y33.4029 Z-1.1246
Y33.4997 Z-1.1275
Y33.5965 Z-1.1304
Y33.6933 Z-1.1334
Y33.7901 Z-1.1363
Y33.8869 Z-1.1393
Y33.9837 Z-1.1423
Y34.0804 Z-1.1454
Y34.1772 Z-1.1485
Y34.274 Z-1.1516
Y34.3708 Z-1.1547
Y34.4676 Z-1.1578
Y34.5644 Z-1.161
Y34.6612 Z-1.1642
Y34.7579 Z-1.1674
Y34.8547 Z-1.1706
Y34.9515 Z-1.1739
Y35.0483 Z-1.1772
Y35.1451 Z-1.1805
Y35.2419 Z-1.1838
Y35.3387 Z-1.1871
Y35.5322 Z-1.1939
Y35.629 Z-1.1972
Y35.7258 Z-1.2006
Y35.8226 Z-1.204
Y35.9194 Z-1.2074
Y36.0162 Z-1.2108
Y36.113 Z-1.2141
Y36.2098 Z-1.2175
Y36.3065 Z-1.2209
Y36.4033 Z-1.2243
Y36.5001 Z-1.2277
Y36.5969 Z-1.231
Y36.6937 Z-1.2344
Y36.8873 Z-1.2412
Y37.1776 Z-1.2513
Y37.468 Z-1.2614
Y37.7584 Z-1.2716
Y38.0487 Z-1.2817
Y38.3391 Z-1.2919
Y38.6294 Z-1.302
Y38.9198 Z-1.3121
Y39.2102 Z-1.3223
Y39.5005 Z-1.3324
Y39.7909 Z-1.3426
Y40.2748 Z-1.3595
Y40.7588 Z-1.3764
Y41.2427 Z-1.3933
Y41.9202 Z-1.4169
Y42.7913 Z-1.4473
Y44.2431 Z-1.498
Y51.2118 Z-1.7413
Y51.5022 Z-1.7515
Y51.7925 Z-1.7616
Y51.8893 Z-1.765
Y51.9861 Z-1.7684
Y52.0829 Z-1.7717
Y52.1797 Z-1.7751
Y52.2765 Z-1.7785
Y52.3732 Z-1.7819
Y52.47 Z-1.7853
Y52.5668 Z-1.7886
Y52.6636 Z-1.792
Y52.7604 Z-1.7954
Y52.8572 Z-1.7988
Y52.954 Z-1.8022
Y53.0508 Z-1.8055
Y53.1475 Z-1.8089
Y53.2443 Z-1.8123
Y53.3411 Z-1.8156
Y53.4379 Z-1.819
Y53.5347 Z-1.8223
Y53.6315 Z-1.8255
Y53.7283 Z-1.8288
Y53.8251 Z-1.832
Y53.9218 Z-1.8353
Y54.0186 Z-1.8385
Y54.1154 Z-1.8416
Y54.2122 Z-1.8448
Y54.309 Z-1.8479
Y54.4058 Z-1.851
Y54.5026 Z-1.8541
Y54.5993 Z-1.8571
Y54.6961 Z-1.8601
Y54.7929 Z-1.8631
Y54.8897 Z-1.8661
Y54.9865 Z-1.8691
Y55.0833 Z-1.872
Y55.1801 Z-1.8749
Y55.2769 Z-1.8778
Y55.3736 Z-1.8806
Y55.4704 Z-1.8834
Y55.5672 Z-1.8862
Y55.664 Z-1.889
Y55.7608 Z-1.8917
Y55.8576 Z-1.8945
Y55.9544 Z-1.8971
X25.2514 Y56.0511 Z-1.8998
X25.2552 Y56.0994 Z-1.9011
X25.2615 Y56.1474 Z-1.9024
X25.2703 Y56.195 Z-1.9037
X25.2814 Y56.2421 Z-1.905
X25.2949 Y56.2886 Z-1.9063
X25.3108 Y56.3343 Z-1.9076
X25.329 Y56.3791 Z-1.9089
X25.3494 Y56.423 Z-1.9101
X25.372 Y56.4658 Z-1.9114
X25.3968 Y56.5073 Z-1.9126
X25.4237 Y56.5476 Z-1.9139
X25.4526 Y56.5864 Z-1.9151
X25.4834 Y56.6237 Z-1.9163
X25.5161 Y56.6594 Z-1.9176
X25.5506 Y56.6934 Z-1.9188
X25.5868 Y56.7255 Z-1.92
X25.6245 Y56.7558 Z-1.9212
X25.6637 Y56.7841 Z-1.9224
X25.7044 Y56.8104 Z-1.9236
X25.7463 Y56.8346 Z-1.9247
X25.7894 Y56.8567 Z-1.9259
X25.8335 Y56.8765 Z-1.9271
X25.8786 Y56.894 Z-1.9282
X25.9246 Y56.9092 Z-1.9294
X25.9712 Y56.922 Z-1.9305
X26.0185 Y56.9325 Z-1.9316
X26.0662 Y56.9405 Z-1.9327
X26.1143 Y56.9461 Z-1.9339
X26.1626 Y56.9493 Z-1.935
X26.211 Y56.95 Z-1.9361
X26.4046 Z-1.9404
X26.5982 Z-1.9445
X26.7917 Z-1.9486
X26.9853 Z-1.9525
X27.1789 Z-1.9562
X27.3724 Z-1.9599
X27.566 Z-1.9634
X27.7596 Z-1.9667
X27.9532 Z-1.9699
X28.1467 Z-1.9729
X28.3403 Z-1.9758
X28.5339 Z-1.9786
X28.7275 Z-1.9812
X28.921 Z-1.9836
X29.1146 Z-1.9859
X29.3082 Z-1.988
X29.5018 Z-1.9899
X29.6953 Z-1.9917
X29.8889 Z-1.9933
X30.0825 Z-1.9948
X30.2761 Z-1.996
X30.4696 Z-1.9971
X30.6632 Z-1.9981
X30.8568 Z-1.9988
X31.0504 Z-1.9994
X31.2439 Z-1.9998
X31.4375 Z-2
X31.5513
X71.9337
X72.0438 Y56.9505
X72.1539 Y56.9532
X72.1978 Y56.955
X72.2641 Y56.9587
X72.3742 Y56.9676
X72.4843 Y56.9792
X72.5944 Y56.9939
X72.7046 Y57.012
X72.8147 Y57.0329
X72.9248 Y57.0572
X72.9583 Y57.0651
X73.0349 Y57.0847
X73.1451 Y57.1154
X73.2552 Y57.1497
X73.3309 Y57.1752
X73.3653 Y57.1871
X73.4754 Y57.2286
X73.5855 Y57.2735
X73.6128 Y57.2854
X73.6957 Y57.3225
X73.8058 Y57.3748
X73.8462 Y57.3955
X73.9159 Y57.4322
X74.026 Y57.4933
X74.0469 Y57.5056
X74.1362 Y57.5593
X74.2241 Y57.6157
X74.2463 Y57.6305
X74.3564 Y57.7061
X74.3836 Y57.7258
X74.4665 Y57.7881
X74.5275 Y57.836
X74.5767 Y57.8758
X74.6595 Y57.9461
X74.6868 Y57.9699
X74.7811 Y58.0562
X74.7969 Y58.0712
X74.8935 Y58.1663
X74.907 Y58.18
X74.9968 Y58.2764
X75.0171 Y58.2988
X75.0937 Y58.3866
X75.1273 Y58.4267
X75.1839 Y58.4967
X75.2374 Y58.5665
X75.2671 Y58.6068
X75.3449 Y58.7169
X75.3475 Y58.7207
X75.4178 Y58.827
X75.4576 Y58.8919
X75.4851 Y58.9372
X75.548 Y59.0473
X75.5678 Y59.0833
X75.6067 Y59.1574
X75.6605 Y59.2675
X75.6779 Y59.3049
X75.7108 Y59.3776
X75.757 Y59.4878
X75.788 Y59.5688
X75.7989 Y59.5979
X75.8385 Y59.708
X75.8733 Y59.8181
X75.8981 Y59.9019
X75.9056 Y59.9282
X75.9337 Y60.0383
X75.9595 Y60.1485
X75.9809 Y60.2586
X76.0001 Y60.3687
X76.0082 Y60.4221
X76.0163 Y60.4788
X76.029 Y60.5889
X76.0388 Y60.6991
X76.0456 Y60.8092
X76.0492 Y60.9193
X76.05 Y61.0294
X76.0476 Y61.1395
X76.0423 Y61.2497
X76.0341 Y61.3598
X76.0225 Y61.4699
X76.0082 Y61.5779
X76.0079 Y61.58
X75.9903 Y61.6901
X75.9697 Y61.8003
X75.9462 Y61.9104
X75.9189 Y62.0205
X75.8981 Y62.0981
X75.8886 Y62.1306
X75.8553 Y62.2407
X75.8177 Y62.3509
X75.788 Y62.4312
X75.7769 Y62.461
X75.7329 Y62.5711
X75.6843 Y62.6812
X75.6779 Y62.6951
X75.6323 Y62.7913
X75.5761 Y62.9015
X75.5678 Y62.9167
X75.515 Y63.0116
X75.4576 Y63.1081
X75.4493 Y63.1217
X75.3794 Y63.2318
X75.3475 Y63.2793
X75.304 Y63.3419
X75.2374 Y63.4335
X75.2235 Y63.4521
X75.1364 Y63.5622
X75.1273 Y63.5733
X75.0428 Y63.6723
X75.0171 Y63.7012
X74.9426 Y63.7824
X74.907 Y63.82
X74.8344 Y63.8925
X74.7969 Y63.9288
X74.7176 Y64.0026
X74.6868 Y64.0301
X74.5905 Y64.1128
X74.5767 Y64.1242
X74.4665 Y64.2119
X74.4521 Y64.2229
X74.3564 Y64.2939
X74.3006 Y64.333
X74.2463 Y64.3695
X74.1362 Y64.4407
X74.1322 Y64.4431
X74.026 Y64.5067
X73.9429 Y64.5532
X73.9159 Y64.5678
X73.8058 Y64.6252
X73.7265 Y64.6634
X73.6957 Y64.6776
X73.5855 Y64.7265
X73.4754 Y64.7714
X73.4701 Y64.7735
X73.3653 Y64.813
X73.2552 Y64.8503
X73.1485 Y64.8836
X73.1451 Y64.8847
X73.0349 Y64.9153
X72.9248 Y64.9429
X72.8147 Y64.9671
X72.7046 Y64.988
X72.6721 Y64.9937
X72.5944 Y65.0061
X72.4843 Y65.0208
X72.3742 Y65.0324
X72.2641 Y65.0413
X72.1539 Y65.0469
X72.0438 Y65.0495
X71.9337 Y65.05
X26.2326
X26.1225 Y65.0532
X26.0674 Y65.0593
X26.0124 Y65.0687
X25.9573 Y65.0815
X25.9022 Y65.0979
X25.8847 Y65.1038
X25.8384 Y65.1215
X25.7921 Y65.142
X25.7371 Y65.1704
X25.682 Y65.2037
X25.6665 Y65.214
X25.6192 Y65.2483
X25.5719 Y65.2873
X25.5325 Y65.3241
X25.4951 Y65.3631
X25.4618 Y65.4021
X25.4369 Y65.4342
X25.399 Y65.4893
X25.3664 Y65.5443
X25.3516 Y65.5725
X25.3322 Y65.6135
X25.3151 Y65.6544
X25.2955 Y65.7095
X25.2797 Y65.7646
X25.2673 Y65.8196
X25.2583 Y65.8747
X25.2526 Y65.9297
X25.2501 Y65.9848
X25.25 Y66.0949
Y266.7327
X25.251 Y266.8428
X25.2551 Y266.8978
X25.2624 Y266.9529
X25.2731 Y267.008
X25.2872 Y267.063
X25.3049 Y267.1181
X25.3264 Y267.1731
X25.3516 Y267.2274
X25.3821 Y267.2833
X25.4173 Y267.3383
X25.4581 Y267.3934
X25.4618 Y267.3979
X25.5078 Y267.4507
X25.5616 Y267.5035
X25.5719 Y267.5127
X25.6269 Y267.5577
X25.682 Y267.5963
X25.7096 Y267.6136
X25.7509 Y267.6371
X25.7921 Y267.658
X25.8472 Y267.682
X25.9022 Y267.7021
X25.9782 Y267.7237
X26.0124 Y267.7313
X26.0674 Y267.7407
X26.1225 Y267.7468
X26.2326 Y267.75
X32.0486
X32.05 Y267.7513
Y288.9768
X32.0505 Y289.0319
X32.054 Y289.0869
X32.0601 Y289.1383
X32.0691 Y289.1897
X32.0707 Y289.197
X32.0841 Y289.2521
X32.101 Y289.3072
X32.1218 Y289.3622
X32.1465 Y289.4173
X32.1793 Y289.4784
X32.2098 Y289.5274
X32.2468 Y289.5789
X32.2894 Y289.6305
X32.2957 Y289.6375
X32.3476 Y289.6906
X32.3995 Y289.7361
X32.4139 Y289.7476
X32.4617 Y289.7828
X32.5096 Y289.8137
X32.5506 Y289.837
X32.5916 Y289.8578
X32.6198 Y289.8706
X32.6748 Y289.8926
X32.7299 Y289.9108
X32.7849 Y289.9254
X32.84 Y289.9364
X32.8951 Y289.9442
X32.9501 Y289.9487
X33.0602 Y289.95
X318.9398
X319.0499 Y289.9487
X319.105 Y289.9442
X319.16 Y289.9364
X319.2151 Y289.9254
X319.2701 Y289.9108
X319.3252 Y289.8926
X319.3803 Y289.8706
X319.4084 Y289.8578
X319.4494 Y289.837
X319.4904 Y289.8137
X319.5383 Y289.7828
X319.5862 Y289.7476
X319.6005 Y289.7361
X319.6524 Y289.6906
X319.7044 Y289.6375
X319.7106 Y289.6305
X319.7532 Y289.5789
X319.7902 Y289.5274
X319.8208 Y289.4784
X319.8535 Y289.4173
X319.8783 Y289.3622
X319.899 Y289.3072
X319.916 Y289.2521
X319.9294 Y289.197
X319.9309 Y289.1897
X319.9399 Y289.1383
X319.946 Y289.0869
X319.9495 Y289.0319
X319.95 Y288.9768
Y267.7513
X319.9514 Y267.75
X325.7674
X325.8775 Y267.7468
X325.9326 Y267.7407
X325.9877 Y267.7313
X326.0219 Y267.7237
X326.0978 Y267.7021
X326.1528 Y267.6821
X326.2079 Y267.658
X326.2492 Y267.6371
X326.2905 Y267.6136
X326.318 Y267.5963
X326.3731 Y267.5577
X326.4282 Y267.5127
X326.4384 Y267.5035
X326.4922 Y267.4507
X326.5383 Y267.3979
X326.5419 Y267.3934
X326.5828 Y267.3383
X326.6179 Y267.2833
X326.6484 Y267.2275
X326.6737 Y267.1731
X326.6952 Y267.1181
X326.7129 Y267.063
X326.727 Y267.008
X326.7376 Y266.9529
X326.745 Y266.8978
X326.7491 Y266.8428
X326.75 Y266.7327
Y26.2317
X326.7468 Y26.1215
X326.7406 Y26.0665
X326.7311 Y26.0114
X326.7182 Y25.9564
X326.7018 Y25.9013
X326.6817 Y25.8462
X326.6576 Y25.7912
X326.6484 Y25.7725
X326.6238 Y25.7268
X326.5958 Y25.6811
X326.5686 Y25.6416
X326.5383 Y25.6021
X326.5119 Y25.5709
X326.47 Y25.5265
X326.4282 Y25.4873
X326.3968 Y25.4608
X326.3574 Y25.4307
X326.318 Y25.4037
X326.2719 Y25.3755
X326.2257 Y25.3507
X326.2079 Y25.342
X326.1528 Y25.318
X326.0978 Y25.2979
X326.0427 Y25.2815
X325.9877 Y25.2687
X325.9326 Y25.2593
X325.8775 Y25.2532
X325.7674 Y25.25
X26.2326
X26.1225 Y25.2532
X26.0674 Y25.2593
X26.0124 Y25.2687
X25.9573 Y25.2815
X25.9022 Y25.2979
X25.8472 Y25.318
X25.7921 Y25.342
X25.7744 Y25.3507
X25.7282 Y25.3755
X25.682 Y25.4037
X25.6426 Y25.4307
X25.6033 Y25.4608
X25.5719 Y25.4873
X25.53 Y25.5265
X25.4881 Y25.5709
X25.4618 Y25.6021
X25.4315 Y25.6416
X25.4043 Y25.6811
X25.3763 Y25.7268
X25.3516 Y25.7726
X25.3425 Y25.7912
X25.3184 Y25.8462
X25.2982 Y25.9013
X25.2818 Y25.9564
X25.2689 Y26.0114
X25.2595 Y26.0665
X25.2533 Y26.1215
X25.25 Y26.2317
Y55.9639
X25.2529 Y56.074
X25.2588 Y56.1291
X25.268 Y56.1842
X25.2806 Y56.2392
X25.2968 Y56.2943
X25.3166 Y56.3493
X25.3404 Y56.4044
X25.3516 Y56.4275
X25.375 Y56.471
X25.4014 Y56.5145
X25.4299 Y56.5562
X25.4618 Y56.5979
X25.4843 Y56.6246
X25.5252 Y56.6687
X25.5719 Y56.7127
X25.5978 Y56.7348
X25.6399 Y56.7673
X25.682 Y56.7963
X25.7238 Y56.822
X25.7657 Y56.8449
X25.7921 Y56.858
X25.8472 Y56.882
X25.9022 Y56.9021
X25.9573 Y56.9185
X26.0124 Y56.9313
X26.0674 Y56.9407
X26.1225 Y56.9468
X26.2326 Y56.95
X31.5513
X31.7449 Z-2.0001
X31.9385 Z-2.0004
X32.132 Z-2.0008
X32.3256 Z-2.0015
X32.5192 Z-2.0023
X32.7128 Z-2.0033
X32.9063 Z-2.0045
X33.0999 Z-2.0058
X33.2935 Z-2.0073
X33.4871 Z-2.009
X33.6806 Z-2.0109
X33.8742 Z-2.0129
X34.0678 Z-2.0151
X34.2614 Z-2.0174
X34.4549 Z-2.0199
X34.6485 Z-2.0225
X34.8421 Z-2.0253
X35.0357 Z-2.0283
X35.2292 Z-2.0314
X35.4228 Z-2.0347
X35.6164 Z-2.0381
X35.81 Z-2.0416
X36.0035 Z-2.0453
X36.1971 Z-2.0491
X36.3907 Z-2.0531
X36.5843 Z-2.0572
X36.7778 Z-2.0614
X36.9714 Z-2.0658
X37.165 Z-2.0702
X37.3586 Z-2.0749
X37.5521 Z-2.0796
X37.7457 Z-2.0845
X37.9393 Z-2.0894
X38.0361 Z-2.092
X38.1329 Z-2.0945
X38.2296 Z-2.0971
X38.3264 Z-2.0997
X38.4232 Z-2.1024
X38.52 Z-2.1051
X38.6168 Z-2.1078
X38.7136 Z-2.1105
X38.8104 Z-2.1133
X38.9072 Z-2.1161
X39.0039 Z-2.1189
X39.1007 Z-2.1217
X39.1975 Z-2.1246
X39.2943 Z-2.1275
X39.3911 Z-2.1304
X39.4879 Z-2.1334
X39.5847 Z-2.1363
X39.6815 Z-2.1393
X39.7782 Z-2.1423
X39.875 Z-2.1454
X39.9718 Z-2.1485
X40.0686 Z-2.1516
X40.1654 Z-2.1547
X40.2622 Z-2.1578
X40.359 Z-2.161
X40.4558 Z-2.1642
X40.5525 Z-2.1674
X40.6493 Z-2.1706
X40.7461 Z-2.1739
X40.8429 Z-2.1772
X40.9397 Z-2.1805
X41.0365 Z-2.1838
X41.1333 Z-2.1871
X41.3268 Z-2.1939
X41.4236 Z-2.1972
X41.5204 Z-2.2006
X41.6172 Z-2.204
X41.714 Z-2.2074
X41.8108 Z-2.2108
X41.9076 Z-2.2141
X42.0044 Z-2.2175
X42.1011 Z-2.2209
X42.1979 Z-2.2243
X42.2947 Z-2.2277
X42.3915 Z-2.231
X42.4883 Z-2.2344
X42.6819 Z-2.2412
X42.9722 Z-2.2513
X43.2626 Z-2.2614
X43.5529 Z-2.2716
X43.8433 Z-2.2817
X44.1337 Z-2.2919
X44.424 Z-2.302
X44.7144 Z-2.3121
X45.0048 Z-2.3223
X45.2951 Z-2.3324
X45.5855 Z-2.3426
X46.0694 Z-2.3595
X46.5534 Z-2.3764
X47.0373 Z-2.3933
X47.7148 Z-2.4169
X48.5859 Z-2.4473
X50.0377 Z-2.498
X57.0064 Z-2.7413
X57.2967 Z-2.7515
X57.5871 Z-2.7616
X57.6839 Z-2.765
X57.7807 Z-2.7684
X57.8775 Z-2.7717
X57.9743 Z-2.7751
X58.071 Z-2.7785
X58.1678 Z-2.7819
X58.2646 Z-2.7853
X58.3614 Z-2.7886
X58.4582 Z-2.792
X58.555 Z-2.7954
X58.6518 Z-2.7988
X58.7486 Z-2.8022
X58.8453 Z-2.8055
X58.9421 Z-2.8089
X59.0389 Z-2.8123
X59.1357 Z-2.8156
X59.2325 Z-2.819
X59.3293 Z-2.8223
X59.4261 Z-2.8255
X59.5229 Z-2.8288
X59.6196 Z-2.832
X59.7164 Z-2.8353
X59.8132 Z-2.8385
X59.91 Z-2.8416
X60.0068 Z-2.8448
X60.1036 Z-2.8479
X60.2004 Z-2.851
X60.2972 Z-2.8541
X60.3939 Z-2.8571
X60.4907 Z-2.8601
X60.5875 Z-2.8631
X60.6843 Z-2.8661
X60.7811 Z-2.8691
X60.8779 Z-2.872
X60.9747 Z-2.8749
X61.0715 Z-2.8778
X61.1682 Z-2.8806
X61.265 Z-2.8834
X61.3618 Z-2.8862
X61.4586 Z-2.889
X61.5554 Z-2.8917
X61.6522 Z-2.8945
X61.749 Z-2.8971
X61.8458 Z-2.8998
X61.9425 Z-2.9024
X62.0393 Z-2.905
X62.1361 Z-2.9076
X62.2329 Z-2.9101
X62.3297 Z-2.9126
X62.5233 Z-2.9176
X62.7168 Z-2.9224
X62.9104 Z-2.9271
X63.104 Z-2.9316
X63.2976 Z-2.9361
X63.4911 Z-2.9404
X63.6847 Z-2.9445
X63.8783 Z-2.9486
X64.0719 Z-2.9525
X64.2654 Z-2.9562
X64.459 Z-2.9599
X64.6526 Z-2.9634
X64.8462 Z-2.9667
X65.0397 Z-2.9699
X65.2333 Z-2.9729
X65.4269 Z-2.9758
X65.6205 Z-2.9786
X65.814 Z-2.9812
X66.0076 Z-2.9836
X66.2012 Z-2.9859
X66.3948 Z-2.988
X66.5883 Z-2.9899
X66.7819 Z-2.9917
X66.9755 Z-2.9933
X67.1691 Z-2.9948
X67.3626 Z-2.996
X67.5562 Z-2.9971
X67.7498 Z-2.9981
X67.9434 Z-2.9988
X68.1369 Z-2.9994
X68.3305 Z-2.9998
X68.5241 Z-3
X68.6379
X71.9337
X72.0438 Y56.9505
X72.1539 Y56.9532
X72.1978 Y56.955
X72.2641 Y56.9587
X72.3742 Y56.9676
X72.4843 Y56.9792
X72.5944 Y56.9939
X72.7046 Y57.012
X72.8147 Y57.0329
X72.9248 Y57.0572
X72.9583 Y57.0651
X73.0349 Y57.0847
X73.1451 Y57.1154
X73.2552 Y57.1497
X73.3309 Y57.1752
X73.3653 Y57.1871
X73.4754 Y57.2286
X73.5855 Y57.2735
X73.6128 Y57.2854
X73.6957 Y57.3225
X73.8058 Y57.3748
X73.8462 Y57.3955
X73.9159 Y57.4322
X74.026 Y57.4933
X74.0469 Y57.5056
X74.1362 Y57.5593
X74.2241 Y57.6157
X74.2463 Y57.6305
X74.3564 Y57.7061
X74.3836 Y57.7258
X74.4665 Y57.7881
X74.5275 Y57.836
X74.5767 Y57.8758
X74.6595 Y57.9461
X74.6868 Y57.9699
X74.7811 Y58.0562
X74.7969 Y58.0712
X74.8935 Y58.1663
X74.907 Y58.18
X74.9968 Y58.2764
X75.0171 Y58.2988
X75.0937 Y58.3866
X75.1273 Y58.4267
X75.1839 Y58.4967
X75.2374 Y58.5665
X75.2671 Y58.6068
X75.3449 Y58.7169
X75.3475 Y58.7207
X75.4178 Y58.827
X75.4576 Y58.8919
X75.4851 Y58.9372
X75.548 Y59.0473
X75.5678 Y59.0833
X75.6067 Y59.1574
X75.6605 Y59.2675
X75.6779 Y59.3049
X75.7108 Y59.3776
X75.757 Y59.4878
X75.788 Y59.5688
X75.7989 Y59.5979
X75.8385 Y59.708
X75.8733 Y59.8181
X75.8981 Y59.9019
X75.9056 Y59.9282
X75.9337 Y60.0383
X75.9595 Y60.1485
X75.9809 Y60.2586
X76.0001 Y60.3687
X76.0082 Y60.4221
X76.0163 Y60.4788
X76.029 Y60.5889
X76.0388 Y60.6991
X76.0456 Y60.8092
X76.0492 Y60.9193
X76.05 Y61.0294
X76.0476 Y61.1395
X76.0423 Y61.2497
X76.0341 Y61.3598
X76.0225 Y61.4699
X76.0082 Y61.5779
X76.0079 Y61.58
X75.9903 Y61.6901
X75.9697 Y61.8003
X75.9462 Y61.9104
X75.9189 Y62.0205
X75.8981 Y62.0981
X75.8886 Y62.1306
X75.8553 Y62.2407
X75.8177 Y62.3509
X75.788 Y62.4312
X75.7769 Y62.461
X75.7329 Y62.5711
X75.6843 Y62.6812
X75.6779 Y62.6951
X75.6323 Y62.7913
X75.5761 Y62.9015
X75.5678 Y62.9167
X75.515 Y63.0116
X75.4576 Y63.1081
X75.4493 Y63.1217
X75.3794 Y63.2318
X75.3475 Y63.2793
X75.304 Y63.3419
X75.2374 Y63.4335
X75.2235 Y63.4521
X75.1364 Y63.5622
X75.1273 Y63.5733
X75.0428 Y63.6723
X75.0171 Y63.7012
X74.9426 Y63.7824
X74.907 Y63.82
X74.8344 Y63.8925
X74.7969 Y63.9288
X74.7176 Y64.0026
X74.6868 Y64.0301
X74.5905 Y64.1128
X74.5767 Y64.1242
X74.4665 Y64.2119
X74.4521 Y64.2229
X74.3564 Y64.2939
X74.3006 Y64.333
X74.2463 Y64.3695
X74.1362 Y64.4407
X74.1322 Y64.4431
X74.026 Y64.5067
X73.9429 Y64.5532
X73.9159 Y64.5678
X73.8058 Y64.6252
X73.7265 Y64.6634
X73.6957 Y64.6776
X73.5855 Y64.7265
X73.4754 Y64.7714
X73.4701 Y64.7735
X73.3653 Y64.813
X73.2552 Y64.8503
X73.1485 Y64.8836
X73.1451 Y64.8847
X73.0349 Y64.9153
X72.9248 Y64.9429
X72.8147 Y64.9671
X72.7046 Y64.988
X72.6721 Y64.9937
X72.5944 Y65.0061
X72.4843 Y65.0208
X72.3742 Y65.0324
X72.2641 Y65.0413
X72.1539 Y65.0469
X72.0438 Y65.0495
X71.9337 Y65.05
X26.2326
X26.1225 Y65.0532
X26.0674 Y65.0593
X26.0124 Y65.0687
X25.9573 Y65.0815
X25.9022 Y65.0979
X25.8847 Y65.1038
X25.8384 Y65.1215
X25.7921 Y65.142
X25.7371 Y65.1704
X25.682 Y65.2037
X25.6665 Y65.214
X25.6192 Y65.2483
X25.5719 Y65.2873
X25.5325 Y65.3241
X25.4951 Y65.3631
X25.4618 Y65.4021
X25.4369 Y65.4342
X25.399 Y65.4893
X25.3664 Y65.5443
X25.3516 Y65.5725
X25.3322 Y65.6135
X25.3151 Y65.6544
X25.2955 Y65.7095
X25.2797 Y65.7646
X25.2673 Y65.8196
X25.2583 Y65.8747
X25.2526 Y65.9297
X25.2501 Y65.9848
X25.25 Y66.0949
Y266.7327
X25.251 Y266.8428
X25.2551 Y266.8978
X25.2624 Y266.9529
X25.2731 Y267.008
X25.2872 Y267.063
X25.3049 Y267.1181
X25.3264 Y267.1731
X25.3516 Y267.2274
X25.3821 Y267.2833
X25.4173 Y267.3383
X25.4581 Y267.3934
X25.4618 Y267.3979
X25.5078 Y267.4507
X25.5616 Y267.5035
X25.5719 Y267.5127
X25.6269 Y267.5577
X25.682 Y267.5963
X25.7096 Y267.6136
X25.7509 Y267.6371
X25.7921 Y267.658
X25.8472 Y267.682
X25.9022 Y267.7021
X25.9782 Y267.7237
X26.0124 Y267.7313
X26.0674 Y267.7407
X26.1225 Y267.7468
X26.2326 Y267.75
X32.0486
X32.05 Y267.7513
Y288.9768
X32.0505 Y289.0319
X32.054 Y289.0869
X32.0601 Y289.1383
X32.0691 Y289.1897
X32.0707 Y289.197
X32.0841 Y289.2521
X32.101 Y289.3072
X32.1218 Y289.3622
X32.1465 Y289.4173
X32.1793 Y289.4784
X32.2098 Y289.5274
X32.2468 Y289.5789
X32.2894 Y289.6305
X32.2957 Y289.6375
X32.3476 Y289.6906
X32.3995 Y289.7361
X32.4139 Y289.7476
X32.4617 Y289.7828
X32.5096 Y289.8137
X32.5506 Y289.837
X32.5916 Y289.8578
X32.6198 Y289.8706
X32.6748 Y289.8926
X32.7299 Y289.9108
X32.7849 Y289.9254
X32.84 Y289.9364
X32.8951 Y289.9442
X32.9501 Y289.9487
X33.0602 Y289.95
X318.9398
X319.0499 Y289.9487
X319.105 Y289.9442
X319.16 Y289.9364
X319.2151 Y289.9254
X319.2701 Y289.9108
X319.3252 Y289.8926
X319.3803 Y289.8706
X319.4084 Y289.8578
X319.4494 Y289.837
X319.4904 Y289.8137
X319.5383 Y289.7828
X319.5862 Y289.7476
X319.6005 Y289.7361
X319.6524 Y289.6906
X319.7044 Y289.6375
X319.7106 Y289.6305
X319.7532 Y289.5789
X319.7902 Y289.5274
X319.8208 Y289.4784
X319.8535 Y289.4173
X319.8783 Y289.3622
X319.899 Y289.3072
X319.916 Y289.2521
X319.9294 Y289.197
X319.9309 Y289.1897
X319.9399 Y289.1383
X319.946 Y289.0869
X319.9495 Y289.0319
X319.95 Y288.9768
Y267.7513
X319.9514 Y267.75
X325.7674
X325.8775 Y267.7468
X325.9326 Y267.7407
X325.9877 Y267.7313
X326.0219 Y267.7237
X326.0978 Y267.7021
X326.1528 Y267.6821
X326.2079 Y267.658
X326.2492 Y267.6371
X326.2905 Y267.6136
X326.318 Y267.5963
X326.3731 Y267.5577
X326.4282 Y267.5127
X326.4384 Y267.5035
X326.4922 Y267.4507
X326.5383 Y267.3979
X326.5419 Y267.3934
X326.5828 Y267.3383
X326.6179 Y267.2833
X326.6484 Y267.2275
X326.6737 Y267.1731
X326.6952 Y267.1181
X326.7129 Y267.063
X326.727 Y267.008
X326.7376 Y266.9529
X326.745 Y266.8978
X326.7491 Y266.8428
X326.75 Y266.7327
Y26.2317
X326.7468 Y26.1215
X326.7406 Y26.0665
X326.7311 Y26.0114
X326.7182 Y25.9564
X326.7018 Y25.9013
X326.6817 Y25.8462
X326.6576 Y25.7912
X326.6484 Y25.7725
X326.6238 Y25.7268
X326.5958 Y25.6811
X326.5686 Y25.6416
X326.5383 Y25.6021
X326.5119 Y25.5709
X326.47 Y25.5265
X326.4282 Y25.4873
X326.3968 Y25.4608
X326.3574 Y25.4307
X326.318 Y25.4037
X326.2719 Y25.3755
X326.2257 Y25.3507
X326.2079 Y25.342
X326.1528 Y25.318
X326.0978 Y25.2979
X326.0427 Y25.2815
X325.9877 Y25.2687
X325.9326 Y25.2593
X325.8775 Y25.2532
X325.7674 Y25.25
X26.2326
X26.1225 Y25.2532
X26.0674 Y25.2593
X26.0124 Y25.2687
X25.9573 Y25.2815
X25.9022 Y25.2979
X25.8472 Y25.318
X25.7921 Y25.342
X25.7744 Y25.3507
X25.7282 Y25.3755
X25.682 Y25.4037
X25.6426 Y25.4307
X25.6033 Y25.4608
X25.5719 Y25.4873
X25.53 Y25.5265
X25.4881 Y25.5709
X25.4618 Y25.6021
X25.4315 Y25.6416
X25.4043 Y25.6811
X25.3763 Y25.7268
X25.3516 Y25.7726
X25.3425 Y25.7912
X25.3184 Y25.8462
X25.2982 Y25.9013
X25.2818 Y25.9564
X25.2689 Y26.0114
X25.2595 Y26.0665
X25.2533 Y26.1215
X25.25 Y26.2317
Y55.9639
X25.2529 Y56.074
X25.2588 Y56.1291
X25.268 Y56.1842
X25.2806 Y56.2392
X25.2968 Y56.2943
X25.3166 Y56.3493
X25.3404 Y56.4044
X25.3516 Y56.4275
X25.375 Y56.471
X25.4014 Y56.5145
X25.4299 Y56.5562
X25.4618 Y56.5979
X25.4843 Y56.6246
X25.5252 Y56.6687
X25.5719 Y56.7127
X25.5978 Y56.7348
X25.6399 Y56.7673
X25.682 Y56.7963
X25.7238 Y56.822
X25.7657 Y56.8449
X25.7921 Y56.858
X25.8472 Y56.882
X25.9022 Y56.9021
X25.9573 Y56.9185
X26.0124 Y56.9313
X26.0674 Y56.9407
X26.1225 Y56.9468
X26.2326 Y56.95
X68.6379
X68.8315 Z-3.0001
X69.025 Z-3.0004
X69.2186 Z-3.0008
X69.4122 Z-3.0015
X69.6058 Z-3.0023
X69.7993 Z-3.0033
X69.9929 Z-3.0045
X70.1865 Z-3.0058
X70.3801 Z-3.0073
X70.5736 Z-3.009
X70.7672 Z-3.0109
X70.9608 Z-3.0129
X71.1544 Z-3.0151
X71.3479 Z-3.0174
X71.5415 Z-3.0199
X71.7351 Z-3.0225
X71.9286 Z-3.0253
X72.1222 Y56.9521 Z-3.0283
X72.3155 Y56.9626 Z-3.0314
X72.5081 Y56.982 Z-3.0347
X72.6994 Y57.0111 Z-3.0381
X72.8893 Y57.049 Z-3.0416
X73.077 Y57.096 Z-3.0453
X73.2623 Y57.152 Z-3.0491
X73.4448 Y57.2166 Z-3.0531
X73.6238 Y57.2902 Z-3.0572
X73.7994 Y57.3717 Z-3.0614
X73.9706 Y57.462 Z-3.0658
X74.1374 Y57.5601 Z-3.0702
X74.2993 Y57.6662 Z-3.0749
X74.4559 Y57.78 Z-3.0796
X74.607 Y57.9009 Z-3.0845
X74.7523 Y58.0289 Z-3.0894
X74.8223 Y58.0957 Z-3.092
X74.8911 Y58.1638 Z-3.0945
X74.9579 Y58.2338 Z-3.0971
X75.0231 Y58.3054 Z-3.0997
X75.0867 Y58.3783 Z-3.1024
X75.1485 Y58.4528 Z-3.1051
X75.2086 Y58.5287 Z-3.1078
X75.2666 Y58.6061 Z-3.1105
X75.323 Y58.6848 Z-3.1133
X75.3773 Y58.7649 Z-3.1161
X75.4297 Y58.8463 Z-3.1189
X75.4801 Y58.9289 Z-3.1217
X75.5287 Y59.0126 Z-3.1246
X75.5755 Y59.0974 Z-3.1275
X75.6198 Y59.1834 Z-3.1304
X75.6619 Y59.2706 Z-3.1334
X75.7022 Y59.3586 Z-3.1363
X75.7408 Y59.4473 Z-3.1393
X75.7762 Y59.5374 Z-3.1423
X75.8101 Y59.6281 Z-3.1454
X75.8422 Y59.7194 Z-3.1485
X75.8714 Y59.8117 Z-3.1516
X75.8989 Y59.9045 Z-3.1547
X75.9237 Y59.998 Z-3.1578
X75.9468 Y60.092 Z-3.161
X75.9672 Y60.1866 Z-3.1642
X75.9852 Y60.2817 Z-3.1674
X76.0014 Y60.3771 Z-3.1706
X76.0154 Y60.4729 Z-3.1739
X76.0269 Y60.569 Z-3.1772
X76.0361 Y60.6653 Z-3.1805
X76.043 Y60.7619 Z-3.1838
X76.0476 Y60.8586 Z-3.1871
X76.0499 Y60.9553 Z-3.1905
X76.0498 Y61.0521 Z-3.1939
X76.0473 Y61.1489 Z-3.1972
X76.0425 Y61.2455 Z-3.2006
X76.0355 Y61.3421 Z-3.204
X76.0262 Y61.4384 Z-3.2074
X76.0144 Y61.5345 Z-3.2108
X76.0003 Y61.6302 Z-3.2141
X75.9838 Y61.7256 Z-3.2175
X75.9658 Y61.8207 Z-3.2209
X75.9451 Y61.9153 Z-3.2243
X75.9218 Y62.0092 Z-3.2276
X75.8968 Y62.1027 Z-3.231
X75.8692 Y62.1955 Z-3.2344
X75.8399 Y62.2877 Z-3.2378
X75.8076 Y62.3789 Z-3.2412
X75.7736 Y62.4696 Z-3.2446
X75.7379 Y62.5595 Z-3.2479
X75.6992 Y62.6482 Z-3.2513
X75.6588 Y62.7362 Z-3.2547
X75.6165 Y62.8233 Z-3.2581
X75.5719 Y62.9092 Z-3.2614
X75.5251 Y62.9939 Z-3.2648
X75.4763 Y63.0775 Z-3.2682
X75.4258 Y63.16 Z-3.2716
X75.3732 Y63.2413 Z-3.275
X75.3187 Y63.3213 Z-3.2783
X75.2622 Y63.3999 Z-3.2817
X75.204 Y63.4772 Z-3.2851
X75.1438 Y63.553 Z-3.2885
X75.0819 Y63.6274 Z-3.2919
X75.0181 Y63.7002 Z-3.2952
X74.9528 Y63.7716 Z-3.2986
X74.8858 Y63.8415 Z-3.302
X74.8169 Y63.9095 Z-3.3054
X74.7469 Y63.9762 Z-3.3088
X74.6747 Y64.0407 Z-3.3121
X74.6013 Y64.1038 Z-3.3155
X74.5263 Y64.165 Z-3.3189
X74.45 Y64.2246 Z-3.3223
X74.3724 Y64.2824 Z-3.3257
X74.2932 Y64.338 Z-3.329
X74.2127 Y64.3918 Z-3.3324
X74.1311 Y64.4438 Z-3.3358
X74.0481 Y64.4937 Z-3.3392
X73.9641 Y64.5416 Z-3.3426
X73.8789 Y64.5876 Z-3.3459
X73.7927 Y64.6316 Z-3.3493
X73.7053 Y64.6731 Z-3.3527
X73.617 Y64.7128 Z-3.3561
X73.5278 Y64.7506 Z-3.3595
X73.4378 Y64.7861 Z-3.3628
X73.3469 Y64.8193 Z-3.3662
X73.2552 Y64.8503 Z-3.3696
X73.1629 Y64.8793 Z-3.373
X73.0698 Y64.906 Z-3.3763
X72.9762 Y64.9306 Z-3.3797
X72.882 Y64.9526 Z-3.3831
X72.7872 Y64.9725 Z-3.3865
X72.6921 Y64.9902 Z-3.3899
X72.5966 Y65.0057 Z-3.3932
X72.5007 Y65.0189 Z-3.3966
X72.4045 Y65.0296 Z-3.4
X72.3081 Y65.038 Z-3.4034
X72.2115 Y65.0443 Z-3.4068
X72.1148 Y65.0482 Z-3.4101
X72.018 Y65.0499 Z-3.4135
X71.9212 Y65.05 Z-3.4169
X71.0501 Z-3.4473
X69.5983 Z-3.498
X62.6296 Z-3.7413
X62.3393 Z-3.7514
X62.0489 Z-3.7616
X61.9521 Z-3.765
X61.8553 Z-3.7684
X61.7585 Z-3.7717
X61.6617 Z-3.7751
X61.565 Z-3.7785
X61.4682 Z-3.7819
X61.3714 Z-3.7852
X61.2746 Z-3.7886
X61.1778 Z-3.792
X61.081 Z-3.7954
X60.9842 Z-3.7988
X60.8874 Z-3.8021
X60.7907 Z-3.8055
X60.6939 Z-3.8089
X60.5971 Z-3.8123
X60.5003 Z-3.8156
X60.4035 Z-3.8189
X60.3067 Z-3.8222
X60.2099 Z-3.8255
X60.1132 Z-3.8288
X60.0164 Z-3.832
X59.9196 Z-3.8352
X59.8228 Z-3.8384
X59.726 Z-3.8416
X59.6292 Z-3.8448
X59.5324 Z-3.8479
X59.4356 Z-3.851
X59.3389 Z-3.8541
X59.2421 Z-3.8571
X59.1453 Z-3.8601
X59.0485 Z-3.8631
X58.9517 Z-3.8661
X58.8549 Z-3.8691
X58.7581 Z-3.872
X58.6613 Z-3.8749
X58.5646 Z-3.8778
X58.4678 Z-3.8806
X58.371 Z-3.8834
X58.2742 Z-3.8862
X58.1774 Z-3.889
X58.0806 Z-3.8917
X57.9838 Z-3.8944
X57.887 Z-3.8971
X57.7903 Z-3.8998
X57.6935 Z-3.9024
X57.5967 Z-3.905
X57.4999 Z-3.9076
X57.4031 Z-3.9101
X57.3063 Z-3.9126
X57.1127 Z-3.9176
X56.9192 Z-3.9224
X56.7256 Z-3.9271
X56.532 Z-3.9316
X56.3384 Z-3.9361
X56.1449 Z-3.9404
X55.9513 Z-3.9445
X55.7577 Z-3.9486
X55.5641 Z-3.9525
X55.3706 Z-3.9562
X55.177 Z-3.9599
X54.9834 Z-3.9633
X54.7898 Z-3.9667
X54.5963 Z-3.9699
X54.4027 Z-3.9729
X54.2091 Z-3.9758
X54.0155 Z-3.9786
X53.822 Z-3.9812
X53.6284 Z-3.9836
X53.4348 Z-3.9859
X53.2412 Z-3.988
X53.0477 Z-3.9899
X52.8541 Z-3.9917
X52.6605 Z-3.9933
X52.4669 Z-3.9948
X52.2734 Z-3.996
X52.0798 Z-3.9971
X51.8862 Z-3.9981
X51.6927 Z-3.9988
X51.4991 Z-3.9994
X51.3055 Z-3.9998
X51.1119 Z-4
X50.9977
X26.2326
X26.1225 Y65.0532
X26.0674 Y65.0593
X26.0124 Y65.0687
X25.9573 Y65.0815
X25.9022 Y65.0979
X25.8847 Y65.1038
X25.8384 Y65.1215
X25.7921 Y65.142
X25.7371 Y65.1704
X25.682 Y65.2037
X25.6665 Y65.214
X25.6192 Y65.2483
X25.5719 Y65.2873
X25.5325 Y65.3241
X25.4951 Y65.3631
X25.4618 Y65.4021
X25.4369 Y65.4342
X25.399 Y65.4893
X25.3664 Y65.5443
X25.3516 Y65.5725
X25.3322 Y65.6135
X25.3151 Y65.6544
X25.2955 Y65.7095
X25.2797 Y65.7646
X25.2673 Y65.8196
X25.2583 Y65.8747
X25.2526 Y65.9297
X25.2501 Y65.9848
X25.25 Y66.0949
Y266.7327
X25.251 Y266.8428
X25.2551 Y266.8978
X25.2624 Y266.9529
X25.2731 Y267.008
X25.2872 Y267.063
X25.3049 Y267.1181
X25.3264 Y267.1731
X25.3516 Y267.2274
X25.3821 Y267.2833
X25.4173 Y267.3383
X25.4581 Y267.3934
X25.4618 Y267.3979
X25.5078 Y267.4507
X25.5616 Y267.5035
X25.5719 Y267.5127
X25.6269 Y267.5577
X25.682 Y267.5963
X25.7096 Y267.6136
X25.7509 Y267.6371
X25.7921 Y267.658
X25.8472 Y267.682
X25.9022 Y267.7021
X25.9782 Y267.7237
X26.0124 Y267.7313
X26.0674 Y267.7407
X26.1225 Y267.7468
X26.2326 Y267.75
X32.0486
X32.05 Y267.7513
Y288.9768
X32.0505 Y289.0319
X32.054 Y289.0869
X32.0601 Y289.1383
X32.0691 Y289.1897
X32.0707 Y289.197
X32.0841 Y289.2521
X32.101 Y289.3072
X32.1218 Y289.3622
X32.1465 Y289.4173
X32.1793 Y289.4784
X32.2098 Y289.5274
X32.2468 Y289.5789
X32.2894 Y289.6305
X32.2957 Y289.6375
X32.3476 Y289.6906
X32.3995 Y289.7361
X32.4139 Y289.7476
X32.4617 Y289.7828
X32.5096 Y289.8137
X32.5506 Y289.837
X32.5916 Y289.8578
X32.6198 Y289.8706
X32.6748 Y289.8926
X32.7299 Y289.9108
X32.7849 Y289.9254
X32.84 Y289.9364
X32.8951 Y289.9442
X32.9501 Y289.9487
X33.0602 Y289.95
X318.9398
X319.0499 Y289.9487
X319.105 Y289.9442
X319.16 Y289.9364
X319.2151 Y289.9254
X319.2701 Y289.9108
X319.3252 Y289.8926
X319.3803 Y289.8706
X319.4084 Y289.8578
X319.4494 Y289.837
X319.4904 Y289.8137
X319.5383 Y289.7828
X319.5862 Y289.7476
X319.6005 Y289.7361
X319.6524 Y289.6906
X319.7044 Y289.6375
X319.7106 Y289.6305
X319.7532 Y289.5789
X319.7902 Y289.5274
X319.8208 Y289.4784
X319.8535 Y289.4173
X319.8783 Y289.3622
X319.899 Y289.3072
X319.916 Y289.2521
X319.9294 Y289.197
X319.9309 Y289.1897
X319.9399 Y289.1383
X319.946 Y289.0869
X319.9495 Y289.0319
X319.95 Y288.9768
Y267.7513
X319.9514 Y267.75
X325.7674
X325.8775 Y267.7468
X325.9326 Y267.7407
X325.9877 Y267.7313
X326.0219 Y267.7237
X326.0978 Y267.7021
X326.1528 Y267.6821
X326.2079 Y267.658
X326.2492 Y267.6371
X326.2905 Y267.6136
X326.318 Y267.5963
X326.3731 Y267.5577
X326.4282 Y267.5127
X326.4384 Y267.5035
X326.4922 Y267.4507
X326.5383 Y267.3979
X326.5419 Y267.3934
X326.5828 Y267.3383
X326.6179 Y267.2833
X326.6484 Y267.2275
X326.6737 Y267.1731
X326.6952 Y267.1181
X326.7129 Y267.063
X326.727 Y267.008
X326.7376 Y266.9529
X326.745 Y266.8978
X326.7491 Y266.8428
X326.75 Y266.7327
Y26.2317
X326.7468 Y26.1215
X326.7406 Y26.0665
X326.7311 Y26.0114
X326.7182 Y25.9564
X326.7018 Y25.9013
X326.6817 Y25.8462
X326.6576 Y25.7912
X326.6484 Y25.7725
X326.6238 Y25.7268
X326.5958 Y25.6811
X326.5686 Y25.6416
X326.5383 Y25.6021
X326.5119 Y25.5709
X326.47 Y25.5265
X326.4282 Y25.4873
X326.3968 Y25.4608
X326.3574 Y25.4307
X326.318 Y25.4037
X326.2719 Y25.3755
X326.2257 Y25.3507
X326.2079 Y25.342
X326.1528 Y25.318
X326.0978 Y25.2979
X326.0427 Y25.2815
X325.9877 Y25.2687
X325.9326 Y25.2593
X325.8775 Y25.2532
X325.7674 Y25.25
X26.2326
X26.1225 Y25.2532
X26.0674 Y25.2593
X26.0124 Y25.2687
X25.9573 Y25.2815
X25.9022 Y25.2979
X25.8472 Y25.318
X25.7921 Y25.342
X25.7744 Y25.3507
X25.7282 Y25.3755
X25.682 Y25.4037
X25.6426 Y25.4307
X25.6033 Y25.4608
X25.5719 Y25.4873
X25.53 Y25.5265
X25.4881 Y25.5709
X25.4618 Y25.6021
X25.4315 Y25.6416
X25.4043 Y25.6811
X25.3763 Y25.7268
X25.3516 Y25.7726
X25.3425 Y25.7912
X25.3184 Y25.8462
X25.2982 Y25.9013
X25.2818 Y25.9564
X25.2689 Y26.0114
X25.2595 Y26.0665
X25.2533 Y26.1215
X25.25 Y26.2317
Y55.9639
X25.2529 Y56.074
X25.2588 Y56.1291
X25.268 Y56.1842
X25.2806 Y56.2392
X25.2968 Y56.2943
X25.3166 Y56.3493
X25.3404 Y56.4044
X25.3516 Y56.4275
X25.375 Y56.471
X25.4014 Y56.5145
X25.4299 Y56.5562
X25.4618 Y56.5979
X25.4843 Y56.6246
X25.5252 Y56.6687
X25.5719 Y56.7127
X25.5978 Y56.7348
X25.6399 Y56.7673
X25.682 Y56.7963
X25.7238 Y56.822
X25.7657 Y56.8449
X25.7921 Y56.858
X25.8472 Y56.882
X25.9022 Y56.9021
X25.9573 Y56.9185
X26.0124 Y56.9313
X26.0674 Y56.9407
X26.1225 Y56.9468
X26.2326 Y56.95
X68.6379
X71.9337
X72.0438 Y56.9505
X72.1539 Y56.9532
X72.1978 Y56.955
X72.2641 Y56.9587
X72.3742 Y56.9676
X72.4843 Y56.9792
X72.5944 Y56.9939
X72.7046 Y57.012
X72.8147 Y57.0329
X72.9248 Y57.0572
X72.9583 Y57.0651
X73.0349 Y57.0847
X73.1451 Y57.1154
X73.2552 Y57.1497
X73.3309 Y57.1752
X73.3653 Y57.1871
X73.4754 Y57.2286
X73.5855 Y57.2735
X73.6128 Y57.2854
X73.6957 Y57.3225
X73.8058 Y57.3748
X73.8462 Y57.3955
X73.9159 Y57.4322
X74.026 Y57.4933
X74.0469 Y57.5056
X74.1362 Y57.5593
X74.2241 Y57.6157
X74.2463 Y57.6305
X74.3564 Y57.7061
X74.3836 Y57.7258
X74.4665 Y57.7881
X74.5275 Y57.836
X74.5767 Y57.8758
X74.6595 Y57.9461
X74.6868 Y57.9699
X74.7811 Y58.0562
X74.7969 Y58.0712
X74.8935 Y58.1663
X74.907 Y58.18
X74.9968 Y58.2764
X75.0171 Y58.2988
X75.0937 Y58.3866
X75.1273 Y58.4267
X75.1839 Y58.4967
X75.2374 Y58.5665
X75.2671 Y58.6068
X75.3449 Y58.7169
X75.3475 Y58.7207
X75.4178 Y58.827
X75.4576 Y58.8919
X75.4851 Y58.9372
X75.548 Y59.0473
X75.5678 Y59.0833
X75.6067 Y59.1574
X75.6605 Y59.2675
X75.6779 Y59.3049
X75.7108 Y59.3776
X75.757 Y59.4878
X75.788 Y59.5688
X75.7989 Y59.5979
X75.8385 Y59.708
X75.8733 Y59.8181
X75.8981 Y59.9019
X75.9056 Y59.9282
X75.9337 Y60.0383
X75.9595 Y60.1485
X75.9809 Y60.2586
X76.0001 Y60.3687
X76.0082 Y60.4221
X76.0163 Y60.4788
X76.029 Y60.5889
X76.0388 Y60.6991
X76.0456 Y60.8092
X76.0492 Y60.9193
X76.05 Y61.0294
X76.0476 Y61.1395
X76.0423 Y61.2497
X76.0341 Y61.3598
X76.0225 Y61.4699
X76.0082 Y61.5779
X76.0079 Y61.58
X75.9903 Y61.6901
X75.9697 Y61.8003
X75.9462 Y61.9104
X75.9189 Y62.0205
X75.8981 Y62.0981
X75.8886 Y62.1306
X75.8553 Y62.2407
X75.8177 Y62.3509
X75.788 Y62.4312
X75.7769 Y62.461
X75.7329 Y62.5711
X75.6843 Y62.6812
X75.6779 Y62.6951
X75.6323 Y62.7913
X75.5761 Y62.9015
X75.5678 Y62.9167
X75.515 Y63.0116
X75.4576 Y63.1081
X75.4493 Y63.1217
X75.3794 Y63.2318
X75.3475 Y63.2793
X75.304 Y63.3419
X75.2374 Y63.4335
X75.2235 Y63.4521
X75.1364 Y63.5622
X75.1273 Y63.5733
X75.0428 Y63.6723
X75.0171 Y63.7012
X74.9426 Y63.7824
X74.907 Y63.82
X74.8344 Y63.8925
X74.7969 Y63.9288
X74.7176 Y64.0026
X74.6868 Y64.0301
X74.5905 Y64.1128
X74.5767 Y64.1242
X74.4665 Y64.2119
X74.4521 Y64.2229
X74.3564 Y64.2939
X74.3006 Y64.333
X74.2463 Y64.3695
X74.1362 Y64.4407
X74.1322 Y64.4431
X74.026 Y64.5067
X73.9429 Y64.5532
X73.9159 Y64.5678
X73.8058 Y64.6252
X73.7265 Y64.6634
X73.6957 Y64.6776
X73.5855 Y64.7265
X73.4754 Y64.7714
X73.4701 Y64.7735
X73.3653 Y64.813
X73.2552 Y64.8503
X73.1485 Y64.8836
X73.1451 Y64.8847
X73.0349 Y64.9153
X72.9248 Y64.9429
X72.8147 Y64.9671
X72.7046 Y64.988
X72.6721 Y64.9937
X72.5944 Y65.0061
X72.4843 Y65.0208
X72.3742 Y65.0324
X72.2641 Y65.0413
X72.1539 Y65.0469
X72.0438 Y65.0495
X71.9337 Y65.05
X50.9977
X50.8041 Z-4.0001
X50.6106 Z-4.0004
X50.417 Z-4.0008
X50.2234 Z-4.0015
X50.0298 Z-4.0023
X49.8363 Z-4.0033
X49.6427 Z-4.0045
X49.4491 Z-4.0058
X49.2555 Z-4.0073
X49.062 Z-4.009
X48.8684 Z-4.0109
X48.6748 Z-4.0129
X48.4812 Z-4.0151
X48.2877 Z-4.0174
X48.0941 Z-4.0199
X47.9005 Z-4.0225
X47.7069 Z-4.0253
X47.5134 Z-4.0283
X47.3198 Z-4.0314
X47.1262 Z-4.0347
X46.9326 Z-4.0381
X46.7391 Z-4.0416
X46.5455 Z-4.0453
X46.3519 Z-4.0491
X46.1583 Z-4.0531
X45.9648 Z-4.0572
X45.7712 Z-4.0614
X45.5776 Z-4.0658
X45.384 Z-4.0702
X45.1905 Z-4.0749
X44.9969 Z-4.0796
X44.8033 Z-4.0845
X44.6097 Z-4.0894
X44.513 Z-4.092
X44.4162 Z-4.0945
X44.3194 Z-4.0971
X44.2226 Z-4.0997
X44.1258 Z-4.1024
X44.029 Z-4.1051
X43.9322 Z-4.1078
X43.8354 Z-4.1105
X43.7387 Z-4.1133
X43.6419 Z-4.1161
X43.5451 Z-4.1189
X43.4483 Z-4.1217
X43.3515 Z-4.1246
X43.2547 Z-4.1275
X43.1579 Z-4.1304
X43.0611 Z-4.1334
X42.9644 Z-4.1363
X42.8676 Z-4.1393
X42.7708 Z-4.1423
X42.674 Z-4.1454
X42.5772 Z-4.1485
X42.4804 Z-4.1516
X42.3836 Z-4.1547
X42.2868 Z-4.1578
X42.1901 Z-4.161
X42.0933 Z-4.1642
X41.9965 Z-4.1674
X41.8997 Z-4.1706
X41.8029 Z-4.1739
X41.7061 Z-4.1772
X41.6093 Z-4.1805
X41.5126 Z-4.1838
X41.4158 Z-4.1871
X41.2222 Z-4.1939
X41.1254 Z-4.1972
X41.0286 Z-4.2006
X40.9318 Z-4.204
X40.835 Z-4.2074
X40.7383 Z-4.2108
X40.6415 Z-4.2141
X40.5447 Z-4.2175
X40.4479 Z-4.2209
X40.3511 Z-4.2243
X40.2543 Z-4.2277
X40.1575 Z-4.231
X40.0607 Z-4.2344
X39.8672 Z-4.2412
X39.5768 Z-4.2513
X39.2864 Z-4.2614
X38.9961 Z-4.2716
X38.7057 Z-4.2817
X38.4154 Z-4.2919
X38.125 Z-4.302
X37.8346 Z-4.3121
X37.5443 Z-4.3223
X37.2539 Z-4.3324
X36.9635 Z-4.3426
X36.4796 Z-4.3595
X35.9957 Z-4.3764
X35.5117 Z-4.3933
X34.8342 Z-4.4169
X33.9631 Z-4.4473
X32.5113 Z-4.498
X26.2201 Z-4.7177
X26.1234 Y65.0531 Z-4.7211
X26.0753 Y65.0582 Z-4.7227
X26.0275 Y65.0658 Z-4.7244
X25.9801 Y65.0758 Z-4.7261
X25.9334 Y65.0882 Z-4.7278
X25.8873 Y65.103 Z-4.7295
X25.842 Y65.12 Z-4.7312
X25.7976 Y65.1394 Z-4.7329
X25.7543 Y65.161 Z-4.7345
X25.7122 Y65.1848 Z-4.7362
X25.6713 Y65.2107 Z-4.7379
X25.6318 Y65.2387 Z-4.7396
X25.5938 Y65.2686 Z-4.7413
X25.5573 Y65.3004 Z-4.743
X25.5225 Y65.3341 Z-4.7447
X25.4895 Y65.3694 Z-4.7464
X25.4583 Y65.4064 Z-4.748
X25.429 Y65.445 Z-4.7497
X25.4018 Y65.485 Z-4.7514
X25.3766 Y65.5263 Z-4.7531
X25.3535 Y65.5688 Z-4.7548
X25.3327 Y65.6125 Z-4.7565
X25.314 Y65.6572 Z-4.7582
X25.2977 Y65.7027 Z-4.7599
X25.2838 Y65.7491 Z-4.7615
X25.2722 Y65.7961 Z-4.7632
X25.263 Y65.8436 Z-4.7649
X25.2562 Y65.8915 Z-4.7666
X25.2519 Y65.9397 Z-4.7683
X25.25 Y66.0365 Z-4.7717
Y66.1332 Z-4.775
Y66.23 Z-4.7784
Y66.3268 Z-4.7818
Y66.4236 Z-4.7852
Y66.5204 Z-4.7886
Y66.6172 Z-4.7919
Y66.714 Z-4.7953
Y66.8108 Z-4.7987
Y66.9075 Z-4.8021
Y67.0043 Z-4.8055
Y67.1011 Z-4.8088
Y67.1979 Z-4.8122
Y67.2947 Z-4.8156
Y67.3915 Z-4.8189
Y67.4883 Z-4.8222
Y67.5851 Z-4.8255
Y67.6818 Z-4.8287
Y67.7786 Z-4.832
Y67.8754 Z-4.8352
Y67.9722 Z-4.8384
Y68.069 Z-4.8415
Y68.1658 Z-4.8447
Y68.2626 Z-4.8478
Y68.3594 Z-4.8509
Y68.4561 Z-4.854
Y68.5529 Z-4.857
Y68.6497 Z-4.8601
Y68.7465 Z-4.8631
Y68.8433 Z-4.866
Y68.9401 Z-4.869
Y69.0369 Z-4.8719
Y69.1337 Z-4.8748
Y69.2304 Z-4.8777
Y69.3272 Z-4.8805
Y69.424 Z-4.8834
Y69.5208 Z-4.8862
Y69.6176 Z-4.8889
Y69.7144 Z-4.8917
Y69.8112 Z-4.8944
Y69.908 Z-4.8971
Y70.0047 Z-4.8997
Y70.1015 Z-4.9024
Y70.1983 Z-4.905
Y70.2951 Z-4.9075
Y70.3919 Z-4.9101
Y70.4887 Z-4.9126
Y70.6823 Z-4.9175
Y70.8758 Z-4.9223
Y71.0694 Z-4.927
Y71.263 Z-4.9316
Y71.4565 Z-4.936
Y71.6501 Z-4.9403
Y71.8437 Z-4.9445
Y72.0373 Z-4.9485
Y72.2308 Z-4.9524
Y72.4244 Z-4.9562
Y72.618 Z-4.9598
Y72.8116 Z-4.9633
Y73.0051 Z-4.9667
Y73.1987 Z-4.9699
Y73.3923 Z-4.9729
Y73.5859 Z-4.9758
Y73.7794 Z-4.9785
Y73.973 Z-4.9811
Y74.1666 Z-4.9836
Y74.3602 Z-4.9858
Y74.5537 Z-4.9879
Y74.7473 Z-4.9899
Y74.9409 Z-4.9917
Y75.1345 Z-4.9933
Y75.328 Z-4.9947
Y75.5216 Z-4.996
Y75.7152 Z-4.9971
Y75.9088 Z-4.9981
Y76.1023 Z-4.9988
Y76.2959 Z-4.9994
Y76.4895 Z-4.9998
Y76.6831 Z-5
Y76.7992
Y266.7327
X25.251 Y266.8428
X25.2551 Y266.8978
X25.2624 Y266.9529
X25.2731 Y267.008
X25.2872 Y267.063
X25.3049 Y267.1181
X25.3264 Y267.1731
X25.3516 Y267.2274
X25.3821 Y267.2833
X25.4173 Y267.3383
X25.4581 Y267.3934
X25.4618 Y267.3979
X25.5078 Y267.4507
X25.5616 Y267.5035
X25.5719 Y267.5127
X25.6269 Y267.5577
X25.682 Y267.5963
X25.7096 Y267.6136
X25.7509 Y267.6371
X25.7921 Y267.658
X25.8472 Y267.682
X25.9022 Y267.7021
X25.9782 Y267.7237
X26.0124 Y267.7313
X26.0674 Y267.7407
X26.1225 Y267.7468
X26.2326 Y267.75
X32.0486
X32.05 Y267.7513
Y288.9768
X32.0505 Y289.0319
X32.054 Y289.0869
X32.0601 Y289.1383
X32.0691 Y289.1897
X32.0707 Y289.197
X32.0841 Y289.2521
X32.101 Y289.3072
X32.1218 Y289.3622
X32.1465 Y289.4173
X32.1793 Y289.4784
X32.2098 Y289.5274
X32.2468 Y289.5789
X32.2894 Y289.6305
X32.2957 Y289.6375
X32.3476 Y289.6906
X32.3995 Y289.7361
X32.4139 Y289.7476
X32.4617 Y289.7828
X32.5096 Y289.8137
X32.5506 Y289.837
X32.5916 Y289.8578
X32.6198 Y289.8706
X32.6748 Y289.8926
X32.7299 Y289.9108
X32.7849 Y289.9254
X32.84 Y289.9364
X32.8951 Y289.9442
X32.9501 Y289.9487
X33.0602 Y289.95
X318.9398
X319.0499 Y289.9487
X319.105 Y289.9442
X319.16 Y289.9364
X319.2151 Y289.9254
X319.2701 Y289.9108
X319.3252 Y289.8926
X319.3803 Y289.8706
X319.4084 Y289.8578
X319.4494 Y289.837
X319.4904 Y289.8137
X319.5383 Y289.7828
X319.5862 Y289.7476
X319.6005 Y289.7361
X319.6524 Y289.6906
X319.7044 Y289.6375
X319.7106 Y289.6305
X319.7532 Y289.5789
X319.7902 Y289.5274
X319.8208 Y289.4784
X319.8535 Y289.4173
X319.8783 Y289.3622
X319.899 Y289.3072
X319.916 Y289.2521
X319.9294 Y289.197
X319.9309 Y289.1897
X319.9399 Y289.1383
X319.946 Y289.0869
X319.9495 Y289.0319
X319.95 Y288.9768
Y267.7513
X319.9514 Y267.75
X325.7674
X325.8775 Y267.7468
X325.9326 Y267.7407
X325.9877 Y267.7313
X326.0219 Y267.7237
X326.0978 Y267.7021
X326.1528 Y267.6821
X326.2079 Y267.658
X326.2492 Y267.6371
X326.2905 Y267.6136
X326.318 Y267.5963
X326.3731 Y267.5577
X326.4282 Y267.5127
X326.4384 Y267.5035
X326.4922 Y267.4507
X326.5383 Y267.3979
X326.5419 Y267.3934
X326.5828 Y267.3383
X326.6179 Y267.2833
X326.6484 Y267.2275
X326.6737 Y267.1731
X326.6952 Y267.1181
X326.7129 Y267.063
X326.727 Y267.008
X326.7376 Y266.9529
X326.745 Y266.8978
X326.7491 Y266.8428
X326.75 Y266.7327
Y26.2317
X326.7468 Y26.1215
X326.7406 Y26.0665
X326.7311 Y26.0114
X326.7182 Y25.9564
X326.7018 Y25.9013
X326.6817 Y25.8462
X326.6576 Y25.7912
X326.6484 Y25.7725
X326.6238 Y25.7268
X326.5958 Y25.6811
X326.5686 Y25.6416
X326.5383 Y25.6021
X326.5119 Y25.5709
X326.47 Y25.5265
X326.4282 Y25.4873
X326.3968 Y25.4608
X326.3574 Y25.4307
X326.318 Y25.4037
X326.2719 Y25.3755
X326.2257 Y25.3507
X326.2079 Y25.342
X326.1528 Y25.318
X326.0978 Y25.2979
X326.0427 Y25.2815
X325.9877 Y25.2687
X325.9326 Y25.2593
X325.8775 Y25.2532
X325.7674 Y25.25
X26.2326
X26.1225 Y25.2532
X26.0674 Y25.2593
X26.0124 Y25.2687
X25.9573 Y25.2815
X25.9022 Y25.2979
X25.8472 Y25.318
X25.7921 Y25.342
X25.7744 Y25.3507
X25.7282 Y25.3755
X25.682 Y25.4037
X25.6426 Y25.4307
X25.6033 Y25.4608
X25.5719 Y25.4873
X25.53 Y25.5265
X25.4881 Y25.5709
X25.4618 Y25.6021
X25.4315 Y25.6416
X25.4043 Y25.6811
X25.3763 Y25.7268
X25.3516 Y25.7726
X25.3425 Y25.7912
X25.3184 Y25.8462
X25.2982 Y25.9013
X25.2818 Y25.9564
X25.2689 Y26.0114
X25.2595 Y26.0665
X25.2533 Y26.1215
X25.25 Y26.2317
Y55.9639
X25.2529 Y56.074
X25.2588 Y56.1291
X25.268 Y56.1842
X25.2806 Y56.2392
X25.2968 Y56.2943
X25.3166 Y56.3493
X25.3404 Y56.4044
X25.3516 Y56.4275
X25.375 Y56.471
X25.4014 Y56.5145
X25.4299 Y56.5562
X25.4618 Y56.5979
X25.4843 Y56.6246
X25.5252 Y56.6687
X25.5719 Y56.7127
X25.5978 Y56.7348
X25.6399 Y56.7673
X25.682 Y56.7963
X25.7238 Y56.822
X25.7657 Y56.8449
X25.7921 Y56.858
X25.8472 Y56.882
X25.9022 Y56.9021
X25.9573 Y56.9185
X26.0124 Y56.9313
X26.0674 Y56.9407
X26.1225 Y56.9468
X26.2326 Y56.95
X71.9337
X72.0438 Y56.9505
X72.1539 Y56.9532
X72.1978 Y56.955
X72.2641 Y56.9587
X72.3742 Y56.9676
X72.4843 Y56.9792
X72.5944 Y56.9939
X72.7046 Y57.012
X72.8147 Y57.0329
X72.9248 Y57.0572
X72.9583 Y57.0651
X73.0349 Y57.0847
X73.1451 Y57.1154
X73.2552 Y57.1497
X73.3309 Y57.1752
X73.3653 Y57.1871
X73.4754 Y57.2286
X73.5855 Y57.2735
X73.6128 Y57.2854
X73.6957 Y57.3225
X73.8058 Y57.3748
X73.8462 Y57.3955
X73.9159 Y57.4322
X74.026 Y57.4933
X74.0469 Y57.5056
X74.1362 Y57.5593
X74.2241 Y57.6157
X74.2463 Y57.6305
X74.3564 Y57.7061
X74.3836 Y57.7258
X74.4665 Y57.7881
X74.5275 Y57.836
X74.5767 Y57.8758
X74.6595 Y57.9461
X74.6868 Y57.9699
X74.7811 Y58.0562
X74.7969 Y58.0712
X74.8935 Y58.1663
X74.907 Y58.18
X74.9968 Y58.2764
X75.0171 Y58.2988
X75.0937 Y58.3866
X75.1273 Y58.4267
X75.1839 Y58.4967
X75.2374 Y58.5665
X75.2671 Y58.6068
X75.3449 Y58.7169
X75.3475 Y58.7207
X75.4178 Y58.827
X75.4576 Y58.8919
X75.4851 Y58.9372
X75.548 Y59.0473
X75.5678 Y59.0833
X75.6067 Y59.1574
X75.6605 Y59.2675
X75.6779 Y59.3049
X75.7108 Y59.3776
X75.757 Y59.4878
X75.788 Y59.5688
X75.7989 Y59.5979
X75.8385 Y59.708
X75.8733 Y59.8181
X75.8981 Y59.9019
X75.9056 Y59.9282
X75.9337 Y60.0383
X75.9595 Y60.1485
X75.9809 Y60.2586
X76.0001 Y60.3687
X76.0082 Y60.4221
X76.0163 Y60.4788
X76.029 Y60.5889
X76.0388 Y60.6991
X76.0456 Y60.8092
X76.0492 Y60.9193
X76.05 Y61.0294
X76.0476 Y61.1395
X76.0423 Y61.2497
X76.0341 Y61.3598
X76.0225 Y61.4699
X76.0082 Y61.5779
X76.0079 Y61.58
X75.9903 Y61.6901
X75.9697 Y61.8003
X75.9462 Y61.9104
X75.9189 Y62.0205
X75.8981 Y62.0981
X75.8886 Y62.1306
X75.8553 Y62.2407
X75.8177 Y62.3509
X75.788 Y62.4312
X75.7769 Y62.461
X75.7329 Y62.5711
X75.6843 Y62.6812
X75.6779 Y62.6951
X75.6323 Y62.7913
X75.5761 Y62.9015
X75.5678 Y62.9167
X75.515 Y63.0116
X75.4576 Y63.1081
X75.4493 Y63.1217
X75.3794 Y63.2318
X75.3475 Y63.2793
X75.304 Y63.3419
X75.2374 Y63.4335
X75.2235 Y63.4521
X75.1364 Y63.5622
X75.1273 Y63.5733
X75.0428 Y63.6723
X75.0171 Y63.7012
X74.9426 Y63.7824
X74.907 Y63.82
X74.8344 Y63.8925
X74.7969 Y63.9288
X74.7176 Y64.0026
X74.6868 Y64.0301
X74.5905 Y64.1128
X74.5767 Y64.1242
X74.4665 Y64.2119
X74.4521 Y64.2229
X74.3564 Y64.2939
X74.3006 Y64.333
X74.2463 Y64.3695
X74.1362 Y64.4407
X74.1322 Y64.4431
X74.026 Y64.5067
X73.9429 Y64.5532
X73.9159 Y64.5678
X73.8058 Y64.6252
X73.7265 Y64.6634
X73.6957 Y64.6776
X73.5855 Y64.7265
X73.4754 Y64.7714
X73.4701 Y64.7735
X73.3653 Y64.813
X73.2552 Y64.8503
X73.1485 Y64.8836
X73.1451 Y64.8847
X73.0349 Y64.9153
X72.9248 Y64.9429
X72.8147 Y64.9671
X72.7046 Y64.988
X72.6721 Y64.9937
X72.5944 Y65.0061
X72.4843 Y65.0208
X72.3742 Y65.0324
X72.2641 Y65.0413
X72.1539 Y65.0469
X72.0438 Y65.0495
X71.9337 Y65.05
X26.2326
X26.1225 Y65.0532
X26.0674 Y65.0593
X26.0124 Y65.0687
X25.9573 Y65.0815
X25.9022 Y65.0979
X25.8847 Y65.1038
X25.8384 Y65.1215
X25.7921 Y65.142
X25.7371 Y65.1704
X25.682 Y65.2037
X25.6665 Y65.214
X25.6192 Y65.2483
X25.5719 Y65.2873
X25.5325 Y65.3241
X25.4951 Y65.3631
X25.4618 Y65.4021
X25.4369 Y65.4342
X25.399 Y65.4893
X25.3664 Y65.5443
X25.3516 Y65.5725
X25.3322 Y65.6135
X25.3151 Y65.6544
X25.2955 Y65.7095
X25.2797 Y65.7646
X25.2673 Y65.8196
X25.2583 Y65.8747
X25.2526 Y65.9297
X25.2501 Y65.9848
X25.25 Y66.0949
Y76.7992
Y76.9928 Z-5.0001
Y77.1864 Z-5.0004
Y77.3799 Z-5.0008
Y77.5735 Z-5.0015
Y77.7671 Z-5.0023
Y77.9607 Z-5.0033
Y78.1542 Z-5.0045
Y78.3478 Z-5.0058
Y78.5414 Z-5.0073
Y78.735 Z-5.009
Y78.9285 Z-5.0109
Y79.1221 Z-5.0129
Y79.3157 Z-5.0151
Y79.5093 Z-5.0174
Y79.7028 Z-5.0199
Y79.8964 Z-5.0225
Y80.09 Z-5.0253
Y80.2836 Z-5.0283
Y80.4771 Z-5.0314
Y80.6707 Z-5.0347
Y80.8643 Z-5.0381
Y81.0579 Z-5.0416
Y81.2514 Z-5.0453
Y81.445 Z-5.0491
Y81.6386 Z-5.0531
Y81.8322 Z-5.0572
Y82.0257 Z-5.0614
Y82.2193 Z-5.0658
Y82.4129 Z-5.0702
Y82.6065 Z-5.0749
Y82.8 Z-5.0796
Y82.9936 Z-5.0845
Y83.1872 Z-5.0894
Y83.284 Z-5.092
Y83.3808 Z-5.0945
Y83.4775 Z-5.0971
Y83.5743 Z-5.0997
Y83.6711 Z-5.1024
Y83.7679 Z-5.1051
Y83.8647 Z-5.1078
Y83.9615 Z-5.1105
Y84.0583 Z-5.1133
Y84.1551 Z-5.1161
Y84.2518 Z-5.1189
Y84.3486 Z-5.1217
Y84.4454 Z-5.1246
Y84.5422 Z-5.1275
Y84.639 Z-5.1304
Y84.7358 Z-5.1334
Y84.8326 Z-5.1363
Y84.9294 Z-5.1393
Y85.0261 Z-5.1423
Y85.1229 Z-5.1454
Y85.2197 Z-5.1485
Y85.3165 Z-5.1516
Y85.4133 Z-5.1547
Y85.5101 Z-5.1578
Y85.6069 Z-5.161
Y85.7037 Z-5.1642
Y85.8004 Z-5.1674
Y85.8972 Z-5.1706
Y85.994 Z-5.1739
Y86.0908 Z-5.1772
Y86.1876 Z-5.1805
Y86.2844 Z-5.1838
Y86.3812 Z-5.1871
Y86.5747 Z-5.1939
Y86.6715 Z-5.1972
Y86.7683 Z-5.2006
Y86.8651 Z-5.204
Y86.9619 Z-5.2074
Y87.0587 Z-5.2108
Y87.1555 Z-5.2141
Y87.2523 Z-5.2175
Y87.349 Z-5.2209
Y87.4458 Z-5.2243
Y87.5426 Z-5.2277
Y87.6394 Z-5.231
Y87.7362 Z-5.2344
Y87.9298 Z-5.2412
Y88.2201 Z-5.2513
Y88.5105 Z-5.2614
Y88.8008 Z-5.2716
Y89.0912 Z-5.2817
Y89.3816 Z-5.2919
Y89.6719 Z-5.302
Y89.9623 Z-5.3121
Y90.2527 Z-5.3223
Y90.543 Z-5.3324
Y90.8334 Z-5.3426
Y91.3173 Z-5.3595
Y91.8013 Z-5.3764
Y92.2852 Z-5.3933
Y92.9627 Z-5.4169
Y93.8338 Z-5.4473
Y95.2856 Z-5.498
Y102.2543 Z-5.7413
Y102.5447 Z-5.7515
Y102.835 Z-5.7616
Y102.9318 Z-5.765
Y103.0286 Z-5.7684
Y103.1254 Z-5.7717
Y103.2222 Z-5.7751
Y103.319 Z-5.7785
Y103.4157 Z-5.7819
Y103.5125 Z-5.7853
Y103.6093 Z-5.7886
Y103.7061 Z-5.792
Y103.8029 Z-5.7954
Y103.8997 Z-5.7988
Y103.9965 Z-5.8022
Y104.0932 Z-5.8055
Y104.19 Z-5.8089
Y104.2868 Z-5.8123
Y104.3836 Z-5.8156
Y104.4804 Z-5.819
Y104.5772 Z-5.8223
Y104.674 Z-5.8255
Y104.7708 Z-5.8288
Y104.8675 Z-5.832
Y104.9643 Z-5.8353
Y105.0611 Z-5.8385
Y105.1579 Z-5.8416
Y105.2547 Z-5.8448
Y105.3515 Z-5.8479
Y105.4483 Z-5.851
Y105.5451 Z-5.8541
Y105.6418 Z-5.8571
Y105.7386 Z-5.8601
Y105.8354 Z-5.8631
Y105.9322 Z-5.8661
Y106.029 Z-5.8691
Y106.1258 Z-5.872
Y106.2226 Z-5.8749
Y106.3194 Z-5.8778
Y106.4161 Z-5.8806
Y106.5129 Z-5.8834
Y106.6097 Z-5.8862
Y106.7065 Z-5.889
Y106.8033 Z-5.8917
Y106.9001 Z-5.8945
Y106.9969 Z-5.8971
Y107.0937 Z-5.8998
Y107.1904 Z-5.9024
Y107.2872 Z-5.905
Y107.384 Z-5.9076
Y107.4808 Z-5.9101
Y107.5776 Z-5.9126
Y107.7712 Z-5.9176
Y107.9647 Z-5.9224
Y108.1583 Z-5.9271
Y108.3519 Z-5.9316
Y108.5455 Z-5.9361
Y108.739 Z-5.9404
Y108.9326 Z-5.9445
Y109.1262 Z-5.9486
Y109.3198 Z-5.9525
Y109.5133 Z-5.9562
Y109.7069 Z-5.9599
Y109.9005 Z-5.9634
Y110.0941 Z-5.9667
Y110.2876 Z-5.9699
Y110.4812 Z-5.9729
Y110.6748 Z-5.9758
Y110.8684 Z-5.9786
Y111.0619 Z-5.9812
Y111.2555 Z-5.9836
Y111.4491 Z-5.9859
Y111.6427 Z-5.988
Y111.8362 Z-5.9899
Y112.0298 Z-5.9917
Y112.2234 Z-5.9933
Y112.417 Z-5.9948
Y112.6105 Z-5.996
Y112.8041 Z-5.9971
Y112.9977 Z-5.9981
Y113.1913 Z-5.9988
Y113.3848 Z-5.9994
Y113.5784 Z-5.9998
Y113.772 Z-6
Y113.8858
Y266.7327
X25.251 Y266.8428
X25.2551 Y266.8978
X25.2624 Y266.9529
X25.2731 Y267.008
X25.2872 Y267.063
X25.3049 Y267.1181
X25.3264 Y267.1731
X25.3516 Y267.2274
X25.3821 Y267.2833
X25.4173 Y267.3383
X25.4581 Y267.3934
X25.4618 Y267.3979
X25.5078 Y267.4507
X25.5616 Y267.5035
X25.5719 Y267.5127
X25.6269 Y267.5577
X25.682 Y267.5963
X25.7096 Y267.6136
X25.7509 Y267.6371
X25.7921 Y267.658
X25.8472 Y267.682
X25.9022 Y267.7021
X25.9782 Y267.7237
X26.0124 Y267.7313
X26.0674 Y267.7407
X26.1225 Y267.7468
X26.2326 Y267.75
X32.0486
X32.05 Y267.7513
Y288.9768
X32.0505 Y289.0319
X32.054 Y289.0869
X32.0601 Y289.1383
X32.0691 Y289.1897
X32.0707 Y289.197
X32.0841 Y289.2521
X32.101 Y289.3072
X32.1218 Y289.3622
X32.1465 Y289.4173
X32.1793 Y289.4784
X32.2098 Y289.5274
X32.2468 Y289.5789
X32.2894 Y289.6305
X32.2957 Y289.6375
X32.3476 Y289.6906
X32.3995 Y289.7361
X32.4139 Y289.7476
X32.4617 Y289.7828
X32.5096 Y289.8137
X32.5506 Y289.837
X32.5916 Y289.8578
X32.6198 Y289.8706
X32.6748 Y289.8926
X32.7299 Y289.9108
X32.7849 Y289.9254
X32.84 Y289.9364
X32.8951 Y289.9442
X32.9501 Y289.9487
X33.0602 Y289.95
X318.9398
X319.0499 Y289.9487
X319.105 Y289.9442
X319.16 Y289.9364
X319.2151 Y289.9254
X319.2701 Y289.9108
X319.3252 Y289.8926
X319.3803 Y289.8706
X319.4084 Y289.8578
X319.4494 Y289.837
X319.4904 Y289.8137
X319.5383 Y289.7828
X319.5862 Y289.7476
X319.6005 Y289.7361
X319.6524 Y289.6906
X319.7044 Y289.6375
X319.7106 Y289.6305
X319.7532 Y289.5789
X319.7902 Y289.5274
X319.8208 Y289.4784
X319.8535 Y289.4173
X319.8783 Y289.3622
X319.899 Y289.3072
X319.916 Y289.2521
X319.9294 Y289.197
X319.9309 Y289.1897
X319.9399 Y289.1383
X319.946 Y289.0869
X319.9495 Y289.0319
X319.95 Y288.9768
Y267.7513
X319.9514 Y267.75
X325.7674
X325.8775 Y267.7468
X325.9326 Y267.7407
X325.9877 Y267.7313
X326.0219 Y267.7237
X326.0978 Y267.7021
X326.1528 Y267.6821
X326.2079 Y267.658
X326.2492 Y267.6371
X326.2905 Y267.6136
X326.318 Y267.5963
X326.3731 Y267.5577
X326.4282 Y267.5127
X326.4384 Y267.5035
X326.4922 Y267.4507
X326.5383 Y267.3979
X326.5419 Y267.3934
X326.5828 Y267.3383
X326.6179 Y267.2833
X326.6484 Y267.2275
X326.6737 Y267.1731
X326.6952 Y267.1181
X326.7129 Y267.063
X326.727 Y267.008
X326.7376 Y266.9529
X326.745 Y266.8978
X326.7491 Y266.8428
X326.75 Y266.7327
Y26.2317
X326.7468 Y26.1215
X326.7406 Y26.0665
X326.7311 Y26.0114
X326.7182 Y25.9564
X326.7018 Y25.9013
X326.6817 Y25.8462
X326.6576 Y25.7912
X326.6484 Y25.7725
X326.6238 Y25.7268
X326.5958 Y25.6811
X326.5686 Y25.6416
X326.5383 Y25.6021
X326.5119 Y25.5709
X326.47 Y25.5265
X326.4282 Y25.4873
X326.3968 Y25.4608
X326.3574 Y25.4307
X326.318 Y25.4037
X326.2719 Y25.3755
X326.2257 Y25.3507
X326.2079 Y25.342
X326.1528 Y25.318
X326.0978 Y25.2979
X326.0427 Y25.2815
X325.9877 Y25.2687
X325.9326 Y25.2593
X325.8775 Y25.2532
X325.7674 Y25.25
X26.2326
X26.1225 Y25.2532
X26.0674 Y25.2593
X26.0124 Y25.2687
X25.9573 Y25.2815
X25.9022 Y25.2979
X25.8472 Y25.318
X25.7921 Y25.342
X25.7744 Y25.3507
X25.7282 Y25.3755
X25.682 Y25.4037
X25.6426 Y25.4307
X25.6033 Y25.4608
X25.5719 Y25.4873
X25.53 Y25.5265
X25.4881 Y25.5709
X25.4618 Y25.6021
X25.4315 Y25.6416
X25.4043 Y25.6811
X25.3763 Y25.7268
X25.3516 Y25.7726
X25.3425 Y25.7912
X25.3184 Y25.8462
X25.2982 Y25.9013
X25.2818 Y25.9564
X25.2689 Y26.0114
X25.2595 Y26.0665
X25.2533 Y26.1215
X25.25 Y26.2317
Y55.9639
X25.2529 Y56.074
X25.2588 Y56.1291
X25.268 Y56.1842
X25.2806 Y56.2392
X25.2968 Y56.2943
X25.3166 Y56.3493
X25.3404 Y56.4044
X25.3516 Y56.4275
X25.375 Y56.471
X25.4014 Y56.5145
X25.4299 Y56.5562
X25.4618 Y56.5979
X25.4843 Y56.6246
X25.5252 Y56.6687
X25.5719 Y56.7127
X25.5978 Y56.7348
X25.6399 Y56.7673
X25.682 Y56.7963
X25.7238 Y56.822
X25.7657 Y56.8449
X25.7921 Y56.858
X25.8472 Y56.882
X25.9022 Y56.9021
X25.9573 Y56.9185
X26.0124 Y56.9313
X26.0674 Y56.9407
X26.1225 Y56.9468
X26.2326 Y56.95
X71.9337
X72.0438 Y56.9505
X72.1539 Y56.9532
X72.1978 Y56.955
X72.2641 Y56.9587
X72.3742 Y56.9676
X72.4843 Y56.9792
X72.5944 Y56.9939
X72.7046 Y57.012
X72.8147 Y57.0329
X72.9248 Y57.0572
X72.9583 Y57.0651
X73.0349 Y57.0847
X73.1451 Y57.1154
X73.2552 Y57.1497
X73.3309 Y57.1752
X73.3653 Y57.1871
X73.4754 Y57.2286
X73.5855 Y57.2735
X73.6128 Y57.2854
X73.6957 Y57.3225
X73.8058 Y57.3748
X73.8462 Y57.3955
X73.9159 Y57.4322
X74.026 Y57.4933
X74.0469 Y57.5056
X74.1362 Y57.5593
X74.2241 Y57.6157
X74.2463 Y57.6305
X74.3564 Y57.7061
X74.3836 Y57.7258
X74.4665 Y57.7881
X74.5275 Y57.836
X74.5767 Y57.8758
X74.6595 Y57.9461
X74.6868 Y57.9699
X74.7811 Y58.0562
X74.7969 Y58.0712
X74.8935 Y58.1663
X74.907 Y58.18
X74.9968 Y58.2764
X75.0171 Y58.2988
X75.0937 Y58.3866
X75.1273 Y58.4267
X75.1839 Y58.4967
X75.2374 Y58.5665
X75.2671 Y58.6068
X75.3449 Y58.7169
X75.3475 Y58.7207
X75.4178 Y58.827
X75.4576 Y58.8919
X75.4851 Y58.9372
X75.548 Y59.0473
X75.5678 Y59.0833
X75.6067 Y59.1574
X75.6605 Y59.2675
X75.6779 Y59.3049
X75.7108 Y59.3776
X75.757 Y59.4878
X75.788 Y59.5688
X75.7989 Y59.5979
X75.8385 Y59.708
X75.8733 Y59.8181
X75.8981 Y59.9019
X75.9056 Y59.9282
X75.9337 Y60.0383
X75.9595 Y60.1485
X75.9809 Y60.2586
X76.0001 Y60.3687
X76.0082 Y60.4221
X76.0163 Y60.4788
X76.029 Y60.5889
X76.0388 Y60.6991
X76.0456 Y60.8092
X76.0492 Y60.9193
X76.05 Y61.0294
X76.0476 Y61.1395
X76.0423 Y61.2497
X76.0341 Y61.3598
X76.0225 Y61.4699
X76.0082 Y61.5779
X76.0079 Y61.58
X75.9903 Y61.6901
X75.9697 Y61.8003
X75.9462 Y61.9104
X75.9189 Y62.0205
X75.8981 Y62.0981
X75.8886 Y62.1306
X75.8553 Y62.2407
X75.8177 Y62.3509
X75.788 Y62.4312
X75.7769 Y62.461
X75.7329 Y62.5711
X75.6843 Y62.6812
X75.6779 Y62.6951
X75.6323 Y62.7913
X75.5761 Y62.9015
X75.5678 Y62.9167
X75.515 Y63.0116
X75.4576 Y63.1081
X75.4493 Y63.1217
X75.3794 Y63.2318
X75.3475 Y63.2793
X75.304 Y63.3419
X75.2374 Y63.4335
X75.2235 Y63.4521
X75.1364 Y63.5622
X75.1273 Y63.5733
X75.0428 Y63.6723
X75.0171 Y63.7012
X74.9426 Y63.7824
X74.907 Y63.82
X74.8344 Y63.8925
X74.7969 Y63.9288
X74.7176 Y64.0026
X74.6868 Y64.0301
X74.5905 Y64.1128
X74.5767 Y64.1242
X74.4665 Y64.2119
X74.4521 Y64.2229
X74.3564 Y64.2939
X74.3006 Y64.333
X74.2463 Y64.3695
X74.1362 Y64.4407
X74.1322 Y64.4431
X74.026 Y64.5067
X73.9429 Y64.5532
X73.9159 Y64.5678
X73.8058 Y64.6252
X73.7265 Y64.6634
X73.6957 Y64.6776
X73.5855 Y64.7265
X73.4754 Y64.7714
X73.4701 Y64.7735
X73.3653 Y64.813
X73.2552 Y64.8503
X73.1485 Y64.8836
X73.1451 Y64.8847
X73.0349 Y64.9153
X72.9248 Y64.9429
X72.8147 Y64.9671
X72.7046 Y64.988
X72.6721 Y64.9937
X72.5944 Y65.0061
X72.4843 Y65.0208
X72.3742 Y65.0324
X72.2641 Y65.0413
X72.1539 Y65.0469
X72.0438 Y65.0495
X71.9337 Y65.05
X26.2326
X26.1225 Y65.0532
X26.0674 Y65.0593
X26.0124 Y65.0687
X25.9573 Y65.0815
X25.9022 Y65.0979
X25.8847 Y65.1038
X25.8384 Y65.1215
X25.7921 Y65.142
X25.7371 Y65.1704
X25.682 Y65.2037
X25.6665 Y65.214
X25.6192 Y65.2483
X25.5719 Y65.2873
X25.5325 Y65.3241
X25.4951 Y65.3631
X25.4618 Y65.4021
X25.4369 Y65.4342
X25.399 Y65.4893
X25.3664 Y65.5443
X25.3516 Y65.5725
X25.3322 Y65.6135
X25.3151 Y65.6544
X25.2955 Y65.7095
X25.2797 Y65.7646
X25.2673 Y65.8196
X25.2583 Y65.8747
X25.2526 Y65.9297
X25.2501 Y65.9848
X25.25 Y66.0949
Y113.8858
Y114.0794 Z-6.0001
Y114.2729 Z-6.0004
Y114.4665 Z-6.0008
Y114.6601 Z-6.0015
Y114.8537 Z-6.0023
Y115.0472 Z-6.0033
Y115.2408 Z-6.0045
Y115.4344 Z-6.0058
Y115.628 Z-6.0073
Y115.8215 Z-6.009
Y116.0151 Z-6.0109
Y116.2087 Z-6.0129
Y116.4023 Z-6.0151
Y116.5958 Z-6.0174
Y116.7894 Z-6.0199
Y116.983 Z-6.0225
Y117.1766 Z-6.0253
Y117.3701 Z-6.0283
Y117.5637 Z-6.0314
Y117.7573 Z-6.0347
Y117.9509 Z-6.0381
Y118.1444 Z-6.0416
Y118.338 Z-6.0453
Y118.5316 Z-6.0491
Y118.7252 Z-6.0531
Y118.9187 Z-6.0572
Y119.1123 Z-6.0614
Y119.3059 Z-6.0658
Y119.4995 Z-6.0702
Y119.693 Z-6.0749
Y119.8866 Z-6.0796
Y120.0802 Z-6.0845
Y120.2738 Z-6.0894
Y120.3705 Z-6.092
Y120.4673 Z-6.0945
Y120.5641 Z-6.0971
Y120.6609 Z-6.0997
Y120.7577 Z-6.1024
Y120.8545 Z-6.1051
Y120.9513 Z-6.1078
Y121.048 Z-6.1105
Y121.1448 Z-6.1133
Y121.2416 Z-6.1161
Y121.3384 Z-6.1189
Y121.4352 Z-6.1217
Y121.532 Z-6.1246
Y121.6288 Z-6.1275
Y121.7256 Z-6.1304
Y121.8223 Z-6.1334
Y121.9191 Z-6.1363
Y122.0159 Z-6.1393
Y122.1127 Z-6.1423
Y122.2095 Z-6.1454
Y122.3063 Z-6.1485
Y122.4031 Z-6.1516
Y122.4999 Z-6.1547
Y122.5966 Z-6.1578
Y122.6934 Z-6.161
Y122.7902 Z-6.1642
Y122.887 Z-6.1674
Y122.9838 Z-6.1706
Y123.0806 Z-6.1739
Y123.1774 Z-6.1772
Y123.2742 Z-6.1805
Y123.3709 Z-6.1838
Y123.4677 Z-6.1871
Y123.6613 Z-6.1939
Y123.7581 Z-6.1972
Y123.8549 Z-6.2006
Y123.9517 Z-6.204
Y124.0485 Z-6.2074
Y124.1452 Z-6.2108
Y124.242 Z-6.2141
Y124.3388 Z-6.2175
Y124.4356 Z-6.2209
Y124.5324 Z-6.2243
Y124.6292 Z-6.2277
Y124.726 Z-6.231
Y124.8228 Z-6.2344
Y125.0163 Z-6.2412
Y125.3067 Z-6.2513
Y125.5971 Z-6.2614
Y125.8874 Z-6.2716
Y126.1778 Z-6.2817
Y126.4681 Z-6.2919
Y126.7585 Z-6.302
Y127.0489 Z-6.3121
Y127.3392 Z-6.3223
Y127.6296 Z-6.3324
Y127.92 Z-6.3426
Y128.4039 Z-6.3595
Y128.8878 Z-6.3764
Y129.3718 Z-6.3933
Y130.0493 Z-6.4169
Y130.9203 Z-6.4473
Y132.3722 Z-6.498
Y139.3409 Z-6.7413
Y139.6312 Z-6.7515
Y139.9216 Z-6.7616
Y140.0184 Z-6.765
Y140.1152 Z-6.7684
Y140.2119 Z-6.7717
Y140.3087 Z-6.7751
Y140.4055 Z-6.7785
Y140.5023 Z-6.7819
Y140.5991 Z-6.7853
Y140.6959 Z-6.7886
Y140.7927 Z-6.792
Y140.8895 Z-6.7954
Y140.9862 Z-6.7988
Y141.083 Z-6.8022
Y141.1798 Z-6.8055
Y141.2766 Z-6.8089
Y141.3734 Z-6.8123
Y141.4702 Z-6.8156
Y141.567 Z-6.819
Y141.6638 Z-6.8223
Y141.7605 Z-6.8255
Y141.8573 Z-6.8288
Y141.9541 Z-6.832
Y142.0509 Z-6.8353
Y142.1477 Z-6.8385
Y142.2445 Z-6.8416
Y142.3413 Z-6.8448
Y142.438 Z-6.8479
Y142.5348 Z-6.851
Y142.6316 Z-6.8541
Y142.7284 Z-6.8571
Y142.8252 Z-6.8601
Y142.922 Z-6.8631
Y143.0188 Z-6.8661
Y143.1156 Z-6.8691
Y143.2123 Z-6.872
Y143.3091 Z-6.8749
Y143.4059 Z-6.8778
Y143.5027 Z-6.8806
Y143.5995 Z-6.8834
Y143.6963 Z-6.8862
Y143.7931 Z-6.889
Y143.8899 Z-6.8917
Y143.9866 Z-6.8945
Y144.0834 Z-6.8971
Y144.1802 Z-6.8998
Y144.277 Z-6.9024
Y144.3738 Z-6.905
Y144.4706 Z-6.9076
Y144.5674 Z-6.9101
Y144.6642 Z-6.9126
Y144.8577 Z-6.9176
Y145.0513 Z-6.9224
Y145.2449 Z-6.9271
Y145.4385 Z-6.9316
Y145.632 Z-6.9361
Y145.8256 Z-6.9404
Y146.0192 Z-6.9445
Y146.2128 Z-6.9486
Y146.4063 Z-6.9525
Y146.5999 Z-6.9562
Y146.7935 Z-6.9599
Y146.9871 Z-6.9634
Y147.1806 Z-6.9667
Y147.3742 Z-6.9699
Y147.5678 Z-6.9729
Y147.7614 Z-6.9758
Y147.9549 Z-6.9786
Y148.1485 Z-6.9812
Y148.3421 Z-6.9836
Y148.5356 Z-6.9859
Y148.7292 Z-6.988
Y148.9228 Z-6.9899
Y149.1164 Z-6.9917
Y149.31 Z-6.9933
Y149.5035 Z-6.9948
Y149.6971 Z-6.996
Y149.8907 Z-6.9971
Y150.0842 Z-6.9981
Y150.2778 Z-6.9988
Y150.4714 Z-6.9994
Y150.665 Z-6.9998
Y150.8586 Z-7
Y150.9724
Y266.7327
X25.251 Y266.8428
X25.2551 Y266.8978
X25.2624 Y266.9529
X25.2731 Y267.008
X25.2872 Y267.063
X25.3049 Y267.1181
X25.3264 Y267.1731
X25.3516 Y267.2274
X25.3821 Y267.2833
X25.4173 Y267.3383
X25.4581 Y267.3934
X25.4618 Y267.3979
X25.5078 Y267.4507
X25.5616 Y267.5035
X25.5719 Y267.5127
X25.6269 Y267.5577
X25.682 Y267.5963
X25.7096 Y267.6136
X25.7509 Y267.6371
X25.7921 Y267.658
X25.8472 Y267.682
X25.9022 Y267.7021
X25.9782 Y267.7237
X26.0124 Y267.7313
X26.0674 Y267.7407
X26.1225 Y267.7468
X26.2326 Y267.75
X32.0486
X32.05 Y267.7513
Y288.9768
X32.0505 Y289.0319
X32.054 Y289.0869
X32.0601 Y289.1383
X32.0691 Y289.1897
X32.0707 Y289.197
X32.0841 Y289.2521
X32.101 Y289.3072
X32.1218 Y289.3622
X32.1465 Y289.4173
X32.1793 Y289.4784
X32.2098 Y289.5274
X32.2468 Y289.5789
X32.2894 Y289.6305
X32.2957 Y289.6375
X32.3476 Y289.6906
X32.3995 Y289.7361
X32.4139 Y289.7476
X32.4617 Y289.7828
X32.5096 Y289.8137
X32.5506 Y289.837
X32.5916 Y289.8578
X32.6198 Y289.8706
X32.6748 Y289.8926
X32.7299 Y289.9108
X32.7849 Y289.9254
X32.84 Y289.9364
X32.8951 Y289.9442
X32.9501 Y289.9487
X33.0602 Y289.95
X318.9398
X319.0499 Y289.9487
X319.105 Y289.9442
X319.16 Y289.9364
X319.2151 Y289.9254
X319.2701 Y289.9108
X319.3252 Y289.8926
X319.3803 Y289.8706
X319.4084 Y289.8578
X319.4494 Y289.837
X319.4904 Y289.8137
X319.5383 Y289.7828
X319.5862 Y289.7476
X319.6005 Y289.7361
X319.6524 Y289.6906
X319.7044 Y289.6375
X319.7106 Y289.6305
X319.7532 Y289.5789
X319.7902 Y289.5274
X319.8208 Y289.4784
X319.8535 Y289.4173
X319.8783 Y289.3622
X319.899 Y289.3072
X319.916 Y289.2521
X319.9294 Y289.197
X319.9309 Y289.1897
X319.9399 Y289.1383
X319.946 Y289.0869
X319.9495 Y289.0319
X319.95 Y288.9768
Y267.7513
X319.9514 Y267.75
X325.7674
X325.8775 Y267.7468
X325.9326 Y267.7407
X325.9877 Y267.7313
X326.0219 Y267.7237
X326.0978 Y267.7021
X326.1528 Y267.6821
X326.2079 Y267.658
X326.2492 Y267.6371
X326.2905 Y267.6136
X326.318 Y267.5963
X326.3731 Y267.5577
X326.4282 Y267.5127
X326.4384 Y267.5035
X326.4922 Y267.4507
X326.5383 Y267.3979
X326.5419 Y267.3934
X326.5828 Y267.3383
X326.6179 Y267.2833
X326.6484 Y267.2275
X326.6737 Y267.1731
X326.6952 Y267.1181
X326.7129 Y267.063
X326.727 Y267.008
X326.7376 Y266.9529
X326.745 Y266.8978
X326.7491 Y266.8428
X326.75 Y266.7327
Y26.2317
X326.7468 Y26.1215
X326.7406 Y26.0665
X326.7311 Y26.0114
X326.7182 Y25.9564
X326.7018 Y25.9013
X326.6817 Y25.8462
X326.6576 Y25.7912
X326.6484 Y25.7725
X326.6238 Y25.7268
X326.5958 Y25.6811
X326.5686 Y25.6416
X326.5383 Y25.6021
X326.5119 Y25.5709
X326.47 Y25.5265
X326.4282 Y25.4873
X326.3968 Y25.4608
X326.3574 Y25.4307
X326.318 Y25.4037
X326.2719 Y25.3755
X326.2257 Y25.3507
X326.2079 Y25.342
X326.1528 Y25.318
X326.0978 Y25.2979
X326.0427 Y25.2815
X325.9877 Y25.2687
X325.9326 Y25.2593
X325.8775 Y25.2532
X325.7674 Y25.25
X26.2326
X26.1225 Y25.2532
X26.0674 Y25.2593
X26.0124 Y25.2687
X25.9573 Y25.2815
X25.9022 Y25.2979
X25.8472 Y25.318
X25.7921 Y25.342
X25.7744 Y25.3507
X25.7282 Y25.3755
X25.682 Y25.4037
X25.6426 Y25.4307
X25.6033 Y25.4608
X25.5719 Y25.4873
X25.53 Y25.5265
X25.4881 Y25.5709
X25.4618 Y25.6021
X25.4315 Y25.6416
X25.4043 Y25.6811
X25.3763 Y25.7268
X25.3516 Y25.7726
X25.3425 Y25.7912
X25.3184 Y25.8462
X25.2982 Y25.9013
X25.2818 Y25.9564
X25.2689 Y26.0114
X25.2595 Y26.0665
X25.2533 Y26.1215
X25.25 Y26.2317
Y55.9639
X25.2529 Y56.074
X25.2588 Y56.1291
X25.268 Y56.1842
X25.2806 Y56.2392
X25.2968 Y56.2943
X25.3166 Y56.3493
X25.3404 Y56.4044
X25.3516 Y56.4275
X25.375 Y56.471
X25.4014 Y56.5145
X25.4299 Y56.5562
X25.4618 Y56.5979
X25.4843 Y56.6246
X25.5252 Y56.6687
X25.5719 Y56.7127
X25.5978 Y56.7348
X25.6399 Y56.7673
X25.682 Y56.7963
X25.7238 Y56.822
X25.7657 Y56.8449
X25.7921 Y56.858
X25.8472 Y56.882
X25.9022 Y56.9021
X25.9573 Y56.9185
X26.0124 Y56.9313
X26.0674 Y56.9407
X26.1225 Y56.9468
X26.2326 Y56.95
X71.9337
X72.0438 Y56.9505
X72.1539 Y56.9532
X72.1978 Y56.955
X72.2641 Y56.9587
X72.3742 Y56.9676
X72.4843 Y56.9792
X72.5944 Y56.9939
X72.7046 Y57.012
X72.8147 Y57.0329
X72.9248 Y57.0572
X72.9583 Y57.0651
X73.0349 Y57.0847
X73.1451 Y57.1154
X73.2552 Y57.1497
X73.3309 Y57.1752
X73.3653 Y57.1871
X73.4754 Y57.2286
X73.5855 Y57.2735
X73.6128 Y57.2854
X73.6957 Y57.3225
X73.8058 Y57.3748
X73.8462 Y57.3955
X73.9159 Y57.4322
X74.026 Y57.4933
X74.0469 Y57.5056
X74.1362 Y57.5593
X74.2241 Y57.6157
X74.2463 Y57.6305
X74.3564 Y57.7061
X74.3836 Y57.7258
X74.4665 Y57.7881
X74.5275 Y57.836
X74.5767 Y57.8758
X74.6595 Y57.9461
X74.6868 Y57.9699
X74.7811 Y58.0562
X74.7969 Y58.0712
X74.8935 Y58.1663
X74.907 Y58.18
X74.9968 Y58.2764
X75.0171 Y58.2988
X75.0937 Y58.3866
X75.1273 Y58.4267
X75.1839 Y58.4967
X75.2374 Y58.5665
X75.2671 Y58.6068
X75.3449 Y58.7169
X75.3475 Y58.7207
X75.4178 Y58.827
X75.4576 Y58.8919
X75.4851 Y58.9372
X75.548 Y59.0473
X75.5678 Y59.0833
X75.6067 Y59.1574
X75.6605 Y59.2675
X75.6779 Y59.3049
X75.7108 Y59.3776
X75.757 Y59.4878
X75.788 Y59.5688
X75.7989 Y59.5979
X75.8385 Y59.708
X75.8733 Y59.8181
X75.8981 Y59.9019
X75.9056 Y59.9282
X75.9337 Y60.0383
X75.9595 Y60.1485
X75.9809 Y60.2586
X76.0001 Y60.3687
X76.0082 Y60.4221
X76.0163 Y60.4788
X76.029 Y60.5889
X76.0388 Y60.6991
X76.0456 Y60.8092
X76.0492 Y60.9193
X76.05 Y61.0294
X76.0476 Y61.1395
X76.0423 Y61.2497
X76.0341 Y61.3598
X76.0225 Y61.4699
X76.0082 Y61.5779
X76.0079 Y61.58
X75.9903 Y61.6901
X75.9697 Y61.8003
X75.9462 Y61.9104
X75.9189 Y62.0205
X75.8981 Y62.0981
X75.8886 Y62.1306
X75.8553 Y62.2407
X75.8177 Y62.3509
X75.788 Y62.4312
X75.7769 Y62.461
X75.7329 Y62.5711
X75.6843 Y62.6812
X75.6779 Y62.6951
X75.6323 Y62.7913
X75.5761 Y62.9015
X75.5678 Y62.9167
X75.515 Y63.0116
X75.4576 Y63.1081
X75.4493 Y63.1217
X75.3794 Y63.2318
X75.3475 Y63.2793
X75.304 Y63.3419
X75.2374 Y63.4335
X75.2235 Y63.4521
X75.1364 Y63.5622
X75.1273 Y63.5733
X75.0428 Y63.6723
X75.0171 Y63.7012
X74.9426 Y63.7824
X74.907 Y63.82
X74.8344 Y63.8925
X74.7969 Y63.9288
X74.7176 Y64.0026
X74.6868 Y64.0301
X74.5905 Y64.1128
X74.5767 Y64.1242
X74.4665 Y64.2119
X74.4521 Y64.2229
X74.3564 Y64.2939
X74.3006 Y64.333
X74.2463 Y64.3695
X74.1362 Y64.4407
X74.1322 Y64.4431
X74.026 Y64.5067
X73.9429 Y64.5532
X73.9159 Y64.5678
X73.8058 Y64.6252
X73.7265 Y64.6634
X73.6957 Y64.6776
X73.5855 Y64.7265
X73.4754 Y64.7714
X73.4701 Y64.7735
X73.3653 Y64.813
X73.2552 Y64.8503
X73.1485 Y64.8836
X73.1451 Y64.8847
X73.0349 Y64.9153
X72.9248 Y64.9429
X72.8147 Y64.9671
X72.7046 Y64.988
X72.6721 Y64.9937
X72.5944 Y65.0061
X72.4843 Y65.0208
X72.3742 Y65.0324
X72.2641 Y65.0413
X72.1539 Y65.0469
X72.0438 Y65.0495
X71.9337 Y65.05
X26.2326
X26.1225 Y65.0532
X26.0674 Y65.0593
X26.0124 Y65.0687
X25.9573 Y65.0815
X25.9022 Y65.0979
X25.8847 Y65.1038
X25.8384 Y65.1215
X25.7921 Y65.142
X25.7371 Y65.1704
X25.682 Y65.2037
X25.6665 Y65.214
X25.6192 Y65.2483
X25.5719 Y65.2873
X25.5325 Y65.3241
X25.4951 Y65.3631
X25.4618 Y65.4021
X25.4369 Y65.4342
X25.399 Y65.4893
X25.3664 Y65.5443
X25.3516 Y65.5725
X25.3322 Y65.6135
X25.3151 Y65.6544
X25.2955 Y65.7095
X25.2797 Y65.7646
X25.2673 Y65.8196
X25.2583 Y65.8747
X25.2526 Y65.9297
X25.2501 Y65.9848
X25.25 Y66.0949
Y113.8858
Y150.9724
Y151.1659 Z-7.0001
Y151.3595 Z-7.0004
Y151.5531 Z-7.0008
Y151.7466 Z-7.0015
Y151.9402 Z-7.0023
Y152.1338 Z-7.0033
Y152.3274 Z-7.0045
Y152.521 Z-7.0058
Y152.7145 Z-7.0073
Y152.9081 Z-7.009
Y153.1017 Z-7.0109
Y153.2952 Z-7.0129
Y153.4888 Z-7.0151
Y153.6824 Z-7.0174
Y153.876 Z-7.0199
Y154.0695 Z-7.0225
Y154.2631 Z-7.0253
Y154.4567 Z-7.0283
Y154.6503 Z-7.0314
Y154.8438 Z-7.0347
Y155.0374 Z-7.0381
Y155.231 Z-7.0416
Y155.4246 Z-7.0453
Y155.6181 Z-7.0491
Y155.8117 Z-7.0531
Y156.0053 Z-7.0572
Y156.1989 Z-7.0614
Y156.3924 Z-7.0658
Y156.586 Z-7.0702
Y156.7796 Z-7.0749
Y156.9732 Z-7.0796
Y157.1667 Z-7.0845
Y157.3603 Z-7.0894
Y157.4571 Z-7.092
Y157.5539 Z-7.0945
Y157.6507 Z-7.0971
Y157.7475 Z-7.0997
Y157.8443 Z-7.1024
Y157.941 Z-7.1051
Y158.0378 Z-7.1078
Y158.1346 Z-7.1105
Y158.2314 Z-7.1133
Y158.3282 Z-7.1161
Y158.425 Z-7.1189
Y158.5218 Z-7.1217
Y158.6185 Z-7.1246
Y158.7153 Z-7.1275
Y158.8121 Z-7.1304
Y158.9089 Z-7.1334
Y159.0057 Z-7.1363
Y159.1025 Z-7.1393
Y159.1993 Z-7.1423
Y159.2961 Z-7.1454
Y159.3929 Z-7.1485
Y159.4896 Z-7.1516
Y159.5864 Z-7.1547
Y159.6832 Z-7.1578
Y159.78 Z-7.161
Y159.8768 Z-7.1642
Y159.9736 Z-7.1674
Y160.0704 Z-7.1706
Y160.1671 Z-7.1739
Y160.2639 Z-7.1772
Y160.3607 Z-7.1805
Y160.4575 Z-7.1838
Y160.5543 Z-7.1871
Y160.7479 Z-7.1939
Y160.8447 Z-7.1972
Y160.9415 Z-7.2006
Y161.0382 Z-7.204
Y161.135 Z-7.2074
Y161.2318 Z-7.2108
Y161.3286 Z-7.2141
Y161.4254 Z-7.2175
Y161.5222 Z-7.2209
Y161.619 Z-7.2243
Y161.7157 Z-7.2277
Y161.8125 Z-7.231
Y161.9093 Z-7.2344
Y162.1029 Z-7.2412
Y162.3932 Z-7.2513
Y162.6836 Z-7.2614
Y162.974 Z-7.2716
Y163.2643 Z-7.2817
Y163.5547 Z-7.2919
Y163.8451 Z-7.302
Y164.1354 Z-7.3121
Y164.4258 Z-7.3223
Y164.7162 Z-7.3324
Y165.0065 Z-7.3426
Y165.4904 Z-7.3595
Y165.9744 Z-7.3764
Y166.4583 Z-7.3933
Y167.1358 Z-7.4169
Y168.0069 Z-7.4473
Y169.4587 Z-7.498
Y176.4274 Z-7.7413
Y176.7178 Z-7.7515
Y177.0081 Z-7.7616
Y177.1049 Z-7.765
Y177.2017 Z-7.7684
Y177.2985 Z-7.7717
Y177.3953 Z-7.7751
Y177.4921 Z-7.7785
Y177.5889 Z-7.7819
Y177.6857 Z-7.7853
Y177.7824 Z-7.7886
Y177.8792 Z-7.792
Y177.976 Z-7.7954
Y178.0728 Z-7.7988
Y178.1696 Z-7.8022
Y178.2664 Z-7.8055
Y178.3632 Z-7.8089
Y178.4599 Z-7.8123
Y178.5567 Z-7.8156
Y178.6535 Z-7.819
Y178.7503 Z-7.8223
Y178.8471 Z-7.8255
Y178.9439 Z-7.8288
Y179.0407 Z-7.832
Y179.1375 Z-7.8353
Y179.2343 Z-7.8385
Y179.331 Z-7.8416
Y179.4278 Z-7.8448
Y179.5246 Z-7.8479
Y179.6214 Z-7.851
Y179.7182 Z-7.8541
Y179.815 Z-7.8571
Y179.9118 Z-7.8601
Y180.0085 Z-7.8631
Y180.1053 Z-7.8661
Y180.2021 Z-7.8691
Y180.2989 Z-7.872
Y180.3957 Z-7.8749
Y180.4925 Z-7.8778
Y180.5893 Z-7.8806
Y180.6861 Z-7.8834
Y180.7829 Z-7.8862
Y180.8796 Z-7.889
Y180.9764 Z-7.8917
Y181.0732 Z-7.8945
Y181.17 Z-7.8971
Y181.2668 Z-7.8998
Y181.3636 Z-7.9024
Y181.4604 Z-7.905
Y181.5571 Z-7.9076
Y181.6539 Z-7.9101
Y181.7507 Z-7.9126
Y181.9443 Z-7.9176
Y182.1379 Z-7.9224
Y182.3315 Z-7.9271
Y182.525 Z-7.9316
Y182.7186 Z-7.9361
Y182.9122 Z-7.9404
Y183.1057 Z-7.9445
Y183.2993 Z-7.9486
Y183.4929 Z-7.9525
Y183.6865 Z-7.9562
Y183.8801 Z-7.9599
Y184.0736 Z-7.9634
Y184.2672 Z-7.9667
Y184.4608 Z-7.9699
Y184.6543 Z-7.9729
Y184.8479 Z-7.9758
Y185.0415 Z-7.9786
Y185.2351 Z-7.9812
Y185.4286 Z-7.9836
Y185.6222 Z-7.9859
Y185.8158 Z-7.988
Y186.0094 Z-7.9899
Y186.2029 Z-7.9917
Y186.3965 Z-7.9933
Y186.5901 Z-7.9948
Y186.7837 Z-7.996
Y186.9772 Z-7.9971
Y187.1708 Z-7.9981
Y187.3644 Z-7.9988
Y187.558 Z-7.9994
Y187.7515 Z-7.9998
Y187.9451 Z-8
Y188.0589
Y266.7327
X25.251 Y266.8428
X25.2551 Y266.8978
X25.2624 Y266.9529
X25.2731 Y267.008
X25.2872 Y267.063
X25.3049 Y267.1181
X25.3264 Y267.1731
X25.3516 Y267.2274
X25.3821 Y267.2833
X25.4173 Y267.3383
X25.4581 Y267.3934
X25.4618 Y267.3979
X25.5078 Y267.4507
X25.5616 Y267.5035
X25.5719 Y267.5127
X25.6269 Y267.5577
X25.682 Y267.5963
X25.7096 Y267.6136
X25.7509 Y267.6371
X25.7921 Y267.658
X25.8472 Y267.682
X25.9022 Y267.7021
X25.9782 Y267.7237
X26.0124 Y267.7313
X26.0674 Y267.7407
X26.1225 Y267.7468
X26.2326 Y267.75
X32.0486
X32.05 Y267.7513
Y288.9768
X32.0505 Y289.0319
X32.054 Y289.0869
X32.0601 Y289.1383
X32.0691 Y289.1897
X32.0707 Y289.197
X32.0841 Y289.2521
X32.101 Y289.3072
X32.1218 Y289.3622
X32.1465 Y289.4173
X32.1793 Y289.4784
X32.2098 Y289.5274
X32.2468 Y289.5789
X32.2894 Y289.6305
X32.2957 Y289.6375
X32.3476 Y289.6906
X32.3995 Y289.7361
X32.4139 Y289.7476
X32.4617 Y289.7828
X32.5096 Y289.8137
X32.5506 Y289.837
X32.5916 Y289.8578
X32.6198 Y289.8706
X32.6748 Y289.8926
X32.7299 Y289.9108
X32.7849 Y289.9254
X32.84 Y289.9364
X32.8951 Y289.9442
X32.9501 Y289.9487
X33.0602 Y289.95
X318.9398
X319.0499 Y289.9487
X319.105 Y289.9442
X319.16 Y289.9364
X319.2151 Y289.9254
X319.2701 Y289.9108
X319.3252 Y289.8926
X319.3803 Y289.8706
X319.4084 Y289.8578
X319.4494 Y289.837
X319.4904 Y289.8137
X319.5383 Y289.7828
X319.5862 Y289.7476
X319.6005 Y289.7361
X319.6524 Y289.6906
X319.7044 Y289.6375
X319.7106 Y289.6305
X319.7532 Y289.5789
X319.7902 Y289.5274
X319.8208 Y289.4784
X319.8535 Y289.4173
X319.8783 Y289.3622
X319.899 Y289.3072
X319.916 Y289.2521
X319.9294 Y289.197
X319.9309 Y289.1897
X319.9399 Y289.1383
X319.946 Y289.0869
X319.9495 Y289.0319
X319.95 Y288.9768
Y267.7513
X319.9514 Y267.75
X325.7674
X325.8775 Y267.7468
X325.9326 Y267.7407
X325.9877 Y267.7313
X326.0219 Y267.7237
X326.0978 Y267.7021
X326.1528 Y267.6821
X326.2079 Y267.658
X326.2492 Y267.6371
X326.2905 Y267.6136
X326.318 Y267.5963
X326.3731 Y267.5577
X326.4282 Y267.5127
X326.4384 Y267.5035
X326.4922 Y267.4507
X326.5383 Y267.3979
X326.5419 Y267.3934
X326.5828 Y267.3383
X326.6179 Y267.2833
X326.6484 Y267.2275
X326.6737 Y267.1731
X326.6952 Y267.1181
X326.7129 Y267.063
X326.727 Y267.008
X326.7376 Y266.9529
X326.745 Y266.8978
X326.7491 Y266.8428
X326.75 Y266.7327
Y26.2317
X326.7468 Y26.1215
X326.7406 Y26.0665
X326.7311 Y26.0114
X326.7182 Y25.9564
X326.7018 Y25.9013
X326.6817 Y25.8462
X326.6576 Y25.7912
X326.6484 Y25.7725
X326.6238 Y25.7268
X326.5958 Y25.6811
X326.5686 Y25.6416
X326.5383 Y25.6021
X326.5119 Y25.5709
X326.47 Y25.5265
X326.4282 Y25.4873
X326.3968 Y25.4608
X326.3574 Y25.4307
X326.318 Y25.4037
X326.2719 Y25.3755
X326.2257 Y25.3507
X326.2079 Y25.342
X326.1528 Y25.318
X326.0978 Y25.2979
X326.0427 Y25.2815
X325.9877 Y25.2687
X325.9326 Y25.2593
X325.8775 Y25.2532
X325.7674 Y25.25
X26.2326
X26.1225 Y25.2532
X26.0674 Y25.2593
X26.0124 Y25.2687
X25.9573 Y25.2815
X25.9022 Y25.2979
X25.8472 Y25.318
X25.7921 Y25.342
X25.7744 Y25.3507
X25.7282 Y25.3755
X25.682 Y25.4037
X25.6426 Y25.4307
X25.6033 Y25.4608
X25.5719 Y25.4873
X25.53 Y25.5265
X25.4881 Y25.5709
X25.4618 Y25.6021
X25.4315 Y25.6416
X25.4043 Y25.6811
X25.3763 Y25.7268
X25.3516 Y25.7726
X25.3425 Y25.7912
X25.3184 Y25.8462
X25.2982 Y25.9013
X25.2818 Y25.9564
X25.2689 Y26.0114
X25.2595 Y26.0665
X25.2533 Y26.1215
X25.25 Y26.2317
Y55.9639
X25.2529 Y56.074
X25.2588 Y56.1291
X25.268 Y56.1842
X25.2806 Y56.2392
X25.2968 Y56.2943
X25.3166 Y56.3493
X25.3404 Y56.4044
X25.3516 Y56.4275
X25.375 Y56.471
X25.4014 Y56.5145
X25.4299 Y56.5562
X25.4618 Y56.5979
X25.4843 Y56.6246
X25.5252 Y56.6687
X25.5719 Y56.7127
X25.5978 Y56.7348
X25.6399 Y56.7673
X25.682 Y56.7963
X25.7238 Y56.822
X25.7657 Y56.8449
X25.7921 Y56.858
X25.8472 Y56.882
X25.9022 Y56.9021
X25.9573 Y56.9185
X26.0124 Y56.9313
X26.0674 Y56.9407
X26.1225 Y56.9468
X26.2326 Y56.95
X71.9337
X72.0438 Y56.9505
X72.1539 Y56.9532
X72.1978 Y56.955
X72.2641 Y56.9587
X72.3742 Y56.9676
X72.4843 Y56.9792
X72.5944 Y56.9939
X72.7046 Y57.012
X72.8147 Y57.0329
X72.9248 Y57.0572
X72.9583 Y57.0651
X73.0349 Y57.0847
X73.1451 Y57.1154
X73.2552 Y57.1497
X73.3309 Y57.1752
X73.3653 Y57.1871
X73.4754 Y57.2286
X73.5855 Y57.2735
X73.6128 Y57.2854
X73.6957 Y57.3225
X73.8058 Y57.3748
X73.8462 Y57.3955
X73.9159 Y57.4322
X74.026 Y57.4933
X74.0469 Y57.5056
X74.1362 Y57.5593
X74.2241 Y57.6157
X74.2463 Y57.6305
X74.3564 Y57.7061
X74.3836 Y57.7258
X74.4665 Y57.7881
X74.5275 Y57.836
X74.5767 Y57.8758
X74.6595 Y57.9461
X74.6868 Y57.9699
X74.7811 Y58.0562
X74.7969 Y58.0712
X74.8935 Y58.1663
X74.907 Y58.18
X74.9968 Y58.2764
X75.0171 Y58.2988
X75.0937 Y58.3866
X75.1273 Y58.4267
X75.1839 Y58.4967
X75.2374 Y58.5665
X75.2671 Y58.6068
X75.3449 Y58.7169
X75.3475 Y58.7207
X75.4178 Y58.827
X75.4576 Y58.8919
X75.4851 Y58.9372
X75.548 Y59.0473
X75.5678 Y59.0833
X75.6067 Y59.1574
X75.6605 Y59.2675
X75.6779 Y59.3049
X75.7108 Y59.3776
X75.757 Y59.4878
X75.788 Y59.5688
X75.7989 Y59.5979
X75.8385 Y59.708
X75.8733 Y59.8181
X75.8981 Y59.9019
X75.9056 Y59.9282
X75.9337 Y60.0383
X75.9595 Y60.1485
X75.9809 Y60.2586
X76.0001 Y60.3687
X76.0082 Y60.4221
X76.0163 Y60.4788
X76.029 Y60.5889
X76.0388 Y60.6991
X76.0456 Y60.8092
X76.0492 Y60.9193
X76.05 Y61.0294
X76.0476 Y61.1395
X76.0423 Y61.2497
X76.0341 Y61.3598
X76.0225 Y61.4699
X76.0082 Y61.5779
X76.0079 Y61.58
X75.9903 Y61.6901
X75.9697 Y61.8003
X75.9462 Y61.9104
X75.9189 Y62.0205
X75.8981 Y62.0981
X75.8886 Y62.1306
X75.8553 Y62.2407
X75.8177 Y62.3509
X75.788 Y62.4312
X75.7769 Y62.461
X75.7329 Y62.5711
X75.6843 Y62.6812
X75.6779 Y62.6951
X75.6323 Y62.7913
X75.5761 Y62.9015
X75.5678 Y62.9167
X75.515 Y63.0116
X75.4576 Y63.1081
X75.4493 Y63.1217
X75.3794 Y63.2318
X75.3475 Y63.2793
X75.304 Y63.3419
X75.2374 Y63.4335
X75.2235 Y63.4521
X75.1364 Y63.5622
X75.1273 Y63.5733
X75.0428 Y63.6723
X75.0171 Y63.7012
X74.9426 Y63.7824
X74.907 Y63.82
X74.8344 Y63.8925
X74.7969 Y63.9288
X74.7176 Y64.0026
X74.6868 Y64.0301
X74.5905 Y64.1128
X74.5767 Y64.1242
X74.4665 Y64.2119
X74.4521 Y64.2229
X74.3564 Y64.2939
X74.3006 Y64.333
X74.2463 Y64.3695
X74.1362 Y64.4407
X74.1322 Y64.4431
X74.026 Y64.5067
X73.9429 Y64.5532
X73.9159 Y64.5678
X73.8058 Y64.6252
X73.7265 Y64.6634
X73.6957 Y64.6776
X73.5855 Y64.7265
X73.4754 Y64.7714
X73.4701 Y64.7735
X73.3653 Y64.813
X73.2552 Y64.8503
X73.1485 Y64.8836
X73.1451 Y64.8847
X73.0349 Y64.9153
X72.9248 Y64.9429
X72.8147 Y64.9671
X72.7046 Y64.988
X72.6721 Y64.9937
X72.5944 Y65.0061
X72.4843 Y65.0208
X72.3742 Y65.0324
X72.2641 Y65.0413
X72.1539 Y65.0469
X72.0438 Y65.0495
X71.9337 Y65.05
X26.2326
X26.1225 Y65.0532
X26.0674 Y65.0593
X26.0124 Y65.0687
X25.9573 Y65.0815
X25.9022 Y65.0979
X25.8847 Y65.1038
X25.8384 Y65.1215
X25.7921 Y65.142
X25.7371 Y65.1704
X25.682 Y65.2037
X25.6665 Y65.214
X25.6192 Y65.2483
X25.5719 Y65.2873
X25.5325 Y65.3241
X25.4951 Y65.3631
X25.4618 Y65.4021
X25.4369 Y65.4342
X25.399 Y65.4893
X25.3664 Y65.5443
X25.3516 Y65.5725
X25.3322 Y65.6135
X25.3151 Y65.6544
X25.2955 Y65.7095
X25.2797 Y65.7646
X25.2673 Y65.8196
X25.2583 Y65.8747
X25.2526 Y65.9297
X25.2501 Y65.9848
X25.25 Y66.0949
Y150.9724
Y188.0589
Y188.2525 Z-8.0001
Y188.4461 Z-8.0004
Y188.6396 Z-8.0008
Y188.8332 Z-8.0015
Y189.0268 Z-8.0023
Y189.2204 Z-8.0033
Y189.4139 Z-8.0045
Y189.6075 Z-8.0058
Y189.8011 Z-8.0073
Y189.9947 Z-8.009
Y190.1882 Z-8.0109
Y190.3818 Z-8.0129
Y190.5754 Z-8.0151
Y190.769 Z-8.0174
Y190.9625 Z-8.0199
Y191.1561 Z-8.0225
Y191.3497 Z-8.0253
Y191.5433 Z-8.0283
Y191.7368 Z-8.0314
Y191.9304 Z-8.0347
Y192.124 Z-8.0381
Y192.3176 Z-8.0416
Y192.5111 Z-8.0453
Y192.7047 Z-8.0491
Y192.8983 Z-8.0531
Y193.0919 Z-8.0572
Y193.2854 Z-8.0614
Y193.479 Z-8.0658
Y193.6726 Z-8.0702
Y193.8661 Z-8.0749
Y194.0597 Z-8.0796
Y194.2533 Z-8.0845
Y194.4469 Z-8.0894
Y194.5437 Z-8.092
Y194.6405 Z-8.0945
Y194.7372 Z-8.0971
Y194.834 Z-8.0997
Y194.9308 Z-8.1024
Y195.0276 Z-8.1051
Y195.1244 Z-8.1078
Y195.2212 Z-8.1105
Y195.318 Z-8.1133
Y195.4147 Z-8.1161
Y195.5115 Z-8.1189
Y195.6083 Z-8.1217
Y195.7051 Z-8.1246
Y195.8019 Z-8.1275
Y195.8987 Z-8.1304
Y195.9955 Z-8.1334
Y196.0923 Z-8.1363
Y196.1891 Z-8.1393
Y196.2858 Z-8.1424
Y196.3826 Z-8.1454
Y196.4794 Z-8.1485
Y196.5762 Z-8.1516
Y196.673 Z-8.1547
Y196.7698 Z-8.1578
Y196.8666 Z-8.161
Y196.9633 Z-8.1642
Y197.0601 Z-8.1674
Y197.1569 Z-8.1706
Y197.2537 Z-8.1739
Y197.3505 Z-8.1772
Y197.4473 Z-8.1805
Y197.5441 Z-8.1838
Y197.6409 Z-8.1871
Y197.8344 Z-8.1939
Y197.9312 Z-8.1972
Y198.028 Z-8.2006
Y198.1248 Z-8.204
Y198.2216 Z-8.2074
Y198.3184 Z-8.2108
Y198.4152 Z-8.2141
Y198.5119 Z-8.2175
Y198.6087 Z-8.2209
Y198.7055 Z-8.2243
Y198.8023 Z-8.2277
Y198.8991 Z-8.231
Y198.9959 Z-8.2344
Y199.1895 Z-8.2412
Y199.4798 Z-8.2513
Y199.7702 Z-8.2614
Y200.0605 Z-8.2716
Y200.3509 Z-8.2817
Y200.6413 Z-8.2919
Y200.9316 Z-8.302
Y201.222 Z-8.3121
Y201.5124 Z-8.3223
Y201.8027 Z-8.3324
Y202.0931 Z-8.3426
Y202.577 Z-8.3595
Y203.0609 Z-8.3764
Y203.5449 Z-8.3933
Y204.2224 Z-8.4169
Y205.0935 Z-8.4473
Y206.5453 Z-8.498
Y213.514 Z-8.7413
Y213.8044 Z-8.7515
Y214.0947 Z-8.7616
Y214.1915 Z-8.765
Y214.2883 Z-8.7684
Y214.3851 Z-8.7717
Y214.4819 Z-8.7751
Y214.5786 Z-8.7785
Y214.6754 Z-8.7819
Y214.7722 Z-8.7853
Y214.869 Z-8.7886
Y214.9658 Z-8.792
Y215.0626 Z-8.7954
Y215.1594 Z-8.7988
Y215.2561 Z-8.8022
Y215.3529 Z-8.8055
Y215.4497 Z-8.8089
Y215.5465 Z-8.8123
Y215.6433 Z-8.8156
Y215.7401 Z-8.819
Y215.8369 Z-8.8223
Y215.9337 Z-8.8255
Y216.0305 Z-8.8288
Y216.1272 Z-8.832
Y216.224 Z-8.8353
Y216.3208 Z-8.8385
Y216.4176 Z-8.8416
Y216.5144 Z-8.8448
Y216.6112 Z-8.8479
Y216.708 Z-8.851
Y216.8047 Z-8.8541
Y216.9015 Z-8.8571
Y216.9983 Z-8.8601
Y217.0951 Z-8.8631
Y217.1919 Z-8.8661
Y217.2887 Z-8.8691
Y217.3855 Z-8.872
Y217.4823 Z-8.8749
Y217.5791 Z-8.8778
Y217.6758 Z-8.8806
Y217.7726 Z-8.8834
Y217.8694 Z-8.8862
Y217.9662 Z-8.889
Y218.063 Z-8.8917
Y218.1598 Z-8.8945
Y218.2566 Z-8.8971
Y218.3533 Z-8.8998
Y218.4501 Z-8.9024
Y218.5469 Z-8.905
Y218.6437 Z-8.9076
Y218.7405 Z-8.9101
Y218.8373 Z-8.9126
Y219.0309 Z-8.9176
Y219.2244 Z-8.9224
Y219.418 Z-8.9271
Y219.6116 Z-8.9316
Y219.8052 Z-8.9361
Y219.9987 Z-8.9404
Y220.1923 Z-8.9445
Y220.3859 Z-8.9486
Y220.5795 Z-8.9525
Y220.773 Z-8.9562
Y220.9666 Z-8.9599
Y221.1602 Z-8.9634
Y221.3538 Z-8.9667
Y221.5473 Z-8.9699
Y221.7409 Z-8.9729
Y221.9345 Z-8.9758
Y222.1281 Z-8.9786
Y222.3216 Z-8.9812
Y222.5152 Z-8.9836
Y222.7088 Z-8.9859
Y222.9024 Z-8.988
Y223.0959 Z-8.9899
Y223.2895 Z-8.9917
Y223.4831 Z-8.9933
Y223.6767 Z-8.9948
Y223.8702 Z-8.996
Y224.0638 Z-8.9971
Y224.2574 Z-8.9981
Y224.451 Z-8.9988
Y224.6445 Z-8.9994
Y224.8381 Z-8.9998
Y225.0317 Z-9
Y225.1455
Y266.7327
X25.251 Y266.8428
X25.2551 Y266.8978
X25.2624 Y266.9529
X25.2731 Y267.008
X25.2872 Y267.063
X25.3049 Y267.1181
X25.3264 Y267.1731
X25.3516 Y267.2274
X25.3821 Y267.2833
X25.4173 Y267.3383
X25.4581 Y267.3934
X25.4618 Y267.3979
X25.5078 Y267.4507
X25.5616 Y267.5035
X25.5719 Y267.5127
X25.6269 Y267.5577
X25.682 Y267.5963
X25.7096 Y267.6136
X25.7509 Y267.6371
X25.7921 Y267.658
X25.8472 Y267.682
X25.9022 Y267.7021
X25.9782 Y267.7237
X26.0124 Y267.7313
X26.0674 Y267.7407
X26.1225 Y267.7468
X26.2326 Y267.75
X32.0486
X32.05 Y267.7513
Y288.9768
X32.0505 Y289.0319
X32.054 Y289.0869
X32.0601 Y289.1383
X32.0691 Y289.1897
X32.0707 Y289.197
X32.0841 Y289.2521
X32.101 Y289.3072
X32.1218 Y289.3622
X32.1465 Y289.4173
X32.1793 Y289.4784
X32.2098 Y289.5274
X32.2468 Y289.5789
X32.2894 Y289.6305
X32.2957 Y289.6375
X32.3476 Y289.6906
X32.3995 Y289.7361
X32.4139 Y289.7476
X32.4617 Y289.7828
X32.5096 Y289.8137
X32.5506 Y289.837
X32.5916 Y289.8578
X32.6198 Y289.8706
X32.6748 Y289.8926
X32.7299 Y289.9108
X32.7849 Y289.9254
X32.84 Y289.9364
X32.8951 Y289.9442
X32.9501 Y289.9487
X33.0602 Y289.95
X318.9398
X319.0499 Y289.9487
X319.105 Y289.9442
X319.16 Y289.9364
X319.2151 Y289.9254
X319.2701 Y289.9108
X319.3252 Y289.8926
X319.3803 Y289.8706
X319.4084 Y289.8578
X319.4494 Y289.837
X319.4904 Y289.8137
X319.5383 Y289.7828
X319.5862 Y289.7476
X319.6005 Y289.7361
X319.6524 Y289.6906
X319.7044 Y289.6375
X319.7106 Y289.6305
X319.7532 Y289.5789
X319.7902 Y289.5274
X319.8208 Y289.4784
X319.8535 Y289.4173
X319.8783 Y289.3622
X319.899 Y289.3072
X319.916 Y289.2521
X319.9294 Y289.197
X319.9309 Y289.1897
X319.9399 Y289.1383
X319.946 Y289.0869
X319.9495 Y289.0319
X319.95 Y288.9768
Y267.7513
X319.9514 Y267.75
X325.7674
X325.8775 Y267.7468
X325.9326 Y267.7407
X325.9877 Y267.7313
X326.0219 Y267.7237
X326.0978 Y267.7021
X326.1528 Y267.6821
X326.2079 Y267.658
X326.2492 Y267.6371
X326.2905 Y267.6136
X326.318 Y267.5963
X326.3731 Y267.5577
X326.4282 Y267.5127
X326.4384 Y267.5035
X326.4922 Y267.4507
X326.5383 Y267.3979
X326.5419 Y267.3934
X326.5828 Y267.3383
X326.6179 Y267.2833
X326.6484 Y267.2275
X326.6737 Y267.1731
X326.6952 Y267.1181
X326.7129 Y267.063
X326.727 Y267.008
X326.7376 Y266.9529
X326.745 Y266.8978
X326.7491 Y266.8428
X326.75 Y266.7327
Y26.2317
X326.7468 Y26.1215
X326.7406 Y26.0665
X326.7311 Y26.0114
X326.7182 Y25.9564
X326.7018 Y25.9013
X326.6817 Y25.8462
X326.6576 Y25.7912
X326.6484 Y25.7725
X326.6238 Y25.7268
X326.5958 Y25.6811
X326.5686 Y25.6416
X326.5383 Y25.6021
X326.5119 Y25.5709
X326.47 Y25.5265
X326.4282 Y25.4873
X326.3968 Y25.4608
X326.3574 Y25.4307
X326.318 Y25.4037
X326.2719 Y25.3755
X326.2257 Y25.3507
X326.2079 Y25.342
X326.1528 Y25.318
X326.0978 Y25.2979
X326.0427 Y25.2815
X325.9877 Y25.2687
X325.9326 Y25.2593
X325.8775 Y25.2532
X325.7674 Y25.25
X26.2326
X26.1225 Y25.2532
X26.0674 Y25.2593
X26.0124 Y25.2687
X25.9573 Y25.2815
X25.9022 Y25.2979
X25.8472 Y25.318
X25.7921 Y25.342
X25.7744 Y25.3507
X25.7282 Y25.3755
X25.682 Y25.4037
X25.6426 Y25.4307
X25.6033 Y25.4608
X25.5719 Y25.4873
X25.53 Y25.5265
X25.4881 Y25.5709
X25.4618 Y25.6021
X25.4315 Y25.6416
X25.4043 Y25.6811
X25.3763 Y25.7268
X25.3516 Y25.7726
X25.3425 Y25.7912
X25.3184 Y25.8462
X25.2982 Y25.9013
X25.2818 Y25.9564
X25.2689 Y26.0114
X25.2595 Y26.0665
X25.2533 Y26.1215
X25.25 Y26.2317
Y55.9639
X25.2529 Y56.074
X25.2588 Y56.1291
X25.268 Y56.1842
X25.2806 Y56.2392
X25.2968 Y56.2943
X25.3166 Y56.3493
X25.3404 Y56.4044
X25.3516 Y56.4275
X25.375 Y56.471
X25.4014 Y56.5145
X25.4299 Y56.5562
X25.4618 Y56.5979
X25.4843 Y56.6246
X25.5252 Y56.6687
X25.5719 Y56.7127
X25.5978 Y56.7348
X25.6399 Y56.7673
X25.682 Y56.7963
X25.7238 Y56.822
X25.7657 Y56.8449
X25.7921 Y56.858
X25.8472 Y56.882
X25.9022 Y56.9021
X25.9573 Y56.9185
X26.0124 Y56.9313
X26.0674 Y56.9407
X26.1225 Y56.9468
X26.2326 Y56.95
X71.9337
X72.0438 Y56.9505
X72.1539 Y56.9532
X72.1978 Y56.955
X72.2641 Y56.9587
X72.3742 Y56.9676
X72.4843 Y56.9792
X72.5944 Y56.9939
X72.7046 Y57.012
X72.8147 Y57.0329
X72.9248 Y57.0572
X72.9583 Y57.0651
X73.0349 Y57.0847
X73.1451 Y57.1154
X73.2552 Y57.1497
X73.3309 Y57.1752
X73.3653 Y57.1871
X73.4754 Y57.2286
X73.5855 Y57.2735
X73.6128 Y57.2854
X73.6957 Y57.3225
X73.8058 Y57.3748
X73.8462 Y57.3955
X73.9159 Y57.4322
X74.026 Y57.4933
X74.0469 Y57.5056
X74.1362 Y57.5593
X74.2241 Y57.6157
X74.2463 Y57.6305
X74.3564 Y57.7061
X74.3836 Y57.7258
X74.4665 Y57.7881
X74.5275 Y57.836
X74.5767 Y57.8758
X74.6595 Y57.9461
X74.6868 Y57.9699
X74.7811 Y58.0562
X74.7969 Y58.0712
X74.8935 Y58.1663
X74.907 Y58.18
X74.9968 Y58.2764
X75.0171 Y58.2988
X75.0937 Y58.3866
X75.1273 Y58.4267
X75.1839 Y58.4967
X75.2374 Y58.5665
X75.2671 Y58.6068
X75.3449 Y58.7169
X75.3475 Y58.7207
X75.4178 Y58.827
X75.4576 Y58.8919
X75.4851 Y58.9372
X75.548 Y59.0473
X75.5678 Y59.0833
X75.6067 Y59.1574
X75.6605 Y59.2675
X75.6779 Y59.3049
X75.7108 Y59.3776
X75.757 Y59.4878
X75.788 Y59.5688
X75.7989 Y59.5979
X75.8385 Y59.708
X75.8733 Y59.8181
X75.8981 Y59.9019
X75.9056 Y59.9282
X75.9337 Y60.0383
X75.9595 Y60.1485
X75.9809 Y60.2586
X76.0001 Y60.3687
X76.0082 Y60.4221
X76.0163 Y60.4788
X76.029 Y60.5889
X76.0388 Y60.6991
X76.0456 Y60.8092
X76.0492 Y60.9193
X76.05 Y61.0294
X76.0476 Y61.1395
X76.0423 Y61.2497
X76.0341 Y61.3598
X76.0225 Y61.4699
X76.0082 Y61.5779
X76.0079 Y61.58
X75.9903 Y61.6901
X75.9697 Y61.8003
X75.9462 Y61.9104
X75.9189 Y62.0205
X75.8981 Y62.0981
X75.8886 Y62.1306
X75.8553 Y62.2407
X75.8177 Y62.3509
X75.788 Y62.4312
X75.7769 Y62.461
X75.7329 Y62.5711
X75.6843 Y62.6812
X75.6779 Y62.6951
X75.6323 Y62.7913
X75.5761 Y62.9015
X75.5678 Y62.9167
X75.515 Y63.0116
X75.4576 Y63.1081
X75.4493 Y63.1217
X75.3794 Y63.2318
X75.3475 Y63.2793
X75.304 Y63.3419
X75.2374 Y63.4335
X75.2235 Y63.4521
X75.1364 Y63.5622
X75.1273 Y63.5733
X75.0428 Y63.6723
X75.0171 Y63.7012
X74.9426 Y63.7824
X74.907 Y63.82
X74.8344 Y63.8925
X74.7969 Y63.9288
X74.7176 Y64.0026
X74.6868 Y64.0301
X74.5905 Y64.1128
X74.5767 Y64.1242
X74.4665 Y64.2119
X74.4521 Y64.2229
X74.3564 Y64.2939
X74.3006 Y64.333
X74.2463 Y64.3695
X74.1362 Y64.4407
X74.1322 Y64.4431
X74.026 Y64.5067
X73.9429 Y64.5532
X73.9159 Y64.5678
X73.8058 Y64.6252
X73.7265 Y64.6634
X73.6957 Y64.6776
X73.5855 Y64.7265
X73.4754 Y64.7714
X73.4701 Y64.7735
X73.3653 Y64.813
X73.2552 Y64.8503
X73.1485 Y64.8836
X73.1451 Y64.8847
X73.0349 Y64.9153
X72.9248 Y64.9429
X72.8147 Y64.9671
X72.7046 Y64.988
X72.6721 Y64.9937
X72.5944 Y65.0061
X72.4843 Y65.0208
X72.3742 Y65.0324
X72.2641 Y65.0413
X72.1539 Y65.0469
X72.0438 Y65.0495
X71.9337 Y65.05
X26.2326
X26.1225 Y65.0532
X26.0674 Y65.0593
X26.0124 Y65.0687
X25.9573 Y65.0815
X25.9022 Y65.0979
X25.8847 Y65.1038
X25.8384 Y65.1215
X25.7921 Y65.142
X25.7371 Y65.1704
X25.682 Y65.2037
X25.6665 Y65.214
X25.6192 Y65.2483
X25.5719 Y65.2873
X25.5325 Y65.3241
X25.4951 Y65.3631
X25.4618 Y65.4021
X25.4369 Y65.4342
X25.399 Y65.4893
X25.3664 Y65.5443
X25.3516 Y65.5725
X25.3322 Y65.6135
X25.3151 Y65.6544
X25.2955 Y65.7095
X25.2797 Y65.7646
X25.2673 Y65.8196
X25.2583 Y65.8747
X25.2526 Y65.9297
X25.2501 Y65.9848
X25.25 Y66.0949
Y188.0589
Y225.1455
Y225.3391 Z-9.0001
Y225.5326 Z-9.0004
Y225.7262 Z-9.0008
Y225.9198 Z-9.0015
Y226.1134 Z-9.0023
Y226.3069 Z-9.0033
Y226.5005 Z-9.0045
Y226.6941 Z-9.0058
Y226.8876 Z-9.0073
Y227.0812 Z-9.009
Y227.2748 Z-9.0109
Y227.4684 Z-9.0129
Y227.6619 Z-9.0151
Y227.8555 Z-9.0174
Y228.0491 Z-9.0199
Y228.2427 Z-9.0225
Y228.4362 Z-9.0253
Y228.6298 Z-9.0283
Y228.8234 Z-9.0314
Y229.017 Z-9.0347
Y229.2105 Z-9.0381
Y229.4041 Z-9.0416
Y229.5977 Z-9.0453
Y229.7913 Z-9.0491
Y229.9848 Z-9.0531
Y230.1784 Z-9.0572
Y230.372 Z-9.0614
Y230.5656 Z-9.0658
Y230.7591 Z-9.0702
Y230.9527 Z-9.0749
Y231.1463 Z-9.0796
Y231.3399 Z-9.0845
Y231.5334 Z-9.0894
Y231.6302 Z-9.092
Y231.727 Z-9.0945
Y231.8238 Z-9.0971
Y231.9206 Z-9.0997
Y232.0174 Z-9.1024
Y232.1142 Z-9.1051
Y232.211 Z-9.1078
Y232.3077 Z-9.1105
Y232.4045 Z-9.1133
Y232.5013 Z-9.1161
Y232.5981 Z-9.1189
Y232.6949 Z-9.1217
Y232.7917 Z-9.1246
Y232.8885 Z-9.1275
Y232.9852 Z-9.1304
Y233.082 Z-9.1334
Y233.1788 Z-9.1363
Y233.2756 Z-9.1393
Y233.3724 Z-9.1424
Y233.4692 Z-9.1454
Y233.566 Z-9.1485
Y233.6628 Z-9.1516
Y233.7596 Z-9.1547
Y233.8563 Z-9.1578
Y233.9531 Z-9.161
Y234.0499 Z-9.1642
Y234.1467 Z-9.1674
Y234.2435 Z-9.1706
Y234.3403 Z-9.1739
Y234.4371 Z-9.1772
Y234.5338 Z-9.1805
Y234.6306 Z-9.1838
Y234.7274 Z-9.1871
Y234.921 Z-9.1939
Y235.0178 Z-9.1972
Y235.1146 Z-9.2006
Y235.2114 Z-9.204
Y235.3082 Z-9.2074
Y235.4049 Z-9.2108
Y235.5017 Z-9.2141
Y235.5985 Z-9.2175
Y235.6953 Z-9.2209
Y235.7921 Z-9.2243
Y235.8889 Z-9.2277
Y235.9857 Z-9.231
Y236.0824 Z-9.2344
Y236.276 Z-9.2412
Y236.5664 Z-9.2513
Y236.8568 Z-9.2614
