%
(Made in : Autodesk CAM Post Processor)
(G Code optimized for OpenBuilds OX CNC 1000 x 750 with GRBL V0.9j controller)

(Program Name : 1001)
(1 Operation :)
(1 : Pocket1)
(  Tool : Flat End Mill 3 Flutes, Diam = 3.175mm, Len = 20mm)
(  Spindle : RPM = 30000, set router dial to 6)
(  Machining time : 7 min 22 sec)

G90 G94
G17
G21

(Operation 1 of 1 : Pocket1)

G53 G0 Z5
G54
S30000 M3
G4 P1.0
X256.3712 Y50.1761
Z6
Z3
G1 Z-2 F1200
X256.3668 Y50.1417 F3500
X256.3677 Y50.124
X256.3743 Y50.0927
X256.3877 Y50.0578
X256.4027 Y50.032
X256.4253 Y50.0042
X256.4455 Y49.9861
X256.471 Y49.9695
X256.5159 Y49.9502
X256.543 Y49.9436
X256.5736 Y49.941
X256.605 Y49.9433
X256.6493 Y49.9535
X256.6844 Y49.9723
X256.7288 Y50.0065
X256.7339 Y50.0117
X256.7697 Y50.0719
X256.7806 Y50.1133
X256.7839 Y50.1449
X256.7824 Y50.1755
X256.7736 Y50.2179
X256.7459 Y50.2715
X256.7409 Y50.2785
X256.7145 Y50.3061
X256.7021 Y50.316
X256.6453 Y50.3474
X256.605 Y50.3567
X256.5736 Y50.359
X256.543 Y50.3565
X256.5004 Y50.346
X256.4595 Y50.323
X256.4185 Y50.289
X256.3848 Y50.2379
X256.3753 Y50.2082
X256.3712 Y50.1761
X256.3668 Y50.1417 Z-1.9981
X256.3677 Y50.124 Z-1.9956
X256.3743 Y50.0927 Z-1.9886
X256.3877 Y50.0578 Z-1.9757
X256.4027 Y50.032 Z-1.9614
X256.4253 Y50.0042 Z-1.9388
X256.4455 Y49.9861 Z-1.9165
X256.471 Y49.9695 Z-1.8845
X256.4963 Y49.9586 Z-1.8454
X256.5159 Y49.9502 Z-1.8027
X256.533 Y49.946 Z-1.7437
X256.5388 Y49.9446 Z-1.6825
G0 Z5
X256.3712 Y50.1761
Z1
G1 Z-4 F1200
X256.3668 Y50.1417 F3500
X256.3677 Y50.124
X256.3743 Y50.0927
X256.3877 Y50.0578
X256.4027 Y50.032
X256.4253 Y50.0042
X256.4455 Y49.9861
X256.471 Y49.9695
X256.5159 Y49.9502
X256.543 Y49.9436
X256.5736 Y49.941
X256.605 Y49.9433
X256.6493 Y49.9535
X256.6844 Y49.9723
X256.7288 Y50.0065
X256.7339 Y50.0117
X256.7697 Y50.0719
X256.7806 Y50.1133
X256.7839 Y50.1449
X256.7824 Y50.1755
X256.7736 Y50.2179
X256.7459 Y50.2715
X256.7409 Y50.2785
X256.7145 Y50.3061
X256.7021 Y50.316
X256.6453 Y50.3474
X256.605 Y50.3567
X256.5736 Y50.359
X256.543 Y50.3565
X256.5004 Y50.346
X256.4595 Y50.323
X256.4185 Y50.289
X256.3848 Y50.2379
X256.3753 Y50.2082
X256.3712 Y50.1761
X256.3668 Y50.1417 Z-3.9981
X256.3677 Y50.124 Z-3.9956
X256.3743 Y50.0927 Z-3.9886
X256.3877 Y50.0578 Z-3.9757
X256.4027 Y50.032 Z-3.9614
X256.4253 Y50.0042 Z-3.9388
X256.4455 Y49.9861 Z-3.9165
X256.471 Y49.9695 Z-3.8845
X256.4963 Y49.9586 Z-3.8454
X256.5159 Y49.9502 Z-3.8027
X256.533 Y49.946 Z-3.7437
X256.5388 Y49.9446 Z-3.6825
G0 Z5
X256.676 Y50.3304
Z3
G1 Z-1 F1200
Z-6
X256.6453 Y50.3474 F3500
X256.605 Y50.3567
X256.5736 Y50.359
X256.543 Y50.3565
X256.5004 Y50.346
X256.4595 Y50.323
X256.4185 Y50.289
X256.3848 Y50.2379
X256.3753 Y50.2082
X256.3668 Y50.1417
X256.3677 Y50.124
X256.3743 Y50.0927
X256.3877 Y50.0578
X256.4027 Y50.032
X256.4253 Y50.0042
X256.4455 Y49.9861
X256.471 Y49.9695
X256.5159 Y49.9502
X256.543 Y49.9436
X256.5736 Y49.941
X256.605 Y49.9433
X256.6493 Y49.9535
X256.6844 Y49.9723
X256.7288 Y50.0065
X256.7339 Y50.0117
X256.7697 Y50.0719
X256.7806 Y50.1133
X256.7839 Y50.1449
X256.7824 Y50.1755
X256.7736 Y50.2179
X256.7459 Y50.2715
X256.7409 Y50.2785
X256.7145 Y50.3061
X256.7021 Y50.316
X256.676 Y50.3304
X256.6453 Y50.3474 Z-5.9981
X256.605 Y50.3567 Z-5.9907
X256.5736 Y50.359 Z-5.9811
X256.543 Y50.3565 Z-5.9681
X256.5004 Y50.346 Z-5.9423
X256.4595 Y50.323 Z-5.902
X256.4369 Y50.3042 Z-5.8664
X256.4185 Y50.289 Z-5.8271
X256.408 Y50.273 Z-5.7809
X256.4015 Y50.2632 Z-5.7323
X256.3994 Y50.2599 Z-5.6825
G0 Z5
X256.3712 Y50.1761
G1 Z-3 F1200
Z-8
X256.3668 Y50.1417 F3500
X256.3677 Y50.124
X256.3743 Y50.0927
X256.3877 Y50.0578
X256.4027 Y50.032
X256.4253 Y50.0042
X256.4455 Y49.9861
X256.471 Y49.9695
X256.5159 Y49.9502
X256.543 Y49.9436
X256.5736 Y49.941
X256.605 Y49.9433
X256.6493 Y49.9535
X256.6844 Y49.9723
X256.7288 Y50.0065
X256.7339 Y50.0117
X256.7697 Y50.0719
X256.7806 Y50.1133
X256.7839 Y50.1449
X256.7824 Y50.1755
X256.7736 Y50.2179
X256.7459 Y50.2715
X256.7409 Y50.2785
X256.7145 Y50.3061
X256.7021 Y50.316
X256.6453 Y50.3474
X256.605 Y50.3567
X256.5736 Y50.359
X256.543 Y50.3565
X256.5004 Y50.346
X256.4595 Y50.323
X256.4185 Y50.289
X256.3848 Y50.2379
X256.3753 Y50.2082
X256.3712 Y50.1761
X256.3668 Y50.1417 Z-7.9981
X256.3677 Y50.124 Z-7.9956
X256.3743 Y50.0927 Z-7.9886
X256.3877 Y50.0578 Z-7.9757
X256.4027 Y50.032 Z-7.9614
X256.4253 Y50.0042 Z-7.9388
X256.4455 Y49.9861 Z-7.9165
X256.471 Y49.9695 Z-7.8845
X256.4963 Y49.9586 Z-7.8454
X256.5159 Y49.9502 Z-7.8027
X256.533 Y49.946 Z-7.7437
X256.5388 Y49.9446 Z-7.6825
G0 Z5
X256.3712 Y50.1761
G1 Z-5 F1200
Z-10
X256.3668 Y50.1417 F3500
X256.3677 Y50.124
X256.3743 Y50.0927
X256.3877 Y50.0578
X256.4027 Y50.032
X256.4253 Y50.0042
X256.4455 Y49.9861
X256.471 Y49.9695
X256.5159 Y49.9502
X256.543 Y49.9436
X256.5736 Y49.941
X256.605 Y49.9433
X256.6493 Y49.9535
X256.6844 Y49.9723
X256.7288 Y50.0065
X256.7339 Y50.0117
X256.7697 Y50.0719
X256.7806 Y50.1133
X256.7839 Y50.1449
X256.7824 Y50.1755
X256.7736 Y50.2179
X256.7459 Y50.2715
X256.7409 Y50.2785
X256.7145 Y50.3061
X256.7021 Y50.316
X256.6453 Y50.3474
X256.605 Y50.3567
X256.5736 Y50.359
X256.543 Y50.3565
X256.5004 Y50.346
X256.4595 Y50.323
X256.4185 Y50.289
X256.3848 Y50.2379
X256.3753 Y50.2082
X256.3712 Y50.1761
X256.3668 Y50.1417 Z-9.9981
X256.3677 Y50.124 Z-9.9956
X256.3743 Y50.0927 Z-9.9886
X256.3877 Y50.0578 Z-9.9757
X256.4027 Y50.032 Z-9.9614
X256.4253 Y50.0042 Z-9.9388
X256.4455 Y49.9861 Z-9.9165
X256.471 Y49.9695 Z-9.8845
X256.4963 Y49.9586 Z-9.8454
X256.5159 Y49.9502 Z-9.8027
X256.533 Y49.946 Z-9.7437
X256.5388 Y49.9446 Z-9.6825
G0 Z5
X256.3712 Y50.1761
G1 Z-7 F1200
Z-12
X256.3668 Y50.1417 F3500
X256.3677 Y50.124
X256.3743 Y50.0927
X256.3877 Y50.0578
X256.4027 Y50.032
X256.4253 Y50.0042
X256.4455 Y49.9861
X256.471 Y49.9695
X256.5159 Y49.9502
X256.543 Y49.9436
X256.5736 Y49.941
X256.605 Y49.9433
X256.6493 Y49.9535
X256.6844 Y49.9723
X256.7288 Y50.0065
X256.7339 Y50.0117
X256.7697 Y50.0719
X256.7806 Y50.1133
X256.7839 Y50.1449
X256.7824 Y50.1755
X256.7736 Y50.2179
X256.7459 Y50.2715
X256.7409 Y50.2785
X256.7145 Y50.3061
X256.7021 Y50.316
X256.6453 Y50.3474
X256.605 Y50.3567
X256.5736 Y50.359
X256.543 Y50.3565
X256.5004 Y50.346
X256.4595 Y50.323
X256.4185 Y50.289
X256.3848 Y50.2379
X256.3753 Y50.2082
X256.3712 Y50.1761
X256.3668 Y50.1417 Z-11.9981
X256.3677 Y50.124 Z-11.9956
X256.3743 Y50.0927 Z-11.9886
X256.3877 Y50.0578 Z-11.9757
X256.4027 Y50.032 Z-11.9614
X256.4253 Y50.0042 Z-11.9388
X256.4455 Y49.9861 Z-11.9165
X256.471 Y49.9695 Z-11.8845
X256.4963 Y49.9586 Z-11.8454
X256.5159 Y49.9502 Z-11.8027
X256.533 Y49.946 Z-11.7437
X256.5388 Y49.9446 Z-11.6825
G0 Z5
X256.3712 Y50.1761
G1 Z-9 F1200
Z-13.4
X256.3668 Y50.1417 F3500
X256.3677 Y50.124
X256.3743 Y50.0927
X256.3877 Y50.0578
X256.4027 Y50.032
X256.4253 Y50.0042
X256.4455 Y49.9861
X256.471 Y49.9695
X256.5159 Y49.9502
X256.543 Y49.9436
X256.5736 Y49.941
X256.605 Y49.9433
X256.6493 Y49.9535
X256.6844 Y49.9723
X256.7288 Y50.0065
X256.7339 Y50.0117
X256.7697 Y50.0719
X256.7806 Y50.1133
X256.7839 Y50.1449
X256.7824 Y50.1755
X256.7736 Y50.2179
X256.7459 Y50.2715
X256.7409 Y50.2785
X256.7145 Y50.3061
X256.7021 Y50.316
X256.6453 Y50.3474
X256.605 Y50.3567
X256.5736 Y50.359
X256.543 Y50.3565
X256.5004 Y50.346
X256.4595 Y50.323
X256.4185 Y50.289
X256.3848 Y50.2379
X256.3753 Y50.2082
X256.3712 Y50.1761
X256.3668 Y50.1417 Z-13.3981
X256.3677 Y50.124 Z-13.3956
X256.3743 Y50.0927 Z-13.3886
X256.3877 Y50.0578 Z-13.3757
X256.4027 Y50.032 Z-13.3614
X256.4253 Y50.0042 Z-13.3388
X256.4455 Y49.9861 Z-13.3165
X256.471 Y49.9695 Z-13.2845
X256.4963 Y49.9586 Z-13.2454
X256.5159 Y49.9502 Z-13.2027
X256.533 Y49.946 Z-13.1437
X256.5388 Y49.9446 Z-13.0825
G0 Z5
X277.2043 Y58.0024
Z2.4173
G1 X277.2174 Y58.0095 Z2.3213 F1200
X277.2551 Y58.0305 Z2.2343
X277.3128 Y58.0656 Z2.1644
X277.3834 Y58.1137 Z2.1182
X277.4589 Y58.172 Z2.1
G3 X277.2422 Y58.0232 Z1.7783 I-0.9589 J1.164
X277.003 Y57.9142 Z1.4566 I-0.7422 J1.3128
X276.7484 Y57.8485 Z1.1349 I-0.5029 J1.4218
X276.4864 Y57.828 Z0.8132 I-0.2484 J1.4875
X276.2247 Y57.8532 Z0.4914 I0.0137 J1.5081
X275.9714 Y57.9236 Z0.1697 I0.2753 J1.4828
X275.7342 Y58.0368 Z-0.152 I0.5286 J1.4124
X275.5202 Y58.1896 Z-0.4737 I0.7659 J1.2992
X275.336 Y58.3771 Z-0.7954 I0.9798 J1.1465
X275.1872 Y58.5938 Z-1.1171 I1.164 J0.9589
X275.0782 Y58.8331 Z-1.4388 I1.3128 J0.7422
X275.0125 Y59.0876 Z-1.7605 I1.4218 J0.503
X276.5 Y60.8441 Z-2 I1.4875 J0.2484
G1 X276.0691 F3500
G3 X275.1059 Y59.8809 J-0.9632
G1 Y40.4191
G3 X276.0691 Y39.4559 I0.9632
G1 X276.9309
G3 X277.8942 Y40.4191 J0.9632
G1 Y59.8809
G3 X276.9309 Y60.8441 I-0.9632
G1 X276.5
G2 X274.7145 Y61.8154 J2.1267
G3 X272.7652 Y61.2397 I-0.8896 J-0.5757
G1 Y38.0784
G3 X273.7285 Y37.1152 I0.9633
G1 X279.2716
G3 X280.2348 Y38.0784 J0.9632
G1 Y62.2216
G3 X279.2716 Y63.1848 I-0.9633
G1 X273.7285
G3 X272.7652 Y62.2216 J-0.9632
G1 Y61.2397
G2 X271.5949 Y59.4842 I-1.9018
G3 X270.4246 Y57.7287 I0.7314 J-1.7555
G1 Y35.7378
G3 X271.3878 Y34.7746 I0.9632
G1 X281.6122
G3 X282.5755 Y35.7378 J0.9632
G1 Y64.5622
G3 X281.6122 Y65.5255 I-0.9632
G1 X271.3878
G3 X270.4246 Y64.5622 J-0.9632
G1 Y57.7287
G2 X269.2542 Y55.9732 I-1.9018
G3 X268.0839 Y54.2177 I0.7315 J-1.7555
G1 Y33.3971
G3 X269.0471 Y32.4339 I0.9632
G1 X283.9529
G3 X284.9161 Y33.3971 J0.9632
G1 Y66.9029
G3 X283.9529 Y67.8661 I-0.9632
G1 X269.0471
G3 X268.0839 Y66.9029 J-0.9632
G1 Y54.2177
G2 X266.9136 Y52.4622 I-1.9018
G3 X265.7433 Y50.7067 I0.7314 J-1.7555
G1 Y31.0565
G3 X266.7065 Y30.0932 I0.9633
G1 X286.2935
G3 X287.2568 Y31.0565 J0.9632
G1 Y69.2435
G3 X286.2935 Y70.2068 I-0.9633
G1 X266.7065
G3 X265.7433 Y69.2435 J-0.9632
G1 Y50.7067
G2 X264.5654 Y48.9399 I-1.914
G3 X263.3875 Y47.1731 I0.7362 J-1.7668
G1 Y27.7375
X289.6125
Y72.5625
X263.3875
Y47.1731
X263.3913 Y47.1243 Z-1.9922
X263.4026 Y47.0766 Z-1.9845
X263.4189 Y47.0355 Z-1.9619
X263.4408 Y46.9971 Z-1.9394
X263.4859 Y46.9434 Z-1.8691
X263.5206 Y46.9147 Z-1.7806
X263.5335 Y46.906 Z-1.6825
G0 Z5
X277.2043 Y58.0024
Z0.4173
G1 X277.2174 Y58.0095 Z0.3213 F1200
X277.2551 Y58.0305 Z0.2343
X277.3128 Y58.0656 Z0.1644
X277.3834 Y58.1137 Z0.1182
X277.4589 Y58.172 Z0.1
G3 X277.2422 Y58.0232 Z-0.2217 I-0.9589 J1.164
X277.003 Y57.9142 Z-0.5434 I-0.7422 J1.3128
X276.7484 Y57.8485 Z-0.8651 I-0.5029 J1.4218
X276.4864 Y57.828 Z-1.1868 I-0.2484 J1.4875
X276.2247 Y57.8532 Z-1.5086 I0.0137 J1.5081
X275.9714 Y57.9236 Z-1.8303 I0.2753 J1.4828
X275.7342 Y58.0368 Z-2.152 I0.5286 J1.4124
X275.5202 Y58.1896 Z-2.4737 I0.7659 J1.2992
X275.336 Y58.3771 Z-2.7954 I0.9798 J1.1465
X275.1872 Y58.5938 Z-3.1171 I1.164 J0.9589
X275.0782 Y58.8331 Z-3.4388 I1.3128 J0.7422
X275.0125 Y59.0876 Z-3.7605 I1.4218 J0.503
X276.5 Y60.8441 Z-4 I1.4875 J0.2484
G1 X276.0691 F3500
G3 X275.1059 Y59.8809 J-0.9632
G1 Y40.4191
G3 X276.0691 Y39.4559 I0.9632
G1 X276.9309
G3 X277.8942 Y40.4191 J0.9632
G1 Y59.8809
G3 X276.9309 Y60.8441 I-0.9632
G1 X276.5
G2 X274.7145 Y61.8154 J2.1267
G3 X272.7652 Y61.2397 I-0.8896 J-0.5757
G1 Y38.0784
G3 X273.7285 Y37.1152 I0.9633
G1 X279.2716
G3 X280.2348 Y38.0784 J0.9632
G1 Y62.2216
G3 X279.2716 Y63.1848 I-0.9633
G1 X273.7285
G3 X272.7652 Y62.2216 J-0.9632
G1 Y61.2397
G2 X271.5949 Y59.4842 I-1.9018
G3 X270.4246 Y57.7287 I0.7314 J-1.7555
G1 Y35.7378
G3 X271.3878 Y34.7746 I0.9632
G1 X281.6122
G3 X282.5755 Y35.7378 J0.9632
G1 Y64.5622
G3 X281.6122 Y65.5255 I-0.9632
G1 X271.3878
G3 X270.4246 Y64.5622 J-0.9632
G1 Y57.7287
G2 X269.2542 Y55.9732 I-1.9018
G3 X268.0839 Y54.2177 I0.7315 J-1.7555
G1 Y33.3971
G3 X269.0471 Y32.4339 I0.9632
G1 X283.9529
G3 X284.9161 Y33.3971 J0.9632
G1 Y66.9029
G3 X283.9529 Y67.8661 I-0.9632
G1 X269.0471
G3 X268.0839 Y66.9029 J-0.9632
G1 Y54.2177
G2 X266.9136 Y52.4622 I-1.9018
G3 X265.7433 Y50.7067 I0.7314 J-1.7555
G1 Y31.0565
G3 X266.7065 Y30.0932 I0.9633
G1 X286.2935
G3 X287.2568 Y31.0565 J0.9632
G1 Y69.2435
G3 X286.2935 Y70.2068 I-0.9633
G1 X266.7065
G3 X265.7433 Y69.2435 J-0.9632
G1 Y50.7067
G2 X264.5654 Y48.9399 I-1.914
G3 X263.3875 Y47.1731 I0.7362 J-1.7668
G1 Y27.7375
X289.6125
Y72.5625
X263.3875
Y47.1731
X263.3913 Y47.1243 Z-3.9922
X263.4026 Y47.0766 Z-3.9845
X263.4189 Y47.0355 Z-3.9619
X263.4408 Y46.9971 Z-3.9394
X263.4859 Y46.9434 Z-3.8691
X263.5206 Y46.9147 Z-3.7806
X263.5335 Y46.906 Z-3.6825
G0 Z5
X277.2043 Y58.0024
Z3
G1 Z-1.5827 F1200
X277.2174 Y58.0095 Z-1.6787
X277.2551 Y58.0305 Z-1.7657
X277.3128 Y58.0656 Z-1.8356
X277.3834 Y58.1137 Z-1.8818
X277.4589 Y58.172 Z-1.9
G3 X277.2422 Y58.0232 Z-2.2217 I-0.9589 J1.164
X277.003 Y57.9142 Z-2.5434 I-0.7422 J1.3128
X276.7484 Y57.8485 Z-2.8651 I-0.5029 J1.4218
X276.4864 Y57.828 Z-3.1868 I-0.2484 J1.4875
X276.2247 Y57.8532 Z-3.5086 I0.0137 J1.5081
X275.9714 Y57.9236 Z-3.8303 I0.2753 J1.4828
X275.7342 Y58.0368 Z-4.152 I0.5286 J1.4124
X275.5202 Y58.1896 Z-4.4737 I0.7659 J1.2992
X275.336 Y58.3771 Z-4.7954 I0.9798 J1.1465
X275.1872 Y58.5938 Z-5.1171 I1.164 J0.9589
X275.0782 Y58.8331 Z-5.4388 I1.3128 J0.7422
X275.0125 Y59.0876 Z-5.7605 I1.4218 J0.503
X276.5 Y60.8441 Z-6 I1.4875 J0.2484
G1 X276.0691 F3500
G3 X275.1059 Y59.8809 J-0.9632
G1 Y40.4191
G3 X276.0691 Y39.4559 I0.9632
G1 X276.9309
G3 X277.8942 Y40.4191 J0.9632
G1 Y59.8809
G3 X276.9309 Y60.8441 I-0.9632
G1 X276.5
G2 X274.7145 Y61.8154 J2.1267
G3 X272.7652 Y61.2397 I-0.8896 J-0.5757
G1 Y38.0784
G3 X273.7285 Y37.1152 I0.9633
G1 X279.2716
G3 X280.2348 Y38.0784 J0.9632
G1 Y62.2216
G3 X279.2716 Y63.1848 I-0.9633
G1 X273.7285
G3 X272.7652 Y62.2216 J-0.9632
G1 Y61.2397
G2 X271.5949 Y59.4842 I-1.9018
G3 X270.4246 Y57.7287 I0.7314 J-1.7555
G1 Y35.7378
G3 X271.3878 Y34.7746 I0.9632
G1 X281.6122
G3 X282.5755 Y35.7378 J0.9632
G1 Y64.5622
G3 X281.6122 Y65.5255 I-0.9632
G1 X271.3878
G3 X270.4246 Y64.5622 J-0.9632
G1 Y57.7287
G2 X269.2542 Y55.9732 I-1.9018
G3 X268.0839 Y54.2177 I0.7315 J-1.7555
G1 Y33.3971
G3 X269.0471 Y32.4339 I0.9632
G1 X283.9529
G3 X284.9161 Y33.3971 J0.9632
G1 Y66.9029
G3 X283.9529 Y67.8661 I-0.9632
G1 X269.0471
G3 X268.0839 Y66.9029 J-0.9632
G1 Y54.2177
G2 X266.9136 Y52.4622 I-1.9018
G3 X265.7433 Y50.7067 I0.7314 J-1.7555
G1 Y31.0565
G3 X266.7065 Y30.0932 I0.9633
G1 X286.2935
G3 X287.2568 Y31.0565 J0.9632
G1 Y69.2435
G3 X286.2935 Y70.2068 I-0.9633
G1 X266.7065
G3 X265.7433 Y69.2435 J-0.9632
G1 Y50.7067
G2 X264.5654 Y48.9399 I-1.914
G3 X263.3875 Y47.1731 I0.7362 J-1.7668
G1 Y27.7375
X289.6125
Y72.5625
X263.3875
Y47.1731
X263.3913 Y47.1243 Z-5.9922
X263.4026 Y47.0766 Z-5.9845
X263.4189 Y47.0355 Z-5.9619
X263.4408 Y46.9971 Z-5.9394
X263.4859 Y46.9434 Z-5.8691
X263.5206 Y46.9147 Z-5.7806
X263.5335 Y46.906 Z-5.6825
G0 Z5
X275.7957 Y42.2976
Z-3.5827
G1 X275.7826 Y42.2906 Z-3.6787 F1200
X275.7449 Y42.2695 Z-3.7657
X275.6873 Y42.2344 Z-3.8356
X275.6166 Y42.1863 Z-3.8818
X275.5411 Y42.128 Z-3.9
G3 X275.7578 Y42.2768 Z-4.2217 I0.9589 J-1.164
X275.9971 Y42.3858 Z-4.5434 I0.7422 J-1.3128
X276.2516 Y42.4515 Z-4.8651 I0.503 J-1.4218
X276.5137 Y42.4721 Z-5.1868 I0.2484 J-1.4875
X276.7753 Y42.4468 Z-5.5086 I-0.0136 J-1.5081
X277.0286 Y42.3764 Z-5.8303 I-0.2753 J-1.4828
X277.2659 Y42.2632 Z-6.152 I-0.5286 J-1.4125
X277.4798 Y42.1105 Z-6.4737 I-0.7658 J-1.2992
X277.664 Y41.9229 Z-6.7954 I-0.9798 J-1.1465
X277.8129 Y41.7062 Z-7.1171 I-1.164 J-0.9589
X277.9218 Y41.467 Z-7.4388 I-1.3128 J-0.7422
X277.9876 Y41.2124 Z-7.7605 I-1.4218 J-0.503
X276.5 Y39.4559 Z-8 I-1.4875 J-0.2484
G1 X276.9309 F3500
G3 X277.8942 Y40.4191 J0.9632
G1 Y59.8809
G3 X276.9309 Y60.8441 I-0.9632
G1 X276.0691
G3 X275.1059 Y59.8809 J-0.9632
G1 Y40.4191
G3 X276.0691 Y39.4559 I0.9632
G1 X276.5
G2 X278.2855 Y38.4846 J-2.1267
G3 X280.2348 Y39.0603 I0.8896 J0.5757
G1 Y62.2216
G3 X279.2716 Y63.1848 I-0.9633
G1 X273.7285
G3 X272.7652 Y62.2216 J-0.9632
G1 Y38.0784
G3 X273.7285 Y37.1152 I0.9633
G1 X279.2716
G3 X280.2348 Y38.0784 J0.9632
G1 Y39.0603
G2 X281.4052 Y40.8158 I1.9018
G3 X282.5755 Y42.5713 I-0.7314 J1.7555
G1 Y64.5622
G3 X281.6122 Y65.5255 I-0.9632
G1 X271.3878
G3 X270.4246 Y64.5622 J-0.9632
G1 Y35.7378
G3 X271.3878 Y34.7746 I0.9632
G1 X281.6122
G3 X282.5755 Y35.7378 J0.9632
G1 Y42.5713
G2 X283.7458 Y44.3268 I1.9018
G3 X284.9161 Y46.0823 I-0.7315 J1.7555
G1 Y66.9029
G3 X283.9529 Y67.8661 I-0.9632
G1 X269.0471
G3 X268.0839 Y66.9029 J-0.9632
G1 Y33.3971
G3 X269.0471 Y32.4339 I0.9632
G1 X283.9529
G3 X284.9161 Y33.3971 J0.9632
G1 Y46.0823
G2 X286.0865 Y47.8378 I1.9018
G3 X287.2568 Y49.5933 I-0.7314 J1.7555
G1 Y69.2435
G3 X286.2935 Y70.2068 I-0.9633
G1 X266.7065
G3 X265.7433 Y69.2435 J-0.9632
G1 Y31.0565
G3 X266.7065 Y30.0932 I0.9633
G1 X286.2935
G3 X287.2568 Y31.0565 J0.9632
G1 Y49.5933
G2 X288.4347 Y51.3601 I1.914
G3 X289.6125 Y53.1269 I-0.7362 J1.7668
G1 Y72.5625
X263.3875
Y27.7375
X289.6125
Y53.1269
X289.6087 Y53.1757 Z-7.9922
X289.5975 Y53.2234 Z-7.9845
X289.5811 Y53.2645 Z-7.9619
X289.5592 Y53.3029 Z-7.9394
X289.5142 Y53.3566 Z-7.8691
X289.4794 Y53.3853 Z-7.7806
X289.4666 Y53.394 Z-7.6825
G0 Z5
X275.7957 Y42.2976
Z-5.5827
G1 X275.7826 Y42.2906 Z-5.6787 F1200
X275.7449 Y42.2695 Z-5.7657
X275.6873 Y42.2344 Z-5.8356
X275.6166 Y42.1863 Z-5.8818
X275.5411 Y42.128 Z-5.9
G3 X275.7578 Y42.2768 Z-6.2217 I0.9589 J-1.164
X275.9971 Y42.3858 Z-6.5434 I0.7422 J-1.3128
X276.2516 Y42.4515 Z-6.8651 I0.503 J-1.4218
X276.5137 Y42.4721 Z-7.1868 I0.2484 J-1.4875
X276.7753 Y42.4468 Z-7.5086 I-0.0136 J-1.5081
X277.0286 Y42.3764 Z-7.8303 I-0.2753 J-1.4828
X277.2659 Y42.2632 Z-8.152 I-0.5286 J-1.4125
X277.4798 Y42.1105 Z-8.4737 I-0.7658 J-1.2992
X277.664 Y41.9229 Z-8.7954 I-0.9798 J-1.1465
X277.8129 Y41.7062 Z-9.1171 I-1.164 J-0.9589
X277.9218 Y41.467 Z-9.4388 I-1.3128 J-0.7422
X277.9876 Y41.2124 Z-9.7605 I-1.4218 J-0.503
X276.5 Y39.4559 Z-10 I-1.4875 J-0.2484
G1 X276.9309 F3500
G3 X277.8942 Y40.4191 J0.9632
G1 Y59.8809
G3 X276.9309 Y60.8441 I-0.9632
G1 X276.0691
G3 X275.1059 Y59.8809 J-0.9632
G1 Y40.4191
G3 X276.0691 Y39.4559 I0.9632
G1 X276.5
G2 X278.2855 Y38.4846 J-2.1267
G3 X280.2348 Y39.0603 I0.8896 J0.5757
G1 Y62.2216
G3 X279.2716 Y63.1848 I-0.9633
G1 X273.7285
G3 X272.7652 Y62.2216 J-0.9632
G1 Y38.0784
G3 X273.7285 Y37.1152 I0.9633
G1 X279.2716
G3 X280.2348 Y38.0784 J0.9632
G1 Y39.0603
G2 X281.4052 Y40.8158 I1.9018
G3 X282.5755 Y42.5713 I-0.7314 J1.7555
G1 Y64.5622
G3 X281.6122 Y65.5255 I-0.9632
G1 X271.3878
G3 X270.4246 Y64.5622 J-0.9632
G1 Y35.7378
G3 X271.3878 Y34.7746 I0.9632
G1 X281.6122
G3 X282.5755 Y35.7378 J0.9632
G1 Y42.5713
G2 X283.7458 Y44.3268 I1.9018
G3 X284.9161 Y46.0823 I-0.7315 J1.7555
G1 Y66.9029
G3 X283.9529 Y67.8661 I-0.9632
G1 X269.0471
G3 X268.0839 Y66.9029 J-0.9632
G1 Y33.3971
G3 X269.0471 Y32.4339 I0.9632
G1 X283.9529
G3 X284.9161 Y33.3971 J0.9632
G1 Y46.0823
G2 X286.0865 Y47.8378 I1.9018
G3 X287.2568 Y49.5933 I-0.7314 J1.7555
G1 Y69.2435
G3 X286.2935 Y70.2068 I-0.9633
G1 X266.7065
G3 X265.7433 Y69.2435 J-0.9632
G1 Y31.0565
G3 X266.7065 Y30.0932 I0.9633
G1 X286.2935
G3 X287.2568 Y31.0565 J0.9632
G1 Y49.5933
G2 X288.4347 Y51.3601 I1.914
G3 X289.6125 Y53.1269 I-0.7362 J1.7668
G1 Y72.5625
X263.3875
Y27.7375
X289.6125
Y53.1269
X289.6087 Y53.1757 Z-9.9922
X289.5975 Y53.2234 Z-9.9845
X289.5811 Y53.2645 Z-9.9619
X289.5592 Y53.3029 Z-9.9394
X289.5142 Y53.3566 Z-9.8691
X289.4794 Y53.3853 Z-9.7806
X289.4666 Y53.394 Z-9.6825
G0 Z5
X275.7957 Y42.2976
Z-7.5827
G1 X275.7826 Y42.2906 Z-7.6787 F1200
X275.7449 Y42.2695 Z-7.7657
X275.6873 Y42.2344 Z-7.8356
X275.6166 Y42.1863 Z-7.8818
X275.5411 Y42.128 Z-7.9
G3 X275.7578 Y42.2768 Z-8.2217 I0.9589 J-1.164
X275.9971 Y42.3858 Z-8.5434 I0.7422 J-1.3128
X276.2516 Y42.4515 Z-8.8651 I0.503 J-1.4218
X276.5137 Y42.4721 Z-9.1868 I0.2484 J-1.4875
X276.7753 Y42.4468 Z-9.5086 I-0.0136 J-1.5081
X277.0286 Y42.3764 Z-9.8303 I-0.2753 J-1.4828
X277.2659 Y42.2632 Z-10.152 I-0.5286 J-1.4125
X277.4798 Y42.1105 Z-10.4737 I-0.7658 J-1.2992
X277.664 Y41.9229 Z-10.7954 I-0.9798 J-1.1465
X277.8129 Y41.7062 Z-11.1171 I-1.164 J-0.9589
X277.9218 Y41.467 Z-11.4388 I-1.3128 J-0.7422
X277.9876 Y41.2124 Z-11.7605 I-1.4218 J-0.503
X276.5 Y39.4559 Z-12 I-1.4875 J-0.2484
G1 X276.9309 F3500
G3 X277.8942 Y40.4191 J0.9632
G1 Y59.8809
G3 X276.9309 Y60.8441 I-0.9632
G1 X276.0691
G3 X275.1059 Y59.8809 J-0.9632
G1 Y40.4191
G3 X276.0691 Y39.4559 I0.9632
G1 X276.5
G2 X278.2855 Y38.4846 J-2.1267
G3 X280.2348 Y39.0603 I0.8896 J0.5757
G1 Y62.2216
G3 X279.2716 Y63.1848 I-0.9633
G1 X273.7285
G3 X272.7652 Y62.2216 J-0.9632
G1 Y38.0784
G3 X273.7285 Y37.1152 I0.9633
G1 X279.2716
G3 X280.2348 Y38.0784 J0.9632
G1 Y39.0603
G2 X281.4052 Y40.8158 I1.9018
G3 X282.5755 Y42.5713 I-0.7314 J1.7555
G1 Y64.5622
G3 X281.6122 Y65.5255 I-0.9632
G1 X271.3878
G3 X270.4246 Y64.5622 J-0.9632
G1 Y35.7378
G3 X271.3878 Y34.7746 I0.9632
G1 X281.6122
G3 X282.5755 Y35.7378 J0.9632
G1 Y42.5713
G2 X283.7458 Y44.3268 I1.9018
G3 X284.9161 Y46.0823 I-0.7315 J1.7555
G1 Y66.9029
G3 X283.9529 Y67.8661 I-0.9632
G1 X269.0471
G3 X268.0839 Y66.9029 J-0.9632
G1 Y33.3971
G3 X269.0471 Y32.4339 I0.9632
G1 X283.9529
G3 X284.9161 Y33.3971 J0.9632
G1 Y46.0823
G2 X286.0865 Y47.8378 I1.9018
G3 X287.2568 Y49.5933 I-0.7314 J1.7555
G1 Y69.2435
G3 X286.2935 Y70.2068 I-0.9633
G1 X266.7065
G3 X265.7433 Y69.2435 J-0.9632
G1 Y31.0565
G3 X266.7065 Y30.0932 I0.9633
G1 X286.2935
G3 X287.2568 Y31.0565 J0.9632
G1 Y49.5933
G2 X288.4347 Y51.3601 I1.914
G3 X289.6125 Y53.1269 I-0.7362 J1.7668
G1 Y72.5625
X263.3875
Y27.7375
X289.6125
Y53.1269
X289.6087 Y53.1757 Z-11.9922
X289.5975 Y53.2234 Z-11.9845
X289.5811 Y53.2645 Z-11.9619
X289.5592 Y53.3029 Z-11.9394
X289.5142 Y53.3566 Z-11.8691
X289.4794 Y53.3853 Z-11.7806
X289.4666 Y53.394 Z-11.6825
G0 Z5
X277.4573 Y42.1294
Z-9.5827
G1 X277.4458 Y42.1387 Z-9.6787 F1200
X277.4117 Y42.1653 Z-9.7657
X277.3571 Y42.2049 Z-9.8356
X277.2854 Y42.2515 Z-9.8818
X277.2025 Y42.2985 Z-9.9
G3 X277.4235 Y42.1563 Z-10.2217 I-0.7024 J-1.3346
X277.6165 Y41.9778 Z-10.5434 I-0.9235 J-1.1923
X277.7756 Y41.7685 Z-10.8651 I-1.1165 J-1.0138
X277.896 Y41.5348 Z-11.1868 I-1.2756 J-0.8045
X277.9739 Y41.2837 Z-11.5086 I-1.3959 J-0.5708
X278.007 Y41.0229 Z-11.8303 I-1.4738 J-0.3197
X277.9943 Y40.7604 Z-12.152 I-1.507 J-0.059
X277.9363 Y40.504 Z-12.4737 I-1.4943 J0.2036
X277.8346 Y40.2616 Z-12.7954 I-1.4363 J0.46
X277.6923 Y40.0405 Z-13.1171 I-1.3346 J0.7024
X276.5 Y39.4559 Z-13.4 I-1.1923 J0.9235
G1 X276.9309 F3500
G3 X277.8942 Y40.4191 J0.9632
G1 Y59.8809
G3 X276.9309 Y60.8441 I-0.9632
G1 X276.0691
G3 X275.1059 Y59.8809 J-0.9632
G1 Y40.4191
G3 X276.0691 Y39.4559 I0.9632
G1 X276.5
G2 X278.2855 Y38.4846 J-2.1267
G3 X280.2348 Y39.0603 I0.8896 J0.5757
G1 Y62.2216
G3 X279.2716 Y63.1848 I-0.9633
G1 X273.7285
G3 X272.7652 Y62.2216 J-0.9632
G1 Y38.0784
G3 X273.7285 Y37.1152 I0.9633
G1 X279.2716
G3 X280.2348 Y38.0784 J0.9632
G1 Y39.0603
G2 X281.4052 Y40.8158 I1.9018
G3 X282.5755 Y42.5713 I-0.7314 J1.7555
G1 Y64.5622
G3 X281.6122 Y65.5255 I-0.9632
G1 X271.3878
G3 X270.4246 Y64.5622 J-0.9632
G1 Y35.7378
G3 X271.3878 Y34.7746 I0.9632
G1 X281.6122
G3 X282.5755 Y35.7378 J0.9632
G1 Y42.5713
G2 X283.7458 Y44.3268 I1.9018
G3 X284.9161 Y46.0823 I-0.7315 J1.7555
G1 Y66.9029
G3 X283.9529 Y67.8661 I-0.9632
G1 X269.0471
G3 X268.0839 Y66.9029 J-0.9632
G1 Y33.3971
G3 X269.0471 Y32.4339 I0.9632
G1 X283.9529
G3 X284.9161 Y33.3971 J0.9632
G1 Y46.0823
G2 X286.0865 Y47.8378 I1.9018
G3 X287.2568 Y49.5933 I-0.7314 J1.7555
G1 Y69.2435
G3 X286.2935 Y70.2068 I-0.9633
G1 X266.7065
G3 X265.7433 Y69.2435 J-0.9632
G1 Y31.0565
G3 X266.7065 Y30.0932 I0.9633
G1 X286.2935
G3 X287.2568 Y31.0565 J0.9632
G1 Y49.5933
G2 X288.4347 Y51.3601 I1.914
G3 X289.6125 Y53.1269 I-0.7362 J1.7668
G1 Y72.5625
X263.3875
Y27.7375
X289.6125
Y53.1269
X289.6087 Y53.1757 Z-13.3922
X289.5975 Y53.2234 Z-13.3845
X289.5811 Y53.2645 Z-13.3619
X289.5592 Y53.3029 Z-13.3394
X289.5142 Y53.3566 Z-13.2691
X289.4794 Y53.3853 Z-13.1806
X289.4666 Y53.394 Z-13.0825
G0 Z5
X296.7639 Y50.0648
Z3
G1 Z-2 F1200
X296.7732 Y50.0851 F3500
X296.7806 Y50.1133
X296.7839 Y50.1449
X296.7824 Y50.1755
X296.7729 Y50.2211
X296.7694 Y50.2311
X296.7388 Y50.2788
X296.7124 Y50.3077
X296.6991 Y50.3183
X296.6629 Y50.3391
X296.6303 Y50.3513
X296.5989 Y50.3575
X296.5812 Y50.3583
X296.5145 Y50.349
X296.4843 Y50.3389
X296.4715 Y50.3325
X296.4471 Y50.3159
X296.4208 Y50.2922
X296.408 Y50.2771
X296.3908 Y50.2507
X296.3853 Y50.2392
X296.3753 Y50.2082
X296.3668 Y50.1417
X296.3677 Y50.124
X296.3743 Y50.0927
X296.3937 Y50.0422
X296.3992 Y50.0342
X296.4279 Y50.0009
X296.4426 Y49.988
X296.4856 Y49.9607
X296.5145 Y49.951
X296.5812 Y49.9417
X296.5989 Y49.9425
X296.6303 Y49.9487
X296.6716 Y49.9641
X296.6873 Y49.9728
X296.7047 Y49.9857
X296.7337 Y50.015
X296.7559 Y50.0473
X296.7639 Y50.0648
X296.7732 Y50.0851 Z-1.9992
X296.7806 Y50.1133 Z-1.9958
X296.7839 Y50.1449 Z-1.9889
X296.7824 Y50.1755 Z-1.9789
X296.7729 Y50.2211 Z-1.9565
X296.7694 Y50.2311 Z-1.95
X296.7534 Y50.2561 Z-1.9285
X296.7388 Y50.2788 Z-1.9037
X296.7124 Y50.3077 Z-1.8546
X296.6991 Y50.3183 Z-1.8246
X296.6831 Y50.3276 Z-1.7791
X296.6733 Y50.3332 Z-1.7314
X296.67 Y50.3351 Z-1.6825
G0 Z5
X296.7639 Y50.0648
Z1
G1 Z-4 F1200
X296.7732 Y50.0851 F3500
X296.7806 Y50.1133
X296.7839 Y50.1449
X296.7824 Y50.1755
X296.7729 Y50.2211
X296.7694 Y50.2311
X296.7388 Y50.2788
X296.7124 Y50.3077
X296.6991 Y50.3183
X296.6629 Y50.3391
X296.6303 Y50.3513
X296.5989 Y50.3575
X296.5812 Y50.3583
X296.5145 Y50.349
X296.4843 Y50.3389
X296.4715 Y50.3325
X296.4471 Y50.3159
X296.4208 Y50.2922
X296.408 Y50.2771
X296.3908 Y50.2507
X296.3853 Y50.2392
X296.3753 Y50.2082
X296.3668 Y50.1417
X296.3677 Y50.124
X296.3743 Y50.0927
X296.3937 Y50.0422
X296.3992 Y50.0342
X296.4279 Y50.0009
X296.4426 Y49.988
X296.4856 Y49.9607
X296.5145 Y49.951
X296.5812 Y49.9417
X296.5989 Y49.9425
X296.6303 Y49.9487
X296.6716 Y49.9641
X296.6873 Y49.9728
X296.7047 Y49.9857
X296.7337 Y50.015
X296.7559 Y50.0473
X296.7639 Y50.0648
X296.7732 Y50.0851 Z-3.9992
X296.7806 Y50.1133 Z-3.9958
X296.7839 Y50.1449 Z-3.9889
X296.7824 Y50.1755 Z-3.9789
X296.7729 Y50.2211 Z-3.9565
X296.7694 Y50.2311 Z-3.95
X296.7534 Y50.2561 Z-3.9285
X296.7388 Y50.2788 Z-3.9037
X296.7124 Y50.3077 Z-3.8546
X296.6991 Y50.3183 Z-3.8246
X296.6831 Y50.3276 Z-3.7791
X296.6733 Y50.3332 Z-3.7314
X296.67 Y50.3351 Z-3.6825
G0 Z5
X296.7639 Y50.0648
Z3
G1 Z-1 F1200
Z-6
X296.7732 Y50.0851 F3500
X296.7806 Y50.1133
X296.7839 Y50.1449
X296.7824 Y50.1755
X296.7729 Y50.2211
X296.7694 Y50.2311
X296.7388 Y50.2788
X296.7124 Y50.3077
X296.6991 Y50.3183
X296.6629 Y50.3391
X296.6303 Y50.3513
X296.5989 Y50.3575
X296.5812 Y50.3583
X296.5145 Y50.349
X296.4843 Y50.3389
X296.4715 Y50.3325
X296.4471 Y50.3159
X296.4208 Y50.2922
X296.408 Y50.2771
X296.3908 Y50.2507
X296.3853 Y50.2392
X296.3753 Y50.2082
X296.3668 Y50.1417
X296.3677 Y50.124
X296.3743 Y50.0927
X296.3937 Y50.0422
X296.3992 Y50.0342
X296.4279 Y50.0009
X296.4426 Y49.988
X296.4856 Y49.9607
X296.5145 Y49.951
X296.5812 Y49.9417
X296.5989 Y49.9425
X296.6303 Y49.9487
X296.6716 Y49.9641
X296.6873 Y49.9728
X296.7047 Y49.9857
X296.7337 Y50.015
X296.7559 Y50.0473
X296.7639 Y50.0648
X296.7732 Y50.0851 Z-5.9992
X296.7806 Y50.1133 Z-5.9958
X296.7839 Y50.1449 Z-5.9889
X296.7824 Y50.1755 Z-5.9789
X296.7729 Y50.2211 Z-5.9565
X296.7694 Y50.2311 Z-5.95
X296.7534 Y50.2561 Z-5.9285
X296.7388 Y50.2788 Z-5.9037
X296.7124 Y50.3077 Z-5.8546
X296.6991 Y50.3183 Z-5.8246
X296.6831 Y50.3276 Z-5.7791
X296.6733 Y50.3332 Z-5.7314
X296.67 Y50.3351 Z-5.6825
G0 Z5
X296.5483 Y49.9463
G1 Z-3 F1200
Z-8
X296.5812 Y49.9417 F3500
X296.5989 Y49.9425
X296.6303 Y49.9487
X296.6716 Y49.9641
X296.6873 Y49.9728
X296.7047 Y49.9857
X296.7337 Y50.015
X296.7559 Y50.0473
X296.7732 Y50.0851
X296.7806 Y50.1133
X296.7839 Y50.1449
X296.7824 Y50.1755
X296.7729 Y50.2211
X296.7694 Y50.2311
X296.7388 Y50.2788
X296.7124 Y50.3077
X296.6991 Y50.3183
X296.6629 Y50.3391
X296.6303 Y50.3513
X296.5989 Y50.3575
X296.5812 Y50.3583
X296.5145 Y50.349
X296.4843 Y50.3389
X296.4715 Y50.3325
X296.4471 Y50.3159
X296.4208 Y50.2922
X296.408 Y50.2771
X296.3908 Y50.2507
X296.3853 Y50.2392
X296.3753 Y50.2082
X296.3668 Y50.1417
X296.3677 Y50.124
X296.3743 Y50.0927
X296.3937 Y50.0422
X296.3992 Y50.0342
X296.4279 Y50.0009
X296.4426 Y49.988
X296.4856 Y49.9607
X296.5145 Y49.951
X296.5483 Y49.9463
X296.5812 Y49.9417 Z-7.9983
X296.5989 Y49.9425 Z-7.9959
X296.6303 Y49.9487 Z-7.989
X296.6716 Y49.9641 Z-7.9735
X296.6873 Y49.9728 Z-7.965
X296.7047 Y49.9857 Z-7.9527
X296.7337 Y50.015 Z-7.9225
X296.7559 Y50.0473 Z-7.8819
X296.7654 Y50.0681 Z-7.8497
X296.7732 Y50.0851 Z-7.8148
X296.7787 Y50.106 Z-7.7502
X296.7806 Y50.113 Z-7.6825
G0 Z5
X296.5483 Y49.9463
G1 Z-5 F1200
Z-10
X296.5812 Y49.9417 F3500
X296.5989 Y49.9425
X296.6303 Y49.9487
X296.6716 Y49.9641
X296.6873 Y49.9728
X296.7047 Y49.9857
X296.7337 Y50.015
X296.7559 Y50.0473
X296.7732 Y50.0851
X296.7806 Y50.1133
X296.7839 Y50.1449
X296.7824 Y50.1755
X296.7729 Y50.2211
X296.7694 Y50.2311
X296.7388 Y50.2788
X296.7124 Y50.3077
X296.6991 Y50.3183
X296.6629 Y50.3391
X296.6303 Y50.3513
X296.5989 Y50.3575
X296.5812 Y50.3583
X296.5145 Y50.349
X296.4843 Y50.3389
X296.4715 Y50.3325
X296.4471 Y50.3159
X296.4208 Y50.2922
X296.408 Y50.2771
X296.3908 Y50.2507
X296.3853 Y50.2392
X296.3753 Y50.2082
X296.3668 Y50.1417
X296.3677 Y50.124
X296.3743 Y50.0927
X296.3937 Y50.0422
X296.3992 Y50.0342
X296.4279 Y50.0009
X296.4426 Y49.988
X296.4856 Y49.9607
X296.5145 Y49.951
X296.5483 Y49.9463
X296.5812 Y49.9417 Z-9.9983
X296.5989 Y49.9425 Z-9.9959
X296.6303 Y49.9487 Z-9.989
X296.6716 Y49.9641 Z-9.9735
X296.6873 Y49.9728 Z-9.965
X296.7047 Y49.9857 Z-9.9527
X296.7337 Y50.015 Z-9.9225
X296.7559 Y50.0473 Z-9.8819
X296.7654 Y50.0681 Z-9.8497
X296.7732 Y50.0851 Z-9.8148
X296.7787 Y50.106 Z-9.7502
X296.7806 Y50.113 Z-9.6825
G0 Z5
X296.5483 Y50.3537
G1 Z-7 F1200
Z-12
X296.5145 Y50.349 F3500
X296.4843 Y50.3389
X296.4715 Y50.3325
X296.4471 Y50.3159
X296.4208 Y50.2922
X296.408 Y50.2771
X296.3908 Y50.2507
X296.3853 Y50.2392
X296.3753 Y50.2082
X296.3668 Y50.1417
X296.3677 Y50.124
X296.3743 Y50.0927
X296.3937 Y50.0422
X296.3992 Y50.0342
X296.4279 Y50.0009
X296.4426 Y49.988
X296.4856 Y49.9607
X296.5145 Y49.951
X296.5812 Y49.9417
X296.5989 Y49.9425
X296.6303 Y49.9487
X296.6716 Y49.9641
X296.6873 Y49.9728
X296.7047 Y49.9857
X296.7337 Y50.015
X296.7559 Y50.0473
X296.7732 Y50.0851
X296.7806 Y50.1133
X296.7839 Y50.1449
X296.7824 Y50.1755
X296.7729 Y50.2211
X296.7694 Y50.2311
X296.7388 Y50.2788
X296.7124 Y50.3077
X296.6991 Y50.3183
X296.6629 Y50.3391
X296.6303 Y50.3513
X296.5989 Y50.3575
X296.5812 Y50.3583
X296.5483 Y50.3537
X296.5145 Y50.349 Z-11.9982
X296.4843 Y50.3389 Z-11.9931
X296.4715 Y50.3325 Z-11.9897
X296.4471 Y50.3159 Z-11.9804
X296.4208 Y50.2922 Z-11.9648
X296.408 Y50.2771 Z-11.9537
X296.3908 Y50.2507 Z-11.9319
X296.3853 Y50.2392 Z-11.9213
X296.3753 Y50.2082 Z-11.8883
X296.3716 Y50.1792 Z-11.8478
X296.3687 Y50.1568 Z-11.8033
X296.3668 Y50.1417 Z-11.7558
X296.3671 Y50.1352 Z-11.7194
X296.3672 Y50.1331 Z-11.6825
G0 Z5
X296.5483 Y50.3537
G1 Z-9 F1200
Z-13.4
X296.5145 Y50.349 F3500
X296.4843 Y50.3389
X296.4715 Y50.3325
X296.4471 Y50.3159
X296.4208 Y50.2922
X296.408 Y50.2771
X296.3908 Y50.2507
X296.3853 Y50.2392
X296.3753 Y50.2082
X296.3668 Y50.1417
X296.3677 Y50.124
X296.3743 Y50.0927
X296.3937 Y50.0422
X296.3992 Y50.0342
X296.4279 Y50.0009
X296.4426 Y49.988
X296.4856 Y49.9607
X296.5145 Y49.951
X296.5812 Y49.9417
X296.5989 Y49.9425
X296.6303 Y49.9487
X296.6716 Y49.9641
X296.6873 Y49.9728
X296.7047 Y49.9857
X296.7337 Y50.015
X296.7559 Y50.0473
X296.7732 Y50.0851
X296.7806 Y50.1133
X296.7839 Y50.1449
X296.7824 Y50.1755
X296.7729 Y50.2211
X296.7694 Y50.2311
X296.7388 Y50.2788
X296.7124 Y50.3077
X296.6991 Y50.3183
X296.6629 Y50.3391
X296.6303 Y50.3513
X296.5989 Y50.3575
X296.5812 Y50.3583
X296.5483 Y50.3537
X296.5145 Y50.349 Z-13.3982
X296.4843 Y50.3389 Z-13.3931
X296.4715 Y50.3325 Z-13.3897
X296.4471 Y50.3159 Z-13.3804
X296.4208 Y50.2922 Z-13.3648
X296.408 Y50.2771 Z-13.3537
X296.3908 Y50.2507 Z-13.3319
X296.3853 Y50.2392 Z-13.3213
X296.3753 Y50.2082 Z-13.2883
X296.3716 Y50.1792 Z-13.2478
X296.3687 Y50.1568 Z-13.2033
X296.3668 Y50.1417 Z-13.1558
X296.3671 Y50.1352 Z-13.1194
X296.3672 Y50.1331 Z-13.0825
G0 Z5
X11.8916 Y11.559
Z2.4173
G1 X11.9041 Y11.551 Z2.3213 F1200
X11.941 Y11.5285 Z2.2343
X11.9998 Y11.4954 Z2.1644
X12.0763 Y11.4573 Z2.1182
X12.1641 Y11.42 Z2.1
G3 X11.9282 Y11.5361 Z1.7783 I0.546 J1.4058
X11.7162 Y11.6915 Z1.4566 I0.7818 J1.2897
X11.5343 Y11.8813 Z1.1349 I0.9939 J1.1343
X11.3881 Y12.0998 Z0.8132 I1.1757 J0.9445
X11.2822 Y12.3404 Z0.4914 I1.3219 J0.726
X11.2196 Y12.5957 Z0.1697 I1.4279 J0.4854
X11.2022 Y12.858 Z-0.152 I1.4905 J0.2301
X11.2307 Y13.1193 Z-0.4737 I1.5078 J-0.0322
X11.3042 Y13.3718 Z-0.7954 I1.4793 J-0.2936
X11.4204 Y13.6076 Z-1.1171 I1.4058 J-0.546
X11.5757 Y13.8196 Z-1.4388 I1.2897 J-0.7818
X11.7655 Y14.0015 Z-1.7605 I1.1343 J-0.9939
X14.0253 Y13.5637 Z-2 I0.9445 J-1.1757
G2 X12.8759 Y16.1592 I13.1324 J7.3679 F3500
X12.2208 Y20.187 I12.0518 J4.0272
G1 X12.3457 Y77.9672
G3 X12.0845 Y78.2284 I-0.2612
G1 X12.0317
G3 X11.7705 Y77.9672 J-0.2612
G1 X11.773 Y12.6356
G3 X12.6385 Y11.7701 I0.8655
G1 X14.2942
G3 X14.6817 Y12.4997 J0.4677
G2 X14.0253 Y13.5637 I12.476 J8.4319
X14.1197 Y14.6738 I0.8653 J0.4855
G3 X14.2846 Y15.7756 I-0.8526 J0.6909
G2 X13.4276 Y20.1869 I10.9219 J4.4108
G1 X13.5662 Y78.4859
G3 X12.6031 Y79.449 I-0.963
G1 X11.5132 Y79.4489
G3 X10.55 Y78.4855 I0.0001 J-0.9633
G1 X10.5525 Y11.5128
G3 X11.5158 Y10.5496 I0.9633
G1 X16.9047
G3 X17.2238 Y11.3087 J0.4466
G2 X14.4548 Y15.3754 I9.9811 J9.7719
X14.2846 Y15.7756 I10.7516 J4.8109
G1 X14.2639 Y15.82 Z-1.9922
X14.2367 Y15.8607 Z-1.9845
X14.2069 Y15.8935 Z-1.9619
X14.173 Y15.9218 Z-1.9394
X14.1119 Y15.9562 Z-1.8691
X14.0693 Y15.9709 Z-1.7806
X14.0542 Y15.9746 Z-1.6825
G0 Z5
X340.9218 Y12.748
Z2.4173
G1 X340.9219 Y12.7628 Z2.3213 F1200
X340.9214 Y12.806 Z2.2343
X340.9181 Y12.8734 Z2.1644
X340.9097 Y12.9585 Z2.1182
X340.8946 Y13.0527 Z2.1
G3 X340.9217 Y12.7912 Z1.7783 I-1.4809 J-0.2854
X340.9029 Y12.529 Z1.4566 I-1.5079 J-0.0239
X340.8389 Y12.274 Z1.1349 I-1.4892 J0.2383
X340.7316 Y12.034 Z0.8132 I-1.4252 J0.4933
X340.5843 Y11.8163 Z0.4914 I-1.3179 J0.7332
X340.4014 Y11.6275 Z0.1697 I-1.1705 J0.9509
X340.1885 Y11.4733 Z-0.152 I-0.9876 J1.1398
X339.952 Y11.3584 Z-0.4737 I-0.7747 J1.2939
X339.6992 Y11.2864 Z-0.7954 I-0.5382 J1.4088
X339.4377 Y11.2593 Z-1.1171 I-0.2854 J1.4809
X339.1755 Y11.2781 Z-1.4388 I-0.0239 J1.5079
X338.9205 Y11.3421 Z-1.7605 I0.2383 J1.4892
X338.0893 Y13.4885 Z-2 I0.4933 J1.4252
G2 X337.8527 Y13.0714 I-12.1554 J6.6197 F3500
X337.7408 Y12.896 I-2.2891 J1.3376
G3 X337.626 Y12.7225 I3.6832 J-2.5596
X338.0762 Y11.908 I0.4502 J-0.2828
G1 X339.1312
G3 X340.0944 Y12.8713 J0.9632
G1 X340.0942 Y17.2923
G3 X339.4978 Y17.3523 I-0.3012
G2 X338.0893 Y13.4885 I-13.5639 J2.756
X336.9738 Y12.9354 I-0.952 J0.5184
G3 X335.8156 Y12.4783 I-0.1866 J-1.223
G2 X334.78 Y11.3094 I-10.6816 J8.4206
G3 X335.0949 Y10.5524 I0.3148 J-0.313
G1 X340.4868 Y10.5525
G3 X341.45 Y11.5157 J0.9632
G1 X341.4475 Y78.4869
G3 X340.4843 Y79.4501 I-0.9633
G1 X339.3966
G3 X338.4333 Y78.4868 J-0.9633
G1 X338.5697 Y20.1225
G2 X337.548 Y15.3405 I-11.7014 J-0.0001
X335.8156 Y12.4783 I-12.414 J5.5584
X334.3159 Y12.0216 I-1.0782 J0.85
G3 X332.7756 Y11.7306 I-0.503 J-1.5597
G2 X327.8885 Y9.4131 I-7.1253 J8.7138
X325.0764 Y9.1697 I-2.4702 J12.1743
G3 X322.2541 Y9.2085 I-2.8227 J-102.51
G1 X24.597 Y9.3302
G2 X18.1295 Y12.734 I1.4742 J10.6475
X15.2363 Y19.4454 I8.2724 J7.5454
G1 X15.3447 Y80.2838
G3 X14.4008 Y81.2276 I-0.9438
G1 X9.7155 Y81.227
G3 X8.7715 Y80.2829 I0.0001 J-0.9441
G1 X8.7742 Y9.7151
G3 X9.7182 Y8.7712 I0.944
G1 X342.2845 Y8.7741
G3 X343.2285 Y9.7181 J0.9439
G1 X343.2259 Y80.2846
G3 X342.2819 Y81.2286 I-0.944
G1 X337.5989 Y81.2284
G3 X336.655 Y80.2844 J-0.944
G1 X336.7886 Y20.1225
G2 X334.2487 Y13.1803 I-10.7571 J-0.0001
X332.7756 Y11.7306 I-8.5985 J7.2641
X331.1238 Y11.6124 I-0.9098 J1.1126
G3 X329.4713 Y11.7197 I-0.93 J-1.5426
G2 X327.5443 Y11.1099 I-3.8213 J8.7259
X324.9035 Y10.8925 I-2.2373 J11.0263
G3 X322.2542 Y10.94 I-2.6487 J-73.8048
G1 X24.8345 Y11.0453
G2 X19.3918 Y13.9191 I1.2369 J8.9333
X16.963 Y19.5744 I7.0111 J6.3604
G1 X17.079 Y81.9989
G3 X16.1158 Y82.962 I-0.963 J0.0001
G1 X8.0005 Y82.961
G3 X7.0373 Y81.9976 I0.0001 J-0.9633
G1 X7.0401 Y8.0002
G3 X8.0033 Y7.037 I0.9633
G1 X343.9995 Y7.0399
G3 X344.9627 Y8.0032 J0.9632
G1 X344.96 Y81.9996
G3 X343.9967 Y82.9628 I-0.9633
G1 X335.884 Y82.9625
G3 X334.9208 Y81.9993 J-0.9633
G1 X335.0571 Y20.1225
G2 X332.9082 Y14.2762 I-9.0268 J-0.0001
X329.4713 Y11.7197 I-7.2582 J6.1695
X327.212 Y12.2367 I-0.7808 J1.783
G3 X325.1085 Y13.2097 I-2.1143 J-1.8104
G2 X324.6696 Y13.2213 I0.0375 J9.7197
G3 X322.2542 Y13.2806 I-2.415 J-49.2065
G1 X25.1555 Y13.3638
G2 X21.0981 Y15.5212 I0.9161 J6.6168
X19.297 Y19.7487 I5.307 J4.7585
G1 X19.4197 Y84.3398
G3 X18.4565 Y85.3028 I-0.963 J0.0001
G1 X5.6599 Y85.3013
G3 X4.6967 Y84.3379 I0.0001 J-0.9633
G1 X4.6996 Y5.6596
G3 X5.6629 Y4.6964 I0.9633
G1 X346.3402 Y4.6994
G3 X347.3034 Y5.6626 J0.9632
G1 X347.3004 Y84.3402
G3 X346.3372 Y85.3035 I-0.9633
G1 X333.5434 Y85.303
G3 X332.5802 Y84.3398 J-0.9633
G1 X332.7166 Y20.1225
G2 X331.0961 Y15.7575 I-6.6887 J-0.0001
X327.0788 Y13.4038 I-5.4466 J4.6908
X325.1085 Y13.2097 I-1.9328 J9.5257
X323.3707 Y14.4155 I0.0072 J1.8655
G3 X321.6329 Y15.6212 I-1.7382 J-0.6499
G1 X25.4765 Y15.6822
G2 X22.8045 Y17.1232 I0.5957 J4.3022
X21.6311 Y19.9231 I3.6052 J3.1567
G1 X21.7603 Y86.6806
G3 X20.7972 Y87.6437 I-0.963 J0.0001
G1 X3.3192 Y87.6415
G3 X2.356 Y86.6782 I0.0001 J-0.9633
G1 X2.3591 Y3.3191
G3 X3.3224 Y2.3558 I0.9633
G1 X348.6808 Y2.3589
G3 X349.644 Y3.3221 J0.9632
G1 X349.6409 Y86.6809
G3 X348.6776 Y87.6441 I-0.9632
G1 X331.2029 Y87.6435
G3 X330.2396 Y86.6802 J-0.9633
G1 X330.376 Y20.1224
G2 X329.2839 Y17.2389 I-4.3528
X326.6134 Y15.6976 I-3.6356 J3.215
X324.4357 Y15.5502 I-1.6414 J8.0895
G3 X322.2541 Y15.6211 I-2.1812 J-33.498
G1 X321.6329 Y15.6212
G2 X319.7647 Y16.8669 I0.0004 J2.0244
G3 X317.8966 Y18.1125 I-1.8682 J-0.7781
G1 X26.1537 Y18.1135
G2 X26.0106 Y18.1234 J1.0437
G1 X25.8182 Y18.15
G2 X25.6247 Y18.1959 I0.1431 J1.0339
G1 X25.4323 Y18.2615
G2 X25.2723 Y18.3314 I0.3366 J0.988
G1 X25.144 Y18.4008
G2 X25.0127 Y18.4851 I0.4965 J0.9181
G1 X24.8798 Y18.5852
G2 X24.7518 Y18.6992 I0.6279 J0.8338
G1 X24.63 Y18.8271
G2 X24.5255 Y18.956 I0.7559 J0.7197
G1 X24.4377 Y19.0839
G2 X24.3477 Y19.2432 I0.8604 J0.5908
G1 X24.2606 Y19.4351
G2 X24.1948 Y19.6281 I0.9504 J0.4315
G1 X24.1498 Y19.8199
G2 X24.1251 Y19.9807 I1.0161 J0.2385
G1 X24.1155 Y20.1086
X24.1126 Y20.1864
X24.1161 Y89.9997
X0.0081 Y89.9968
X0.0005 Y89.9823
X0.0036 Y0.0058
X0.0395 Y0.0002
X322.2542 Y0.003
X351.9919 Y0.0032
X351.9995 Y0.0177
X351.9964 Y89.9942
X351.9605 Y89.9998
X327.8839 Y89.999
X327.8846 Y20.1224
G2 X327.87 Y19.9481 I-1.0438
G1 X327.8375 Y19.7563
G2 X327.7854 Y19.5634 I-1.0291 J0.1743
G1 X327.7133 Y19.3715
G2 X327.6375 Y19.2121 I-0.9771 J0.3672
G1 X327.5627 Y19.0842
G2 X327.4741 Y18.9556 I-0.9012 J0.5266
G1 X327.3709 Y18.8277
G2 X327.2531 Y18.7039 I-0.8125 J0.6552
G1 X327.1206 Y18.5857
G2 X326.9881 Y18.4853 I-0.6947 J0.779
G1 X326.8575 Y18.4018
G2 X326.6964 Y18.3176 I-0.5621 J0.8794
G1 X326.504 Y18.2375
G2 X326.3104 Y18.1782 I-0.4011 J0.9636
G1 X326.118 Y18.1392
G2 X325.9121 Y18.1184 I-0.2076 J1.0229
G1 X322.2558 Y18.1125
X317.8966
X317.8477 Y18.1087 Z-1.9922
X317.8 Y18.0975 Z-1.9845
X317.7589 Y18.0811 Z-1.9619
X317.7205 Y18.0592 Z-1.9394
X317.6668 Y18.0142 Z-1.8691
X317.6381 Y17.9794 Z-1.7806
X317.6294 Y17.9666 Z-1.6825
G0 Z5
X340.9218 Y12.748
Z0.4173
G1 X340.9219 Y12.7628 Z0.3213 F1200
X340.9214 Y12.806 Z0.2343
X340.9181 Y12.8734 Z0.1644
X340.9097 Y12.9585 Z0.1182
X340.8946 Y13.0527 Z0.1
G3 X340.9217 Y12.7912 Z-0.2217 I-1.4809 J-0.2854
X340.9029 Y12.529 Z-0.5434 I-1.5079 J-0.0239
X340.8389 Y12.274 Z-0.8651 I-1.4892 J0.2383
X340.7316 Y12.034 Z-1.1868 I-1.4252 J0.4933
X340.5843 Y11.8163 Z-1.5086 I-1.3179 J0.7332
X340.4014 Y11.6275 Z-1.8303 I-1.1705 J0.9509
X340.1885 Y11.4733 Z-2.152 I-0.9876 J1.1398
X339.952 Y11.3584 Z-2.4737 I-0.7747 J1.2939
X339.6992 Y11.2864 Z-2.7954 I-0.5382 J1.4088
X339.4377 Y11.2593 Z-3.1171 I-0.2854 J1.4809
X339.1755 Y11.2781 Z-3.4388 I-0.0239 J1.5079
X338.9205 Y11.3421 Z-3.7605 I0.2383 J1.4892
X338.0893 Y13.4885 Z-4 I0.4933 J1.4252
G2 X337.8527 Y13.0714 I-12.1554 J6.6197 F3500
X337.7408 Y12.896 I-2.2891 J1.3376
G3 X337.626 Y12.7225 I3.6832 J-2.5596
X338.0762 Y11.908 I0.4502 J-0.2828
G1 X339.1312
G3 X340.0944 Y12.8713 J0.9632
G1 X340.0942 Y17.2923
G3 X339.4978 Y17.3523 I-0.3012
G2 X338.0893 Y13.4885 I-13.5639 J2.756
X336.9738 Y12.9354 I-0.952 J0.5184
G3 X335.8156 Y12.4783 I-0.1866 J-1.223
G2 X334.78 Y11.3094 I-10.6816 J8.4206
G3 X335.0949 Y10.5524 I0.3148 J-0.313
G1 X340.4868 Y10.5525
G3 X341.45 Y11.5157 J0.9632
G1 X341.4475 Y78.4869
G3 X340.4843 Y79.4501 I-0.9633
G1 X339.3966
G3 X338.4333 Y78.4868 J-0.9633
G1 X338.5697 Y20.1225
G2 X337.548 Y15.3405 I-11.7014 J-0.0001
X335.8156 Y12.4783 I-12.414 J5.5584
G1 X335.7886 Y12.4375 Z-3.9922
X335.7681 Y12.3929 Z-3.9845
X335.7558 Y12.3505 Z-3.9619
X335.7495 Y12.3067 Z-3.9394
X335.752 Y12.2366 Z-3.8691
X335.7617 Y12.1927 Z-3.7806
X335.7665 Y12.1779 Z-3.6825
G0 Z5
X11.8916 Y11.559
Z0.4173
G1 X11.9041 Y11.551 Z0.3213 F1200
X11.941 Y11.5285 Z0.2343
X11.9998 Y11.4954 Z0.1644
X12.0763 Y11.4573 Z0.1182
X12.1641 Y11.42 Z0.1
G3 X11.9282 Y11.5361 Z-0.2217 I0.546 J1.4058
X11.7162 Y11.6915 Z-0.5434 I0.7818 J1.2897
X11.5343 Y11.8813 Z-0.8651 I0.9939 J1.1343
X11.3881 Y12.0998 Z-1.1868 I1.1757 J0.9445
X11.2822 Y12.3404 Z-1.5086 I1.3219 J0.726
X11.2196 Y12.5957 Z-1.8303 I1.4279 J0.4854
X11.2022 Y12.858 Z-2.152 I1.4905 J0.2301
X11.2307 Y13.1193 Z-2.4737 I1.5078 J-0.0322
X11.3042 Y13.3718 Z-2.7954 I1.4793 J-0.2936
X11.4204 Y13.6076 Z-3.1171 I1.4058 J-0.546
X11.5757 Y13.8196 Z-3.4388 I1.2897 J-0.7818
X11.7655 Y14.0015 Z-3.7605 I1.1343 J-0.9939
X14.0253 Y13.5637 Z-4 I0.9445 J-1.1757
G2 X12.8759 Y16.1592 I13.1324 J7.3679 F3500
X12.2208 Y20.187 I12.0518 J4.0272
G1 X12.3457 Y77.9672
G3 X12.0845 Y78.2284 I-0.2612
G1 X12.0317
G3 X11.7705 Y77.9672 J-0.2612
G1 X11.773 Y12.6356
G3 X12.6385 Y11.7701 I0.8655
G1 X14.2942
G3 X14.6817 Y12.4997 J0.4677
G2 X14.0253 Y13.5637 I12.476 J8.4319
X14.1197 Y14.6738 I0.8653 J0.4855
G3 X14.2846 Y15.7756 I-0.8526 J0.6909
G2 X13.4276 Y20.1869 I10.9219 J4.4108
G1 X13.5662 Y78.4859
G3 X12.6031 Y79.449 I-0.963
G1 X11.5132 Y79.4489
G3 X10.55 Y78.4855 I0.0001 J-0.9633
G1 X10.5525 Y11.5128
G3 X11.5158 Y10.5496 I0.9633
G1 X16.9047
G3 X17.2238 Y11.3087 J0.4466
G2 X14.4548 Y15.3754 I9.9811 J9.7719
X14.2846 Y15.7756 I10.7516 J4.8109
X14.6801 Y17.3926 I1.3215 J0.5337
G3 X15.2852 Y18.9435 I-1.1457 J1.3405
G2 X15.2363 Y19.4454 I11.1167 J1.3359
G1 X15.3447 Y80.2838
G3 X14.4008 Y81.2276 I-0.9438
G1 X9.7155 Y81.227
G3 X8.7715 Y80.2829 I0.0001 J-0.9441
G1 X8.7742 Y9.7151
G3 X9.7182 Y8.7712 I0.944
G1 X342.2845 Y8.7741
G3 X343.2285 Y9.7181 J0.9439
G1 X343.2259 Y80.2846
G3 X342.2819 Y81.2286 I-0.944
G1 X337.5989 Y81.2284
G3 X336.655 Y80.2844 J-0.944
G1 X336.7886 Y20.1225
G2 X334.2487 Y13.1803 I-10.7571 J-0.0001
X327.8885 Y9.4131 I-8.5985 J7.2641
X325.0764 Y9.1697 I-2.4702 J12.1743
G3 X322.2541 Y9.2085 I-2.8227 J-102.51
G1 X24.597 Y9.3302
G2 X18.1295 Y12.734 I1.4742 J10.6475
X15.2852 Y18.9435 I8.2724 J7.5454
X16.0835 Y20.3699 I1.3776 J0.1656
G3 X16.967 Y21.7452 I-0.6332 J1.3781
G1 X17.079 Y81.9989
G3 X16.1158 Y82.962 I-0.963 J0.0001
G1 X8.0005 Y82.961
G3 X7.0373 Y81.9976 I0.0001 J-0.9633
G1 X7.0401 Y8.0002
G3 X8.0033 Y7.037 I0.9633
G1 X343.9995 Y7.0399
G3 X344.9627 Y8.0032 J0.9632
G1 X344.96 Y81.9996
G3 X343.9967 Y82.9628 I-0.9633
G1 X335.884 Y82.9625
G3 X334.9208 Y81.9993 J-0.9633
G1 X335.0571 Y20.1225
G2 X332.9082 Y14.2762 I-9.0268 J-0.0001
X327.5443 Y11.1099 I-7.2582 J6.1695
X324.9035 Y10.8925 I-2.2373 J11.0263
G3 X322.2542 Y10.94 I-2.6487 J-73.8048
G1 X24.8345 Y11.0453
G2 X19.3918 Y13.9191 I1.2369 J8.9333
X16.963 Y19.5744 I7.0111 J6.3604
G1 X16.967 Y21.7452
G2 X18.1372 Y23.4934 I1.8962 J-0.0035
G3 X19.3074 Y25.2416 I-0.7261 J1.7518
G1 X19.4197 Y84.3398
G3 X18.4565 Y85.3028 I-0.963 J0.0001
G1 X5.6599 Y85.3013
G3 X4.6967 Y84.3379 I0.0001 J-0.9633
G1 X4.6996 Y5.6596
G3 X5.6629 Y4.6964 I0.9633
G1 X346.3402 Y4.6994
G3 X347.3034 Y5.6626 J0.9632
G1 X347.3004 Y84.3402
G3 X346.3372 Y85.3035 I-0.9633
G1 X333.5434 Y85.303
G3 X332.5802 Y84.3398 J-0.9633
G1 X332.7166 Y20.1225
G2 X331.0961 Y15.7575 I-6.6887 J-0.0001
X327.0788 Y13.4038 I-5.4466 J4.6908
X324.6696 Y13.2213 I-1.9328 J9.5257
G3 X322.2542 Y13.2806 I-2.415 J-49.2065
G1 X25.1555 Y13.3638
G2 X21.0981 Y15.5212 I0.9161 J6.6168
X19.297 Y19.7487 I5.307 J4.7585
G1 X19.3074 Y25.2416
G2 X20.4778 Y26.9898 I1.8963 J-0.0036
G3 X21.6481 Y28.738 I-0.726 J1.7519
G1 X21.7603 Y86.6806
G3 X20.7972 Y87.6437 I-0.963 J0.0001
G1 X3.3192 Y87.6415
G3 X2.356 Y86.6782 I0.0001 J-0.9633
G1 X2.3591 Y3.3191
G3 X3.3224 Y2.3558 I0.9633
G1 X348.6808 Y2.3589
G3 X349.644 Y3.3221 J0.9632
G1 X349.6409 Y86.6809
G3 X348.6776 Y87.6441 I-0.9632
G1 X331.2029 Y87.6435
G3 X330.2396 Y86.6802 J-0.9633
G1 X330.376 Y20.1224
G2 X329.2839 Y17.2389 I-4.3528
X326.6134 Y15.6976 I-3.6356 J3.215
X324.4357 Y15.5502 I-1.6414 J8.0895
G3 X322.2541 Y15.6211 I-2.1812 J-33.498
G1 X25.4765 Y15.6822
G2 X22.8045 Y17.1232 I0.5957 J4.3022
X21.6311 Y19.9231 I3.6052 J3.1567
G1 X21.6481 Y28.738
G2 X22.8807 Y30.5843 I2.0049 J-0.0039
G3 X24.1132 Y32.4306 I-0.7667 J1.8464
G1 X24.1161 Y89.9997
X0.0081 Y89.9968
X0.0005 Y89.9823
X0.0036 Y0.0058
X0.0395 Y0.0002
X322.2542 Y0.003
X351.9919 Y0.0032
X351.9995 Y0.0177
X351.9964 Y89.9942
X351.9605 Y89.9998
X327.8839 Y89.999
X327.8846 Y20.1224
G2 X327.87 Y19.9481 I-1.0438
G1 X327.8375 Y19.7563
G2 X327.7854 Y19.5634 I-1.0291 J0.1743
G1 X327.7133 Y19.3715
G2 X327.6375 Y19.2121 I-0.9771 J0.3672
G1 X327.5627 Y19.0842
G2 X327.4741 Y18.9556 I-0.9012 J0.5266
G1 X327.3709 Y18.8277
G2 X327.2531 Y18.7039 I-0.8125 J0.6552
G1 X327.1206 Y18.5857
G2 X326.9881 Y18.4853 I-0.6947 J0.779
G1 X326.8575 Y18.4018
G2 X326.6964 Y18.3176 I-0.5621 J0.8794
G1 X326.504 Y18.2375
G2 X326.3104 Y18.1782 I-0.4011 J0.9636
G1 X326.118 Y18.1392
G2 X325.9121 Y18.1184 I-0.2076 J1.0229
G1 X322.2558 Y18.1125
X26.1537 Y18.1135
G2 X26.0106 Y18.1234 J1.0437
G1 X25.8182 Y18.15
G2 X25.6247 Y18.1959 I0.1431 J1.0339
G1 X25.4323 Y18.2615
G2 X25.2723 Y18.3314 I0.3366 J0.988
G1 X25.144 Y18.4008
G2 X25.0127 Y18.4851 I0.4965 J0.9181
G1 X24.8798 Y18.5852
G2 X24.7518 Y18.6992 I0.6279 J0.8338
G1 X24.63 Y18.8271
G2 X24.5255 Y18.956 I0.7559 J0.7197
G1 X24.4377 Y19.0839
G2 X24.3477 Y19.2432 I0.8604 J0.5908
G1 X24.2606 Y19.4351
G2 X24.1948 Y19.6281 I0.9504 J0.4315
G1 X24.1498 Y19.8199
G2 X24.1251 Y19.9807 I1.0161 J0.2385
G1 X24.1155 Y20.1086
X24.1126 Y20.1864
X24.1132 Y32.4306
X24.1095 Y32.4795 Z-3.9922
X24.0982 Y32.5272 Z-3.9845
X24.0819 Y32.5683 Z-3.9619
X24.06 Y32.6067 Z-3.9394
X24.0149 Y32.6604 Z-3.8691
X23.9802 Y32.6891 Z-3.7806
X23.9673 Y32.6978 Z-3.6825
G0 Z5
X11.8916 Y11.559
Z3
G1 Z-1.5827 F1200
X11.9041 Y11.551 Z-1.6787
X11.941 Y11.5285 Z-1.7657
X11.9998 Y11.4954 Z-1.8356
X12.0763 Y11.4573 Z-1.8818
X12.1641 Y11.42 Z-1.9
G3 X11.9282 Y11.5361 Z-2.2217 I0.546 J1.4058
X11.7162 Y11.6915 Z-2.5434 I0.7818 J1.2897
X11.5343 Y11.8813 Z-2.8651 I0.9939 J1.1343
X11.3881 Y12.0998 Z-3.1868 I1.1757 J0.9445
X11.2822 Y12.3404 Z-3.5086 I1.3219 J0.726
X11.2196 Y12.5957 Z-3.8303 I1.4279 J0.4854
X11.2022 Y12.858 Z-4.152 I1.4905 J0.2301
X11.2307 Y13.1193 Z-4.4737 I1.5078 J-0.0322
X11.3042 Y13.3718 Z-4.7954 I1.4793 J-0.2936
X11.4204 Y13.6076 Z-5.1171 I1.4058 J-0.546
X11.5757 Y13.8196 Z-5.4388 I1.2897 J-0.7818
X11.7655 Y14.0015 Z-5.7605 I1.1343 J-0.9939
X14.0253 Y13.5637 Z-6 I0.9445 J-1.1757
G2 X12.8759 Y16.1592 I13.1324 J7.3679 F3500
X12.2208 Y20.187 I12.0518 J4.0272
G1 X12.3457 Y77.9672
G3 X12.0845 Y78.2284 I-0.2612
G1 X12.0317
G3 X11.7705 Y77.9672 J-0.2612
G1 X11.773 Y12.6356
G3 X12.6385 Y11.7701 I0.8655
G1 X14.2942
G3 X14.6817 Y12.4997 J0.4677
G2 X14.0253 Y13.5637 I12.476 J8.4319
X14.1197 Y14.6738 I0.8653 J0.4855
G3 X14.2846 Y15.7756 I-0.8526 J0.6909
G2 X13.4276 Y20.1869 I10.9219 J4.4108
G1 X13.5662 Y78.4859
G3 X12.6031 Y79.449 I-0.963
G1 X11.5132 Y79.4489
G3 X10.55 Y78.4855 I0.0001 J-0.9633
G1 X10.5525 Y11.5128
G3 X11.5158 Y10.5496 I0.9633
G1 X16.9047
G3 X17.2238 Y11.3087 J0.4466
G2 X14.4548 Y15.3754 I9.9811 J9.7719
X14.2846 Y15.7756 I10.7516 J4.8109
G1 X14.2639 Y15.82 Z-5.9922
X14.2367 Y15.8607 Z-5.9845
X14.2069 Y15.8935 Z-5.9619
X14.173 Y15.9218 Z-5.9394
X14.1119 Y15.9562 Z-5.8691
X14.0693 Y15.9709 Z-5.7806
X14.0542 Y15.9746 Z-5.6825
G0 Z5
X340.9218 Y12.748
Z3
G1 Z-1.5827 F1200
X340.9219 Y12.7628 Z-1.6787
X340.9214 Y12.806 Z-1.7657
X340.9181 Y12.8734 Z-1.8356
X340.9097 Y12.9585 Z-1.8818
X340.8946 Y13.0527 Z-1.9
G3 X340.9217 Y12.7912 Z-2.2217 I-1.4809 J-0.2854
X340.9029 Y12.529 Z-2.5434 I-1.5079 J-0.0239
X340.8389 Y12.274 Z-2.8651 I-1.4892 J0.2383
X340.7316 Y12.034 Z-3.1868 I-1.4252 J0.4933
X340.5843 Y11.8163 Z-3.5086 I-1.3179 J0.7332
X340.4014 Y11.6275 Z-3.8303 I-1.1705 J0.9509
X340.1885 Y11.4733 Z-4.152 I-0.9876 J1.1398
X339.952 Y11.3584 Z-4.4737 I-0.7747 J1.2939
X339.6992 Y11.2864 Z-4.7954 I-0.5382 J1.4088
X339.4377 Y11.2593 Z-5.1171 I-0.2854 J1.4809
X339.1755 Y11.2781 Z-5.4388 I-0.0239 J1.5079
X338.9205 Y11.3421 Z-5.7605 I0.2383 J1.4892
X338.0893 Y13.4885 Z-6 I0.4933 J1.4252
G2 X337.8527 Y13.0714 I-12.1554 J6.6197 F3500
X337.7408 Y12.896 I-2.2891 J1.3376
G3 X337.626 Y12.7225 I3.6832 J-2.5596
X338.0762 Y11.908 I0.4502 J-0.2828
G1 X339.1312
G3 X340.0944 Y12.8713 J0.9632
G1 X340.0942 Y17.2923
G3 X339.4978 Y17.3523 I-0.3012
G2 X338.0893 Y13.4885 I-13.5639 J2.756
X336.9738 Y12.9354 I-0.952 J0.5184
G3 X335.8156 Y12.4783 I-0.1866 J-1.223
G2 X334.78 Y11.3094 I-10.6816 J8.4206
G3 X335.0949 Y10.5524 I0.3148 J-0.313
G1 X340.4868 Y10.5525
G3 X341.45 Y11.5157 J0.9632
G1 X341.4475 Y78.4869
G3 X340.4843 Y79.4501 I-0.9633
G1 X339.3966
G3 X338.4333 Y78.4868 J-0.9633
G1 X338.5697 Y20.1225
G2 X337.548 Y15.3405 I-11.7014 J-0.0001
X335.8156 Y12.4783 I-12.414 J5.5584
X334.3159 Y12.0216 I-1.0782 J0.85
G3 X332.7756 Y11.7306 I-0.503 J-1.5597
G2 X327.8885 Y9.4131 I-7.1253 J8.7138
X325.0764 Y9.1697 I-2.4702 J12.1743
G3 X322.2541 Y9.2085 I-2.8227 J-102.51
G1 X24.597 Y9.3302
G2 X18.1295 Y12.734 I1.4742 J10.6475
X15.2363 Y19.4454 I8.2724 J7.5454
G1 X15.3447 Y80.2838
G3 X14.4008 Y81.2276 I-0.9438
G1 X9.7155 Y81.227
G3 X8.7715 Y80.2829 I0.0001 J-0.9441
G1 X8.7742 Y9.7151
G3 X9.7182 Y8.7712 I0.944
G1 X342.2845 Y8.7741
G3 X343.2285 Y9.7181 J0.9439
G1 X343.2259 Y80.2846
G3 X342.2819 Y81.2286 I-0.944
G1 X337.5989 Y81.2284
G3 X336.655 Y80.2844 J-0.944
G1 X336.7886 Y20.1225
G2 X334.2487 Y13.1803 I-10.7571 J-0.0001
X332.7756 Y11.7306 I-8.5985 J7.2641
X331.1238 Y11.6124 I-0.9098 J1.1126
G3 X329.4713 Y11.7197 I-0.93 J-1.5426
G2 X327.5443 Y11.1099 I-3.8213 J8.7259
X324.9035 Y10.8925 I-2.2373 J11.0263
G3 X322.2542 Y10.94 I-2.6487 J-73.8048
G1 X24.8345 Y11.0453
G2 X19.3918 Y13.9191 I1.2369 J8.9333
X16.963 Y19.5744 I7.0111 J6.3604
G1 X17.079 Y81.9989
G3 X16.1158 Y82.962 I-0.963 J0.0001
G1 X8.0005 Y82.961
G3 X7.0373 Y81.9976 I0.0001 J-0.9633
G1 X7.0401 Y8.0002
G3 X8.0033 Y7.037 I0.9633
G1 X343.9995 Y7.0399
G3 X344.9627 Y8.0032 J0.9632
G1 X344.96 Y81.9996
G3 X343.9967 Y82.9628 I-0.9633
G1 X335.884 Y82.9625
G3 X334.9208 Y81.9993 J-0.9633
G1 X335.0571 Y20.1225
G2 X332.9082 Y14.2762 I-9.0268 J-0.0001
X329.4713 Y11.7197 I-7.2582 J6.1695
X327.212 Y12.2367 I-0.7808 J1.783
G3 X325.1085 Y13.2097 I-2.1143 J-1.8104
G2 X324.6696 Y13.2213 I0.0375 J9.7197
G3 X322.2542 Y13.2806 I-2.415 J-49.2065
G1 X25.1555 Y13.3638
G2 X21.0981 Y15.5212 I0.9161 J6.6168
X19.297 Y19.7487 I5.307 J4.7585
G1 X19.4197 Y84.3398
G3 X18.4565 Y85.3028 I-0.963 J0.0001
G1 X5.6599 Y85.3013
G3 X4.6967 Y84.3379 I0.0001 J-0.9633
G1 X4.6996 Y5.6596
G3 X5.6629 Y4.6964 I0.9633
G1 X346.3402 Y4.6994
G3 X347.3034 Y5.6626 J0.9632
G1 X347.3004 Y84.3402
G3 X346.3372 Y85.3035 I-0.9633
G1 X333.5434 Y85.303
G3 X332.5802 Y84.3398 J-0.9633
G1 X332.7166 Y20.1225
G2 X331.0961 Y15.7575 I-6.6887 J-0.0001
X327.0788 Y13.4038 I-5.4466 J4.6908
X325.1085 Y13.2097 I-1.9328 J9.5257
X323.3707 Y14.4155 I0.0072 J1.8655
G3 X321.6329 Y15.6212 I-1.7382 J-0.6499
G1 X25.4765 Y15.6822
G2 X22.8045 Y17.1232 I0.5957 J4.3022
X21.6311 Y19.9231 I3.6052 J3.1567
G1 X21.7603 Y86.6806
G3 X20.7972 Y87.6437 I-0.963 J0.0001
G1 X3.3192 Y87.6415
G3 X2.356 Y86.6782 I0.0001 J-0.9633
G1 X2.3591 Y3.3191
G3 X3.3224 Y2.3558 I0.9633
G1 X348.6808 Y2.3589
G3 X349.644 Y3.3221 J0.9632
G1 X349.6409 Y86.6809
G3 X348.6776 Y87.6441 I-0.9632
G1 X331.2029 Y87.6435
G3 X330.2396 Y86.6802 J-0.9633
G1 X330.376 Y20.1224
G2 X329.2839 Y17.2389 I-4.3528
X326.6134 Y15.6976 I-3.6356 J3.215
X324.4357 Y15.5502 I-1.6414 J8.0895
G3 X322.2541 Y15.6211 I-2.1812 J-33.498
G1 X321.6329 Y15.6212
G2 X319.7647 Y16.8669 I0.0004 J2.0244
G3 X317.8966 Y18.1125 I-1.8682 J-0.7781
G1 X26.1537 Y18.1135
G2 X26.0106 Y18.1234 J1.0437
G1 X25.8182 Y18.15
G2 X25.6247 Y18.1959 I0.1431 J1.0339
G1 X25.4323 Y18.2615
G2 X25.2723 Y18.3314 I0.3366 J0.988
G1 X25.144 Y18.4008
G2 X25.0127 Y18.4851 I0.4965 J0.9181
G1 X24.8798 Y18.5852
G2 X24.7518 Y18.6992 I0.6279 J0.8338
G1 X24.63 Y18.8271
G2 X24.5255 Y18.956 I0.7559 J0.7197
G1 X24.4377 Y19.0839
G2 X24.3477 Y19.2432 I0.8604 J0.5908
G1 X24.2606 Y19.4351
G2 X24.1948 Y19.6281 I0.9504 J0.4315
G1 X24.1498 Y19.8199
G2 X24.1251 Y19.9807 I1.0161 J0.2385
G1 X24.1155 Y20.1086
X24.1126 Y20.1864
X24.1161 Y89.9997
X0.0081 Y89.9968
X0.0005 Y89.9823
X0.0036 Y0.0058
X0.0395 Y0.0002
X322.2542 Y0.003
X351.9919 Y0.0032
X351.9995 Y0.0177
X351.9964 Y89.9942
X351.9605 Y89.9998
X327.8839 Y89.999
X327.8846 Y20.1224
G2 X327.87 Y19.9481 I-1.0438
G1 X327.8375 Y19.7563
G2 X327.7854 Y19.5634 I-1.0291 J0.1743
G1 X327.7133 Y19.3715
G2 X327.6375 Y19.2121 I-0.9771 J0.3672
G1 X327.5627 Y19.0842
G2 X327.4741 Y18.9556 I-0.9012 J0.5266
G1 X327.3709 Y18.8277
G2 X327.2531 Y18.7039 I-0.8125 J0.6552
G1 X327.1206 Y18.5857
G2 X326.9881 Y18.4853 I-0.6947 J0.779
G1 X326.8575 Y18.4018
G2 X326.6964 Y18.3176 I-0.5621 J0.8794
G1 X326.504 Y18.2375
G2 X326.3104 Y18.1782 I-0.4011 J0.9636
G1 X326.118 Y18.1392
G2 X325.9121 Y18.1184 I-0.2076 J1.0229
G1 X322.2558 Y18.1125
X317.8966
X317.8477 Y18.1087 Z-5.9922
X317.8 Y18.0975 Z-5.9845
X317.7589 Y18.0811 Z-5.9619
X317.7205 Y18.0592 Z-5.9394
X317.6668 Y18.0142 Z-5.8691
X317.6381 Y17.9794 Z-5.7806
X317.6294 Y17.9666 Z-5.6825
G0 Z5
X315.501 Y10.371
Z-3
G1 Z-7.6825 F1200
X315.4867 Y10.365 Z-7.7806
X315.4471 Y10.3435 Z-7.8691
X315.3925 Y10.2995 Z-7.9394
X315.3636 Y10.2661 Z-7.9619
X315.3396 Y10.2289 Z-7.9845
X315.3194 Y10.1843 Z-7.9922
X315.3062 Y10.1371 Z-8
X315.2957 Y10.0839 F3500
X315.291 Y9.9814
X315.3012 Y9.8787
X315.3321 Y9.7565
X315.3391 Y9.7382
X315.4021 Y9.6147
X315.4074 Y9.6065
X315.4654 Y9.5326
X315.5435 Y9.455
X315.5785 Y9.427
X315.6212 Y9.398
X315.6675 Y9.3717
X315.7547 Y9.3333
X315.8223 Y9.3126
X315.9356 Y9.2937
X316.0385 Y9.2918
X316.1616 Y9.3077
X316.1852 Y9.3135
X316.2707 Y9.3432
X316.3478 Y9.381
X316.442 Y9.4428
X316.4497 Y9.449
X316.5448 Y9.5456
X316.5989 Y9.6191
X316.6442 Y9.7027
X316.6881 Y9.8239
X316.6976 Y9.8657
X316.7091 Y9.9814
X316.704 Y10.0906
X316.6893 Y10.1705
X316.6617 Y10.2573
X316.621 Y10.344
X316.5737 Y10.4178
X316.5054 Y10.4979
X316.4249 Y10.5685
X316.3478 Y10.619
X316.2672 Y10.6586
X316.2104 Y10.6788
X316.1218 Y10.6998
X316.0406 Y10.709
X315.9433 Y10.7083
X315.8847 Y10.701
X315.7635 Y10.6705
X315.7281 Y10.6574
X315.6895 Y10.6395
X315.5868 Y10.5774
X315.5155 Y10.5207
X315.506 Y10.5117
X315.4341 Y10.4286
X315.3748 Y10.3377
X315.3504 Y10.2897
X315.3306 Y10.2406
X315.3199 Y10.2067
X315.3062 Y10.1371
X315.3005 Y10.0884 Z-7.9922
X315.3023 Y10.0394 Z-7.9845
X315.3104 Y9.996 Z-7.9619
X315.3245 Y9.954 Z-7.9394
X315.3584 Y9.8927 Z-7.8691
X315.3869 Y9.8578 Z-7.7806
X315.3979 Y9.8468 Z-7.6825
G0 Z5
X315.501 Y10.371
Z-5
G1 Z-9.6825 F1200
X315.4867 Y10.365 Z-9.7806
X315.4471 Y10.3435 Z-9.8691
X315.3925 Y10.2995 Z-9.9394
X315.3636 Y10.2661 Z-9.9619
X315.3396 Y10.2289 Z-9.9845
X315.3194 Y10.1843 Z-9.9922
X315.3062 Y10.1371 Z-10
X315.2957 Y10.0839 F3500
X315.291 Y9.9814
X315.3012 Y9.8787
X315.3321 Y9.7565
X315.3391 Y9.7382
X315.4021 Y9.6147
X315.4074 Y9.6065
X315.4654 Y9.5326
X315.5435 Y9.455
X315.5785 Y9.427
X315.6212 Y9.398
X315.6675 Y9.3717
X315.7547 Y9.3333
X315.8223 Y9.3126
X315.9356 Y9.2937
X316.0385 Y9.2918
X316.1616 Y9.3077
X316.1852 Y9.3135
X316.2707 Y9.3432
X316.3478 Y9.381
X316.442 Y9.4428
X316.4497 Y9.449
X316.5448 Y9.5456
X316.5989 Y9.6191
X316.6442 Y9.7027
X316.6881 Y9.8239
X316.6976 Y9.8657
X316.7091 Y9.9814
X316.704 Y10.0906
X316.6893 Y10.1705
X316.6617 Y10.2573
X316.621 Y10.344
X316.5737 Y10.4178
X316.5054 Y10.4979
X316.4249 Y10.5685
X316.3478 Y10.619
X316.2672 Y10.6586
X316.2104 Y10.6788
X316.1218 Y10.6998
X316.0406 Y10.709
X315.9433 Y10.7083
X315.8847 Y10.701
X315.7635 Y10.6705
X315.7281 Y10.6574
X315.6895 Y10.6395
X315.5868 Y10.5774
X315.5155 Y10.5207
X315.506 Y10.5117
X315.4341 Y10.4286
X315.3748 Y10.3377
X315.3504 Y10.2897
X315.3306 Y10.2406
X315.3199 Y10.2067
X315.3062 Y10.1371
X315.3005 Y10.0884 Z-9.9922
X315.3023 Y10.0394 Z-9.9845
X315.3104 Y9.996 Z-9.9619
X315.3245 Y9.954 Z-9.9394
X315.3584 Y9.8927 Z-9.8691
X315.3869 Y9.8578 Z-9.7806
X315.3979 Y9.8468 Z-9.6825
G0 Z5
X315.501 Y10.371
Z-7
G1 Z-11.6825 F1200
X315.4867 Y10.365 Z-11.7806
X315.4471 Y10.3435 Z-11.8691
X315.3925 Y10.2995 Z-11.9394
X315.3636 Y10.2661 Z-11.9619
X315.3396 Y10.2289 Z-11.9845
X315.3194 Y10.1843 Z-11.9922
X315.3062 Y10.1371 Z-12
X315.2957 Y10.0839 F3500
X315.291 Y9.9814
X315.3012 Y9.8787
X315.3321 Y9.7565
X315.3391 Y9.7382
X315.4021 Y9.6147
X315.4074 Y9.6065
X315.4654 Y9.5326
X315.5435 Y9.455
X315.5785 Y9.427
X315.6212 Y9.398
X315.6675 Y9.3717
X315.7547 Y9.3333
X315.8223 Y9.3126
X315.9356 Y9.2937
X316.0385 Y9.2918
X316.1616 Y9.3077
X316.1852 Y9.3135
X316.2707 Y9.3432
X316.3478 Y9.381
X316.442 Y9.4428
X316.4497 Y9.449
X316.5448 Y9.5456
X316.5989 Y9.6191
X316.6442 Y9.7027
X316.6881 Y9.8239
X316.6976 Y9.8657
X316.7091 Y9.9814
X316.704 Y10.0906
X316.6893 Y10.1705
X316.6617 Y10.2573
X316.621 Y10.344
X316.5737 Y10.4178
X316.5054 Y10.4979
X316.4249 Y10.5685
X316.3478 Y10.619
X316.2672 Y10.6586
X316.2104 Y10.6788
X316.1218 Y10.6998
X316.0406 Y10.709
X315.9433 Y10.7083
X315.8847 Y10.701
X315.7635 Y10.6705
X315.7281 Y10.6574
X315.6895 Y10.6395
X315.5868 Y10.5774
X315.5155 Y10.5207
X315.506 Y10.5117
X315.4341 Y10.4286
X315.3748 Y10.3377
X315.3504 Y10.2897
X315.3306 Y10.2406
X315.3199 Y10.2067
X315.3062 Y10.1371
X315.3005 Y10.0884 Z-11.9922
X315.3023 Y10.0394 Z-11.9845
X315.3104 Y9.996 Z-11.9619
X315.3245 Y9.954 Z-11.9394
X315.3584 Y9.8927 Z-11.8691
X315.3869 Y9.8578 Z-11.7806
X315.3979 Y9.8468 Z-11.6825
G0 Z5
X315.501 Y10.371
Z-3
G1 Z-9 F1200
Z-13.0825
X315.4867 Y10.365 Z-13.1806
X315.4471 Y10.3435 Z-13.2691
X315.3925 Y10.2995 Z-13.3394
X315.3636 Y10.2661 Z-13.3619
X315.3396 Y10.2289 Z-13.3845
X315.3194 Y10.1843 Z-13.3922
X315.3062 Y10.1371 Z-13.4
X315.2957 Y10.0839 F3500
X315.291 Y9.9814
X315.3012 Y9.8787
X315.3321 Y9.7565
X315.3391 Y9.7382
X315.4021 Y9.6147
X315.4074 Y9.6065
X315.4654 Y9.5326
X315.5435 Y9.455
X315.5785 Y9.427
X315.6212 Y9.398
X315.6675 Y9.3717
X315.7547 Y9.3333
X315.8223 Y9.3126
X315.9356 Y9.2937
X316.0385 Y9.2918
X316.1616 Y9.3077
X316.1852 Y9.3135
X316.2707 Y9.3432
X316.3478 Y9.381
X316.442 Y9.4428
X316.4497 Y9.449
X316.5448 Y9.5456
X316.5989 Y9.6191
X316.6442 Y9.7027
X316.6881 Y9.8239
X316.6976 Y9.8657
X316.7091 Y9.9814
X316.704 Y10.0906
X316.6893 Y10.1705
X316.6617 Y10.2573
X316.621 Y10.344
X316.5737 Y10.4178
X316.5054 Y10.4979
X316.4249 Y10.5685
X316.3478 Y10.619
X316.2672 Y10.6586
X316.2104 Y10.6788
X316.1218 Y10.6998
X316.0406 Y10.709
X315.9433 Y10.7083
X315.8847 Y10.701
X315.7635 Y10.6705
X315.7281 Y10.6574
X315.6895 Y10.6395
X315.5868 Y10.5774
X315.5155 Y10.5207
X315.506 Y10.5117
X315.4341 Y10.4286
X315.3748 Y10.3377
X315.3504 Y10.2897
X315.3306 Y10.2406
X315.3199 Y10.2067
X315.3062 Y10.1371
X315.3005 Y10.0884 Z-13.3922
X315.3023 Y10.0394 Z-13.3845
X315.3104 Y9.996 Z-13.3619
X315.3245 Y9.954 Z-13.3394
X315.3584 Y9.8927 Z-13.2691
X315.3869 Y9.8578 Z-13.1806
X315.3979 Y9.8468 Z-13.0825
G0 Z5
X335.7439 Y45.5657
Z-3
G1 Z-7.6825 F1200
X335.7285 Y45.5674 Z-7.7806
X335.6834 Y45.5678 Z-7.8691
X335.6143 Y45.5559 Z-7.9394
X335.5728 Y45.5407 Z-7.9619
X335.5338 Y45.5198 Z-7.9845
X335.4945 Y45.4906 Z-7.9922
X335.4601 Y45.4557 Z-8
X335.412 Y45.3988 F3500
X335.3865 Y45.3598
X335.3598 Y45.3098
X335.3371 Y45.2579
X335.3257 Y45.225
X335.298 Y45.1021
X335.2905 Y45
X335.298 Y44.898
X335.3257 Y44.775
X335.3372 Y44.742
X335.3552 Y44.7006
X335.4129 Y44.5982
X335.4672 Y44.53
X335.53 Y44.4669
X335.5702 Y44.4341
X335.6526 Y44.3811
X335.7477 Y44.3367
X335.8333 Y44.3104
X335.9414 Y44.2932
X336.0442 Y44.2921
X336.1571 Y44.3075
X336.2271 Y44.3266
X336.3071 Y44.3585
X336.3287 Y44.3695
X336.4369 Y44.4403
X336.4908 Y44.4866
X336.5526 Y44.5539
X336.6039 Y44.6268
X336.6515 Y44.7176
X336.6768 Y44.7859
X336.702 Y44.898
X336.7095 Y45
X336.702 Y45.1021
X336.6768 Y45.214
X336.6515 Y45.2823
X336.6039 Y45.3732
X336.5526 Y45.4461
X336.4908 Y45.5134
X336.4369 Y45.5597
X336.3444 Y45.6202
X336.2351 Y45.671
X336.2183 Y45.6767
X336.0959 Y45.7028
X335.9928 Y45.7093
X335.8873 Y45.7004
X335.7904 Y45.6779
X335.6952 Y45.6414
X335.6337 Y45.6083
X335.5461 Y45.5464
X335.5057 Y45.5099
X335.4601 Y45.4557
X335.4314 Y45.416 Z-7.9922
X335.4092 Y45.3723 Z-7.9845
X335.3952 Y45.3303 Z-7.9619
X335.3872 Y45.2868 Z-7.9394
X335.387 Y45.2167 Z-7.8691
X335.395 Y45.1724 Z-7.7806
X335.3992 Y45.1574 Z-7.6825
G0 Z5
X335.7439 Y45.5657
Z-5
G1 Z-9.6825 F1200
X335.7285 Y45.5674 Z-9.7806
X335.6834 Y45.5678 Z-9.8691
X335.6143 Y45.5559 Z-9.9394
X335.5728 Y45.5407 Z-9.9619
X335.5338 Y45.5198 Z-9.9845
X335.4945 Y45.4906 Z-9.9922
X335.4601 Y45.4557 Z-10
X335.412 Y45.3988 F3500
X335.3865 Y45.3598
X335.3598 Y45.3098
X335.3371 Y45.2579
X335.3257 Y45.225
X335.298 Y45.1021
X335.2905 Y45
X335.298 Y44.898
X335.3257 Y44.775
X335.3372 Y44.742
X335.3552 Y44.7006
X335.4129 Y44.5982
X335.4672 Y44.53
X335.53 Y44.4669
X335.5702 Y44.4341
X335.6526 Y44.3811
X335.7477 Y44.3367
X335.8333 Y44.3104
X335.9414 Y44.2932
X336.0442 Y44.2921
X336.1571 Y44.3075
X336.2271 Y44.3266
X336.3071 Y44.3585
X336.3287 Y44.3695
X336.4369 Y44.4403
X336.4908 Y44.4866
X336.5526 Y44.5539
X336.6039 Y44.6268
X336.6515 Y44.7176
X336.6768 Y44.7859
X336.702 Y44.898
X336.7095 Y45
X336.702 Y45.1021
X336.6768 Y45.214
X336.6515 Y45.2823
X336.6039 Y45.3732
X336.5526 Y45.4461
X336.4908 Y45.5134
X336.4369 Y45.5597
X336.3444 Y45.6202
X336.2351 Y45.671
X336.2183 Y45.6767
X336.0959 Y45.7028
X335.9928 Y45.7093
X335.8873 Y45.7004
X335.7904 Y45.6779
X335.6952 Y45.6414
X335.6337 Y45.6083
X335.5461 Y45.5464
X335.5057 Y45.5099
X335.4601 Y45.4557
X335.4314 Y45.416 Z-9.9922
X335.4092 Y45.3723 Z-9.9845
X335.3952 Y45.3303 Z-9.9619
X335.3872 Y45.2868 Z-9.9394
X335.387 Y45.2167 Z-9.8691
X335.395 Y45.1724 Z-9.7806
X335.3992 Y45.1574 Z-9.6825
G0 Z5
X335.7439 Y45.5657
Z-7
G1 Z-11.6825 F1200
X335.7285 Y45.5674 Z-11.7806
X335.6834 Y45.5678 Z-11.8691
X335.6143 Y45.5559 Z-11.9394
X335.5728 Y45.5407 Z-11.9619
X335.5338 Y45.5198 Z-11.9845
X335.4945 Y45.4906 Z-11.9922
X335.4601 Y45.4557 Z-12
X335.412 Y45.3988 F3500
X335.3865 Y45.3598
X335.3598 Y45.3098
X335.3371 Y45.2579
X335.3257 Y45.225
X335.298 Y45.1021
X335.2905 Y45
X335.298 Y44.898
X335.3257 Y44.775
X335.3372 Y44.742
X335.3552 Y44.7006
X335.4129 Y44.5982
X335.4672 Y44.53
X335.53 Y44.4669
X335.5702 Y44.4341
X335.6526 Y44.3811
X335.7477 Y44.3367
X335.8333 Y44.3104
X335.9414 Y44.2932
X336.0442 Y44.2921
X336.1571 Y44.3075
X336.2271 Y44.3266
X336.3071 Y44.3585
X336.3287 Y44.3695
X336.4369 Y44.4403
X336.4908 Y44.4866
X336.5526 Y44.5539
X336.6039 Y44.6268
X336.6515 Y44.7176
X336.6768 Y44.7859
X336.702 Y44.898
X336.7095 Y45
X336.702 Y45.1021
X336.6768 Y45.214
X336.6515 Y45.2823
X336.6039 Y45.3732
X336.5526 Y45.4461
X336.4908 Y45.5134
X336.4369 Y45.5597
X336.3444 Y45.6202
X336.2351 Y45.671
X336.2183 Y45.6767
X336.0959 Y45.7028
X335.9928 Y45.7093
X335.8873 Y45.7004
X335.7904 Y45.6779
X335.6952 Y45.6414
X335.6337 Y45.6083
X335.5461 Y45.5464
X335.5057 Y45.5099
X335.4601 Y45.4557
X335.4314 Y45.416 Z-11.9922
X335.4092 Y45.3723 Z-11.9845
X335.3952 Y45.3303 Z-11.9619
X335.3872 Y45.2868 Z-11.9394
X335.387 Y45.2167 Z-11.8691
X335.395 Y45.1724 Z-11.7806
X335.3992 Y45.1574 Z-11.6825
G0 Z5
X336.4889 Y44.6158
Z-3
G1 Z-9 F1200
Z-13.0825
X336.5034 Y44.6215 Z-13.1806
X336.5435 Y44.6418 Z-13.2691
X336.5993 Y44.6843 Z-13.3394
X336.6291 Y44.717 Z-13.3619
X336.6541 Y44.7535 Z-13.3845
X336.6755 Y44.7975 Z-13.3922
X336.6899 Y44.8444 Z-13.4
X336.702 Y44.898 F3500
X336.7095 Y45
X336.702 Y45.1021
X336.6768 Y45.214
X336.6515 Y45.2823
X336.6039 Y45.3732
X336.5526 Y45.4461
X336.4908 Y45.5134
X336.4369 Y45.5597
X336.3444 Y45.6202
X336.2351 Y45.671
X336.2183 Y45.6767
X336.0959 Y45.7028
X335.9928 Y45.7093
X335.8873 Y45.7004
X335.7904 Y45.6779
X335.6952 Y45.6414
X335.6337 Y45.6083
X335.5461 Y45.5464
X335.5057 Y45.5099
X335.412 Y45.3988
X335.3865 Y45.3598
X335.3598 Y45.3098
X335.3371 Y45.2579
X335.3257 Y45.225
X335.298 Y45.1021
X335.2905 Y45
X335.298 Y44.898
X335.3257 Y44.775
X335.3372 Y44.742
X335.3552 Y44.7006
X335.4129 Y44.5982
X335.4672 Y44.53
X335.53 Y44.4669
X335.5702 Y44.4341
X335.6526 Y44.3811
X335.7477 Y44.3367
X335.8333 Y44.3104
X335.9414 Y44.2932
X336.0442 Y44.2921
X336.1571 Y44.3075
X336.2271 Y44.3266
X336.3071 Y44.3585
X336.3287 Y44.3695
X336.4369 Y44.4403
X336.4908 Y44.4866
X336.5526 Y44.5539
X336.6039 Y44.6268
X336.6515 Y44.7176
X336.6768 Y44.7859
X336.6899 Y44.8444
X336.697 Y44.8929 Z-13.3922
X336.6965 Y44.9419 Z-13.3845
X336.6896 Y44.9855 Z-13.3619
X336.6766 Y45.0278 Z-13.3394
X336.6445 Y45.0901 Z-13.2691
X336.6169 Y45.1257 Z-13.1806
X336.6063 Y45.1371 Z-13.0825
G0 Z5
X229.8157 Y10.4069
Z-3
G1 Z-7.6825 F1200
X229.8009 Y10.4019 Z-7.7806
X229.7599 Y10.3835 Z-7.8691
X229.7022 Y10.3436 Z-7.9394
X229.6709 Y10.3124 Z-7.9619
X229.6442 Y10.2771 Z-7.9845
X229.6207 Y10.2341 Z-7.9922
X229.6041 Y10.188 Z-8
X229.5898 Y10.1362 F3500
X229.5775 Y10.033
X229.5807 Y9.9085
X229.5824 Y9.8959
X229.6174 Y9.7577
X229.6239 Y9.7406
X229.6904 Y9.6115
X229.701 Y9.5954
X229.7554 Y9.5275
X229.8263 Y9.4575
X229.8672 Y9.4251
X229.9059 Y9.3992
X229.995 Y9.352
X230.0628 Y9.3261
X230.1758 Y9.2994
X230.2789 Y9.2907
X230.3821 Y9.2972
X230.5038 Y9.3232
X230.5366 Y9.3343
X230.5798 Y9.3527
X230.6627 Y9.3985
X230.7497 Y9.4636
X230.8306 Y9.5456
X230.8826 Y9.6164
X230.9348 Y9.7141
X230.9765 Y9.8336
X230.9872 Y9.8826
X230.9915 Y9.9125
X230.9946 Y10.0364
X230.9844 Y10.1271
X230.9672 Y10.1993
X230.9284 Y10.3043
X230.9147 Y10.3314
X230.8591 Y10.4183
X230.7819 Y10.5089
X230.7557 Y10.5331
X230.6651 Y10.6002
X230.5944 Y10.6392
X230.4899 Y10.6798
X230.4061 Y10.7001
X230.3358 Y10.7085
X230.2287 Y10.7082
X230.1727 Y10.7013
X230.0667 Y10.6754
X229.995 Y10.648
X229.914 Y10.605
X229.8499 Y10.5605
X229.7721 Y10.4913
X229.7488 Y10.4654
X229.6896 Y10.3852
X229.6307 Y10.276
X229.6232 Y10.2576
X229.6041 Y10.188
X229.5948 Y10.1399 Z-7.9922
X229.593 Y10.0909 Z-7.9845
X229.5979 Y10.047 Z-7.9619
X229.6088 Y10.0041 Z-7.9394
X229.638 Y9.9404 Z-7.8691
X229.6639 Y9.9035 Z-7.7806
X229.674 Y9.8917 Z-7.6825
G0 Z5
X229.8157 Y10.4069
Z-5
G1 Z-9.6825 F1200
X229.8009 Y10.4019 Z-9.7806
X229.7599 Y10.3835 Z-9.8691
X229.7022 Y10.3436 Z-9.9394
X229.6709 Y10.3124 Z-9.9619
X229.6442 Y10.2771 Z-9.9845
X229.6207 Y10.2341 Z-9.9922
X229.6041 Y10.188 Z-10
X229.5898 Y10.1362 F3500
X229.5775 Y10.033
X229.5807 Y9.9085
X229.5824 Y9.8959
X229.6174 Y9.7577
X229.6239 Y9.7406
X229.6904 Y9.6115
X229.701 Y9.5954
X229.7554 Y9.5275
X229.8263 Y9.4575
X229.8672 Y9.4251
X229.9059 Y9.3992
X229.995 Y9.352
X230.0628 Y9.3261
X230.1758 Y9.2994
X230.2789 Y9.2907
X230.3821 Y9.2972
X230.5038 Y9.3232
X230.5366 Y9.3343
X230.5798 Y9.3527
X230.6627 Y9.3985
X230.7497 Y9.4636
X230.8306 Y9.5456
X230.8826 Y9.6164
X230.9348 Y9.7141
X230.9765 Y9.8336
X230.9872 Y9.8826
X230.9915 Y9.9125
X230.9946 Y10.0364
X230.9844 Y10.1271
X230.9672 Y10.1993
X230.9284 Y10.3043
X230.9147 Y10.3314
X230.8591 Y10.4183
X230.7819 Y10.5089
X230.7557 Y10.5331
X230.6651 Y10.6002
X230.5944 Y10.6392
X230.4899 Y10.6798
X230.4061 Y10.7001
X230.3358 Y10.7085
X230.2287 Y10.7082
X230.1727 Y10.7013
X230.0667 Y10.6754
X229.995 Y10.648
X229.914 Y10.605
X229.8499 Y10.5605
X229.7721 Y10.4913
X229.7488 Y10.4654
X229.6896 Y10.3852
X229.6307 Y10.276
X229.6232 Y10.2576
X229.6041 Y10.188
X229.5948 Y10.1399 Z-9.9922
X229.593 Y10.0909 Z-9.9845
X229.5979 Y10.047 Z-9.9619
X229.6088 Y10.0041 Z-9.9394
X229.638 Y9.9404 Z-9.8691
X229.6639 Y9.9035 Z-9.7806
X229.674 Y9.8917 Z-9.6825
G0 Z5
X229.8157 Y10.4069
Z-7
G1 Z-11.6825 F1200
X229.8009 Y10.4019 Z-11.7806
X229.7599 Y10.3835 Z-11.8691
X229.7022 Y10.3436 Z-11.9394
X229.6709 Y10.3124 Z-11.9619
X229.6442 Y10.2771 Z-11.9845
X229.6207 Y10.2341 Z-11.9922
X229.6041 Y10.188 Z-12
X229.5898 Y10.1362 F3500
X229.5775 Y10.033
X229.5807 Y9.9085
X229.5824 Y9.8959
X229.6174 Y9.7577
X229.6239 Y9.7406
X229.6904 Y9.6115
X229.701 Y9.5954
X229.7554 Y9.5275
X229.8263 Y9.4575
X229.8672 Y9.4251
X229.9059 Y9.3992
X229.995 Y9.352
X230.0628 Y9.3261
X230.1758 Y9.2994
X230.2789 Y9.2907
X230.3821 Y9.2972
X230.5038 Y9.3232
X230.5366 Y9.3343
X230.5798 Y9.3527
X230.6627 Y9.3985
X230.7497 Y9.4636
X230.8306 Y9.5456
X230.8826 Y9.6164
X230.9348 Y9.7141
X230.9765 Y9.8336
X230.9872 Y9.8826
X230.9915 Y9.9125
X230.9946 Y10.0364
X230.9844 Y10.1271
X230.9672 Y10.1993
X230.9284 Y10.3043
X230.9147 Y10.3314
X230.8591 Y10.4183
X230.7819 Y10.5089
X230.7557 Y10.5331
X230.6651 Y10.6002
X230.5944 Y10.6392
X230.4899 Y10.6798
X230.4061 Y10.7001
X230.3358 Y10.7085
X230.2287 Y10.7082
X230.1727 Y10.7013
X230.0667 Y10.6754
X229.995 Y10.648
X229.914 Y10.605
X229.8499 Y10.5605
X229.7721 Y10.4913
X229.7488 Y10.4654
X229.6896 Y10.3852
X229.6307 Y10.276
X229.6232 Y10.2576
X229.6041 Y10.188
X229.5948 Y10.1399 Z-11.9922
X229.593 Y10.0909 Z-11.9845
X229.5979 Y10.047 Z-11.9619
X229.6088 Y10.0041 Z-11.9394
X229.638 Y9.9404 Z-11.8691
X229.6639 Y9.9035 Z-11.7806
X229.674 Y9.8917 Z-11.6825
G0 Z5
X229.8157 Y10.4069
Z-3
G1 Z-9 F1200
Z-13.0825
X229.8009 Y10.4019 Z-13.1806
X229.7599 Y10.3835 Z-13.2691
X229.7022 Y10.3436 Z-13.3394
X229.6709 Y10.3124 Z-13.3619
X229.6442 Y10.2771 Z-13.3845
X229.6207 Y10.2341 Z-13.3922
X229.6041 Y10.188 Z-13.4
X229.5898 Y10.1362 F3500
X229.5775 Y10.033
X229.5807 Y9.9085
X229.5824 Y9.8959
X229.6174 Y9.7577
X229.6239 Y9.7406
X229.6904 Y9.6115
X229.701 Y9.5954
X229.7554 Y9.5275
X229.8263 Y9.4575
X229.8672 Y9.4251
X229.9059 Y9.3992
X229.995 Y9.352
X230.0628 Y9.3261
X230.1758 Y9.2994
X230.2789 Y9.2907
X230.3821 Y9.2972
X230.5038 Y9.3232
X230.5366 Y9.3343
X230.5798 Y9.3527
X230.6627 Y9.3985
X230.7497 Y9.4636
X230.8306 Y9.5456
X230.8826 Y9.6164
X230.9348 Y9.7141
X230.9765 Y9.8336
X230.9872 Y9.8826
X230.9915 Y9.9125
X230.9946 Y10.0364
X230.9844 Y10.1271
X230.9672 Y10.1993
X230.9284 Y10.3043
X230.9147 Y10.3314
X230.8591 Y10.4183
X230.7819 Y10.5089
X230.7557 Y10.5331
X230.6651 Y10.6002
X230.5944 Y10.6392
X230.4899 Y10.6798
X230.4061 Y10.7001
X230.3358 Y10.7085
X230.2287 Y10.7082
X230.1727 Y10.7013
X230.0667 Y10.6754
X229.995 Y10.648
X229.914 Y10.605
X229.8499 Y10.5605
X229.7721 Y10.4913
X229.7488 Y10.4654
X229.6896 Y10.3852
X229.6307 Y10.276
X229.6232 Y10.2576
X229.6041 Y10.188
X229.5948 Y10.1399 Z-13.3922
X229.593 Y10.0909 Z-13.3845
X229.5979 Y10.047 Z-13.3619
X229.6088 Y10.0041 Z-13.3394
X229.638 Y9.9404 Z-13.2691
X229.6639 Y9.9035 Z-13.1806
X229.674 Y9.8917 Z-13.0825
G0 Z5
X122.091 Y9.5054
Z-3
G1 Z-7.6825 F1200
X122.1064 Y9.5073 Z-7.7806
X122.1504 Y9.5169 Z-7.8691
X122.2151 Y9.5441 Z-7.9394
X122.2521 Y9.5682 Z-7.9619
X122.2854 Y9.5973 Z-7.9845
X122.3173 Y9.6345 Z-7.9922
X122.343 Y9.6762 Z-8
X122.3714 Y9.7314 F3500
X122.3968 Y9.8022
X122.4121 Y9.8678
X122.4231 Y9.9808
X122.4184 Y10.0846
X122.3942 Y10.2075
X122.3875 Y10.2289
X122.3499 Y10.3159
X122.2823 Y10.4271
X122.2712 Y10.4413
X122.1799 Y10.5356
X122.1218 Y10.5814
X122.0192 Y10.6424
X121.9818 Y10.6593
X121.9439 Y10.6729
X121.8392 Y10.6985
X121.7301 Y10.7093
X121.6297 Y10.7049
X121.549 Y10.6905
X121.4502 Y10.66
X121.4203 Y10.6473
X121.335 Y10.6002
X121.2443 Y10.5331
X121.2182 Y10.5089
X121.1474 Y10.4259
X121.0733 Y10.3051
X121.0471 Y10.2436
X121.0225 Y10.1622
X121.0104 Y10.0936
X121.0042 Y9.9612
X121.0054 Y9.9398
X121.0192 Y9.8532
X121.0469 Y9.7586
X121.0864 Y9.6688
X121.1306 Y9.5958
X121.1985 Y9.5118
X121.2504 Y9.4624
X121.335 Y9.3998
X121.4203 Y9.3527
X121.4535 Y9.3386
X121.5407 Y9.311
X121.6084 Y9.2978
X121.7212 Y9.2907
X121.8243 Y9.2994
X121.9373 Y9.3261
X122.0051 Y9.352
X122.0846 Y9.3942
X122.1605 Y9.4472
X122.2085 Y9.4897
X122.2681 Y9.5557
X122.3163 Y9.6243
X122.343 Y9.6762
X122.362 Y9.7214 Z-7.9922
X122.3738 Y9.769 Z-7.9845
X122.3781 Y9.813 Z-7.9619
X122.3762 Y9.8572 Z-7.9394
X122.3606 Y9.9255 Z-7.8691
X122.3429 Y9.9669 Z-7.7806
X122.3354 Y9.9806 Z-7.6825
G0 Z5
X122.091 Y9.5054
Z-5
G1 Z-9.6825 F1200
X122.1064 Y9.5073 Z-9.7806
X122.1504 Y9.5169 Z-9.8691
X122.2151 Y9.5441 Z-9.9394
X122.2521 Y9.5682 Z-9.9619
X122.2854 Y9.5973 Z-9.9845
X122.3173 Y9.6345 Z-9.9922
X122.343 Y9.6762 Z-10
X122.3714 Y9.7314 F3500
X122.3968 Y9.8022
X122.4121 Y9.8678
X122.4231 Y9.9808
X122.4184 Y10.0846
X122.3942 Y10.2075
X122.3875 Y10.2289
X122.3499 Y10.3159
X122.2823 Y10.4271
X122.2712 Y10.4413
X122.1799 Y10.5356
X122.1218 Y10.5814
X122.0192 Y10.6424
X121.9818 Y10.6593
X121.9439 Y10.6729
X121.8392 Y10.6985
X121.7301 Y10.7093
X121.6297 Y10.7049
X121.549 Y10.6905
X121.4502 Y10.66
X121.4203 Y10.6473
X121.335 Y10.6002
X121.2443 Y10.5331
X121.2182 Y10.5089
X121.1474 Y10.4259
X121.0733 Y10.3051
X121.0471 Y10.2436
X121.0225 Y10.1622
X121.0104 Y10.0936
X121.0042 Y9.9612
X121.0054 Y9.9398
X121.0192 Y9.8532
X121.0469 Y9.7586
X121.0864 Y9.6688
X121.1306 Y9.5958
X121.1985 Y9.5118
X121.2504 Y9.4624
X121.335 Y9.3998
X121.4203 Y9.3527
X121.4535 Y9.3386
X121.5407 Y9.311
X121.6084 Y9.2978
X121.7212 Y9.2907
X121.8243 Y9.2994
X121.9373 Y9.3261
X122.0051 Y9.352
X122.0846 Y9.3942
X122.1605 Y9.4472
X122.2085 Y9.4897
X122.2681 Y9.5557
X122.3163 Y9.6243
X122.343 Y9.6762
X122.362 Y9.7214 Z-9.9922
X122.3738 Y9.769 Z-9.9845
X122.3781 Y9.813 Z-9.9619
X122.3762 Y9.8572 Z-9.9394
X122.3606 Y9.9255 Z-9.8691
X122.3429 Y9.9669 Z-9.7806
X122.3354 Y9.9806 Z-9.6825
G0 Z5
X122.091 Y9.5054
Z-7
G1 Z-11.6825 F1200
X122.1064 Y9.5073 Z-11.7806
X122.1504 Y9.5169 Z-11.8691
X122.2151 Y9.5441 Z-11.9394
X122.2521 Y9.5682 Z-11.9619
X122.2854 Y9.5973 Z-11.9845
X122.3173 Y9.6345 Z-11.9922
X122.343 Y9.6762 Z-12
X122.3714 Y9.7314 F3500
X122.3968 Y9.8022
X122.4121 Y9.8678
X122.4231 Y9.9808
X122.4184 Y10.0846
X122.3942 Y10.2075
X122.3875 Y10.2289
X122.3499 Y10.3159
X122.2823 Y10.4271
X122.2712 Y10.4413
X122.1799 Y10.5356
X122.1218 Y10.5814
X122.0192 Y10.6424
X121.9818 Y10.6593
X121.9439 Y10.6729
X121.8392 Y10.6985
X121.7301 Y10.7093
X121.6297 Y10.7049
X121.549 Y10.6905
X121.4502 Y10.66
X121.4203 Y10.6473
X121.335 Y10.6002
X121.2443 Y10.5331
X121.2182 Y10.5089
X121.1474 Y10.4259
X121.0733 Y10.3051
X121.0471 Y10.2436
X121.0225 Y10.1622
X121.0104 Y10.0936
X121.0042 Y9.9612
X121.0054 Y9.9398
X121.0192 Y9.8532
X121.0469 Y9.7586
X121.0864 Y9.6688
X121.1306 Y9.5958
X121.1985 Y9.5118
X121.2504 Y9.4624
X121.335 Y9.3998
X121.4203 Y9.3527
X121.4535 Y9.3386
X121.5407 Y9.311
X121.6084 Y9.2978
X121.7212 Y9.2907
X121.8243 Y9.2994
X121.9373 Y9.3261
X122.0051 Y9.352
X122.0846 Y9.3942
X122.1605 Y9.4472
X122.2085 Y9.4897
X122.2681 Y9.5557
X122.3163 Y9.6243
X122.343 Y9.6762
X122.362 Y9.7214 Z-11.9922
X122.3738 Y9.769 Z-11.9845
X122.3781 Y9.813 Z-11.9619
X122.3762 Y9.8572 Z-11.9394
X122.3606 Y9.9255 Z-11.8691
X122.3429 Y9.9669 Z-11.7806
X122.3354 Y9.9806 Z-11.6825
G0 Z5
X121.3769 Y10.5206
Z-3
G1 Z-9 F1200
Z-13.0825
X121.3614 Y10.5199 Z-13.1806
X121.3168 Y10.5136 Z-13.2691
X121.2503 Y10.4914 Z-13.3394
X121.2115 Y10.4702 Z-13.3619
X121.176 Y10.4437 Z-13.3845
X121.1415 Y10.409 Z-13.3922
X121.1127 Y10.3693 Z-13.4
X121.0733 Y10.3051 F3500
X121.0471 Y10.2436
X121.0225 Y10.1622
X121.0104 Y10.0936
X121.0042 Y9.9612
X121.0054 Y9.9398
X121.0192 Y9.8532
X121.0469 Y9.7586
X121.0864 Y9.6688
X121.1306 Y9.5958
X121.1985 Y9.5118
X121.2504 Y9.4624
X121.335 Y9.3998
X121.4203 Y9.3527
X121.4535 Y9.3386
X121.5407 Y9.311
X121.6084 Y9.2978
X121.7212 Y9.2907
X121.8243 Y9.2994
X121.9373 Y9.3261
X122.0051 Y9.352
X122.0846 Y9.3942
X122.1605 Y9.4472
X122.2085 Y9.4897
X122.2681 Y9.5557
X122.3163 Y9.6243
X122.3714 Y9.7314
X122.3968 Y9.8022
X122.4121 Y9.8678
X122.4231 Y9.9808
X122.4184 Y10.0846
X122.3942 Y10.2075
X122.3875 Y10.2289
X122.3499 Y10.3159
X122.2823 Y10.4271
X122.2712 Y10.4413
X122.1799 Y10.5356
X122.1218 Y10.5814
X122.0192 Y10.6424
X121.9818 Y10.6593
X121.9439 Y10.6729
X121.8392 Y10.6985
X121.7301 Y10.7093
X121.6297 Y10.7049
X121.549 Y10.6905
X121.4502 Y10.66
X121.4203 Y10.6473
X121.335 Y10.6002
X121.2443 Y10.5331
X121.2182 Y10.5089
X121.1474 Y10.4259
X121.1127 Y10.3693
X121.0903 Y10.3257 Z-13.3922
X121.075 Y10.2792 Z-13.3845
X121.0674 Y10.2356 Z-13.3619
X121.0659 Y10.1914 Z-13.3394
X121.0763 Y10.1221 Z-13.2691
X121.0908 Y10.0794 Z-13.1806
X121.0972 Y10.0653 Z-13.0825
G0 Z5
X36.6186 Y9.9383
Z-3
G1 Z-7.6825 F1200
X36.6277 Y9.9509 Z-7.7806
X36.6507 Y9.9896 Z-7.8691
X36.6749 Y10.0554 Z-7.9394
X36.6825 Y10.099 Z-7.9619
X36.6839 Y10.1432 Z-7.9845
X36.6784 Y10.1919 Z-7.9922
X36.6653 Y10.2391 Z-8
X36.6412 Y10.3062 F3500
X36.6251 Y10.3379
X36.5658 Y10.4289
X36.5043 Y10.4999
X36.4388 Y10.5587
X36.3711 Y10.6064
X36.3327 Y10.6282
X36.2454 Y10.6668
X36.1724 Y10.689
X36.0692 Y10.7075
X36.0361 Y10.7098
X35.9138 Y10.7047
X35.8375 Y10.6913
X35.7425 Y10.6627
X35.702 Y10.6458
X35.6605 Y10.6245
X35.5753 Y10.5686
X35.4944 Y10.4976
X35.4329 Y10.4257
X35.3643 Y10.3136
X35.3208 Y10.2065
X35.302 Y10.1312
X35.2914 Y10.0369
X35.2943 Y9.9233
X35.3059 Y9.8519
X35.3425 Y9.7326
X35.3691 Y9.6741
X35.4164 Y9.5958
X35.483 Y9.5136
X35.5531 Y9.4473
X35.5984 Y9.4131
X35.6417 Y9.3861
X35.7291 Y9.3432
X35.7962 Y9.3199
X35.91 Y9.2965
X36.0129 Y9.2909
X36.1159 Y9.3004
X36.2403 Y9.3308
X36.2719 Y9.3424
X36.3231 Y9.3664
X36.3702 Y9.3931
X36.4465 Y9.4471
X36.4948 Y9.49
X36.5604 Y9.5638
X36.6052 Y9.6289
X36.657 Y9.7302
X36.6828 Y9.8022
X36.6981 Y9.8678
X36.7091 Y9.9808
X36.7044 Y10.0846
X36.6844 Y10.1864
X36.6653 Y10.2391
X36.6452 Y10.2838 Z-7.9922
X36.6185 Y10.3249 Z-7.9845
X36.5892 Y10.358 Z-7.9619
X36.5555 Y10.3867 Z-7.9394
X36.4949 Y10.4219 Z-7.8691
X36.4525 Y10.4372 Z-7.7806
X36.4375 Y10.441 Z-7.6825
G0 Z5
X35.6617 Y10.5201
Z-5
G1 Z-9.6825 F1200
X35.6462 Y10.5194 Z-9.7806
X35.6015 Y10.513 Z-9.8691
X35.5351 Y10.4907 Z-9.9394
X35.4964 Y10.4694 Z-9.9619
X35.461 Y10.4429 Z-9.9845
X35.4265 Y10.408 Z-9.9922
X35.3978 Y10.3683 Z-10
X35.3643 Y10.3136 F3500
X35.3208 Y10.2065
X35.302 Y10.1312
X35.2914 Y10.0369
X35.2943 Y9.9233
X35.3059 Y9.8519
X35.3425 Y9.7326
X35.3691 Y9.6741
X35.4164 Y9.5958
X35.483 Y9.5136
X35.5531 Y9.4473
X35.5984 Y9.4131
X35.6417 Y9.3861
X35.7291 Y9.3432
X35.7962 Y9.3199
X35.91 Y9.2965
X36.0129 Y9.2909
X36.1159 Y9.3004
X36.2403 Y9.3308
X36.2719 Y9.3424
X36.3231 Y9.3664
X36.3702 Y9.3931
X36.4465 Y9.4471
X36.4948 Y9.49
X36.5604 Y9.5638
X36.6052 Y9.6289
X36.657 Y9.7302
X36.6828 Y9.8022
X36.6981 Y9.8678
X36.7091 Y9.9808
X36.7044 Y10.0846
X36.6844 Y10.1864
X36.6412 Y10.3062
X36.6251 Y10.3379
X36.5658 Y10.4289
X36.5043 Y10.4999
X36.4388 Y10.5587
X36.3711 Y10.6064
X36.3327 Y10.6282
X36.2454 Y10.6668
X36.1724 Y10.689
X36.0692 Y10.7075
X36.0361 Y10.7098
X35.9138 Y10.7047
X35.8375 Y10.6913
X35.7425 Y10.6627
X35.702 Y10.6458
X35.6605 Y10.6245
X35.5753 Y10.5686
X35.4944 Y10.4976
X35.4329 Y10.4257
X35.3978 Y10.3683
X35.3755 Y10.3247 Z-9.9922
X35.3602 Y10.2781 Z-9.9845
X35.3527 Y10.2345 Z-9.9619
X35.3513 Y10.1903 Z-9.9394
X35.3618 Y10.121 Z-9.8691
X35.3764 Y10.0784 Z-9.7806
X35.3829 Y10.0643 Z-9.6825
G0 Z5
X36.6186 Y9.9383
Z-7
G1 Z-11.6825 F1200
X36.6277 Y9.9509 Z-11.7806
X36.6507 Y9.9896 Z-11.8691
X36.6749 Y10.0554 Z-11.9394
X36.6825 Y10.099 Z-11.9619
X36.6839 Y10.1432 Z-11.9845
X36.6784 Y10.1919 Z-11.9922
X36.6653 Y10.2391 Z-12
X36.6412 Y10.3062 F3500
X36.6251 Y10.3379
X36.5658 Y10.4289
X36.5043 Y10.4999
X36.4388 Y10.5587
X36.3711 Y10.6064
X36.3327 Y10.6282
X36.2454 Y10.6668
X36.1724 Y10.689
X36.0692 Y10.7075
X36.0361 Y10.7098
X35.9138 Y10.7047
X35.8375 Y10.6913
X35.7425 Y10.6627
X35.702 Y10.6458
X35.6605 Y10.6245
X35.5753 Y10.5686
X35.4944 Y10.4976
X35.4329 Y10.4257
X35.3643 Y10.3136
X35.3208 Y10.2065
X35.302 Y10.1312
X35.2914 Y10.0369
X35.2943 Y9.9233
X35.3059 Y9.8519
X35.3425 Y9.7326
X35.3691 Y9.6741
X35.4164 Y9.5958
X35.483 Y9.5136
X35.5531 Y9.4473
X35.5984 Y9.4131
X35.6417 Y9.3861
X35.7291 Y9.3432
X35.7962 Y9.3199
X35.91 Y9.2965
X36.0129 Y9.2909
X36.1159 Y9.3004
X36.2403 Y9.3308
X36.2719 Y9.3424
X36.3231 Y9.3664
X36.3702 Y9.3931
X36.4465 Y9.4471
X36.4948 Y9.49
X36.5604 Y9.5638
X36.6052 Y9.6289
X36.657 Y9.7302
X36.6828 Y9.8022
X36.6981 Y9.8678
X36.7091 Y9.9808
X36.7044 Y10.0846
X36.6844 Y10.1864
X36.6653 Y10.2391
X36.6452 Y10.2838 Z-11.9922
X36.6185 Y10.3249 Z-11.9845
X36.5892 Y10.358 Z-11.9619
X36.5555 Y10.3867 Z-11.9394
X36.4949 Y10.4219 Z-11.8691
X36.4525 Y10.4372 Z-11.7806
X36.4375 Y10.441 Z-11.6825
G0 Z5
X36.6186 Y9.9383
Z-3
G1 Z-9 F1200
Z-13.0825
X36.6277 Y9.9509 Z-13.1806
X36.6507 Y9.9896 Z-13.2691
X36.6749 Y10.0554 Z-13.3394
X36.6825 Y10.099 Z-13.3619
X36.6839 Y10.1432 Z-13.3845
X36.6784 Y10.1919 Z-13.3922
X36.6653 Y10.2391 Z-13.4
X36.6412 Y10.3062 F3500
X36.6251 Y10.3379
X36.5658 Y10.4289
X36.5043 Y10.4999
X36.4388 Y10.5587
X36.3711 Y10.6064
X36.3327 Y10.6282
X36.2454 Y10.6668
X36.1724 Y10.689
X36.0692 Y10.7075
X36.0361 Y10.7098
X35.9138 Y10.7047
X35.8375 Y10.6913
X35.7425 Y10.6627
X35.702 Y10.6458
X35.6605 Y10.6245
X35.5753 Y10.5686
X35.4944 Y10.4976
X35.4329 Y10.4257
X35.3643 Y10.3136
X35.3208 Y10.2065
X35.302 Y10.1312
X35.2914 Y10.0369
X35.2943 Y9.9233
X35.3059 Y9.8519
X35.3425 Y9.7326
X35.3691 Y9.6741
X35.4164 Y9.5958
X35.483 Y9.5136
X35.5531 Y9.4473
X35.5984 Y9.4131
X35.6417 Y9.3861
X35.7291 Y9.3432
X35.7962 Y9.3199
X35.91 Y9.2965
X36.0129 Y9.2909
X36.1159 Y9.3004
X36.2403 Y9.3308
X36.2719 Y9.3424
X36.3231 Y9.3664
X36.3702 Y9.3931
X36.4465 Y9.4471
X36.4948 Y9.49
X36.5604 Y9.5638
X36.6052 Y9.6289
X36.657 Y9.7302
X36.6828 Y9.8022
X36.6981 Y9.8678
X36.7091 Y9.9808
X36.7044 Y10.0846
X36.6844 Y10.1864
X36.6653 Y10.2391
X36.6452 Y10.2838 Z-13.3922
X36.6185 Y10.3249 Z-13.3845
X36.5892 Y10.358 Z-13.3619
X36.5555 Y10.3867 Z-13.3394
X36.4949 Y10.4219 Z-13.2691
X36.4525 Y10.4372 Z-13.1806
X36.4375 Y10.441 Z-13.0825
G0 Z5
X15.5101 Y45.3828
Z-3
G1 Z-7.6825 F1200
X15.4956 Y45.3771 Z-7.7806
X15.4555 Y45.3566 Z-7.8691
X15.3998 Y45.314 Z-7.9394
X15.3701 Y45.2812 Z-7.9619
X15.3453 Y45.2447 Z-7.9845
X15.3239 Y45.2006 Z-7.9922
X15.3096 Y45.1537 Z-8
X15.2983 Y45.1029 F3500
X15.2906 Y45
X15.2983 Y44.8971
X15.3257 Y44.7742
X15.3702 Y44.6732
X15.4268 Y44.581
X15.4723 Y44.5248
X15.5465 Y44.453
X15.5985 Y44.4132
X15.6433 Y44.3855
X15.765 Y44.329
X15.782 Y44.3232
X15.9042 Y44.2972
X16.0072 Y44.2908
X16.1127 Y44.2997
X16.2095 Y44.3221
X16.3053 Y44.3589
X16.3668 Y44.3918
X16.4538 Y44.4534
X16.4943 Y44.4901
X16.5879 Y44.6008
X16.6133 Y44.6398
X16.6314 Y44.6736
X16.6794 Y44.7959
X16.7023 Y44.8971
X16.7096 Y45
X16.7023 Y45.1029
X16.6795 Y45.2041
X16.6357 Y45.3155
X16.5991 Y45.3802
X16.5241 Y45.4787
X16.4698 Y45.5334
X16.4301 Y45.5658
X16.3473 Y45.6191
X16.2527 Y45.6633
X16.1672 Y45.6895
X16.0585 Y45.7069
X15.9559 Y45.708
X15.8432 Y45.6925
X15.7732 Y45.6733
X15.6923 Y45.6411
X15.6708 Y45.6302
X15.5632 Y45.5597
X15.5097 Y45.5138
X15.4481 Y45.4466
X15.3961 Y45.3728
X15.3478 Y45.2806
X15.3232 Y45.2147
X15.3096 Y45.1537
X15.3027 Y45.1052 Z-7.9922
X15.3033 Y45.0562 Z-7.9845
X15.3104 Y45.0125 Z-7.9619
X15.3234 Y44.9703 Z-7.9394
X15.3558 Y44.9081 Z-7.8691
X15.3834 Y44.8725 Z-7.7806
X15.3941 Y44.8612 Z-7.6825
G0 Z5
X15.5101 Y45.3828
Z-5
G1 Z-9.6825 F1200
X15.4956 Y45.3771 Z-9.7806
X15.4555 Y45.3566 Z-9.8691
X15.3998 Y45.314 Z-9.9394
X15.3701 Y45.2812 Z-9.9619
X15.3453 Y45.2447 Z-9.9845
X15.3239 Y45.2006 Z-9.9922
X15.3096 Y45.1537 Z-10
X15.2983 Y45.1029 F3500
X15.2906 Y45
X15.2983 Y44.8971
X15.3257 Y44.7742
X15.3702 Y44.6732
X15.4268 Y44.581
X15.4723 Y44.5248
X15.5465 Y44.453
X15.5985 Y44.4132
X15.6433 Y44.3855
X15.765 Y44.329
X15.782 Y44.3232
X15.9042 Y44.2972
X16.0072 Y44.2908
X16.1127 Y44.2997
X16.2095 Y44.3221
X16.3053 Y44.3589
X16.3668 Y44.3918
X16.4538 Y44.4534
X16.4943 Y44.4901
X16.5879 Y44.6008
X16.6133 Y44.6398
X16.6314 Y44.6736
X16.6794 Y44.7959
X16.7023 Y44.8971
X16.7096 Y45
X16.7023 Y45.1029
X16.6795 Y45.2041
X16.6357 Y45.3155
X16.5991 Y45.3802
X16.5241 Y45.4787
X16.4698 Y45.5334
X16.4301 Y45.5658
X16.3473 Y45.6191
X16.2527 Y45.6633
X16.1672 Y45.6895
X16.0585 Y45.7069
X15.9559 Y45.708
X15.8432 Y45.6925
X15.7732 Y45.6733
X15.6923 Y45.6411
X15.6708 Y45.6302
X15.5632 Y45.5597
X15.5097 Y45.5138
X15.4481 Y45.4466
X15.3961 Y45.3728
X15.3478 Y45.2806
X15.3232 Y45.2147
X15.3096 Y45.1537
X15.3027 Y45.1052 Z-9.9922
X15.3033 Y45.0562 Z-9.9845
X15.3104 Y45.0125 Z-9.9619
X15.3234 Y44.9703 Z-9.9394
X15.3558 Y44.9081 Z-9.8691
X15.3834 Y44.8725 Z-9.7806
X15.3941 Y44.8612 Z-9.6825
G0 Z5
X16.2558 Y44.434
Z-7
G1 Z-11.6825 F1200
X16.2712 Y44.4324 Z-11.7806
X16.3163 Y44.4319 Z-11.8691
X16.3854 Y44.4438 Z-11.9394
X16.4269 Y44.459 Z-11.9619
X16.4659 Y44.4798 Z-11.9845
X16.5053 Y44.5089 Z-11.9922
X16.5397 Y44.5438 Z-12
X16.5879 Y44.6008 F3500
X16.6133 Y44.6398
X16.6314 Y44.6736
X16.6794 Y44.7959
X16.7023 Y44.8971
X16.7096 Y45
X16.7023 Y45.1029
X16.6795 Y45.2041
X16.6357 Y45.3155
X16.5991 Y45.3802
X16.5241 Y45.4787
X16.4698 Y45.5334
X16.4301 Y45.5658
X16.3473 Y45.6191
X16.2527 Y45.6633
X16.1672 Y45.6895
X16.0585 Y45.7069
X15.9559 Y45.708
X15.8432 Y45.6925
X15.7732 Y45.6733
X15.6923 Y45.6411
X15.6708 Y45.6302
X15.5632 Y45.5597
X15.5097 Y45.5138
X15.4481 Y45.4466
X15.3961 Y45.3728
X15.3478 Y45.2806
X15.3232 Y45.2147
X15.2983 Y45.1029
X15.2906 Y45
X15.2983 Y44.8971
X15.3257 Y44.7742
X15.3702 Y44.6732
X15.4268 Y44.581
X15.4723 Y44.5248
X15.5465 Y44.453
X15.5985 Y44.4132
X15.6433 Y44.3855
X15.765 Y44.329
X15.782 Y44.3232
X15.9042 Y44.2972
X16.0072 Y44.2908
X16.1127 Y44.2997
X16.2095 Y44.3221
X16.3053 Y44.3589
X16.3668 Y44.3918
X16.4538 Y44.4534
X16.4943 Y44.4901
X16.5397 Y44.5438
X16.5684 Y44.5836 Z-11.9922
X16.5906 Y44.6273 Z-11.9845
X16.6046 Y44.6692 Z-11.9619
X16.6127 Y44.7127 Z-11.9394
X16.6129 Y44.7828 Z-11.8691
X16.6049 Y44.8271 Z-11.7806
X16.6007 Y44.8421 Z-11.6825
G0 Z5
X15.5101 Y45.3828
Z-3
G1 Z-9 F1200
Z-13.0825
X15.4956 Y45.3771 Z-13.1806
X15.4555 Y45.3566 Z-13.2691
X15.3998 Y45.314 Z-13.3394
X15.3701 Y45.2812 Z-13.3619
X15.3453 Y45.2447 Z-13.3845
X15.3239 Y45.2006 Z-13.3922
X15.3096 Y45.1537 Z-13.4
X15.2983 Y45.1029 F3500
X15.2906 Y45
X15.2983 Y44.8971
X15.3257 Y44.7742
X15.3702 Y44.6732
X15.4268 Y44.581
X15.4723 Y44.5248
X15.5465 Y44.453
X15.5985 Y44.4132
X15.6433 Y44.3855
X15.765 Y44.329
X15.782 Y44.3232
X15.9042 Y44.2972
X16.0072 Y44.2908
X16.1127 Y44.2997
X16.2095 Y44.3221
X16.3053 Y44.3589
X16.3668 Y44.3918
X16.4538 Y44.4534
X16.4943 Y44.4901
X16.5879 Y44.6008
X16.6133 Y44.6398
X16.6314 Y44.6736
X16.6794 Y44.7959
X16.7023 Y44.8971
X16.7096 Y45
X16.7023 Y45.1029
X16.6795 Y45.2041
X16.6357 Y45.3155
X16.5991 Y45.3802
X16.5241 Y45.4787
X16.4698 Y45.5334
X16.4301 Y45.5658
X16.3473 Y45.6191
X16.2527 Y45.6633
X16.1672 Y45.6895
X16.0585 Y45.7069
X15.9559 Y45.708
X15.8432 Y45.6925
X15.7732 Y45.6733
X15.6923 Y45.6411
X15.6708 Y45.6302
X15.5632 Y45.5597
X15.5097 Y45.5138
X15.4481 Y45.4466
X15.3961 Y45.3728
X15.3478 Y45.2806
X15.3232 Y45.2147
X15.3096 Y45.1537
X15.3027 Y45.1052 Z-13.3922
X15.3033 Y45.0562 Z-13.3845
X15.3104 Y45.0125 Z-13.3619
X15.3234 Y44.9703 Z-13.3394
X15.3558 Y44.9081 Z-13.2691
X15.3834 Y44.8725 Z-13.1806
X15.3941 Y44.8612 Z-13.0825
G0 Z6

G53 Z5
M5
G4 P1.0
G53 X0 Y0
M30
%
