%
(Made in : Autodesk CAM Post Processor)
(G Code optimized for OpenBuilds OX CNC 1000 x 750 with GRBL V0.9j controller)

(Program Name : 1001)
(1 Operation :)
(1 : Adaptive1)
(  Tool : Flat End Mill 3 Flutes, Diam = 3.175mm, Len = 20mm)
(  Spindle : RPM = 30000, set router dial to 6)
(  Machining time : 13 min 17 sec)

G90 G94
G17
G21

(Operation 1 of 1 : Adaptive1)

G53 G0 Z5
G54
S30000 M3
G4 P1.0
X325.6495 Y93.018
Z6
Z5
Z-1.365
G1 Z-1.6825 F3500
X325.6547 Y93.012 Z-1.7532
X325.67 Y92.9942 Z-1.8203
X325.6948 Y92.9656 Z-1.8805
X325.7276 Y92.9276 Z-1.9307
X325.767 Y92.882 Z-1.9686
X325.8109 Y92.8313 Z-1.992
X325.8571 Y92.7778 Z-2
G3 X327.1346 Y91.5873 I6.1328 J5.3001
G1 X327.2153 Y91.5311
X327.2272 Y91.5195
X327.3763 Y91.332
X327.4754 Y91.2194
X327.5911 Y91.1239
X327.7262 Y91.0315
X327.8997 Y90.9324
X328.1239 Y90.8272
X328.4193 Y90.7165
X328.8234 Y90.6011
X329.419 Y90.4817
X330.1517 Y90.3953
X330.8882 Y90.3506
X331.6256 Y90.3273
X332.3633 Y90.3151
X333.1011 Y90.3087
X333.8389 Y90.3053
X335.3145 Y90.3027
X341.2171 Y90.3016
X350.4398
X350.6241 Y90.2957
X350.8013 Y90.2444
X351.1198 Y90.0583
X351.3785 Y89.7952
X351.7907 Y89.1833
X352.0252 Y88.4838
X352.154 Y87.7573
X352.2234 Y87.0227
X352.2603 Y86.2859
X352.2798 Y85.5483
X352.2902 Y84.8105
X352.2956 Y84.0728
X352.2985 Y83.3349
X352.3008 Y81.8593
X352.3016 Y74.4812
Y64.1518
Y13.9803
Y1.4375
X352.2542 Y1.2592
X352.0873 Y0.9302
X351.8343 Y0.6617
X351.2339 Y0.2328
X350.538 Y-0.0121
X349.8126 Y-0.1469
X349.0784 Y-0.2196
X348.3416 Y-0.2583
X347.604 Y-0.2788
X346.8663 Y-0.2896
X346.1285 Y-0.2953
X345.3907 Y-0.2983
X343.9151 Y-0.3007
X337.2747 Y-0.3016
X315.1403
X264.9688
X214.7974
X164.626
X114.4546
X64.2831
X14.1117
X1.5689
X1.3844 Y-0.3002
X1.206 Y-0.2533
X0.8835 Y-0.0743
X0.6242 Y0.1881
X0.2109 Y0.7993
X-0.0244 Y1.4986
X-0.1536 Y2.225
X-0.2231 Y2.9596
X-0.2602 Y3.6965
X-0.2798 Y4.434
X-0.2901 Y5.1718
X-0.2956 Y5.9095
X-0.2984 Y6.6474
X-0.3007 Y8.123
X-0.3016 Y15.5011
Y36.8978
Y87.0692
Y88.5448
X-0.2588 Y88.7243
X-0.0975 Y89.056
X0.1526 Y89.3272
X0.7497 Y89.7607
X1.4446 Y90.0085
X2.1697 Y90.145
X2.9038 Y90.2185
X3.6406 Y90.2577
X4.3781 Y90.2785
X5.1159 Y90.2895
X5.8537 Y90.2952
X6.5915 Y90.2983
X8.0671 Y90.3007
X14.7074 Y90.3016
X23.5746
X23.7985 Y90.3363
X24.0014 Y90.4369
X24.1644 Y90.5942
X24.2723 Y90.7933
G3 X23.7918 Y91.1526 I-0.3026 J0.0963
G1 X23.7333 Y91.113 Z-1.992
X23.6777 Y91.0754 Z-1.9686
X23.6279 Y91.0416 Z-1.9307
X23.5862 Y91.0135 Z-1.8805
X23.5549 Y90.9923 Z-1.8203
X23.5354 Y90.9791 Z-1.7531
X23.5289 Y90.9746 Z-1.6825
G0 Z5
X327.0377 Y92.3742
Z-1.365
G1 Z-1.6825 F3500
X327.0388 Y92.3663 Z-1.7532
X327.0419 Y92.343 Z-1.8203
X327.047 Y92.3056 Z-1.8805
X327.0538 Y92.2557 Z-1.9307
X327.0619 Y92.1961 Z-1.9686
X327.071 Y92.1296 Z-1.992
X327.0805 Y92.0596 Z-2
G3 X327.3763 Y91.332 I1.5681 J0.2136
G1 X327.6091 Y91.0388
X327.7149 Y90.8293
X327.7478 Y90.7372
X327.8053 Y90.5986
X327.8809 Y90.4691
X327.971 Y90.3491
X328.0739 Y90.237
X328.2029 Y90.1175
X328.3482 Y90.003
X328.5379 Y89.8769
X328.7812 Y89.742
X329.0621 Y89.6145
X329.4424 Y89.4775
X329.9326 Y89.3443
X330.6559 Y89.2089
X331.3897 Y89.1318
X332.1262 Y89.0881
X332.8636 Y89.0633
X333.6013 Y89.0494
X334.3391 Y89.0415
X335.0769 Y89.0371
X335.8147 Y89.0347
X337.2903 Y89.0326
X344.6685 Y89.0316
X348.7264
X349.0946 Y89.0082
X349.4418 Y88.8836
X349.746 Y88.6749
X350.259 Y88.1446
X350.5821 Y87.4813
X350.7751 Y86.7691
X350.8871 Y86.0399
X350.9508 Y85.3048
X350.9867 Y84.5679
X351.0068 Y83.8303
X351.0179 Y83.0926
X351.0241 Y82.3548
X351.0275 Y81.617
X351.0304 Y80.1414
X351.0316 Y75.7145
Y60.9582
Y10.7868
Y3.0397
X350.9435 Y2.6815
X350.7618 Y2.3604
X350.2685 Y1.8117
X349.6191 Y1.4615
X348.912 Y1.2507
X348.1845 Y1.1279
X347.4501 Y1.0577
X346.7133 Y1.0181
X345.9758 Y0.9959
X345.2381 Y0.9836
X344.5003 Y0.9767
X343.7625 Y0.973
X342.2869 Y0.9698
X338.5978 Y0.9684
X309.0852
X258.9138
X208.7424
X158.5709
X108.3995
X58.2281
X8.0567
X3.2609
X2.8928 Y0.9926
X2.5463 Y1.1192
X2.2435 Y1.33
X1.7338 Y1.8635
X1.4133 Y2.528
X1.2221 Y3.2406
X1.1113 Y3.9701
X1.0482 Y4.7052
X1.0127 Y5.4422
X0.9929 Y6.1797
X0.9819 Y6.9174
X0.9758 Y7.6552
X0.9725 Y8.393
X0.9696 Y9.8687
X0.9684 Y14.2956
Y45.2838
Y86.9703
X1.0592 Y87.3279
X1.2431 Y87.6477
X1.7394 Y88.1937
X2.3899 Y88.5418
X3.0973 Y88.7513
X3.825 Y88.8733
X4.5595 Y88.943
X5.2963 Y88.9823
X6.0338 Y89.0043
X6.7715 Y89.0165
X7.5093 Y89.0233
X8.2471 Y89.0271
X8.9849 Y89.0291
X11.1983 Y89.0312
X22.2656 Y89.0316
X22.8218 Y89.0387
X23.1381 Y89.0682
X23.4099 Y89.1159
X23.5589 Y89.1545
X23.7387 Y89.2274
X23.8935 Y89.3445
X24.0125 Y89.4977
X24.0876 Y89.6766
X24.1137 Y89.8689
X24.114 Y89.9363
G3 X23.5413 Y90.1152 I-0.3173 J-0.0099
G1 X23.4993 Y90.0583 Z-1.992
X23.4594 Y90.0044 Z-1.9686
X23.4237 Y89.956 Z-1.9307
X23.3938 Y89.9156 Z-1.8805
X23.3713 Y89.8851 Z-1.8203
X23.3573 Y89.8663 Z-1.7532
X23.3526 Y89.8599 Z-1.6825
G0 Z5
X327.764 Y91.8328
Z-1.365
G1 Z-1.6825 F3500
X327.7624 Y91.825 Z-1.7532
X327.7579 Y91.802 Z-1.8203
X327.7507 Y91.7649 Z-1.8805
X327.741 Y91.7155 Z-1.9307
X327.7294 Y91.6565 Z-1.9686
X327.7165 Y91.5906 Z-1.992
X327.7029 Y91.5213 Z-2
G3 X327.7478 Y90.7372 I1.553 J-0.3043
G1 X327.8046 Y90.578
X327.8718 Y90.1591
X327.8804 Y90.0669
X327.9018 Y89.9184
X327.9446 Y89.7747
X328.0054 Y89.6375
X328.0798 Y89.5073
X328.171 Y89.3776
X328.2767 Y89.2503
X328.4118 Y89.1119
X328.5826 Y88.9631
X328.7748 Y88.821
X329.032 Y88.6611
X329.3327 Y88.5061
X329.7018 Y88.352
X330.17 Y88.1993
X330.8053 Y88.0472
X331.5343 Y87.9336
X332.2689 Y87.8646
X333.0056 Y87.8229
X333.743 Y87.7978
X334.4806 Y87.7829
X335.2184 Y87.774
X335.9562 Y87.7688
X336.694 Y87.7658
X338.1696 Y87.763
X342.5965 Y87.7617
X347.3923 Y87.7616
X347.7587 Y87.7188
X348.1039 Y87.5887
X348.4097 Y87.3823
X348.9289 Y86.8581
X349.2652 Y86.2014
X349.4713 Y85.493
X349.5939 Y84.7654
X349.6655 Y84.0311
X349.7068 Y83.2944
X349.7305 Y82.557
X349.744 Y81.8193
X349.7517 Y81.0815
X349.756 Y80.3437
X349.7585 Y79.6059
X349.7607 Y78.1303
X349.7616 Y71.4899
Y58.9471
Y8.7757
Y4.3488
X349.6587 Y3.9945
X349.4721 Y3.6763
X348.9758 Y3.1303
X348.3306 Y2.7725
X347.6266 Y2.5516
X346.9006 Y2.4198
X346.1669 Y2.3425
X345.4304 Y2.2978
X344.6931 Y2.2721
X343.9554 Y2.2575
X343.2176 Y2.2492
X342.4798 Y2.2445
X341.742 Y2.2418
X340.2664 Y2.2394
X334.3639 Y2.2384
X304.8513
X254.6798
X204.5084
X154.337
X104.1656
X53.9941
X4.5605
X4.1952 Y2.2896
X3.8547 Y2.4316
X3.5546 Y2.6461
X3.0464 Y3.1811
X2.719 Y3.8423
X2.5189 Y4.5524
X2.4002 Y5.2806
X2.331 Y6.0152
X2.2911 Y6.7519
X2.2683 Y7.4894
X2.2553 Y8.2271
X2.2479 Y8.9649
X2.2437 Y9.7027
X2.2414 Y10.4405
X2.2389 Y12.6539
X2.2384 Y52.496
Y85.6976
X2.3541 Y86.0479
X2.5494 Y86.3609
X3.0583 Y86.8951
X3.7086 Y87.2437
X4.4145 Y87.4582
X5.1411 Y87.5861
X5.8752 Y87.6609
X6.6117 Y87.7042
X7.3491 Y87.729
X8.0868 Y87.7432
X8.8246 Y87.7512
X9.5624 Y87.7558
X10.3002 Y87.7583
X11.7758 Y87.7606
X17.6783 Y87.7616
X18.4161
X21.3674
X22.1052 Y87.7666
X22.6443 Y87.8018
X23.015 Y87.8561
X23.2783 Y87.9167
X23.5141 Y87.9912
X23.7052 Y88.0691
X23.8728 Y88.185
X24.0025 Y88.3422
X24.0845 Y88.5288
X24.1125 Y88.7306
X24.113 Y89.6564
X24.1137 Y89.8689
G3 X23.5411 Y90.0477 I-0.3173 J-0.0099
G1 X23.4991 Y89.9909 Z-1.992
X23.4592 Y89.937 Z-1.9686
X23.4234 Y89.8886 Z-1.9307
X23.3935 Y89.8481 Z-1.8805
X23.371 Y89.8177 Z-1.8203
X23.3571 Y89.7988 Z-1.7532
X23.3523 Y89.7924 Z-1.6825
G0 Z5
X328.1671 Y91.1245
Z-1.365
G1 Z-1.6825 F3500
X328.1637 Y91.1173 Z-1.7531
X328.1536 Y91.0961 Z-1.8203
X328.1374 Y91.062 Z-1.8805
X328.1158 Y91.0166 Z-1.9307
X328.09 Y90.9622 Z-1.9686
X328.0612 Y90.9016 Z-1.992
X328.0309 Y90.8378 Z-2
G3 X327.8804 Y90.0669 I1.4294 J-0.6791
G1 X327.8875 Y89.9915
Y89.2291
X327.895 Y89.0793
X327.9261 Y88.9325
X327.9741 Y88.7904
X328.0355 Y88.6535
X328.114 Y88.513
X328.2082 Y88.3723
X328.3343 Y88.213
X328.4766 Y88.0604
X328.6665 Y87.8869
X328.8766 Y87.724
X329.153 Y87.5431
X329.4711 Y87.3697
X329.8774 Y87.1888
X330.3572 Y87.02
X330.9998 Y86.8504
X331.726 Y86.7199
X332.459 Y86.6356
X333.1948 Y86.5816
X333.9319 Y86.5473
X334.6693 Y86.5258
X335.407 Y86.5125
X336.1448 Y86.5043
X336.8826 Y86.4992
X337.6204 Y86.4962
X339.096 Y86.4932
X342.7851 Y86.4917
X346.1053 Y86.4916
X346.4701 Y86.437
X346.8127 Y86.3002
X347.1169 Y86.0914
X347.6356 Y85.5667
X347.9752 Y84.9117
X348.1858 Y84.2046
X348.3125 Y83.4777
X348.3875 Y82.7438
X348.4315 Y82.0072
X348.457 Y81.2699
X348.4717 Y80.5322
X348.4802 Y79.7944
X348.4851 Y79.0566
X348.4879 Y78.3188
X348.4904 Y76.8432
X348.4916 Y71.6785
Y56.1844
Y6.013
X348.4648 Y5.645
X348.3589 Y5.2916
X348.1719 Y4.9736
X347.6774 Y4.426
X347.0347 Y4.0637
X346.3323 Y3.8379
X345.6072 Y3.7015
X344.8738 Y3.6207
X344.1375 Y3.5733
X343.4002 Y3.5458
X342.6626 Y3.5299
X341.9248 Y3.5207
X341.187 Y3.5154
X340.4492 Y3.5124
X338.9736 Y3.5097
X334.5467 Y3.5084
X299.1316
X248.9601
X198.7887
X148.6173
X98.4459
X48.2744
X5.8501 Y3.5086
X5.4867 Y3.5723
X5.1485 Y3.7196
X4.8495 Y3.9357
X4.3413 Y4.4706
X4.0101 Y5.1299
X3.8052 Y5.8387
X3.682 Y6.5661
X3.6092 Y7.3003
X3.5666 Y8.0369
X3.5419 Y8.7743
X3.5276 Y9.512
X3.5194 Y10.2498
X3.5147 Y10.9876
X3.512 Y11.7254
X3.5095 Y13.201
X3.5084 Y18.3657
Y60.4212
Y84.0313
X3.5428 Y84.3986
X3.6591 Y84.7487
X3.8541 Y85.0618
X4.3601 Y85.5988
X5.0077 Y85.9523
X5.712 Y86.1721
X6.4378 Y86.3045
X7.1715 Y86.3829
X7.9078 Y86.4288
X8.6452 Y86.4554
X9.3828 Y86.4708
X10.1206 Y86.4797
X10.8584 Y86.4848
X11.5962 Y86.4877
X13.0718 Y86.4904
X18.2365 Y86.4916
X20.45
X21.1878 Y86.4936
X21.9253 Y86.5134
X22.5289 Y86.5688
X22.9651 Y86.6446
X23.2736 Y86.7241
X23.5173 Y86.8083
X23.669 Y86.8748
X23.8503 Y86.9879
X23.9918 Y87.148
X24.0817 Y87.3419
X24.1125 Y87.5533
Y88.7306
G3 X23.5392 Y88.9074 I-0.3173 J-0.0111
G1 X23.4975 Y88.8504 Z-1.992
X23.4578 Y88.7963 Z-1.9686
X23.4221 Y88.7477 Z-1.9307
X23.3924 Y88.7072 Z-1.8805
X23.37 Y88.6767 Z-1.8203
X23.3561 Y88.6578 Z-1.7532
X23.3514 Y88.6514 Z-1.6825
G0 Z5
X328.2711 Y90.2555
Z-1.365
G1 Z-1.6825 F3500
X328.2671 Y90.2487 Z-1.7532
X328.255 Y90.2285 Z-1.8203
X328.2357 Y90.196 Z-1.8805
X328.21 Y90.1528 Z-1.9307
X328.1793 Y90.101 Z-1.9686
X328.145 Y90.0434 Z-1.992
X328.1089 Y89.9826 Z-2
G3 X327.8875 Y89.2291 I1.3603 J-0.8088
G1 Y88.2237
X327.895 Y88.0739
X327.9238 Y87.9266
X327.9683 Y87.7834
X328.0255 Y87.6448
X328.1008 Y87.4983
X328.1975 Y87.3422
X328.3168 Y87.1804
X328.4711 Y87.0029
X328.6493 Y86.8285
X328.8795 Y86.6368
X329.1393 Y86.4536
X329.4825 Y86.2507
X329.864 Y86.0648
X330.3577 Y85.8715
X330.9796 Y85.684
X331.7008 Y85.5285
X332.4311 Y85.4232
X333.1656 Y85.3528
X333.9019 Y85.3061
X334.6391 Y85.2756
X335.3766 Y85.2558
X336.1143 Y85.2431
X336.8521 Y85.235
X337.5899 Y85.2299
X338.3277 Y85.2267
X339.8033 Y85.2235
X342.7546 Y85.2219
X344.968 Y85.2217
X345.3248 Y85.1276
X345.6513 Y84.9559
X346.2236 Y84.4903
X346.6092 Y83.8612
X346.8534 Y83.165
X347.003 Y82.4425
X347.0929 Y81.7102
X347.1462 Y80.9743
X347.1776 Y80.2372
X347.196 Y79.4996
X347.2068 Y78.7618
X347.213 Y78.0241
X347.2167 Y77.2863
X347.22 Y75.8106
X347.2215 Y72.1216
X347.2216 Y53.6762
Y7.1938
X347.1696 Y6.8286
X347.0347 Y6.4852
X346.8287 Y6.1792
X346.3092 Y5.6553
X345.6571 Y5.3101
X344.9514 Y5.0949
X344.2252 Y4.9648
X343.4914 Y4.8874
X342.755 Y4.8418
X342.0177 Y4.8152
X341.28 Y4.7997
X340.5422 Y4.7907
X339.8044 Y4.7855
X339.0667 Y4.7825
X337.591 Y4.7797
X333.1641 Y4.7784
X294.0599
X243.8885
X193.7171
X143.5456
X93.3742
X43.2028
X7.0498
X6.692 Y4.8681
X6.3636 Y5.0361
X5.7866 Y5.4959
X5.3973 Y6.1227
X5.1507 Y6.8181
X4.9995 Y7.5402
X4.9086 Y8.2724
X4.8546 Y9.0083
X4.8228 Y9.7454
X4.8042 Y10.483
X4.7934 Y11.2207
X4.7871 Y11.9585
X4.7834 Y12.6963
X4.78 Y14.1719
X4.7785 Y17.861
X4.7784 Y68.0324
Y82.7887
X4.8286 Y83.1542
X4.9588 Y83.4994
X5.1617 Y83.8075
X5.6775 Y84.3351
X6.3279 Y84.6833
X7.033 Y84.9007
X7.759 Y85.0324
X8.4926 Y85.1109
X9.229 Y85.1571
X9.9663 Y85.1842
X10.7039 Y85.1999
X11.4417 Y85.2091
X12.1795 Y85.2144
X12.9173 Y85.2175
X14.3929 Y85.2202
X18.8198 Y85.2216
X20.2954 Y85.2225
X21.0332 Y85.2312
X21.7703 Y85.2631
X22.4188 Y85.329
X22.9014 Y85.4176
X23.2533 Y85.5119
X23.5019 Y85.6005
X23.6755 Y85.6786
X23.8544 Y85.7922
X23.9938 Y85.9519
X24.0822 Y86.1445
X24.1125 Y86.3542
Y87.5533
G3 X23.5392 Y87.7301 I-0.3173 J-0.0111
G1 X23.4975 Y87.6731 Z-1.992
X23.4578 Y87.619 Z-1.9686
X23.4221 Y87.5705 Z-1.9307
X23.3924 Y87.5299 Z-1.8805
X23.37 Y87.4994 Z-1.8203
X23.3561 Y87.4805 Z-1.7532
X23.3514 Y87.4741 Z-1.6825
G0 Z5
X328.2711 Y89.2501
Z-1.365
G1 Z-1.6825 F3500
X328.2671 Y89.2433 Z-1.7532
X328.255 Y89.2231 Z-1.8203
X328.2357 Y89.1906 Z-1.8805
X328.21 Y89.1474 Z-1.9307
X328.1793 Y89.0957 Z-1.9686
X328.145 Y89.038 Z-1.992
X328.1089 Y88.9772 Z-2
G3 X327.8875 Y88.2237 I1.3603 J-0.8088
G1 Y87.1429
X327.895 Y86.9931
X327.9234 Y86.8458
X327.9668 Y86.7022
X328.0224 Y86.5629
X328.0995 Y86.4076
X328.1978 Y86.2442
X328.3215 Y86.0716
X328.4759 Y85.8891
X328.6628 Y85.7011
X328.8967 Y85.5009
X329.1729 Y85.3005
X329.5181 Y85.0902
X329.9319 Y84.8816
X330.4277 Y84.6797
X331.063 Y84.4789
X331.782 Y84.3136
X332.5107 Y84.1977
X333.2441 Y84.1171
X333.9798 Y84.0618
X334.7167 Y84.0243
X335.454 Y83.9991
X336.1917 Y83.9824
X336.9294 Y83.9714
X337.6672 Y83.9642
X338.405 Y83.9596
X339.1428 Y83.9566
X340.6184 Y83.9536
X343.5697 Y83.9519
X343.9331 Y83.8884
X344.2719 Y83.7424
X344.5721 Y83.528
X345.0882 Y83.0007
X345.4261 Y82.3449
X345.6369 Y81.6378
X345.765 Y80.9112
X345.8417 Y80.1774
X345.8871 Y79.441
X345.9139 Y78.7036
X345.9296 Y77.966
X345.9388 Y77.2282
X345.9442 Y76.4904
X345.9473 Y75.7526
X345.9502 Y74.277
X345.9515 Y70.5879
X345.9516 Y51.4047
Y8.6115
X345.9187 Y8.244
X345.8123 Y7.8908
X345.6293 Y7.5705
X345.1458 Y7.0131
X344.5095 Y6.6397
X343.8104 Y6.4039
X343.0868 Y6.2596
X342.3541 Y6.173
X341.6181 Y6.1215
X340.8809 Y6.0912
X340.1433 Y6.0733
X339.4055 Y6.0629
X338.6678 Y6.0568
X337.93 Y6.0533
X336.4543 Y6.05
X332.7653 Y6.0485
X289.2342 Y6.0484
X239.0627
X188.8913
X138.7199
X88.5485
X38.377
X8.4955
X8.1297 Y6.0959
X7.785 Y6.2273
X7.4771 Y6.4305
X6.9466 Y6.9434
X6.5958 Y7.5924
X6.3765 Y8.2969
X6.243 Y9.0225
X6.1631 Y9.756
X6.1157 Y10.4923
X6.0877 Y11.2296
X6.0714 Y11.9672
X6.0618 Y12.705
X6.0562 Y13.4428
X6.0529 Y14.1806
X6.0499 Y15.6562
X6.0485 Y19.3453
X6.0484 Y25.2478
Y75.4192
Y81.3217
X6.069 Y81.6901
X6.1613 Y82.0473
X6.3319 Y82.3743
X6.7966 Y82.9474
X7.4249 Y83.3342
X8.1207 Y83.5795
X8.843 Y83.7301
X9.5753 Y83.8207
X10.3111 Y83.8747
X11.0482 Y83.9066
X11.7858 Y83.9253
X12.5235 Y83.9363
X13.2613 Y83.9427
X13.9991 Y83.9464
X15.4748 Y83.9499
X19.1638 Y83.9517
X19.9016 Y83.9544
X20.6394 Y83.9657
X21.3766 Y83.9957
X22.1117 Y84.0592
X22.6844 Y84.1495
X23.0978 Y84.2492
X23.4116 Y84.3522
X23.6389 Y84.4476
X23.7124 Y84.4857
X23.8773 Y84.602
X24.0046 Y84.7585
X24.0851 Y84.9436
X24.1125 Y85.1435
Y86.3542
G3 X23.5392 Y86.531 I-0.3173 J-0.0111
G1 X23.4975 Y86.474 Z-1.992
X23.4578 Y86.4199 Z-1.9686
X23.4221 Y86.3714 Z-1.9307
X23.3924 Y86.3308 Z-1.8805
X23.37 Y86.3003 Z-1.8203
X23.3561 Y86.2814 Z-1.7532
X23.3514 Y86.275 Z-1.6825
G0 Z5
X328.2711 Y88.1693
Z-1.365
G1 Z-1.6825 F3500
X328.2671 Y88.1625 Z-1.7532
X328.255 Y88.1423 Z-1.8203
X328.2357 Y88.1098 Z-1.8805
X328.21 Y88.0666 Z-1.9307
X328.1793 Y88.0148 Z-1.9686
X328.145 Y87.9572 Z-1.992
X328.1089 Y87.8964 Z-2
G3 X327.8875 Y87.1429 I1.3603 J-0.8088
G1 Y86.0453
X327.895 Y85.8955
X327.9207 Y85.7477
X327.9612 Y85.6033
X328.0154 Y85.4597
X328.0881 Y85.3055
X328.1866 Y85.134
X328.3046 Y84.962
X328.4635 Y84.7662
X328.6433 Y84.5779
X328.8837 Y84.3635
X329.1497 Y84.1621
X329.506 Y83.935
X329.9036 Y83.7242
X330.4101 Y83.506
X331.0425 Y83.2918
X331.758 Y83.1119
X332.4843 Y82.9822
X333.2163 Y82.8895
X333.9512 Y82.824
X334.6876 Y82.7782
X335.4247 Y82.7465
X336.1622 Y82.7248
X336.8999 Y82.7101
X337.6377 Y82.7003
X338.3755 Y82.6937
X339.1133 Y82.6894
X340.5889 Y82.6848
X342.0645 Y82.6829
X342.4325 Y82.6572
X342.7883 Y82.5597
X343.1133 Y82.3852
X343.6824 Y81.9156
X344.066 Y81.2854
X344.3096 Y80.5889
X344.4594 Y79.8665
X344.5499 Y79.1342
X344.6039 Y78.3984
X344.6359 Y77.6612
X344.6548 Y76.9237
X344.6659 Y76.1859
X344.6724 Y75.4482
X344.6762 Y74.7104
X344.6798 Y73.2347
X344.6814 Y70.2835
X344.6816 Y48.8868
Y9.7826
X344.6299 Y9.4174
X344.5007 Y9.0718
X344.3003 Y8.7621
X343.7893 Y8.2299
X343.1421 Y7.8758
X342.4386 Y7.6531
X341.7134 Y7.5173
X340.9801 Y7.4358
X340.2439 Y7.3874
X339.5066 Y7.3588
X338.769 Y7.3421
X338.0313 Y7.3322
X337.2935 Y7.3265
X336.5557 Y7.3231
X335.08 Y7.32
X334.3422 Y7.3193
X326.2263 Y7.3184
X284.1708
X233.9994
X183.8279
X133.6565
X83.4851
X33.3137
X9.7036
X9.3407 Y7.3847
X9.0022 Y7.5314
X8.7015 Y7.7451
X8.1876 Y8.2745
X7.8486 Y8.9299
X7.6364 Y9.6365
X7.5072 Y10.3629
X7.4298 Y11.0967
X7.3839 Y11.833
X7.3568 Y12.5704
X7.3409 Y13.308
X7.3315 Y14.0458
X7.326 Y14.7835
X7.3228 Y15.5214
X7.3199 Y16.997
X7.3185 Y20.6861
X7.3184 Y33.2289
Y80.4491
X7.4202 Y80.8037
X7.5984 Y81.1267
X8.075 Y81.6899
X8.707 Y82.0706
X9.404 Y82.3126
X10.1267 Y82.4613
X10.859 Y82.551
X11.5949 Y82.6046
X12.332 Y82.6363
X13.0696 Y82.655
X13.8073 Y82.6661
X14.5451 Y82.6725
X15.2829 Y82.6763
X16.7585 Y82.6798
X18.972 Y82.6825
X19.7098 Y82.6879
X20.4474 Y82.7031
X21.1845 Y82.7371
X21.9195 Y82.8005
X22.553 Y82.8945
X23.0272 Y83.0044
X23.3609 Y83.1105
X23.6 Y83.2084
X23.7064 Y83.2622
X23.8735 Y83.3782
X24.0029 Y83.5352
X24.0846 Y83.7216
X24.1125 Y83.9231
Y85.1435
G3 X23.5392 Y85.3203 I-0.3173 J-0.0111
G1 X23.4975 Y85.2633 Z-1.992
X23.4578 Y85.2092 Z-1.9686
X23.4221 Y85.1607 Z-1.9307
X23.3924 Y85.1201 Z-1.8805
X23.37 Y85.0896 Z-1.8203
X23.3561 Y85.0707 Z-1.7532
X23.3514 Y85.0643 Z-1.6825
G0 Z5
X328.2711 Y87.0718
Z-1.365
G1 Z-1.6825 F3500
X328.2671 Y87.0649 Z-1.7532
X328.255 Y87.0448 Z-1.8203
X328.2357 Y87.0122 Z-1.8805
X328.21 Y86.969 Z-1.9307
X328.1793 Y86.9173 Z-1.9686
X328.145 Y86.8596 Z-1.992
X328.1089 Y86.7989 Z-2
G3 X327.8875 Y86.0453 I1.3603 J-0.8088
G1 Y84.8723
X327.895 Y84.7225
X327.9235 Y84.5753
X327.9662 Y84.4315
X328.0219 Y84.2878
X328.1017 Y84.1227
X328.2029 Y83.9502
X328.3324 Y83.7653
X328.4937 Y83.5703
X328.6915 Y83.3669
X328.9372 Y83.1519
X329.2341 Y82.9315
X329.5965 Y82.7052
X330.0521 Y82.4692
X330.5686 Y82.2523
X331.2433 Y82.0308
X331.9605 Y81.8577
X332.6872 Y81.7301
X333.4191 Y81.6369
X334.1538 Y81.5694
X334.8901 Y81.521
X335.6271 Y81.4868
X336.3645 Y81.4628
X337.1021 Y81.4461
X337.8399 Y81.4347
X338.5776 Y81.4269
X339.3154 Y81.4217
X340.0533 Y81.4182
X340.791 Y81.4159
X341.1589 Y81.3883
X341.5151 Y81.2923
X341.8403 Y81.1181
X342.4084 Y80.6472
X342.7928 Y80.0175
X343.0373 Y79.3214
X343.1878 Y78.5991
X343.2787 Y77.8669
X343.333 Y77.1311
X343.3653 Y76.394
X343.3843 Y75.6564
X343.3956 Y74.9187
X343.4022 Y74.1809
X343.4061 Y73.4431
X343.4097 Y71.9674
X343.4114 Y69.0162
X343.4116 Y46.8817
Y11.0977
X343.3648 Y10.7318
X343.2444 Y10.3831
X343.05 Y10.0695
X342.5498 Y9.5272
X341.9071 Y9.1647
X341.2057 Y8.9358
X340.4814 Y8.7956
X339.7484 Y8.7111
X339.0123 Y8.6608
X338.2751 Y8.631
X337.5375 Y8.6134
X336.7997 Y8.603
X336.062 Y8.597
X335.3241 Y8.5934
X333.8485 Y8.5901
X330.1594 Y8.5885
X279.988 Y8.5884
X229.8166
X179.6452
X129.4737
X79.3023
X29.1309
X11.0544
X10.6897 Y8.6437
X10.3445 Y8.7739
X10.0359 Y8.976
X9.5037 Y9.4871
X9.1497 Y10.1344
X8.9266 Y10.8377
X8.79 Y11.5627
X8.7078 Y12.2959
X8.6588 Y13.0321
X8.6298 Y13.7694
X8.6127 Y14.507
X8.6027 Y15.2447
X8.5967 Y15.9825
X8.5933 Y16.7203
X8.5901 Y18.196
X8.5885 Y21.885
X8.5884 Y39.5926
Y78.6968
X8.5948 Y79.0657
X8.669 Y79.427
X8.8243 Y79.7617
X9.0454 Y80.057
X9.5816 Y80.5638
X10.241 Y80.8948
X10.9493 Y81.1014
X11.6763 Y81.2271
X12.4103 Y81.3024
X13.1467 Y81.3473
X13.8841 Y81.3738
X14.6217 Y81.3894
X15.3595 Y81.3986
X16.0973 Y81.404
X16.8351 Y81.4072
X18.3107 Y81.4113
X19.0485 Y81.4158
X19.7862 Y81.4267
X20.5237 Y81.4498
X21.2603 Y81.4924
X21.9943 Y81.5667
X22.6502 Y81.6783
X23.0849 Y81.7888
X23.4172 Y81.9023
X23.6471 Y82.0021
X23.7203 Y82.0412
X23.8822 Y82.158
X24.007 Y82.3137
X24.0857 Y82.4971
X24.1125 Y82.6949
Y83.9231
G3 X23.5392 Y84.0999 I-0.3173 J-0.0111
G1 X23.4975 Y84.0429 Z-1.992
X23.4578 Y83.9888 Z-1.9686
X23.4221 Y83.9403 Z-1.9307
X23.3924 Y83.8997 Z-1.8805
X23.37 Y83.8692 Z-1.8203
X23.3561 Y83.8503 Z-1.7532
X23.3514 Y83.8439 Z-1.6825
G0 Z5
X328.2711 Y85.8988
Z-1.365
G1 Z-1.6825 F3500
X328.2671 Y85.892 Z-1.7532
X328.255 Y85.8718 Z-1.8203
X328.2357 Y85.8393 Z-1.8805
X328.21 Y85.7961 Z-1.9307
X328.1793 Y85.7443 Z-1.9686
X328.145 Y85.6866 Z-1.992
X328.1089 Y85.6259 Z-2
G3 X327.8875 Y84.8723 I1.3603 J-0.8088
G1 Y83.7915
X327.8953 Y83.6362
X327.9148 Y83.4875
X327.949 Y83.3414
X327.9995 Y83.1905
X328.064 Y83.0393
X328.1545 Y82.8669
X328.2679 Y82.6876
X328.4126 Y82.4949
X328.5961 Y82.2875
X328.8164 Y82.0757
X329.0891 Y81.8526
X329.4216 Y81.6226
X329.823 Y81.3901
X330.3332 Y81.1471
X330.9243 Y80.9217
X331.6326 Y80.7151
X332.3541 Y80.5605
X333.0829 Y80.4453
X333.8157 Y80.3598
X334.5508 Y80.297
X335.2872 Y80.2512
X336.0243 Y80.2182
X336.7617 Y80.1947
X337.4994 Y80.178
X338.2371 Y80.1664
X338.9749 Y80.1584
X339.7126 Y80.1528
X340.0767 Y80.0929
X340.4178 Y79.9526
X340.7223 Y79.7442
X341.246 Y79.2246
X341.5937 Y78.5738
X341.8117 Y77.8689
X341.9449 Y77.1432
X342.025 Y76.4098
X342.0727 Y75.6735
X342.101 Y74.9362
X342.1177 Y74.1986
X342.1276 Y73.4609
X342.1334 Y72.7231
X342.1368 Y71.9853
X342.14 Y70.5096
X342.1415 Y66.8206
X342.1416 Y43.9483
Y12.2222
X342.0661 Y11.8611
X341.9121 Y11.5259
X341.6934 Y11.2288
X341.1589 Y10.7202
X340.5018 Y10.3846
X339.7946 Y10.1744
X339.0679 Y10.0464
X338.3341 Y9.9697
X337.5977 Y9.924
X336.8604 Y9.897
X336.1228 Y9.8811
X335.385 Y9.8717
X334.6472 Y9.8662
X333.9094 Y9.863
X332.4338 Y9.8599
X328.7447 Y9.8585
X324.3178 Y9.8584
X274.1464
X223.975
X173.8035
X123.6321
X73.4607
X23.2893
X12.222
X11.861 Y9.9343
X11.5259 Y10.0885
X11.2288 Y10.3071
X10.7208 Y10.8423
X10.3855 Y11.4995
X10.1753 Y12.2067
X10.047 Y12.9333
X9.9701 Y13.6671
X9.9243 Y14.4035
X9.8972 Y15.1408
X9.8812 Y15.8784
X9.8718 Y16.6162
X9.8662 Y17.354
X9.863 Y18.0918
X9.86 Y19.5674
X9.8585 Y23.2565
X9.8584 Y48.3422
Y77.8548
X9.952 Y78.2117
X10.1214 Y78.5394
X10.5813 Y79.1163
X11.207 Y79.5074
X11.9013 Y79.7568
X12.6229 Y79.9108
X13.3548 Y80.0042
X14.0905 Y80.0602
X14.8275 Y80.0935
X15.5651 Y80.1132
X16.3028 Y80.1249
X17.0406 Y80.1321
X18.5162 Y80.1432
X19.2539 Y80.1535
X19.9915 Y80.1727
X20.7285 Y80.2067
X21.4642 Y80.2631
X22.1963 Y80.3547
X22.8103 Y80.4781
X23.1991 Y80.5894
X23.5027 Y80.7034
X23.7252 Y80.8079
X23.7397 Y80.8162
X23.894 Y80.9339
X24.0126 Y81.0876
X24.0871 Y81.2668
X24.1125 Y81.4592
Y82.6949
G3 X23.5392 Y82.8716 I-0.3173 J-0.0111
G1 X23.4975 Y82.8147 Z-1.992
X23.4578 Y82.7606 Z-1.9686
X23.4221 Y82.712 Z-1.9307
X23.3924 Y82.6715 Z-1.8805
X23.37 Y82.641 Z-1.8203
X23.3561 Y82.6221 Z-1.7532
X23.3514 Y82.6156 Z-1.6825
G0 Z5
X328.2711 Y84.818
Z-1.365
G1 Z-1.6825 F3500
X328.2671 Y84.8112 Z-1.7532
X328.255 Y84.791 Z-1.8203
X328.2357 Y84.7585 Z-1.8805
X328.21 Y84.7153 Z-1.9307
X328.1793 Y84.6635 Z-1.9686
X328.145 Y84.6058 Z-1.992
X328.1089 Y84.5451 Z-2
G3 X327.8875 Y83.7915 I1.3603 J-0.8088
G1 Y82.6186
X327.8958 Y82.454
X327.9153 Y82.3052
X327.9501 Y82.1593
X327.9972 Y82.0169
X328.0665 Y81.853
X328.1544 Y81.6845
X328.2705 Y81.4996
X328.4174 Y81.3029
X328.598 Y81.0976
X328.829 Y80.8741
X329.1024 Y80.6492
X329.4417 Y80.4129
X329.8608 Y80.1686
X330.3476 Y79.9349
X330.9725 Y79.6946
X331.6801 Y79.4859
X332.4007 Y79.3273
X333.1287 Y79.2071
X333.8609 Y79.1166
X334.5956 Y79.049
X335.3318 Y78.9989
X336.0686 Y78.9622
X336.806 Y78.9355
X337.5435 Y78.9162
X338.2812 Y78.9025
X338.6482 Y78.8647
X339.001 Y78.757
X339.322 Y78.5752
X339.8828 Y78.0957
X340.261 Y77.4622
X340.5016 Y76.7647
X340.6498 Y76.0419
X340.7396 Y75.3096
X340.7933 Y74.5737
X340.8253 Y73.8366
X340.8443 Y73.0991
X340.8555 Y72.3613
X340.8621 Y71.6235
X340.866 Y70.8857
X340.8697 Y69.4101
X340.8714 Y66.4589
X340.8716 Y41.3731
Y13.3362
X340.7573 Y12.9854
X340.5713 Y12.6668
X340.0873 Y12.11
X339.452 Y11.7347
X338.7539 Y11.496
X338.0309 Y11.3488
X337.2985 Y11.2596
X336.5626 Y11.2062
X335.8255 Y11.1744
X335.0879 Y11.1555
X334.3502 Y11.1444
X333.6124 Y11.1378
X332.8746 Y11.1339
X331.399 Y11.1303
X328.4477 Y11.1286
X319.5939 Y11.1284
X269.4225
X219.2511
X169.0797
X118.9082
X68.7368
X18.5654
X13.4007
X13.0453 Y11.2275
X12.7197 Y11.401
X12.1472 Y11.8663
X11.759 Y12.4937
X11.5113 Y13.1887
X11.3582 Y13.9105
X11.2653 Y14.6424
X11.2096 Y15.3781
X11.1764 Y16.1152
X11.1567 Y16.8528
X11.1451 Y17.5905
X11.1382 Y18.3283
X11.1342 Y19.0661
X11.1304 Y20.5417
X11.1286 Y23.4929
X11.1284 Y55.219
Y76.6156
X11.2253 Y76.9716
X11.3998 Y77.2966
X11.871 Y77.8643
X12.5004 Y78.2493
X13.1963 Y78.4945
X13.9185 Y78.6457
X14.6506 Y78.7371
X15.3864 Y78.7919
X16.1235 Y78.8246
X16.861 Y78.8445
X17.5987 Y78.8577
X18.3364 Y78.8692
X19.0741 Y78.8837
X19.8116 Y78.906
X20.5485 Y78.9419
X21.2841 Y78.999
X22.0166 Y79.0874
X22.6626 Y79.2052
X23.124 Y79.3282
X23.4435 Y79.4416
X23.673 Y79.5445
X23.728 Y79.5746
X23.8869 Y79.6918
X24.0092 Y79.8467
X24.0862 Y80.0285
X24.1125 Y80.2242
Y81.4592
G3 X23.5392 Y81.636 I-0.3173 J-0.0111
G1 X23.4975 Y81.579 Z-1.992
X23.4578 Y81.5249 Z-1.9686
X23.4221 Y81.4764 Z-1.9307
X23.3924 Y81.4358 Z-1.8805
X23.37 Y81.4053 Z-1.8203
X23.3561 Y81.3864 Z-1.7532
X23.3514 Y81.38 Z-1.6825
G0 Z5
X328.2711 Y83.6451
Z-1.365
G1 Z-1.6825 F3500
X328.2671 Y83.6382 Z-1.7532
X328.255 Y83.618 Z-1.8203
X328.2357 Y83.5855 Z-1.8805
X328.21 Y83.5423 Z-1.9307
X328.1793 Y83.4906 Z-1.9686
X328.145 Y83.4329 Z-1.992
X328.1089 Y83.3722 Z-2
G3 X327.8875 Y82.6186 I1.3603 J-0.8088
G1 Y81.3535
X327.895 Y81.2037
X327.9217 Y81.056
X327.962 Y80.9116
X328.0171 Y80.7618
X328.0978 Y80.5873
X328.1947 Y80.4154
X328.3293 Y80.216
X328.488 Y80.0173
X328.6969 Y79.795
X328.9379 Y79.5766
X329.2577 Y79.3306
X329.6145 Y79.0992
X330.0898 Y78.8426
X330.6451 Y78.5981
X331.342 Y78.356
X332.0562 Y78.1705
X332.7801 Y78.0283
X333.5099 Y77.9193
X334.243 Y77.8364
X334.9781 Y77.7737
X335.7144 Y77.7266
X336.4514 Y77.6917
X337.1888 Y77.6659
X337.5509 Y77.5952
X337.8891 Y77.448
X338.1907 Y77.2355
X338.709 Y76.7104
X339.0538 Y76.0581
X339.2711 Y75.353
X339.4041 Y74.6273
X339.4842 Y73.8938
X339.5321 Y73.1576
X339.5605 Y72.4203
X339.5774 Y71.6827
X339.5873 Y70.9449
X339.5932 Y70.2071
X339.5966 Y69.4693
X339.5999 Y67.9937
X339.6015 Y64.3046
X339.6016 Y39.2189
Y14.871
X339.5526 Y14.5054
X339.4236 Y14.1598
X339.2233 Y13.85
X338.7131 Y13.317
X338.0664 Y12.9618
X337.3634 Y12.738
X336.6384 Y12.601
X335.9052 Y12.5186
X335.169 Y12.4694
X334.4318 Y12.4403
X333.6942 Y12.4231
X332.9564 Y12.4129
X332.2186 Y12.4069
X331.4808 Y12.4034
X330.0052 Y12.4001
X326.3161 Y12.3985
X314.5111 Y12.3984
X264.3396
X214.1682
X163.9968
X113.8254
X63.6539
X14.9581
X14.5909 Y12.4332
X14.238 Y12.5409
X13.9189 Y12.7259
X13.3659 Y13.2144
X12.994 Y13.8516
X12.7583 Y14.5508
X12.6135 Y15.2742
X12.5262 Y16.0069
X12.474 Y16.7428
X12.4431 Y17.48
X12.4247 Y18.2176
X12.4139 Y18.9553
X12.4075 Y19.6931
X12.4038 Y20.4309
X12.4002 Y21.9065
X12.3986 Y24.8578
X12.3984 Y63.2242
Y75.0292
X12.4293 Y75.3968
X12.5334 Y75.7508
X12.7157 Y76.0714
X13.2003 Y76.6279
X13.836 Y77.0023
X14.5347 Y77.2396
X15.2579 Y77.3853
X15.9905 Y77.4734
X16.7264 Y77.5268
X17.4634 Y77.5606
X18.2008 Y77.5851
X18.9383 Y77.6082
X19.6755 Y77.6364
X20.4123 Y77.6764
X21.1477 Y77.7357
X21.8804 Y77.8227
X22.5823 Y77.9449
X23.0736 Y78.0718
X23.4078 Y78.1875
X23.6454 Y78.2917
X23.7229 Y78.3334
X23.8837 Y78.4503
X24.0077 Y78.6058
X24.0859 Y78.7887
X24.1125 Y78.9857
Y80.2242
G3 X23.5392 Y80.4009 I-0.3173 J-0.0111
G1 X23.4975 Y80.3439 Z-1.992
X23.4578 Y80.2898 Z-1.9686
X23.4221 Y80.2413 Z-1.9307
X23.3924 Y80.2008 Z-1.8805
X23.37 Y80.1703 Z-1.8203
X23.3561 Y80.1513 Z-1.7532
X23.3514 Y80.1449 Z-1.6825
G0 Z5
X328.2711 Y82.3799
Z-1.365
G1 Z-1.6825 F3500
X328.2671 Y82.3731 Z-1.7532
X328.255 Y82.3529 Z-1.8203
X328.2357 Y82.3204 Z-1.8805
X328.21 Y82.2772 Z-1.9307
X328.1793 Y82.2254 Z-1.9686
X328.145 Y82.1678 Z-1.992
X328.1089 Y82.107 Z-2
G3 X327.8875 Y81.3535 I1.3603 J-0.8088
G1 Y80.1805
X327.895 Y80.0307
X327.9183 Y79.8825
X327.9556 Y79.7372
X328.0115 Y79.5777
X328.082 Y79.4187
X328.1827 Y79.2334
X328.3023 Y79.05
X328.4634 Y78.8417
X328.6583 Y78.6277
X328.9056 Y78.3964
X329.1994 Y78.163
X329.5805 Y77.9072
X330.0099 Y77.6666
X330.5653 Y77.4116
X331.2533 Y77.1604
X331.9645 Y76.9638
X332.6864 Y76.8114
X333.4147 Y76.6934
X334.1469 Y76.6025
X334.8814 Y76.5329
X335.6173 Y76.48
X335.9849 Y76.4491
X336.3426 Y76.3588
X336.6738 Y76.1962
X337.2606 Y75.749
X337.6643 Y75.1314
X337.9241 Y74.4409
X338.0858 Y73.721
X338.1844 Y72.9898
X338.2439 Y72.2544
X338.2795 Y71.5174
X338.3007 Y70.7799
X338.3133 Y70.0422
X338.3208 Y69.3044
X338.3252 Y68.5666
X338.3279 Y67.8288
X338.3303 Y66.3532
X338.3316 Y61.1885
Y36.8406
Y16.1818
X338.2848 Y15.8158
X338.1644 Y15.4671
X337.9701 Y15.1535
X337.4701 Y14.611
X336.8277 Y14.248
X336.1265 Y14.0185
X335.4023 Y13.8777
X334.6693 Y13.7927
X333.9333 Y13.742
X333.1961 Y13.7118
X332.4585 Y13.694
X331.7207 Y13.6835
X330.983 Y13.6773
X330.2451 Y13.6736
X328.7695 Y13.6702
X325.8183 Y13.6686
X309.5863 Y13.6684
X259.4149
X209.2435
X159.0721
X108.9006
X58.7292
X15.9359
X15.5802 Y13.766
X15.2546 Y13.9396
X14.6841 Y14.4074
X14.2968 Y15.0354
X14.0498 Y15.7306
X13.8972 Y16.4525
X13.8047 Y17.1845
X13.7493 Y17.9202
X13.7163 Y18.6573
X13.6967 Y19.3948
X13.6851 Y20.1326
X13.6782 Y20.8703
X13.6742 Y21.6081
X13.6704 Y23.0838
X13.6686 Y26.035
X13.6684 Y70.3039
Y73.993
X13.7484 Y74.3531
X13.9071 Y74.6861
X14.3528 Y75.2742
X14.9715 Y75.6761
X15.6629 Y75.9337
X16.3831 Y76.094
X17.1142 Y76.1934
X17.8492 Y76.2575
X18.5856 Y76.3037
X19.3223 Y76.3445
X20.0587 Y76.3896
X20.7943 Y76.4473
X21.5279 Y76.5259
X22.2576 Y76.6353
X22.8656 Y76.7688
X23.2506 Y76.8865
X23.5412 Y77.0015
X23.6988 Y77.079
X23.8688 Y77.1945
X24.0006 Y77.3523
X24.084 Y77.5402
X24.1125 Y77.7438
Y78.9857
G3 X23.5392 Y79.1625 I-0.3173 J-0.0111
G1 X23.4975 Y79.1055 Z-1.992
X23.4578 Y79.0514 Z-1.9686
X23.4221 Y79.0029 Z-1.9307
X23.3924 Y78.9623 Z-1.8805
X23.37 Y78.9318 Z-1.8203
X23.3561 Y78.9129 Z-1.7532
X23.3514 Y78.9065 Z-1.6825
G0 Z5
X328.2711 Y81.207
Z-1.365
G1 Z-1.6825 F3500
X328.2671 Y81.2001 Z-1.7532
X328.255 Y81.1799 Z-1.8203
X328.2357 Y81.1474 Z-1.8805
X328.21 Y81.1042 Z-1.9307
X328.1793 Y81.0525 Z-1.9686
X328.145 Y80.9948 Z-1.992
X328.1089 Y80.9341 Z-2
G3 X327.8875 Y80.1805 I1.3603 J-0.8088
G1 Y78.9321
X327.895 Y78.7823
X327.9225 Y78.6349
X327.9654 Y78.4852
X328.023 Y78.3317
X328.1037 Y78.1603
X328.2116 Y77.9717
X328.3437 Y77.7788
X328.5187 Y77.5627
X328.7223 Y77.349
X328.9941 Y77.106
X329.3031 Y76.8716
X329.7096 Y76.6118
X330.1917 Y76.3556
X330.7711 Y76.1051
X331.4696 Y75.8677
X332.1837 Y75.6822
X332.9071 Y75.5371
X333.6362 Y75.4237
X334.3687 Y75.3355
X334.7344 Y75.2865
X335.0892 Y75.1857
X335.4166 Y75.0157
X335.9956 Y74.5584
X336.395 Y73.938
X336.6532 Y73.2468
X336.8144 Y72.5268
X336.9131 Y71.7956
X336.9728 Y71.0602
X337.0087 Y70.3233
X337.0302 Y69.5858
X337.0429 Y68.8481
X337.0505 Y68.1103
X337.0551 Y67.3725
X337.0577 Y66.6347
X337.0603 Y65.1591
X337.0616 Y60.7322
Y34.1709
Y17.2011
X336.961 Y16.8462
X336.7856 Y16.5216
X336.3161 Y15.9525
X335.6875 Y15.5663
X334.9921 Y15.3197
X334.2701 Y15.1674
X333.5381 Y15.0749
X332.8024 Y15.0195
X332.0653 Y14.9864
X331.3278 Y14.9668
X330.5901 Y14.9551
X329.8523 Y14.9483
X329.1145 Y14.9442
X327.6389 Y14.9404
X324.6876 Y14.9386
X304.7666 Y14.9384
X254.5952
X204.4237
X154.2523
X104.0809
X53.9095
X17.3876
X17.0224 Y14.9904
X16.679 Y15.1252
X16.3722 Y15.3301
X15.8437 Y15.8449
X15.4928 Y16.4939
X15.2725 Y17.1981
X15.1379 Y17.9236
X15.0569 Y18.6569
X15.0085 Y19.3931
X14.9798 Y20.1304
X14.9628 Y20.868
X14.9528 Y21.6058
X14.9469 Y22.3435
X14.9434 Y23.0814
X14.9401 Y24.557
X14.9386 Y27.5082
X14.9384 Y72.515
X14.9738 Y72.8822
X15.0848 Y73.234
X15.2715 Y73.5522
X15.762 Y74.1034
X16.3995 Y74.4747
X17.0981 Y74.7122
X17.8203 Y74.863
X18.5513 Y74.9629
X19.2854 Y75.0371
X20.0202 Y75.1033
X20.7546 Y75.1743
X21.4873 Y75.2611
X22.2162 Y75.3757
X22.8307 Y75.5103
X23.2408 Y75.6354
X23.5282 Y75.7489
X23.6984 Y75.8326
X23.8686 Y75.948
X24.0005 Y76.1058
X24.084 Y76.2938
X24.1125 Y76.4975
Y77.7438
G3 X23.5392 Y77.9205 I-0.3173 J-0.0111
G1 X23.4975 Y77.8635 Z-1.992
X23.4578 Y77.8094 Z-1.9686
X23.4221 Y77.7609 Z-1.9307
X23.3924 Y77.7204 Z-1.8805
X23.37 Y77.6899 Z-1.8203
X23.3561 Y77.6709 Z-1.7532
X23.3514 Y77.6645 Z-1.6825
G0 Z5
X328.2711 Y79.9586
Z-1.365
G1 Z-1.6825 F3500
X328.2671 Y79.9518 Z-1.7532
X328.255 Y79.9316 Z-1.8203
X328.2357 Y79.8991 Z-1.8805
X328.21 Y79.8559 Z-1.9307
X328.1793 Y79.8041 Z-1.9686
X328.145 Y79.7464 Z-1.992
X328.1089 Y79.6857 Z-2
G3 X327.8875 Y78.9321 I1.3603 J-0.8088
G1 Y77.7592
X327.895 Y77.6094
X327.9183 Y77.4612
X327.955 Y77.3157
X328.0103 Y77.1566
X328.0817 Y76.9943
X328.1795 Y76.813
X328.3075 Y76.6156
X328.4637 Y76.4125
X328.6696 Y76.1851
X328.9086 Y75.9604
X329.22 Y75.7115
X329.5855 Y75.4647
X330.0412 Y75.2076
X330.6138 Y74.9427
X331.3062 Y74.6877
X332.0163 Y74.4875
X332.7371 Y74.3299
X333.4643 Y74.2052
X333.8147 Y74.0898
X334.1383 Y73.9127
X334.7131 Y73.4501
X335.1123 Y72.8296
X335.3725 Y72.1392
X335.5363 Y71.4198
X335.6373 Y70.6889
X335.6988 Y69.9537
X335.736 Y69.2168
X335.7584 Y68.4793
X335.7718 Y67.7417
X335.7798 Y67.0039
X335.7846 Y66.2661
X335.7874 Y65.5283
X335.7902 Y64.0526
X335.7916 Y59.6258
Y31.5888
Y18.677
X335.7423 Y18.3114
X335.6116 Y17.9664
X335.41 Y17.6575
X334.8992 Y17.1251
X334.2523 Y16.7702
X333.549 Y16.5472
X332.8239 Y16.4108
X332.0907 Y16.3287
X331.3545 Y16.2796
X330.6173 Y16.2505
X329.8797 Y16.2332
X329.1419 Y16.223
X328.4041 Y16.217
X327.6664 Y16.2135
X326.1907 Y16.2101
X322.5016 Y16.2085
X299.6294 Y16.2084
X249.4579
X199.2865
X149.1151
X98.9437
X48.7722
X18.5218
X18.1634 Y16.2958
X17.8332 Y16.4601
X17.2508 Y16.9132
X16.8544 Y17.5354
X16.601 Y18.2284
X16.4442 Y18.9493
X16.3491 Y19.681
X16.2919 Y20.4166
X16.2579 Y21.1536
X16.2377 Y21.8912
X16.2257 Y22.6289
X16.2186 Y23.3667
X16.2144 Y24.1045
X16.2119 Y24.8423
X16.2096 Y26.3179
X16.2084 Y31.4826
Y35.1717
Y71.3246
X16.2609 Y71.6898
X16.3897 Y72.0355
X16.5893 Y72.3457
X17.097 Y72.881
X17.7397 Y73.2434
X18.4381 Y73.4813
X19.1583 Y73.6419
X19.8865 Y73.7604
X20.6173 Y73.8622
X21.3478 Y73.9659
X22.0756 Y74.0869
X22.7597 Y74.2344
X23.2032 Y74.3681
X23.5093 Y74.4879
X23.7486 Y74.6049
X23.8995 Y74.7229
X24.0152 Y74.8756
X24.0878 Y75.0528
X24.1125 Y75.2427
Y76.4975
G3 X23.5392 Y76.6742 I-0.3173 J-0.0111
G1 X23.4975 Y76.6173 Z-1.992
X23.4578 Y76.5631 Z-1.9686
X23.4221 Y76.5146 Z-1.9307
X23.3924 Y76.4741 Z-1.8805
X23.37 Y76.4436 Z-1.8203
X23.3561 Y76.4246 Z-1.7532
X23.3514 Y76.4182 Z-1.6825
G0 Z5
X328.2711 Y78.7856
Z-1.365
G1 Z-1.6825 F3500
X328.2671 Y78.7788 Z-1.7532
X328.255 Y78.7586 Z-1.8203
X328.2357 Y78.7261 Z-1.8805
X328.21 Y78.6829 Z-1.9307
X328.1793 Y78.6311 Z-1.9686
X328.145 Y78.5735 Z-1.992
X328.1089 Y78.5127 Z-2
G3 X327.8875 Y77.7592 I1.3603 J-0.8088
G1 Y76.5862
X327.8957 Y76.4231
X327.9152 Y76.2744
X327.9492 Y76.1283
X328.0005 Y75.9708
X328.0666 Y75.8125
X328.1623 Y75.6267
X328.2768 Y75.4425
X328.4317 Y75.2328
X328.6182 Y75.0188
X328.8577 Y74.7848
X329.1466 Y74.5447
X329.5166 Y74.2844
X329.9439 Y74.0325
X330.4951 Y73.7647
X331.1785 Y73.498
X331.8852 Y73.2859
X332.5948 Y73.0837
X333.217 Y72.6872
X333.6781 Y72.1113
X333.9915 Y71.4433
X334.1942 Y70.7339
X334.3215 Y70.0072
X334.4001 Y69.2735
X334.4482 Y68.5373
X334.4774 Y67.8001
X334.495 Y67.0624
X334.5057 Y66.3247
X334.5121 Y65.5869
X334.5159 Y64.8491
X334.5196 Y63.3735
X334.5214 Y60.4222
X334.5216 Y29.434
Y19.8424
X334.4465 Y19.4812
X334.2926 Y19.1459
X334.074 Y18.8488
X333.539 Y18.3407
X332.8817 Y18.0056
X332.1744 Y17.7955
X331.4478 Y17.6673
X330.714 Y17.5904
X329.9776 Y17.5446
X329.2403 Y17.5174
X328.5027 Y17.5014
X327.7649 Y17.4919
X327.0271 Y17.4864
X326.2893 Y17.4831
X324.8137 Y17.48
X321.1246 Y17.4785
X294.5633 Y17.4784
X244.3918
X194.2204
X144.049
X93.8776
X43.7061
X20.0961
X19.728 Y17.5036
X19.3715 Y17.5985
X19.0464 Y17.7727
X18.4797 Y18.2452
X18.0962 Y18.8755
X17.8523 Y19.5719
X17.7022 Y20.2943
X17.6116 Y21.0265
X17.5573 Y21.7623
X17.5251 Y22.4994
X17.5059 Y23.237
X17.4946 Y23.9747
X17.488 Y24.7125
X17.484 Y25.4503
X17.4803 Y26.9259
X17.4786 Y29.8772
X17.4784 Y43.1579
Y69.7192
X17.4805 Y70.0881
X17.5398 Y70.4522
X17.6724 Y70.7965
X17.8744 Y71.1051
X18.3807 Y71.6418
X19.0179 Y72.0137
X19.71 Y72.2695
X20.4239 Y72.4558
X21.1458 Y72.6084
X21.869 Y72.7543
X22.5888 Y72.9164
X23.1229 Y73.0714
X23.4589 Y73.1989
X23.6971 Y73.312
X23.742 Y73.3379
X23.8955 Y73.4556
X24.0133 Y73.6091
X24.0873 Y73.7878
X24.1125 Y73.9795
Y75.2427
G3 X23.5392 Y75.4195 I-0.3173 J-0.0111
G1 X23.4975 Y75.3625 Z-1.992
X23.4578 Y75.3084 Z-1.9686
X23.4221 Y75.2599 Z-1.9307
X23.3924 Y75.2193 Z-1.8805
X23.37 Y75.1888 Z-1.8203
X23.3561 Y75.1699 Z-1.7532
X23.3514 Y75.1635 Z-1.6825
G0 Z5
X328.2711 Y77.6127
Z-1.365
G1 Z-1.6825 F3500
X328.2671 Y77.6058 Z-1.7532
X328.255 Y77.5857 Z-1.8203
X328.2357 Y77.5531 Z-1.8805
X328.21 Y77.5099 Z-1.9307
X328.1793 Y77.4582 Z-1.9686
X328.145 Y77.4005 Z-1.992
X328.1089 Y77.3398 Z-2
G3 X327.8875 Y76.5862 I1.3603 J-0.8088
G1 Y75.3211
X327.895 Y75.1713
X327.9178 Y75.023
X327.9555 Y74.8753
X328.0067 Y74.7262
X328.0811 Y74.5555
X328.1797 Y74.3712
X328.3038 Y74.1782
X328.4678 Y73.9633
X328.661 Y73.7483
X328.9202 Y73.5029
X329.2146 Y73.2658
X329.6074 Y72.9985
X330.0664 Y72.7374
X330.7349 Y72.4252
X331.4183 Y72.147
X332.0066 Y71.7018
X332.4411 Y71.1055
X332.7368 Y70.4295
X332.9298 Y69.7174
X333.0526 Y68.9899
X333.1294 Y68.2561
X333.177 Y67.5198
X333.2062 Y66.7826
X333.2241 Y66.045
X333.235 Y65.3072
X333.2415 Y64.5694
X333.2455 Y63.8316
X333.2494 Y62.356
X333.2513 Y59.4048
X333.2516 Y27.6787
Y21.0384
X333.157 Y20.6818
X332.9872 Y20.3543
X332.5273 Y19.7774
X331.902 Y19.3857
X331.2079 Y19.1356
X330.4865 Y18.9809
X329.7546 Y18.8871
X329.019 Y18.8307
X328.2819 Y18.7972
X327.5927 Y18.7785
X327.4319 Y18.756
X327.28 Y18.6983
X327.1448 Y18.6083
X326.9961 Y18.4961
X326.8284 Y18.3918
X326.6607 Y18.3031
X326.5915 Y18.2732
X326.493 Y18.2322
X326.3254 Y18.1834
X326.1577 Y18.1475
X325.99 Y18.1232
X325.8223 Y18.1152
X325.6546 Y18.1125
X26.3454
X26.1777 Y18.1152
X26.01 Y18.1232
X25.8423 Y18.1475
X25.6747 Y18.1834
X25.507 Y18.2322
X25.4086 Y18.2732
X25.2422 Y18.3353
X24.8358 Y18.4508
X24.2359 Y18.5702
X23.503 Y18.6557
X22.7665 Y18.7
X22.0291 Y18.723
X21.2914 Y18.7351
X20.9248 Y18.7768
X20.5736 Y18.8896
X20.2566 Y19.0783
X19.7076 Y19.5712
X19.3387 Y20.2102
X19.1051 Y20.91
X18.9617 Y21.6338
X18.8751 Y22.3665
X18.8234 Y23.1025
X18.7927 Y23.8397
X18.7746 Y24.5772
X18.7638 Y25.315
X18.7575 Y26.0528
X18.7537 Y26.7906
X18.7502 Y28.2662
X18.7486 Y31.2175
X18.7484 Y63.6813
Y68.846
X18.8102 Y69.2097
X18.9414 Y69.5545
X19.3358 Y70.1781
X19.9125 Y70.6383
X20.5725 Y70.968
X21.2676 Y71.2154
X21.9757 Y71.4228
X22.6851 Y71.6255
X23.2185 Y71.8055
X23.5538 Y71.9496
X23.7179 Y72.0363
X23.8807 Y72.153
X24.0063 Y72.309
X24.0855 Y72.4929
X24.1125 Y72.6913
Y73.9795
G3 X23.5392 Y74.1563 I-0.3173 J-0.0111
G1 X23.4975 Y74.0993 Z-1.992
X23.4578 Y74.0452 Z-1.9686
X23.4221 Y73.9967 Z-1.9307
X23.3924 Y73.9561 Z-1.8805
X23.37 Y73.9256 Z-1.8203
X23.3561 Y73.9067 Z-1.7532
X23.3514 Y73.9003 Z-1.6825
G0 Z5
X26.1992 Y17.5145
Z-1.365
G1 Z-1.6825 F3500
X26.1945 Y17.5209 Z-1.7532
X26.1808 Y17.5399 Z-1.8203
X26.1586 Y17.5705 Z-1.8805
X26.1291 Y17.6112 Z-1.9307
X26.0937 Y17.66 Z-1.9686
X26.0543 Y17.7143 Z-1.992
X26.0129 Y17.7715 Z-2
G3 X25.4086 Y18.2732 I-1.2814 J-0.9287
G1 X25.3393 Y18.3031
X25.1716 Y18.3858
X25.0772 Y18.4408
X25.0039 Y18.4893
X24.8501 Y18.6083
X24.8363 Y18.6206
X24.6686 Y18.7864
X24.5942 Y18.8728
X24.4907 Y18.9814
X24.3778 Y19.0802
X24.2376 Y19.1833
X24.0572 Y19.2948
X23.8389 Y19.4067
X23.5507 Y19.5262
X23.1731 Y19.6483
X22.4552 Y19.8183
X22.0981 Y19.9112
X21.7616 Y20.0623
X21.1593 Y20.4885
X20.7346 Y21.0918
X20.4583 Y21.7759
X20.2849 Y22.4931
X20.1785 Y23.2232
X20.1141 Y23.9582
X20.0754 Y24.695
X20.0522 Y25.4324
X20.0385 Y26.1701
X20.0303 Y26.9079
X20.0254 Y27.6457
X20.0225 Y28.3835
X20.0198 Y29.8591
X20.0184 Y34.286
Y66.7499
Y67.4877
X20.0515 Y67.8551
X20.1453 Y68.2119
X20.4718 Y68.8735
X21.0043 Y69.3843
X21.6347 Y69.7676
X22.3072 Y70.0711
X22.9917 Y70.3465
X23.4629 Y70.5532
X23.7358 Y70.7
X23.774 Y70.7247
X23.915 Y70.8431
X24.0224 Y70.9927
X24.0897 Y71.1641
X24.1125 Y71.3468
Y72.6913
G3 X23.5392 Y72.868 I-0.3173 J-0.0111
G1 X23.4975 Y72.8111 Z-1.992
X23.4578 Y72.757 Z-1.9686
X23.4221 Y72.7084 Z-1.9307
X23.3924 Y72.6679 Z-1.8805
X23.37 Y72.6374 Z-1.8203
X23.3561 Y72.6185 Z-1.7532
X23.3514 Y72.6121 Z-1.6825
G0 Z5
X24.9735 Y17.8448
Z-1.365
G1 Z-1.6825 F3500
X24.9722 Y17.8526 Z-1.7532
X24.9681 Y17.8757 Z-1.8203
X24.9615 Y17.913 Z-1.8805
X24.9528 Y17.9625 Z-1.9307
X24.9423 Y18.0218 Z-1.9686
X24.9306 Y18.0879 Z-1.992
X24.9184 Y18.1574 Z-2
G3 X24.5942 Y18.8728 I-1.5585 J-0.2751
G1 X24.5333 Y18.9435
X24.5009 Y18.9874
X24.4195 Y19.111
X24.33 Y19.2786
X24.2535 Y19.4462
X24.2463 Y19.4741
X24.2016 Y19.6172
X24.1298 Y19.7489
X24.0434 Y19.8716
X23.9434 Y19.9877
X23.8104 Y20.1191
X23.476 Y20.4
X22.8749 Y20.8277
X22.3591 Y21.3553
X21.9818 Y21.9893
X21.727 Y22.6818
X21.5615 Y23.4008
X21.4566 Y24.1311
X21.3911 Y24.866
X21.3508 Y25.6027
X21.3261 Y26.3401
X21.3111 Y27.0778
X21.302 Y27.8156
X21.2966 Y28.5533
X21.2933 Y29.2912
X21.2901 Y30.7668
X21.2885 Y34.4559
X21.2884 Y66.1819
X21.3207 Y66.919
X21.5931 Y67.6047
X22.0753 Y68.1631
X22.6652 Y68.6063
X23.2992 Y68.9837
X23.7335 Y69.2438
X23.8022 Y69.2928
X23.9686 Y69.457
X24.0756 Y69.6649
X24.1125 Y69.8958
Y71.3468
G3 X23.5392 Y71.5235 I-0.3173 J-0.0111
G1 X23.4975 Y71.4666 Z-1.992
X23.4578 Y71.4125 Z-1.9686
X23.4221 Y71.3639 Z-1.9307
X23.3924 Y71.3234 Z-1.8805
X23.37 Y71.2929 Z-1.8203
X23.3561 Y71.274 Z-1.7532
X23.3514 Y71.2676 Z-1.6825
G0 Z5
X24.1314 Y18.3843
Z-1.365
G1 Z-1.6825 F3500
X24.1336 Y18.3919 Z-1.7532
X24.1402 Y18.4145 Z-1.8203
X24.1508 Y18.4508 Z-1.8805
X24.1649 Y18.499 Z-1.9307
X24.1817 Y18.5568 Z-1.9686
X24.2005 Y18.6213 Z-1.992
X24.2203 Y18.6891 Z-2
G3 X24.2463 Y19.4741 I-1.5193 J0.4432
G1 X24.2102 Y19.6137
X24.1334 Y19.9489
X24.1193 Y20.0327
X24.1147 Y20.1164
X24.1141 Y20.1671
X24.1046 Y20.3168
X24.0742 Y20.4637
X24.0051 Y20.6819
X23.7267 Y21.3651
X23.4061 Y22.0297
X23.142 Y22.7186
X22.9464 Y23.43
X22.8108 Y24.1552
X22.7201 Y24.8875
X22.6607 Y25.6229
X22.6226 Y26.3597
X22.5983 Y27.0971
X22.5831 Y27.8348
X22.5736 Y28.5725
X22.5677 Y29.3103
X22.5641 Y30.0481
X22.5605 Y31.5238
X22.5587 Y34.475
X22.5584 Y64.7254
X22.5611 Y65.4632
X22.6202 Y65.8274
X22.8611 Y66.5248
X23.3026 Y67.1159
X23.8765 Y67.6551
X24.0043 Y67.8117
X24.085 Y67.9971
X24.1125 Y68.1973
Y69.8958
G3 X23.5392 Y70.0725 I-0.3173 J-0.0111
G1 X23.4975 Y70.0155 Z-1.992
X23.4578 Y69.9614 Z-1.9686
X23.4221 Y69.9129 Z-1.9307
X23.3924 Y69.8724 Z-1.8805
X23.37 Y69.8419 Z-1.8203
X23.3561 Y69.8229 Z-1.7531
X23.3514 Y69.8165 Z-1.6825
G0 Z5
X23.744 Y19.1357
Z-1.365
G1 Z-1.6825 F3500
X23.748 Y19.1426 Z-1.7532
X23.7598 Y19.1629 Z-1.8203
X23.7787 Y19.1957 Z-1.8805
X23.8038 Y19.2392 Z-1.9307
X23.8339 Y19.2914 Z-1.9686
X23.8674 Y19.3495 Z-1.992
X23.9027 Y19.4107 Z-2
G3 X24.1141 Y20.1671 I-1.3708 J0.7908
G1 X24.1125 Y20.284
Y22.6299
X24.0381 Y24.1037
X23.9879 Y24.8398
X23.9427 Y25.5762
X23.9073 Y26.3132
X23.8815 Y27.0505
X23.8634 Y27.7881
X23.8511 Y28.5258
X23.843 Y29.2636
X23.8377 Y30.0014
X23.8342 Y30.7392
X23.8307 Y32.2148
X23.8287 Y35.1661
X23.8284 Y63.9409
X23.8459 Y64.6785
X24.0313 Y65.3926
X24.0761 Y65.5003
X24.1034 Y65.6136
X24.1125 Y65.7299
Y68.1973
G3 X23.5392 Y68.374 I-0.3173 J-0.0111
G1 X23.4975 Y68.3171 Z-1.992
X23.4578 Y68.263 Z-1.9686
X23.4221 Y68.2144 Z-1.9307
X23.3924 Y68.1739 Z-1.8805
X23.37 Y68.1434 Z-1.8203
X23.3561 Y68.1245 Z-1.7532
X23.3514 Y68.1181 Z-1.6825
G0 Z5
X23.729 Y21.6035
Z-1.365
G1 Z-1.6825 F3500
X23.733 Y21.6103 Z-1.7532
X23.745 Y21.6305 Z-1.8203
X23.7644 Y21.663 Z-1.8805
X23.7901 Y21.7062 Z-1.9307
X23.8208 Y21.758 Z-1.9686
X23.8551 Y21.8156 Z-1.992
X23.8912 Y21.8764 Z-2
G3 X24.1125 Y22.6299 I-1.3603 J0.8088
G1 Y65.7299
G3 X23.5392 Y65.9066 I-0.3173 J-0.0111
G1 X23.4975 Y65.8497 Z-1.992
X23.4578 Y65.7956 Z-1.9686
X23.4221 Y65.747 Z-1.9307
X23.3924 Y65.7065 Z-1.8805
X23.37 Y65.676 Z-1.8203
X23.3561 Y65.6571 Z-1.7532
X23.3514 Y65.6506 Z-1.6825
G0 Z5
X328.2711 Y76.3476
Z-1.365
G1 Z-1.6825 F3500
X328.2671 Y76.3407 Z-1.7532
X328.255 Y76.3205 Z-1.8203
X328.2357 Y76.288 Z-1.8805
X328.21 Y76.2448 Z-1.9307
X328.1793 Y76.1931 Z-1.9686
X328.145 Y76.1354 Z-1.992
X328.1089 Y76.0747 Z-2
G3 X327.8875 Y75.3211 I1.3603 J-0.8088
G1 Y74.0727
X327.895 Y73.9229
X327.9203 Y73.775
X327.9599 Y73.628
X328.0162 Y73.4708
X328.0924 Y73.302
X328.1996 Y73.1077
X328.3259 Y72.9169
X328.5019 Y72.6926
X328.7002 Y72.4778
X328.9758 Y72.2236
X329.3219 Y71.9524
X329.9373 Y71.5454
X330.5343 Y71.112
X331.0066 Y70.5451
X331.3451 Y69.8895
X331.5746 Y69.1883
X331.7251 Y68.466
X331.8215 Y67.7345
X331.8823 Y66.9992
X331.9204 Y66.2624
X331.944 Y65.5249
X331.9586 Y64.7873
X331.9676 Y64.0495
X331.9731 Y63.3117
X331.9764 Y62.5739
X331.9797 Y61.0983
X331.9814 Y58.147
X331.9816 Y24.9453
Y22.7319
X331.9712 Y22.3631
X331.8951 Y22.0022
X331.7383 Y21.6682
X331.2939 Y21.0792
X330.6759 Y20.6762
X329.9847 Y20.4182
X329.2643 Y20.2585
X328.4125 Y20.1454
X328.2079 Y20.0869
X328.0284 Y19.9728
X327.8887 Y19.8123
X327.8004 Y19.6187
X327.7454 Y19.4462
X327.6668 Y19.2719
X327.5774 Y19.111
X327.4991 Y18.9901
X327.4633 Y18.9435
X327.3315 Y18.7864
X327.2953 Y18.7507
X327.1638 Y18.6243
X327.1448 Y18.6083
G3 X327.3784 Y18.0558 I0.2127 J-0.2357
G1 X327.4489 Y18.0605 Z-1.992
X327.5159 Y18.0649 Z-1.9686
X327.5759 Y18.0689 Z-1.9307
X327.6261 Y18.0722 Z-1.8805
X327.6638 Y18.0747 Z-1.8203
X327.6873 Y18.0762 Z-1.7531
X327.6952 Y18.0768 Z-1.6825
G0 Z5
X328.2711 Y75.0992
Z-1.365
G1 Z-1.6825 F3500
X328.2671 Y75.0923 Z-1.7532
X328.255 Y75.0722 Z-1.8203
X328.2357 Y75.0397 Z-1.8805
X328.21 Y74.9964 Z-1.9307
X328.1793 Y74.9447 Z-1.9686
X328.145 Y74.887 Z-1.992
X328.1089 Y74.8263 Z-2
G3 X327.8875 Y74.0727 I1.3603 J-0.8088
G1 Y72.8997
X327.8951 Y72.7481
X327.9146 Y72.5993
X327.9479 Y72.4531
X327.9987 Y72.2953
X328.0685 Y72.1265
X328.1606 Y71.9463
X328.2925 Y71.7324
X328.5055 Y71.4423
X328.9883 Y70.8844
X329.469 Y70.3247
X329.8582 Y69.6979
X330.1434 Y69.0174
X330.3407 Y68.3065
X330.473 Y67.5806
X330.5597 Y66.8479
X330.6157 Y66.1122
X330.6515 Y65.3753
X330.6741 Y64.6378
X330.6883 Y63.9001
X330.6972 Y63.1624
X330.7027 Y62.4246
X330.7061 Y61.6868
X330.7096 Y60.2111
X330.7113 Y57.2599
X330.7116 Y24.0582
X330.7078 Y23.6893
X330.6438 Y23.326
X330.4986 Y22.9869
X330.2853 Y22.6859
X329.7603 Y22.1675
X329.1075 Y21.8236
X328.5083 Y21.5794
X328.2945 Y21.4714
X328.127 Y21.3555
X327.9974 Y21.1984
X327.9155 Y21.0119
X327.8875 Y20.8101
Y20.6191
X327.8862 Y20.4516
X327.8781 Y20.1164
X327.8702 Y19.9489
X327.8345 Y19.7355
X327.8004 Y19.6187
G3 X328.3012 Y19.2885 I0.3077 J-0.0783
G1 X328.3573 Y19.3314 Z-1.992
X328.4106 Y19.3723 Z-1.9686
X328.4584 Y19.4089 Z-1.9307
X328.4983 Y19.4394 Z-1.8805
X328.5283 Y19.4625 Z-1.8203
X328.5469 Y19.4767 Z-1.7532
X328.5533 Y19.4816 Z-1.6825
G0 Z5
X328.2711 Y73.9262
Z-1.365
G1 Z-1.6825 F3500
X328.2671 Y73.9194 Z-1.7532
X328.255 Y73.8992 Z-1.8203
X328.2357 Y73.8667 Z-1.8805
X328.21 Y73.8235 Z-1.9307
X328.1793 Y73.7717 Z-1.9686
X328.145 Y73.714 Z-1.992
X328.1089 Y73.6533 Z-2
G3 X327.8875 Y72.8997 I1.3603 J-0.8088
G1 Y71.5592
X327.895 Y71.4094
X327.9209 Y71.2329
X327.9698 Y71.0195
X328.0983 Y70.6129
X328.3763 Y69.9295
X328.6574 Y69.2473
X328.8885 Y68.5466
X329.063 Y67.8297
X329.188 Y67.1026
X329.2745 Y66.3699
X329.3329 Y65.6344
X329.3715 Y64.8976
X329.3968 Y64.1602
X329.4132 Y63.4225
X329.4236 Y62.6848
X329.4303 Y61.947
X329.4346 Y61.2092
X329.4389 Y59.7336
X329.441 Y57.5201
X329.4416 Y32.4344
Y25.0563
X329.3904 Y24.6909
X329.2661 Y24.3436
X328.8897 Y23.709
X328.3542 Y23.2015
X328.1484 Y23.0265
X328.0076 Y22.8665
X327.9182 Y22.673
X327.8875 Y22.4621
Y20.8101
G3 X328.4608 Y20.6333 I0.3173 J0.0111
G1 X328.5026 Y20.6903 Z-1.992
X328.5423 Y20.7444 Z-1.9686
X328.5779 Y20.7929 Z-1.9307
X328.6077 Y20.8335 Z-1.8805
X328.63 Y20.864 Z-1.8203
X328.6439 Y20.8829 Z-1.7532
X328.6487 Y20.8893 Z-1.6825
G0 Z5
X328.2711 Y72.5857
Z-1.365
G1 Z-1.6825 F3500
X328.267 Y72.5789 Z-1.7532
X328.255 Y72.5587 Z-1.8203
X328.2357 Y72.5262 Z-1.8805
X328.21 Y72.4829 Z-1.9307
X328.1793 Y72.4312 Z-1.9686
X328.145 Y72.3735 Z-1.992
X328.1089 Y72.3128 Z-2
G3 X327.8875 Y71.5592 I1.3603 J-0.8088
G1 Y68.543
X327.9244 Y67.8061
X327.9644 Y67.0694
X328.0132 Y66.3332
X328.0566 Y65.5967
X328.0909 Y64.8597
X328.1164 Y64.1223
X328.1346 Y63.3847
X328.1471 Y62.647
X328.1555 Y61.9092
X328.1612 Y61.1714
X328.1649 Y60.4336
X328.1689 Y58.958
X328.1712 Y56.0067
X328.1716 Y26.4941
X328.1377 Y25.7571
X327.9313 Y25.1837
X327.9071 Y25.1019
X327.8924 Y25.0179
X327.8875 Y24.9328
Y22.4621
G3 X328.4608 Y22.2854 I0.3173 J0.0111
G1 X328.5026 Y22.3423 Z-1.992
X328.5423 Y22.3964 Z-1.9686
X328.5779 Y22.445 Z-1.9307
X328.6077 Y22.4855 Z-1.8805
X328.63 Y22.516 Z-1.8203
X328.6439 Y22.5349 Z-1.7532
X328.6487 Y22.5414 Z-1.6825
G0 Z5
X328.2711 Y69.5695
Z-1.365
G1 Z-1.6825 F3500
X328.267 Y69.5627 Z-1.7532
X328.255 Y69.5425 Z-1.8203
X328.2357 Y69.51 Z-1.8805
X328.21 Y69.4668 Z-1.9307
X328.1793 Y69.415 Z-1.9686
X328.145 Y69.3573 Z-1.992
X328.1089 Y69.2966 Z-2
G3 X327.8875 Y68.543 I1.3603 J-0.8088
G1 Y24.9328
G3 X328.1851 Y24.627 I0.3173 J0.0111
G1 X328.2048 Y24.6263 Z-1.9994
X328.2582 Y24.6399 Z-1.9907
X328.3093 Y24.6529 Z-1.9726
X328.3565 Y24.6649 Z-1.9455
X328.3921 Y24.696 Z-1.9059
X328.4213 Y24.7215 Z-1.8579
X328.443 Y24.7404 Z-1.8034
X328.4563 Y24.7521 Z-1.7443
X328.4608 Y24.756 Z-1.6829
G0 Z5
X275.2752 Y41.7745
Z2.5
G3 X275.4466 Y41.9738 Z2.1783 I1.2249 J-0.8799 F1200
X275.65 Y42.1404 Z1.8566 I1.0535 J-1.0792
X275.8792 Y42.269 Z1.5349 I0.8501 J-1.2457
X276.1273 Y42.356 Z1.2132 I0.6208 J-1.3744
X276.3867 Y42.3985 Z0.8914 I0.3727 J-1.4613
X276.6496 Y42.3953 Z0.5697 I0.1133 J-1.5039
X276.9079 Y42.3465 Z0.248 I-0.1496 J-1.5007
X277.1538 Y42.2537 Z-0.0737 I-0.4079 J-1.4519
X277.3799 Y42.1195 Z-0.3954 I-0.6538 J-1.359
X277.5792 Y41.9481 Z-0.7171 I-0.8799 J-1.2249
X277.7458 Y41.7447 Z-1.0388 I-1.0792 J-1.0535
X277.8744 Y41.5155 Z-1.3605 I-1.2457 J-0.8501
X277.9614 Y41.2674 Z-1.6822 I-1.3744 J-0.6208
X278.0081 Y40.8946 Z-2 I-1.4613 J-0.3727
X274.9919 I-1.5081
X278.0081 I1.5081
G1 X278.0275 Y41.6322 F3500
X278.0493 Y41.7218
X278.0647 Y41.871
X278.0521 Y42.0205
X278.0166 Y42.1662
X277.9617 Y42.3058
X277.8902 Y42.4377
X277.8044 Y42.5607
X277.7063 Y42.6742
X277.5976 Y42.7775
X277.4797 Y42.8703
X277.3542 Y42.9524
X277.222 Y43.0234
X277.0835 Y43.0838
X276.9368 Y43.1342
X276.7829 Y43.1735
X276.6228 Y43.201
X276.4578 Y43.2159
X276.2892 Y43.2175
X276.1182 Y43.2053
X275.9464 Y43.1791
X275.775 Y43.1387
X275.6055 Y43.084
X275.4392 Y43.0152
X275.2775 Y42.9325
X275.1218 Y42.8364
X274.9732 Y42.7273
X274.8329 Y42.6058
X274.7022 Y42.4728
X274.582 Y42.329
X274.4732 Y42.1754
X274.3767 Y42.0129
X274.2934 Y41.8427
X274.2237 Y41.6658
X274.1684 Y41.4834
X274.1277 Y41.2967
X274.1022 Y41.1071
X274.0919 Y40.9156
X274.097 Y40.7237
X274.1176 Y40.5325
X274.1534 Y40.3434
X274.2044 Y40.1576
X274.2701 Y39.9764
X274.3503 Y39.8008
X274.4443 Y39.6322
X274.5517 Y39.4715
X274.6717 Y39.3199
X274.8034 Y39.1784
X274.9462 Y39.0479
X275.0991 Y38.9291
X275.261 Y38.823
X275.431 Y38.7303
X275.6079 Y38.6514
X275.7906 Y38.587
X275.9779 Y38.5374
X276.1686 Y38.5031
X276.3615 Y38.4841
X276.5553 Y38.4807
X276.7487 Y38.4929
X276.9406 Y38.5205
X277.1297 Y38.5635
X277.3147 Y38.6215
X277.4944 Y38.6941
X277.6678 Y38.781
X277.8336 Y38.8815
X277.9909 Y38.995
X278.1385 Y39.1207
X278.2756 Y39.2579
X278.4012 Y39.4057
X278.5146 Y39.563
X278.619 Y39.7357
X278.7302 Y39.9581
X278.8772 Y40.3226
X278.9844 Y40.6657
X279.0484 Y40.9482
X279.085 Y41.2038
X279.0997 Y41.4409
X279.0956 Y41.6641
X279.0744 Y41.8772
X279.0369 Y42.0843
X278.9832 Y42.2867
X278.9136 Y42.4836
X278.8285 Y42.674
X278.7284 Y42.857
X278.6136 Y43.032
X278.484 Y43.1985
X278.3399 Y43.3558
X278.1818 Y43.5028
X278.0103 Y43.6382
X277.826 Y43.7612
X277.6293 Y43.8706
X277.4215 Y43.9653
X277.2036 Y44.0442
X276.9769 Y44.1062
X276.7429 Y44.1503
X276.5031 Y44.1759
X276.2592 Y44.1822
X276.0128 Y44.1687
X275.7658 Y44.1352
X275.5201 Y44.0815
X275.2774 Y44.0076
X275.0397 Y43.9138
X274.8086 Y43.8004
X274.5859 Y43.6679
X274.3732 Y43.5171
X274.1722 Y43.3488
X273.9844 Y43.1638
X273.8112 Y42.9635
X273.654 Y42.749
X273.5139 Y42.5217
X273.3922 Y42.283
X273.2896 Y42.0346
X273.2071 Y41.778
X273.1453 Y41.5149
X273.1047 Y41.2472
X273.0857 Y40.9765
X273.0885 Y40.7047
X273.1131 Y40.4335
X273.1595 Y40.1648
X273.2273 Y39.9004
X273.3163 Y39.6421
X273.4258 Y39.3914
X273.5552 Y39.1502
X273.7036 Y38.92
X273.8701 Y38.7023
X274.0537 Y38.4985
X274.2531 Y38.31
X274.4671 Y38.1381
X274.6943 Y37.9839
X274.9332 Y37.8483
X275.1823 Y37.7323
X275.44 Y37.6367
X275.7045 Y37.562
X275.9743 Y37.5088
X276.2475 Y37.4774
X276.5223 Y37.4681
X276.7971 Y37.4808
X277.07 Y37.5155
X277.3392 Y37.5721
X277.6031 Y37.6501
X277.8599 Y37.749
X278.1079 Y37.8681
X278.3456 Y38.0069
X278.5714 Y38.1642
X278.785 Y38.3402
X278.9913 Y38.5401
X279.2055 Y38.7837
X279.4074 Y39.0545
X279.5938 Y39.3514
X279.7584 Y39.6677
X279.8958 Y39.9929
X280.0037 Y40.3192
X280.0826 Y40.6429
X280.1338 Y40.9629
X280.1586 Y41.2793
X280.158 Y41.5918
X280.1326 Y41.8994
X280.0832 Y42.2007
X280.0103 Y42.4947
X279.9146 Y42.7802
X279.7966 Y43.0563
X279.657 Y43.3218
X279.4964 Y43.5755
X279.3154 Y43.8162
X279.1148 Y44.0426
X278.8953 Y44.2535
X278.658 Y44.4474
X278.4039 Y44.6229
X278.1343 Y44.7788
X277.8507 Y44.9138
X277.5546 Y45.0265
X277.2477 Y45.1158
X276.9319 Y45.1808
X276.6093 Y45.2205
X276.2821 Y45.2344
X275.9525 Y45.2218
X275.6226 Y45.1826
X275.2947 Y45.1165
X274.971 Y45.0238
X274.6539 Y44.9046
X274.3456 Y44.7596
X274.0482 Y44.5893
X273.7641 Y44.3946
X273.4951 Y44.1768
X273.2433 Y43.937
X273.0107 Y43.6766
X272.7989 Y43.3974
X272.6095 Y43.1011
X272.444 Y42.7895
X272.3036 Y42.4646
X272.1895 Y42.1287
X272.1024 Y41.7838
X272.0432 Y41.4324
X272.0123 Y41.0767
X272.0101 Y40.7191
X272.0367 Y40.3619
X272.0918 Y40.0075
X272.1754 Y39.6583
X272.2867 Y39.3166
X272.4253 Y38.9847
X272.5902 Y38.6647
X272.7804 Y38.3587
X272.9947 Y38.0689
X273.2317 Y37.797
X273.4898 Y37.5448
X273.7675 Y37.3142
X274.0629 Y37.1064
X274.3741 Y36.923
X274.6991 Y36.7651
X275.0358 Y36.6338
X275.382 Y36.5299
X275.7355 Y36.4541
X276.0941 Y36.4069
X276.4553 Y36.3887
X276.8168 Y36.3995
X277.1764 Y36.4393
X277.5316 Y36.5078
X277.8803 Y36.6046
X278.22 Y36.7291
X278.549 Y36.8806
X278.8674 Y37.0594
X279.1795 Y37.2695
X279.4831 Y37.5113
X279.7752 Y37.785
X280.0517 Y38.0892
X280.3073 Y38.4206
X280.5375 Y38.7743
X280.7386 Y39.1455
X280.9084 Y39.5297
X281.0457 Y39.9232
X281.1501 Y40.3229
X281.2214 Y40.7259
X281.2598 Y41.1298
X281.2657 Y41.532
X281.2394 Y41.9303
X281.1816 Y42.3226
X281.0929 Y42.7071
X280.9742 Y43.0818
X280.8261 Y43.4449
X280.6495 Y43.7946
X280.4453 Y44.1291
X280.2146 Y44.4467
X279.9585 Y44.7455
X279.6781 Y45.0238
X279.3751 Y45.2799
X279.0508 Y45.512
X278.707 Y45.7184
X278.3456 Y45.8976
X277.9688 Y46.0482
X277.5786 Y46.1688
X277.1776 Y46.2582
X276.7683 Y46.3155
X276.3533 Y46.3399
X275.9352 Y46.3309
X275.5169 Y46.2881
X275.1011 Y46.2114
X274.6906 Y46.101
X274.2883 Y45.9574
X273.8969 Y45.781
X273.5193 Y45.5729
X273.158 Y45.3342
X272.8157 Y45.0661
X272.4948 Y44.7703
X272.1976 Y44.4485
X271.9263 Y44.1029
X271.683 Y43.7355
X271.4693 Y43.3487
X271.2869 Y42.945
X271.1371 Y42.527
X271.0211 Y42.0975
X270.9398 Y41.6591
X270.8939 Y41.2149
X270.8838 Y40.7678
X270.9096 Y40.3207
X270.9713 Y39.8765
X271.0685 Y39.4382
X271.2008 Y39.0088
X271.3672 Y38.5909
X271.5668 Y38.1875
X271.7982 Y37.8011
X272.0601 Y37.4344
X272.3508 Y37.0896
X272.6683 Y36.7691
X273.0106 Y36.4751
X273.3756 Y36.2093
X273.7608 Y35.9737
X274.1638 Y35.7696
X274.5821 Y35.5985
X275.0127 Y35.4615
X275.4531 Y35.3595
X275.9003 Y35.2932
X276.3514 Y35.2629
X276.8036 Y35.269
X277.2539 Y35.3113
X277.6995 Y35.3896
X278.1378 Y35.5036
X278.5679 Y35.6532
X278.9885 Y35.8386
X279.3977 Y36.0598
X279.7935 Y36.3166
X280.1745 Y36.61
X280.5375 Y36.9392
X280.8781 Y37.3018
X281.1917 Y37.6947
X281.4743 Y38.1138
X281.7229 Y38.5552
X281.9351 Y39.0147
X282.1092 Y39.4883
X282.2441 Y39.9722
X282.3393 Y40.4628
X282.3944 Y40.9567
X282.4097 Y41.4508
X282.3854 Y41.9419
X282.3221 Y42.4273
X282.2203 Y42.9043
X282.081 Y43.3703
X281.9051 Y43.8227
X281.6937 Y44.2591
X281.4479 Y44.6772
X281.169 Y45.0746
X280.8586 Y45.449
X280.5183 Y45.7982
X280.1499 Y46.12
X279.7554 Y46.4122
X279.3369 Y46.673
X278.897 Y46.9003
X278.438 Y47.0924
X277.9629 Y47.2479
X277.4745 Y47.3653
X276.9759 Y47.4434
X276.4701 Y47.4815
X275.9605 Y47.4789
X275.4504 Y47.4352
X274.9432 Y47.3503
X274.4423 Y47.2244
X273.951 Y47.058
X273.4728 Y46.8519
X273.0108 Y46.6072
X272.5685 Y46.3251
X272.1487 Y46.0074
X271.7545 Y45.6559
X271.3887 Y45.2728
X271.054 Y44.8603
X270.7526 Y44.4213
X270.4868 Y43.9583
X270.2585 Y43.4745
X270.0694 Y42.9728
X269.9209 Y42.4567
X269.8141 Y41.9295
X269.7499 Y41.3945
X269.7289 Y40.8554
X269.7511 Y40.3157
X269.8167 Y39.7789
X269.9253 Y39.2485
X270.0761 Y38.7282
X270.2685 Y38.2212
X270.5011 Y37.7309
X270.7724 Y37.2606
X271.0807 Y36.8133
X271.4242 Y36.3921
X271.8005 Y35.9995
X272.2073 Y35.6383
X272.6418 Y35.3108
X273.1014 Y35.0192
X273.5831 Y34.7653
X274.0836 Y34.5508
X274.5999 Y34.3772
X275.1286 Y34.2456
X275.6662 Y34.1567
X276.2092 Y34.1113
X276.7543 Y34.1097
X277.2979 Y34.1518
X277.8373 Y34.2375
X278.3701 Y34.3667
X278.8937 Y34.5393
X279.4057 Y34.7549
X279.9039 Y35.0136
X280.3855 Y35.3152
X280.8471 Y35.6586
X281.2846 Y36.0424
X281.6937 Y36.4639
X282.0703 Y36.9201
X282.4105 Y37.4072
X282.7113 Y37.9212
X282.9699 Y38.4579
X283.1844 Y39.0131
X283.3533 Y39.5824
X283.4756 Y40.1617
X283.5508 Y40.747
X283.5786 Y41.3343
X283.5592 Y41.9199
X283.4932 Y42.5002
X283.3811 Y43.0718
X283.2238 Y43.6315
X283.0223 Y44.1759
X282.778 Y44.702
X282.4923 Y45.2068
X282.1668 Y45.6873
X281.8033 Y46.1407
X281.4038 Y46.5643
X280.9706 Y46.9555
X280.5061 Y47.3116
X280.0129 Y47.6303
X279.4939 Y47.9093
X278.9522 Y48.1467
X278.391 Y48.3406
X277.8138 Y48.4894
X277.2242 Y48.5918
X276.6259 Y48.6468
X276.0228 Y48.6536
X275.4187 Y48.6118
X274.8176 Y48.5213
X274.2234 Y48.3824
X273.6404 Y48.1955
X273.0721 Y47.9617
X272.5227 Y47.682
X271.9959 Y47.3582
X271.4952 Y46.9921
X271.0243 Y46.5858
X270.5863 Y46.1419
X270.1844 Y45.6631
X269.8214 Y45.1524
X269.4998 Y44.6131
X269.2221 Y44.0486
X268.9901 Y43.4626
X268.8056 Y42.8589
X268.67 Y42.2413
X268.5842 Y41.614
X268.549 Y40.9811
X268.5647 Y40.3467
X268.6313 Y39.7149
X268.7486 Y39.0899
X268.9157 Y38.4759
X269.1318 Y37.8768
X269.3954 Y37.2966
X269.705 Y36.7391
X270.0584 Y36.2079
X270.4536 Y35.7067
X270.8878 Y35.2385
X271.3584 Y34.8066
X271.8623 Y34.4136
X272.3963 Y34.0623
X272.9569 Y33.755
X273.5405 Y33.4935
X274.1433 Y33.2797
X274.7614 Y33.1149
X275.3909 Y33.0002
X276.0276 Y32.9364
X276.6679 Y32.9239
X277.3079 Y32.9629
X277.9444 Y33.0534
X278.5739 Y33.1951
X279.1934 Y33.388
X279.7997 Y33.6317
X280.3892 Y33.9257
X280.9578 Y34.2688
X281.5016 Y34.6596
X282.0161 Y35.0962
X282.4973 Y35.576
X282.941 Y36.0957
X283.3432 Y36.6519
X283.7005 Y37.2401
X284.0099 Y37.8559
X284.2688 Y38.4946
X284.4754 Y39.1512
X284.6283 Y39.8211
X284.7268 Y40.4995
X284.7704 Y41.1819
X284.7591 Y41.8638
X284.6933 Y42.5411
X284.5735 Y43.2094
X284.4009 Y43.865
X284.1764 Y44.5039
X283.9015 Y45.1223
X283.5779 Y45.7166
X283.2075 Y46.2833
X282.7923 Y46.819
X282.3349 Y47.3203
X281.8378 Y47.7842
X281.3039 Y48.2076
X280.7362 Y48.5877
X280.1383 Y48.9221
X279.5135 Y49.2082
X278.8658 Y49.4439
X278.1991 Y49.6276
X277.5175 Y49.7575
X276.8253 Y49.8326
X276.127 Y49.852
X275.4271 Y49.8152
X274.7301 Y49.7219
X274.0405 Y49.5726
X273.3631 Y49.3677
X272.7022 Y49.1084
X272.0625 Y48.7959
X271.4481 Y48.4321
X270.8633 Y48.019
X270.3122 Y47.5592
X269.7986 Y47.0555
X269.326 Y46.5109
X268.8979 Y45.9291
X268.517 Y45.3136
X268.1862 Y44.6683
X267.9079 Y43.9976
X267.6839 Y43.3056
X267.5159 Y42.5969
X267.4053 Y41.8762
X267.3527 Y41.1481
X267.3588 Y40.4173
X267.4236 Y39.6887
X267.5467 Y38.9671
X267.7275 Y38.2572
X267.9648 Y37.5635
X268.2573 Y36.8908
X268.6029 Y36.2434
X268.9996 Y35.6255
X269.4448 Y35.0411
X269.9356 Y34.4942
X270.469 Y33.9883
X271.0414 Y33.5267
X271.6491 Y33.1124
X272.2883 Y32.7481
X272.9548 Y32.4362
X273.6443 Y32.1788
X274.3523 Y31.9775
X275.0743 Y31.8336
X275.8058 Y31.7482
X276.5424 Y31.7217
X277.2795 Y31.7544
X278.0116 Y31.8462
X278.734 Y31.9962
X279.4421 Y32.2034
X280.1315 Y32.4662
X280.7981 Y32.7825
X281.4379 Y33.15
X282.0471 Y33.5662
X282.6223 Y34.0282
X283.1605 Y34.533
X283.6586 Y35.0773
X284.114 Y35.6578
X284.5243 Y36.271
X284.8873 Y36.9133
X285.201 Y37.5811
X285.4636 Y38.2706
X285.6736 Y38.9779
X285.8298 Y39.699
X285.9311 Y40.4299
X285.9764 Y41.1663
X285.965 Y41.904
X285.8969 Y42.6387
X285.7725 Y43.3659
X285.5928 Y44.0815
X285.3589 Y44.7813
X285.0723 Y45.4611
X284.7345 Y46.1171
X284.3476 Y46.7453
X283.9139 Y47.3422
X283.4359 Y47.9043
X282.9165 Y48.4283
X282.3587 Y48.9113
X281.7659 Y49.3505
X281.1416 Y49.7437
X280.4893 Y50.0886
X279.813 Y50.3834
X279.1165 Y50.6267
X278.4037 Y50.8172
X277.6785 Y50.9534
X276.9451 Y51.034
X276.2077 Y51.0588
X275.4706 Y51.0282
X274.7377 Y50.943
X274.0131 Y50.8041
X273.3006 Y50.6123
X272.6041 Y50.369
X271.9271 Y50.0756
X271.2732 Y49.7338
X270.6458 Y49.3456
X270.0479 Y48.9132
X269.4834 Y48.4382
X268.956 Y47.9222
X268.4682 Y47.3687
X268.0218 Y46.7812
X267.6189 Y46.1631
X267.2612 Y45.5178
X266.9504 Y44.8487
X266.6879 Y44.1591
X266.475 Y43.4527
X266.3127 Y42.7329
X266.2032 Y42.0033
X266.1483 Y41.2675
X266.1468 Y40.5297
X266.1981 Y39.7937
X266.3014 Y39.0631
X266.4561 Y38.3417
X266.6612 Y37.633
X266.9156 Y36.9404
X267.2179 Y36.2674
X267.5682 Y35.618
X267.9655 Y34.9963
X268.4067 Y34.405
X268.8889 Y33.8465
X269.4093 Y33.3235
X269.9651 Y32.8383
X270.5536 Y32.3933
X271.1719 Y31.9906
X271.8168 Y31.6322
X272.4861 Y31.3217
X273.1765 Y31.0613
X273.8837 Y30.8512
X274.6041 Y30.6917
X275.3339 Y30.5834
X276.0695 Y30.5264
X276.8073 Y30.521
X277.5437 Y30.567
X278.275 Y30.6647
X278.9972 Y30.8158
X279.7066 Y31.0186
X280.3999 Y31.2711
X281.0739 Y31.5711
X281.7258 Y31.9167
X282.3525 Y32.306
X282.9514 Y32.737
X283.5199 Y33.2073
X284.0551 Y33.7151
X284.5533 Y34.2593
X285.0128 Y34.8366
X285.4323 Y35.4436
X285.8103 Y36.0772
X286.1455 Y36.7345
X286.4365 Y37.4125
X286.6821 Y38.1082
X286.8813 Y38.8186
X287.0326 Y39.5408
X287.1331 Y40.2717
X287.1826 Y41.0079
X287.1817 Y41.7457
X287.1307 Y42.4817
X287.0303 Y43.2127
X286.881 Y43.9352
X286.6836 Y44.6461
X286.4391 Y45.3423
X286.1481 Y46.0203
X285.81 Y46.6761
X285.4272 Y47.3068
X285.0023 Y47.91
X284.5377 Y48.4832
X284.0358 Y49.0239
X283.4988 Y49.53
X282.9294 Y49.9992
X282.3301 Y50.4295
X281.7033 Y50.8187
X281.0509 Y51.1634
X280.3765 Y51.4625
X279.6834 Y51.7157
X278.9751 Y51.9222
X278.2546 Y52.0812
X277.5252 Y52.1919
X276.79 Y52.254
X276.0523 Y52.2674
X275.3153 Y52.2321
X274.5825 Y52.1464
X273.8571 Y52.0115
X273.1422 Y51.829
X272.4408 Y51.6003
X271.7555 Y51.3269
X271.0892 Y51.01
X270.4445 Y50.6511
X269.8241 Y50.2519
X269.2305 Y49.8137
X268.6677 Y49.3365
X268.1388 Y48.8221
X267.645 Y48.2739
X267.1879 Y47.6947
X266.7688 Y47.0875
X266.3892 Y46.4548
X266.0503 Y45.7994
X265.7534 Y45.124
X265.4994 Y44.4313
X265.2899 Y43.7239
X265.128 Y43.004
X265.0145 Y42.275
X264.9488 Y41.5401
X264.9305 Y40.8025
X264.9592 Y40.0653
X265.0343 Y39.3313
X265.1553 Y38.6035
X265.3215 Y37.8846
X265.5323 Y37.1775
X265.788 Y36.4855
X266.0889 Y35.8118
X266.4333 Y35.1593
X266.8192 Y34.5305
X267.2446 Y33.9276
X267.7072 Y33.3528
X268.205 Y32.8082
X268.7358 Y32.2958
X269.2975 Y31.8174
X269.8881 Y31.3752
X270.5063 Y30.9724
X271.1494 Y30.6108
X271.8147 Y30.2918
X272.4991 Y30.0162
X273.1997 Y29.7848
X273.9135 Y29.598
X274.6376 Y29.4563
X275.369 Y29.3599
X276.1051 Y29.3091
X276.8429 Y29.3054
X277.5794 Y29.3497
X278.3115 Y29.4416
X279.0361 Y29.5805
X279.7505 Y29.7651
X280.4518 Y29.9942
X281.1375 Y30.2664
X281.8053 Y30.5803
X282.4526 Y30.9343
X283.0772 Y31.3271
X283.6759 Y31.7583
X284.2464 Y32.2261
X284.7866 Y32.7287
X285.2946 Y33.2638
X285.769 Y33.8289
X286.2083 Y34.4216
X286.6114 Y35.0396
X286.977 Y35.6805
X287.304 Y36.3418
X287.5914 Y37.0214
X287.8366 Y37.7173
X288.0386 Y38.4269
X288.1964 Y39.1476
X288.3096 Y39.8767
X288.3778 Y40.6114
X288.4013 Y41.3488
X288.3801 Y42.0863
X288.3145 Y42.8212
X288.205 Y43.5509
X288.0519 Y44.2726
X287.8542 Y44.9835
X287.6128 Y45.6807
X287.3284 Y46.3615
X287.0023 Y47.0233
X286.6363 Y47.664
X286.232 Y48.2811
X285.7912 Y48.8728
X285.3158 Y49.437
X284.8075 Y49.9718
X284.2681 Y50.4753
X283.6987 Y50.9444
X283.1014 Y51.3775
X282.4785 Y51.773
X281.8326 Y52.1296
X281.1662 Y52.4463
X280.482 Y52.7225
X279.7826 Y52.9573
X279.0704 Y53.1501
X278.348 Y53.3003
X277.618 Y53.4074
X276.8828 Y53.4693
X276.1452 Y53.4862
X275.4079 Y53.4581
X274.6737 Y53.3855
X273.9451 Y53.269
X273.2247 Y53.1096
X272.5149 Y52.9083
X271.818 Y52.6661
X271.1362 Y52.3841
X270.4718 Y52.0633
X269.8274 Y51.7038
X269.2057 Y51.3065
X268.6089 Y50.8728
X268.0392 Y50.4039
X267.4985 Y49.9019
X266.9884 Y49.3688
X266.5104 Y48.8068
X266.0656 Y48.2182
X265.6552 Y47.605
X265.2805 Y46.9694
X264.943 Y46.3133
X264.6448 Y45.6384
X264.3864 Y44.9473
X264.169 Y44.2423
X263.9935 Y43.5256
X263.8605 Y42.7999
X263.7701 Y42.0677
X263.7221 Y41.3314
X263.7165 Y40.5936
X263.7528 Y39.8567
X263.831 Y39.123
X263.9519 Y38.3952
X264.1149 Y37.6756
X264.3192 Y36.9666
X264.5645 Y36.2708
X264.8499 Y35.5904
X265.1745 Y34.9278
X265.5369 Y34.2852
X265.9356 Y33.6644
X266.3691 Y33.0673
X266.8358 Y32.4958
X267.3344 Y31.952
X267.8641 Y31.4384
X268.4225 Y30.9562
X269.0078 Y30.507
X269.6182 Y30.0925
X270.2516 Y29.7141
X270.9059 Y29.373
X271.5787 Y29.0702
X272.2677 Y28.8064
X272.9707 Y28.5823
X273.6852 Y28.3983
X274.4092 Y28.2564
X275.1403 Y28.1566
X275.8758 Y28.0991
X276.6135 Y28.084
X277.3508 Y28.1117
X278.0853 Y28.1819
X278.8145 Y28.2942
X279.5361 Y28.448
X280.2478 Y28.6424
X280.9475 Y28.8765
X281.6328 Y29.1498
X282.3012 Y29.4622
X282.951 Y29.8119
X283.5799 Y30.1976
X284.1862 Y30.618
X284.7679 Y31.0719
X285.3233 Y31.5576
X285.8508 Y32.0734
X286.349 Y32.6176
X286.8167 Y33.1883
X287.2526 Y33.7836
X287.6551 Y34.402
X288.0223 Y35.0419
X288.354 Y35.701
X288.649 Y36.3772
X288.9064 Y37.0687
X289.1252 Y37.7733
X289.3048 Y38.4889
X289.4446 Y39.2134
X289.5443 Y39.9444
X289.6037 Y40.6799
X289.6125 Y41.0309
Y41.0622
X289.5757 Y41.7991
X289.5497 Y42.5364
X289.4749 Y43.2705
X289.3558 Y43.9986
X289.1945 Y44.7186
X288.9925 Y45.4282
X288.75 Y46.125
X288.4671 Y46.8064
X288.1458 Y47.4706
X287.7879 Y48.1158
X287.3949 Y48.7402
X286.9684 Y49.3423
X286.5098 Y49.9202
X286.0206 Y50.4726
X285.5022 Y50.9976
X284.9558 Y51.4935
X284.383 Y51.9585
X283.7849 Y52.3905
X283.1629 Y52.7873
X282.5196 Y53.1486
X281.8573 Y53.4737
X281.1782 Y53.7623
X280.4845 Y54.0136
X279.7783 Y54.2273
X279.0617 Y54.4027
X278.3366 Y54.5393
X277.6052 Y54.6362
X276.8696 Y54.6929
X276.1319 Y54.7085
X275.3946 Y54.6821
X274.6599 Y54.6147
X273.9299 Y54.5073
X273.2068 Y54.3607
X272.4925 Y54.1759
X271.7889 Y53.9536
X271.0981 Y53.6947
X270.4217 Y53.3999
X269.7618 Y53.0697
X269.1206 Y52.7049
X268.5 Y52.3059
X267.9027 Y51.8726
X267.3304 Y51.407
X266.7843 Y50.9109
X266.2656 Y50.3862
X265.7754 Y49.8347
X265.3149 Y49.2582
X264.8851 Y48.6585
X264.4871 Y48.0373
X264.1219 Y47.3962
X263.7911 Y46.7367
X263.4954 Y46.0607
X263.4344 Y45.8975
X263.4085 Y45.8131
X263.3928 Y45.7262
X263.3875 Y45.6381
Y37.2082
X263.4093 Y36.7727
X263.4618 Y36.3727
X263.5629 Y35.9001
X263.7277 Y35.3499
X263.9847 Y34.69
X264.3068 Y34.0262
X264.674 Y33.3862
X265.0792 Y32.7697
X265.5185 Y32.1768
X265.9892 Y31.6087
X266.4897 Y31.0666
X267.019 Y30.5526
X267.5755 Y30.0681
X268.1571 Y29.6141
X268.7619 Y29.1916
X269.3882 Y28.8015
X270.034 Y28.4448
X270.6976 Y28.1222
X271.377 Y27.8347
X271.5217 Y27.7821
X271.6041 Y27.7574
X271.6889 Y27.7425
X271.7748 Y27.7375
X280.0456
X280.578 Y27.7642
X280.9724 Y27.8159
X281.4747 Y27.9233
X282.0417 Y28.0932
X282.7177 Y28.3564
X283.3816 Y28.6785
X284.0223 Y29.0443
X284.6402 Y29.4475
X285.235 Y29.8841
X285.8057 Y30.3517
X286.3515 Y30.8481
X286.8713 Y31.3717
X287.3641 Y31.9209
X287.8289 Y32.4939
X288.264 Y33.0898
X288.6674 Y33.7076
X289.0385 Y34.3452
X289.3769 Y35.0009
X289.5463 Y35.3741
X289.5828 Y35.4726
X289.6051 Y35.5754
X289.6125 Y35.6803
Y41.0309
G3 X288.9922 Y41.1264 I-0.3175
G1 X288.8155 Y40.5664
G3 X289.3912 Y40.3086 I0.3028 J-0.0956
X289.6125 Y41.0622 I-1.3603 J0.8088
G1 Y45.9216
X289.5932 Y46.3078
X289.5476 Y46.6556
X289.4655 Y47.0394
X289.3206 Y47.523
X289.0939 Y48.1053
X288.7721 Y48.7685
X288.3978 Y49.4043
X287.9822 Y50.0139
X287.5319 Y50.5984
X287.0508 Y51.1578
X286.5414 Y51.6915
X286.0054 Y52.1986
X285.4444 Y52.6778
X284.8596 Y53.1277
X284.2524 Y53.5469
X283.6247 Y53.9345
X282.9781 Y54.2898
X282.3145 Y54.6123
X281.6354 Y54.9008
X280.9424 Y55.1541
X280.2376 Y55.3723
X279.5228 Y55.5553
X278.7999 Y55.7027
X278.0705 Y55.814
X277.3365 Y55.8887
X276.5996 Y55.9263
X275.8618 Y55.9265
X275.1249 Y55.8893
X274.3908 Y55.8153
X273.6613 Y55.705
X272.9382 Y55.5584
X272.2234 Y55.3756
X271.5185 Y55.1577
X270.825 Y54.9059
X270.1445 Y54.6207
X269.4786 Y54.303
X268.829 Y53.9532
X268.1974 Y53.5718
X267.5857 Y53.1592
X266.9954 Y52.7166
X266.4279 Y52.2452
X265.8842 Y51.7463
X265.3659 Y51.2213
X264.8745 Y50.6708
X264.4109 Y50.0969
X263.9755 Y49.5012
X263.5692 Y48.8854
X263.4911 Y48.7535
X263.4342 Y48.6344
X263.3993 Y48.5072
X263.3875 Y48.3757
Y45.6381
G3 X263.9608 Y45.4613 I0.3173 J0.0111
G1 X264.0026 Y45.5183 Z-1.992
X264.0423 Y45.5724 Z-1.9686
X264.0779 Y45.6209 Z-1.9307
X264.1077 Y45.6615 Z-1.8805
X264.13 Y45.692 Z-1.8203
X264.1439 Y45.7109 Z-1.7532
X264.1487 Y45.7173 Z-1.6825
G0 Z5
X279.0191 Y28.1211
Z-1.365
G1 Z-1.6825 F3500
X279.026 Y28.117 Z-1.7532
X279.0462 Y28.105 Z-1.8203
X279.0787 Y28.0857 Z-1.8805
X279.1219 Y28.06 Z-1.9307
X279.1736 Y28.0292 Z-1.9686
X279.2313 Y27.9949 Z-1.992
X279.2921 Y27.9588 Z-2
G3 X280.0456 Y27.7375 I0.8088 J1.3603
G1 X282.8962
X283.1792 Y27.7517
X283.4325 Y27.7849
X283.7322 Y27.849
X284.0945 Y27.9575
X284.5129 Y28.1205
X285.0084 Y28.3609
X285.6038 Y28.7114
X286.2075 Y29.1355
X286.7807 Y29.6001
X287.326 Y30.0971
X287.8446 Y30.6219
X288.3369 Y31.1715
X288.8021 Y31.7442
X289.2383 Y32.3392
X289.4897 Y32.7194
X289.5571 Y32.8467
X289.5985 Y32.9846
X289.6125 Y33.128
Y35.6803
G3 X289.052 Y35.8733 I-0.3173 J-0.0111
G1 X289.0387 Y35.8575
X282.713 Y28.3172
X282.664 Y28.2589
G3 X282.8962 Y27.7375 I0.2432 J-0.2041
G1 X285.076
X285.2476 Y27.7461
X285.4658 Y27.7747
X285.708 Y27.8265
X285.9816 Y27.9085
X286.3191 Y28.0399
X286.6838 Y28.2169
X287.1323 Y28.4809
X287.6641 Y28.8545
X288.2318 Y29.3257
X288.7635 Y29.8372
X289.2639 Y30.3794
X289.4424 Y30.5953
X289.5352 Y30.7381
X289.593 Y30.8984
X289.6125 Y31.0676
G3 X289.1108 Y31.315 I-0.3173 J-0.0111
G1 X289.0286 Y31.2563
X284.9027 Y28.3133
G3 X285.076 Y27.7375 I0.1844 J-0.2585
G1 X286.9205
X287.0953 Y27.7463
X287.273 Y27.7696
X287.4882 Y27.8156
X287.7466 Y27.893
X288.0097 Y27.9955
X288.3397 Y28.1555
X288.6949 Y28.3647
X289.1308 Y28.6709
X289.3448 Y28.8486
X289.4892 Y29.0093
X289.581 Y29.2049
X289.6125 Y29.4186
G3 X289.1375 Y29.6831 I-0.3173 J-0.0111
G1 X289.0223 Y29.6172
X286.7739 Y28.3304
G3 X286.9205 Y27.7375 I0.1577 J-0.2756
G1 X288.5973
X288.7839 Y27.7468
X288.9326 Y27.7663
X289.0843 Y27.799
X289.2967 Y27.9019
X289.466 Y28.0663
X289.575 Y28.2757
X289.6125 Y28.5087
G3 X289.1232 Y28.7644 I-0.3173 J-0.0111
G1 X289.0257 Y28.7016
X288.4364 Y28.3217
G3 X288.5973 Y27.7375 I0.172 J-0.2669
G1 X289.268
X289.3099 Y27.7387
X289.3519 Y27.7452
X289.3938 Y27.7577
X289.4357 Y27.777
X289.4682 Y27.7976
X289.5006 Y27.8245
X289.5385 Y27.8664
X289.5682 Y27.9083
X289.589 Y27.9502
X289.6034 Y27.9945
X289.6107 Y28.0358
X289.6125 Y28.077
Y33.128
G3 X289.0392 Y33.3047 I-0.3173 J-0.0111
G1 X288.9975 Y33.2477 Z-1.992
X288.9578 Y33.1936 Z-1.9686
X288.9221 Y33.1451 Z-1.9307
X288.8924 Y33.1046 Z-1.8805
X288.87 Y33.0741 Z-1.8203
X288.8561 Y33.0551 Z-1.7532
X288.8514 Y33.0487 Z-1.6825
G0 Z5
X263.7711 Y38.2346
Z-1.365
G1 Z-1.6825 F3500
X263.7671 Y38.2278 Z-1.7532
X263.755 Y38.2076 Z-1.8203
X263.7357 Y38.1751 Z-1.8805
X263.71 Y38.1319 Z-1.9307
X263.6793 Y38.0802 Z-1.9686
X263.645 Y38.0225 Z-1.992
X263.6089 Y37.9617 Z-2
G3 X263.3875 Y37.2082 I1.3603 J-0.8088
G1 Y34.5271
X263.4045 Y34.1886
X263.4366 Y33.9433
X263.5001 Y33.6467
X263.6058 Y33.2937
X263.7658 Y32.8828
X263.9995 Y32.4011
X264.3399 Y31.823
X264.764 Y31.2193
X265.2305 Y30.6477
X265.7309 Y30.1055
X266.2607 Y29.592
X266.8165 Y29.1068
X267.3968 Y28.6511
X267.9994 Y28.2254
X268.5862 Y27.8529
X268.7104 Y27.7896
X268.8444 Y27.7506
X268.9832 Y27.7375
X271.7748
G3 X271.9623 Y28.3025 I-0.0111 J0.3173
G1 X271.9517 Y28.311
X263.9683 Y34.7117
X263.9034 Y34.7638
G3 X263.3875 Y34.5271 I-0.1986 J-0.2477
G1 Y32.3488
X263.3976 Y32.1464
X263.4263 Y31.9282
X263.4766 Y31.6929
X263.5577 Y31.422
X263.6863 Y31.0919
X263.859 Y30.736
X264.1147 Y30.3016
X264.4742 Y29.7899
X264.9455 Y29.2221
X265.4598 Y28.6932
X266.0072 Y28.1985
X266.375 Y27.9017
X266.5163 Y27.8121
X266.674 Y27.7564
X266.8402 Y27.7375
G3 X267.0856 Y28.2419 I-0.0111 J0.3173
G1 X267.0281 Y28.3208
X263.9613 Y32.5248
G3 X263.3875 Y32.3488 I-0.2565 J-0.1871
G1 Y30.5055
X263.3967 Y30.3216
X263.42 Y30.1439
X263.4661 Y29.9287
X263.5414 Y29.6773
X263.642 Y29.4189
X263.799 Y29.0953
X263.999 Y28.7556
X264.2931 Y28.3369
X264.5685 Y28.0052
X264.7292 Y27.8608
X264.9248 Y27.769
X265.1385 Y27.7375
G3 X265.4017 Y28.2147 I-0.0111 J0.3173
G1 X265.3362 Y28.3272
X263.9791 Y30.6544
G3 X263.3875 Y30.5055 I-0.2743 J-0.1599
G1 Y28.8299
X263.3965 Y28.6507
X263.4185 Y28.4828
X263.4517 Y28.3279
X263.4703 Y28.2657
X263.5731 Y28.0533
X263.7376 Y27.8841
X263.9469 Y27.7751
X264.1799 Y27.7375
G3 X264.4402 Y28.2196 I-0.0111 J0.3173
G1 X264.3756 Y28.326
X263.9762 Y28.9836
G3 X263.3875 Y28.8299 I-0.2714 J-0.1648
G1 Y28.0758
X263.3896 Y28.0339
X263.3973 Y27.992
X263.4155 Y27.9398
X263.4287 Y27.9137
X263.4453 Y27.8875
X263.4706 Y27.856
X263.5037 Y27.8245
X263.5583 Y27.7832
X263.5856 Y27.7685
X263.6129 Y27.757
X263.6549 Y27.7448
X263.6968 Y27.7385
X263.7806 Y27.7375
X268.9832
G3 X269.16 Y28.3108 I-0.0111 J0.3173
G1 X269.103 Y28.3526 Z-1.992
X269.0489 Y28.3923 Z-1.9686
X269.0004 Y28.4279 Z-1.9307
X268.9598 Y28.4576 Z-1.8805
X268.9293 Y28.48 Z-1.8203
X268.9104 Y28.4939 Z-1.7531
X268.904 Y28.4986 Z-1.6825
G0 Z5
X289.2289 Y44.8951
Z-1.365
G1 Z-1.6825 F3500
X289.233 Y44.902 Z-1.7532
X289.245 Y44.9222 Z-1.8203
X289.2643 Y44.9547 Z-1.8805
X289.29 Y44.9979 Z-1.9307
X289.3208 Y45.0496 Z-1.9686
X289.3551 Y45.1073 Z-1.992
X289.3912 Y45.168 Z-2
G3 X289.6125 Y45.9216 I-1.3603 J0.8088
G1 Y48.4351
X289.5987 Y48.7124
X289.5689 Y48.939
X289.5088 Y49.2204
X289.412 Y49.5433
X289.2636 Y49.9245
X289.0486 Y50.3674
X288.7324 Y50.9047
X288.3082 Y51.5084
X287.8387 Y52.0775
X287.3346 Y52.6163
X286.8018 Y53.1267
X286.2431 Y53.6086
X285.6608 Y54.0617
X285.0572 Y54.486
X284.4341 Y54.8811
X283.7932 Y55.2466
X283.1359 Y55.5819
X282.4638 Y55.8862
X281.7782 Y56.1589
X281.0808 Y56.3996
X280.373 Y56.6081
X279.6565 Y56.7841
X278.9327 Y56.9272
X278.2031 Y57.037
X277.4691 Y57.1122
X276.7324 Y57.1524
X275.9946 Y57.1579
X275.2574 Y57.1292
X274.5222 Y57.0665
X273.7907 Y56.9702
X273.0644 Y56.8404
X272.3448 Y56.6775
X271.6334 Y56.482
X270.9315 Y56.2547
X270.2404 Y55.9961
X269.5616 Y55.707
X268.8964 Y55.3878
X268.2467 Y55.0382
X267.614 Y54.6585
X266.9997 Y54.25
X266.4047 Y53.8136
X265.8304 Y53.3505
X265.2776 Y52.8618
X264.7478 Y52.3483
X264.2419 Y51.8113
X263.7608 Y51.2519
X263.5456 Y50.9777
X263.4592 Y50.8383
X263.4057 Y50.6833
X263.3875 Y50.5203
Y48.3757
G3 X263.9608 Y48.199 I0.3173 J0.0111
G1 X264.0026 Y48.2559 Z-1.992
X264.0423 Y48.3101 Z-1.9686
X264.0779 Y48.3586 Z-1.9307
X264.1077 Y48.3991 Z-1.8805
X264.13 Y48.4296 Z-1.8203
X264.1439 Y48.4486 Z-1.7532
X264.1487 Y48.455 Z-1.6825
G0 Z5
X289.2289 Y47.4086
Z-1.365
G1 Z-1.6825 F3500
X289.233 Y47.4155 Z-1.7532
X289.245 Y47.4357 Z-1.8203
X289.2643 Y47.4682 Z-1.8805
X289.29 Y47.5114 Z-1.9307
X289.3208 Y47.5631 Z-1.9686
X289.3551 Y47.6208 Z-1.992
X289.3912 Y47.6815 Z-2
G3 X289.6125 Y48.4351 I-1.3603 J0.8088
G1 Y50.4459
X289.6005 Y50.6868
X289.5725 Y50.9003
X289.5258 Y51.1183
X289.446 Y51.3848
X289.3254 Y51.6944
X289.157 Y52.0415
X288.9144 Y52.4536
X288.5691 Y52.9452
X288.1055 Y53.5037
X287.5903 Y54.0318
X287.0413 Y54.5247
X286.4656 Y54.9862
X285.8675 Y55.4182
X285.2498 Y55.8218
X284.6146 Y56.1971
X283.9635 Y56.5441
X283.2979 Y56.8625
X282.6192 Y57.1519
X281.9288 Y57.4119
X281.2278 Y57.6423
X280.5178 Y57.8428
X279.7999 Y58.0131
X279.0755 Y58.1529
X278.3457 Y58.2614
X277.6118 Y58.3371
X276.8752 Y58.3802
X276.1375 Y58.391
X275.3999 Y58.37
X274.664 Y58.3175
X273.9309 Y58.2337
X273.2021 Y58.1189
X272.4788 Y57.9733
X271.7623 Y57.7974
X271.0537 Y57.5916
X270.3544 Y57.3565
X269.6654 Y57.0926
X268.9879 Y56.8004
X268.3233 Y56.4799
X267.6734 Y56.1306
X267.0395 Y55.7532
X266.4224 Y55.3487
X265.8231 Y54.9183
X265.2427 Y54.4628
X264.682 Y53.9833
X264.142 Y53.4804
X263.6237 Y52.9554
X263.5798 Y52.907
X263.4752 Y52.7586
X263.4098 Y52.5893
X263.3875 Y52.4091
Y50.5203
G3 X263.9608 Y50.3436 I0.3173 J0.0111
G1 X264.0026 Y50.4005 Z-1.992
X264.0423 Y50.4546 Z-1.9686
X264.0779 Y50.5032 Z-1.9307
X264.1077 Y50.5437 Z-1.8805
X264.13 Y50.5742 Z-1.8203
X264.1439 Y50.5931 Z-1.7532
X264.1487 Y50.5996 Z-1.6825
G0 Z5
X289.2289 Y49.4194
Z-1.365
G1 Z-1.6825 F3500
X289.233 Y49.4263 Z-1.7532
X289.245 Y49.4464 Z-1.8203
X289.2643 Y49.479 Z-1.8805
X289.29 Y49.5222 Z-1.9307
X289.3208 Y49.5739 Z-1.9686
X289.3551 Y49.6316 Z-1.992
X289.3912 Y49.6923 Z-2
G3 X289.6125 Y50.4459 I-1.3603 J0.8088
G1 Y52.2891
X289.6037 Y52.4651
X289.5804 Y52.6428
X289.5344 Y52.858
X289.463 Y53.0963
X289.3629 Y53.3533
X289.2078 Y53.6729
X289.0151 Y54.0003
X288.7294 Y54.407
X288.3506 Y54.8633
X287.8426 Y55.384
X287.2866 Y55.869
X286.7011 Y56.318
X286.0928 Y56.7355
X285.4654 Y57.1238
X284.8216 Y57.4841
X284.1632 Y57.8171
X283.4916 Y58.1227
X282.8083 Y58.401
X282.1144 Y58.6517
X281.4111 Y58.8748
X280.6996 Y59.0699
X279.9809 Y59.2368
X279.2561 Y59.375
X278.5263 Y59.4833
X277.7925 Y59.5607
X277.0562 Y59.6078
X276.3186 Y59.6249
X275.5809 Y59.6123
X274.8443 Y59.5702
X274.1099 Y59.4989
X273.379 Y59.3987
X272.6525 Y59.2696
X271.9317 Y59.1122
X271.2176 Y58.9268
X270.5112 Y58.7137
X269.8136 Y58.4735
X269.1258 Y58.2064
X268.4489 Y57.9127
X267.7845 Y57.592
X267.1339 Y57.2441
X266.4979 Y56.8699
X265.8776 Y56.4705
X265.2737 Y56.0466
X264.687 Y55.5992
X264.1185 Y55.129
X263.6342 Y54.6953
X263.5008 Y54.5371
X263.4164 Y54.3483
X263.3875 Y54.1434
Y52.4091
G3 X263.9608 Y52.2324 I0.3173 J0.0111
G1 X264.0026 Y52.2893 Z-1.992
X264.0423 Y52.3434 Z-1.9686
X264.0779 Y52.392 Z-1.9307
X264.1077 Y52.4325 Z-1.8805
X264.13 Y52.463 Z-1.8203
X264.1439 Y52.4819 Z-1.7532
X264.1487 Y52.4883 Z-1.6825
G0 Z5
X289.2289 Y51.2626
Z-1.365
G1 Z-1.6825 F3500
X289.233 Y51.2695 Z-1.7532
X289.245 Y51.2897 Z-1.8203
X289.2643 Y51.3222 Z-1.8805
X289.29 Y51.3654 Z-1.9307
X289.3208 Y51.4171 Z-1.9686
X289.3551 Y51.4748 Z-1.992
X289.3912 Y51.5356 Z-2
G3 X289.6125 Y52.2891 I-1.3603 J0.8088
G1 Y53.9648
X289.6048 Y54.1187
X289.5815 Y54.2964
X289.5423 Y54.4798
X289.4792 Y54.6906
X289.3791 Y54.9476
X289.2521 Y55.2093
X289.0706 Y55.5175
X288.8288 Y55.8617
X288.4906 Y56.2693
X288.0612 Y56.7094
X287.5052 Y57.1944
X286.9146 Y57.6367
X286.2993 Y58.0439
X285.6648 Y58.4202
X285.0142 Y58.7683
X284.3499 Y59.0893
X283.6734 Y59.3839
X282.9862 Y59.6523
X282.2893 Y59.8947
X281.5839 Y60.111
X280.8709 Y60.3009
X280.1515 Y60.4643
X279.4263 Y60.6004
X278.6964 Y60.7083
X277.9628 Y60.7872
X277.2267 Y60.8376
X276.4893 Y60.8598
X275.7515 Y60.8541
X275.0144 Y60.8208
X274.2791 Y60.76
X273.5465 Y60.6721
X272.8177 Y60.5572
X272.0936 Y60.4156
X271.3752 Y60.2476
X270.6634 Y60.0535
X269.959 Y59.8337
X269.2632 Y59.5884
X268.5767 Y59.318
X267.9007 Y59.0224
X267.2364 Y58.7013
X266.5851 Y58.3546
X265.9476 Y57.9832
X265.3246 Y57.5879
X264.7169 Y57.1696
X264.1251 Y56.729
X263.6643 Y56.3586
X263.5152 Y56.197
X263.4202 Y55.9986
X263.3875 Y55.7812
Y54.1434
G3 X263.9608 Y53.9667 I0.3173 J0.0111
G1 X264.0026 Y54.0236 Z-1.992
X264.0423 Y54.0777 Z-1.9686
X264.0779 Y54.1263 Z-1.9307
X264.1077 Y54.1668 Z-1.8805
X264.13 Y54.1973 Z-1.8203
X264.1439 Y54.2162 Z-1.7532
X264.1487 Y54.2227 Z-1.6825
G0 Z5
X289.2289 Y52.9383
Z-1.365
G1 Z-1.6825 F3500
X289.233 Y52.9452 Z-1.7532
X289.245 Y52.9653 Z-1.8203
X289.2643 Y52.9979 Z-1.8805
X289.29 Y53.0411 Z-1.9307
X289.3208 Y53.0928 Z-1.9686
X289.3551 Y53.1505 Z-1.992
X289.3912 Y53.2112 Z-2
G3 X289.6125 Y53.9648 I-1.3603 J0.8088
G1 Y55.4729
X289.6013 Y55.6975
X289.5809 Y55.8527
X289.5435 Y56.028
X289.4803 Y56.2388
X289.3951 Y56.4574
X289.2747 Y56.7056
X289.0992 Y57.0037
X288.8893 Y57.3025
X288.5864 Y57.6674
X288.1945 Y58.0691
X287.673 Y58.5241
X287.0798 Y58.9629
X286.4594 Y59.3621
X285.8188 Y59.7282
X285.1623 Y60.065
X284.4926 Y60.3747
X283.8116 Y60.6585
X283.1205 Y60.9171
X282.4207 Y61.1507
X281.713 Y61.3594
X280.9985 Y61.5432
X280.2779 Y61.7016
X279.552 Y61.8341
X278.8219 Y61.9402
X278.0883 Y62.0194
X277.3524 Y62.0715
X276.615 Y62.0968
X275.8772 Y62.0957
X275.1399 Y62.0685
X274.404 Y62.0154
X273.6703 Y61.9367
X272.9399 Y61.8326
X272.2135 Y61.7033
X271.492 Y61.5491
X270.7762 Y61.3703
X270.0669 Y61.167
X269.365 Y60.9397
X268.6713 Y60.6885
X267.9866 Y60.4134
X267.3121 Y60.1146
X266.6486 Y59.7918
X265.9972 Y59.4453
X265.3589 Y59.0753
X264.7343 Y58.6825
X264.124 Y58.2678
X263.6908 Y57.9507
X263.528 Y57.787
X263.4235 Y57.581
X263.3875 Y57.3529
Y55.7812
G3 X263.9608 Y55.6044 I0.3173 J0.0111
G1 X264.0026 Y55.6614 Z-1.992
X264.0423 Y55.7155 Z-1.9686
X264.0779 Y55.764 Z-1.9307
X264.1077 Y55.8046 Z-1.8805
X264.13 Y55.8351 Z-1.8203
X264.1439 Y55.854 Z-1.7532
X264.1487 Y55.8604 Z-1.6825
G0 Z5
X289.2289 Y54.4464
Z-1.365
G1 Z-1.6825 F3500
X289.233 Y54.4532 Z-1.7532
X289.245 Y54.4734 Z-1.8203
X289.2643 Y54.5059 Z-1.8805
X289.29 Y54.5492 Z-1.9307
X289.3208 Y54.6009 Z-1.9686
X289.3551 Y54.6586 Z-1.992
X289.3912 Y54.7193 Z-2
G3 X289.6125 Y55.4729 I-1.3603 J0.8088
G1 Y56.981
X289.6015 Y57.2014
X289.582 Y57.3501
X289.5442 Y57.5258
X289.4853 Y57.7215
X289.4049 Y57.9272
X289.2838 Y58.1761
X289.1294 Y58.4375
X288.9226 Y58.7311
X288.6473 Y59.0619
X288.2768 Y59.4408
X287.8094 Y59.8475
X287.2157 Y60.2856
X286.5916 Y60.6791
X285.9464 Y61.0368
X285.285 Y61.3639
X284.6108 Y61.6636
X283.9257 Y61.9375
X283.2313 Y62.1869
X282.5287 Y62.4122
X281.8189 Y62.6135
X281.1028 Y62.7909
X280.381 Y62.9441
X279.6545 Y63.0727
X278.924 Y63.1765
X278.1904 Y63.2551
X277.4545 Y63.3082
X276.7172 Y63.3356
X275.9794 Y63.3379
X275.2419 Y63.3154
X274.5056 Y63.2684
X273.7712 Y63.1972
X273.0396 Y63.1019
X272.3114 Y62.9829
X271.5876 Y62.8402
X270.8687 Y62.6741
X270.1555 Y62.4849
X269.4489 Y62.2728
X268.7494 Y62.0379
X268.058 Y61.7805
X267.3753 Y61.5006
X266.7023 Y61.1981
X266.0399 Y60.8733
X265.3888 Y60.5262
X264.75 Y60.1569
X264.1244 Y59.7659
X263.713 Y59.4874
X263.5771 Y59.3689
X263.4739 Y59.2211
X263.4095 Y59.0528
X263.3875 Y58.874
Y57.3529
G3 X263.9608 Y57.1762 I0.3173 J0.0111
G1 X264.0026 Y57.2332 Z-1.992
X264.0423 Y57.2873 Z-1.9686
X264.0779 Y57.3358 Z-1.9307
X264.1077 Y57.3763 Z-1.8805
X264.13 Y57.4068 Z-1.8203
X264.1439 Y57.4258 Z-1.7532
X264.1487 Y57.4322 Z-1.6825
G0 Z5
X289.2289 Y55.9545
Z-1.365
G1 Z-1.6825 F3500
X289.233 Y55.9613 Z-1.7532
X289.245 Y55.9815 Z-1.8203
X289.2643 Y56.014 Z-1.8805
X289.29 Y56.0573 Z-1.9307
X289.3208 Y56.109 Z-1.9686
X289.3551 Y56.1667 Z-1.992
X289.3912 Y56.2274 Z-2
G3 X289.6125 Y56.981 I-1.3603 J0.8088
G1 Y58.4891
X289.6042 Y58.6553
X289.5847 Y58.804
X289.547 Y58.9792
X289.493 Y59.1583
X289.4128 Y59.3634
X289.2952 Y59.6049
X289.1544 Y59.8433
X288.9482 Y60.1358
X288.6972 Y60.4373
X288.3459 Y60.7963
X287.9146 Y61.1715
X287.3209 Y61.6094
X286.6939 Y61.9983
X286.0446 Y62.3486
X285.379 Y62.667
X284.7007 Y62.9574
X284.0121 Y63.2221
X283.3145 Y63.4626
X282.6094 Y63.6797
X281.8975 Y63.8736
X281.1797 Y64.0445
X280.4569 Y64.1922
X279.7296 Y64.3166
X278.9987 Y64.4175
X278.265 Y64.4945
X277.529 Y64.5475
X276.7918 Y64.5762
X276.054 Y64.5809
X275.3164 Y64.5619
X274.5798 Y64.5195
X273.8449 Y64.4542
X273.1124 Y64.366
X272.3829 Y64.2552
X271.6572 Y64.1219
X270.936 Y63.9665
X270.2198 Y63.789
X269.5094 Y63.5897
X268.8055 Y63.3688
X268.1086 Y63.1264
X267.4196 Y62.8626
X266.7391 Y62.5774
X266.0679 Y62.2711
X265.4067 Y61.9436
X264.7564 Y61.5951
X264.1176 Y61.2259
X263.7021 Y60.9599
X263.6802 Y60.9433
X263.5229 Y60.7803
X263.4222 Y60.5773
X263.3875 Y60.3534
Y58.874
G3 X263.9608 Y58.6972 I0.3173 J0.0111
G1 X264.0026 Y58.7542 Z-1.992
X264.0423 Y58.8083 Z-1.9686
X264.0779 Y58.8568 Z-1.9307
X264.1077 Y58.8973 Z-1.8805
X264.13 Y58.9278 Z-1.8203
X264.1439 Y58.9468 Z-1.7532
X264.1487 Y58.9532 Z-1.6825
G0 Z5
X289.2289 Y57.4626
Z-1.365
G1 Z-1.6825 F3500
X289.233 Y57.4694 Z-1.7532
X289.245 Y57.4896 Z-1.8203
X289.2643 Y57.5221 Z-1.8805
X289.29 Y57.5653 Z-1.9307
X289.3208 Y57.6171 Z-1.9686
X289.3551 Y57.6748 Z-1.992
X289.3912 Y57.7355 Z-2
G3 X289.6125 Y58.4891 I-1.3603 J0.8088
G1 Y59.9972
X289.605 Y60.147
X289.5769 Y60.3075
X289.5331 Y60.4767
X289.4679 Y60.6646
X289.3698 Y60.8878
X289.2511 Y61.1077
X289.0806 Y61.3709
X288.8597 Y61.6582
X288.5797 Y61.9676
X288.2148 Y62.3108
X287.7249 Y62.7025
X287.1135 Y63.1154
X286.4727 Y63.4812
X285.812 Y63.8097
X285.1369 Y64.1072
X284.4503 Y64.3774
X283.7543 Y64.6223
X283.0504 Y64.8434
X282.3398 Y65.0417
X281.6232 Y65.2177
X280.9016 Y65.3713
X280.1756 Y65.5028
X279.4459 Y65.6118
X278.7131 Y65.6984
X277.9781 Y65.7623
X277.2414 Y65.8034
X276.5038 Y65.8218
X275.7661 Y65.8178
X275.0287 Y65.7914
X274.2925 Y65.7431
X273.558 Y65.6729
X272.8259 Y65.5811
X272.0969 Y65.4678
X271.3714 Y65.3332
X270.6502 Y65.1776
X269.9338 Y65.001
X269.2231 Y64.8031
X268.5184 Y64.5845
X267.8204 Y64.3452
X267.1298 Y64.0855
X266.4472 Y63.8055
X265.7732 Y63.5054
X265.1085 Y63.1851
X264.4538 Y62.845
X263.8798 Y62.5219
X263.7143 Y62.4103
X263.5779 Y62.2919
X263.4743 Y62.1439
X263.4095 Y61.9753
X263.3875 Y61.796
Y60.3534
G3 X263.9608 Y60.1767 I0.3173 J0.0111
G1 X264.0026 Y60.2336 Z-1.992
X264.0423 Y60.2877 Z-1.9686
X264.0779 Y60.3363 Z-1.9307
X264.1077 Y60.3768 Z-1.8805
X264.13 Y60.4073 Z-1.8203
X264.1439 Y60.4262 Z-1.7532
X264.1487 Y60.4327 Z-1.6825
G0 Z5
X289.2289 Y58.9707
Z-1.365
G1 Z-1.6825 F3500
X289.233 Y58.9775 Z-1.7532
X289.245 Y58.9977 Z-1.8203
X289.2643 Y59.0302 Z-1.8805
X289.29 Y59.0734 Z-1.9307
X289.3208 Y59.1252 Z-1.9686
X289.3551 Y59.1829 Z-1.992
X289.3912 Y59.2436 Z-2
G3 X289.6125 Y59.9972 I-1.3603 J0.8088
G1 Y61.3377
X289.6049 Y61.4911
X289.5854 Y61.6399
X289.5496 Y61.8006
X289.4931 Y61.9838
X289.4186 Y62.1705
X289.308 Y62.3939
X289.1655 Y62.6315
X288.9807 Y62.89
X288.7267 Y63.191
X288.422 Y63.4983
X288.0135 Y63.8488
X287.4713 Y64.2432
X286.8418 Y64.628
X286.1873 Y64.9685
X285.5155 Y65.2738
X284.8311 Y65.5493
X284.1366 Y65.7984
X283.4339 Y66.0232
X282.7242 Y66.2249
X282.0085 Y66.4043
X281.2878 Y66.5621
X280.5626 Y66.6983
X279.8338 Y66.8132
X279.1019 Y66.9066
X278.3676 Y66.9785
X277.6315 Y67.0289
X276.8943 Y67.0578
X276.1565 Y67.0653
X275.4188 Y67.0516
X274.6818 Y67.0169
X273.9461 Y66.9613
X273.2122 Y66.8849
X272.4808 Y66.7881
X271.7524 Y66.6709
X271.0275 Y66.5334
X270.3067 Y66.3758
X269.5906 Y66.1981
X268.8797 Y66.0005
X268.1748 Y65.7828
X267.4763 Y65.5451
X266.7848 Y65.2878
X266.1009 Y65.0109
X265.4251 Y64.7149
X264.758 Y64.3997
X264.1005 Y64.0648
X263.738 Y63.8502
X263.701 Y63.824
X263.5699 Y63.7056
X263.4705 Y63.5596
X263.4086 Y63.3942
X263.3875 Y63.2189
Y61.796
G3 X263.9608 Y61.6193 I0.3173 J0.0111
G1 X264.0026 Y61.6762 Z-1.992
X264.0423 Y61.7303 Z-1.9686
X264.0779 Y61.7789 Z-1.9307
X264.1077 Y61.8194 Z-1.8805
X264.13 Y61.8499 Z-1.8203
X264.1439 Y61.8688 Z-1.7532
X264.1487 Y61.8753 Z-1.6825
G0 Z5
X289.2289 Y60.3112
Z-1.365
G1 Z-1.6825 F3500
X289.233 Y60.3181 Z-1.7532
X289.245 Y60.3382 Z-1.8203
X289.2643 Y60.3708 Z-1.8805
X289.29 Y60.414 Z-1.9307
X289.3208 Y60.4657 Z-1.9686
X289.3551 Y60.5234 Z-1.992
X289.3912 Y60.5841 Z-2
G3 X289.6125 Y61.3377 I-1.3603 J0.8088
G1 Y62.6782
X289.6032 Y62.8646
X289.5837 Y63.0134
X289.5504 Y63.1669
X289.4992 Y63.3362
X289.4202 Y63.5375
X289.3222 Y63.7379
X289.1839 Y63.9714
X288.9995 Y64.2324
X288.7746 Y64.5018
X288.466 Y64.8164
X288.084 Y65.1477
X287.5873 Y65.5131
X286.9598 Y65.9012
X286.3052 Y66.2415
X285.6323 Y66.5442
X284.9463 Y66.8158
X284.2502 Y67.0603
X283.546 Y67.2804
X282.8351 Y67.4778
X282.1184 Y67.6533
X281.397 Y67.8078
X280.6714 Y67.9415
X279.9423 Y68.0547
X279.2103 Y68.1473
X278.476 Y68.2193
X277.74 Y68.2707
X277.0028 Y68.3013
X276.2651 Y68.3114
X275.5273 Y68.3011
X274.7901 Y68.2708
X274.054 Y68.2205
X273.3195 Y68.1504
X272.5872 Y68.0606
X271.8575 Y67.9514
X271.131 Y67.8228
X270.4082 Y67.6749
X269.6895 Y67.5078
X268.9756 Y67.3216
X268.2669 Y67.1163
X267.564 Y66.892
X266.8675 Y66.6488
X266.1777 Y66.3869
X265.4952 Y66.1065
X264.8206 Y65.8077
X264.1548 Y65.4898
X263.7859 Y65.2833
X263.7158 Y65.2363
X263.5788 Y65.1178
X263.4747 Y64.9697
X263.4097 Y64.8007
X263.3875 Y64.6209
Y63.2189
G3 X263.9608 Y63.0421 I0.3173 J0.0111
G1 X264.0026 Y63.0991 Z-1.992
X264.0423 Y63.1532 Z-1.9686
X264.0779 Y63.2017 Z-1.9307
X264.1077 Y63.2423 Z-1.8805
X264.13 Y63.2728 Z-1.8203
X264.1439 Y63.2917 Z-1.7532
X264.1487 Y63.2981 Z-1.6825
G0 Z5
X289.2289 Y61.6517
Z-1.365
G1 Z-1.6825 F3500
X289.233 Y61.6586 Z-1.7532
X289.245 Y61.6788 Z-1.8203
X289.2643 Y61.7113 Z-1.8805
X289.29 Y61.7545 Z-1.9307
X289.3208 Y61.8062 Z-1.9686
X289.3551 Y61.8639 Z-1.992
X289.3912 Y61.9247 Z-2
G3 X289.6125 Y62.6782 I-1.3603 J0.8088
G1 Y64.1109
X289.605 Y64.2607
X289.5819 Y64.4091
X289.5456 Y64.5607
X289.487 Y64.7404
X289.4059 Y64.9347
X289.299 Y65.142
X289.1454 Y65.3891
X288.9683 Y65.6286
X288.7144 Y65.9199
X288.4147 Y66.2125
X288.0034 Y66.5542
X287.485 Y66.9187
X286.8493 Y67.2932
X286.1877 Y67.6198
X285.5089 Y67.9089
X284.8177 Y68.1672
X284.1172 Y68.3989
X283.4093 Y68.6068
X282.6953 Y68.7925
X281.9761 Y68.9572
X281.2525 Y69.1014
X280.5252 Y69.2256
X279.7948 Y69.3301
X279.0619 Y69.4147
X278.3269 Y69.4797
X277.5905 Y69.5248
X276.8531 Y69.5504
X276.1153 Y69.5564
X275.3776 Y69.5432
X274.6405 Y69.5107
X273.9045 Y69.4591
X273.1701 Y69.3887
X272.4377 Y69.2995
X271.7078 Y69.1914
X270.981 Y69.0644
X270.2577 Y68.9189
X269.5383 Y68.7549
X268.8234 Y68.5725
X268.1134 Y68.3718
X267.4088 Y68.153
X266.71 Y67.9162
X266.0176 Y67.6614
X265.3319 Y67.3889
X264.6537 Y67.0985
X264.0462 Y66.8132
X263.7355 Y66.6356
X263.7102 Y66.6183
X263.5755 Y66.4998
X263.4731 Y66.3524
X263.4092 Y66.1848
X263.3875 Y66.0067
Y64.6209
G3 X263.9608 Y64.4442 I0.3173 J0.0111
G1 X264.0026 Y64.5012 Z-1.992
X264.0423 Y64.5553 Z-1.9686
X264.0779 Y64.6038 Z-1.9307
X264.1077 Y64.6444 Z-1.8805
X264.13 Y64.6749 Z-1.8203
X264.1439 Y64.6938 Z-1.7532
X264.1487 Y64.7002 Z-1.6825
G0 Z5
X289.2289 Y63.0844
Z-1.365
G1 Z-1.6825 F3500
X289.233 Y63.0913 Z-1.7532
X289.245 Y63.1115 Z-1.8203
X289.2643 Y63.144 Z-1.8805
X289.29 Y63.1872 Z-1.9307
X289.3208 Y63.2389 Z-1.9686
X289.3551 Y63.2966 Z-1.992
X289.3912 Y63.3573 Z-2
G3 X289.6125 Y64.1109 I-1.3603 J0.8088
G1 Y65.4514
X289.605 Y65.6012
X289.5829 Y65.7496
X289.547 Y65.9024
X289.4926 Y66.0714
X289.4099 Y66.2716
X289.3087 Y66.47
X289.1657 Y66.702
X288.9816 Y66.9531
X288.751 Y67.2198
X288.4432 Y67.5228
X288.0623 Y67.8417
X287.5768 Y68.186
X286.9426 Y68.5631
X286.281 Y68.8898
X285.6015 Y69.1772
X284.9093 Y69.4328
X284.2078 Y69.6611
X283.4988 Y69.8654
X282.7838 Y70.0476
X282.0639 Y70.2091
X281.3398 Y70.3505
X280.6121 Y70.4725
X279.8815 Y70.5753
X279.1484 Y70.6591
X278.4135 Y70.7239
X277.6771 Y70.7699
X276.9398 Y70.7968
X276.202 Y70.8047
X275.4643 Y70.7941
X274.727 Y70.765
X273.9907 Y70.7176
X273.2558 Y70.6521
X272.5228 Y70.5685
X271.792 Y70.4668
X271.0639 Y70.3471
X270.3391 Y70.2095
X269.6178 Y70.0542
X268.9005 Y69.8813
X268.1877 Y69.6908
X267.4798 Y69.4829
X266.7772 Y69.2576
X266.0804 Y69.0151
X265.3898 Y68.7555
X264.7061 Y68.4782
X264.0949 Y68.205
X263.7695 Y68.0269
X263.7217 Y67.9954
X263.5824 Y67.877
X263.4764 Y67.728
X263.4101 Y67.5576
X263.3875 Y67.3762
Y66.0067
G3 X263.9608 Y65.83 I0.3173 J0.0111
G1 X264.0026 Y65.8869 Z-1.992
X264.0423 Y65.941 Z-1.9686
X264.0779 Y65.9896 Z-1.9307
X264.1077 Y66.0301 Z-1.8805
X264.13 Y66.0606 Z-1.8203
X264.1439 Y66.0795 Z-1.7532
X264.1487 Y66.086 Z-1.6825
G0 Z5
X289.2289 Y64.425
Z-1.365
G1 Z-1.6825 F3500
X289.233 Y64.4318 Z-1.7532
X289.245 Y64.452 Z-1.8203
X289.2643 Y64.4845 Z-1.8805
X289.29 Y64.5277 Z-1.9307
X289.3208 Y64.5795 Z-1.9686
X289.3551 Y64.6371 Z-1.992
X289.3912 Y64.6979 Z-2
G3 X289.6125 Y65.4514 I-1.3603 J0.8088
G1 Y66.792
X289.605 Y66.9418
X289.5826 Y67.0901
X289.5473 Y67.2388
X289.492 Y67.41
X289.4113 Y67.6047
X289.3105 Y67.8013
X289.1649 Y68.0369
X288.9923 Y68.2715
X288.7568 Y68.5431
X288.4631 Y68.8313
X288.0789 Y69.1521
X287.6129 Y69.4815
X286.9795 Y69.8569
X286.3166 Y70.1809
X285.6355 Y70.4645
X284.9417 Y70.7155
X284.2385 Y70.939
X283.5282 Y71.1383
X282.812 Y71.3157
X282.0911 Y71.4727
X281.3661 Y71.61
X280.6379 Y71.7285
X279.9069 Y71.8283
X279.1736 Y71.9098
X278.4384 Y71.973
X277.702 Y72.018
X276.9647 Y72.0448
X276.2269 Y72.0536
X275.4892 Y72.0443
X274.7519 Y72.017
X274.0154 Y71.972
X273.2802 Y71.9096
X272.5468 Y71.8296
X271.8154 Y71.7324
X271.0865 Y71.6178
X270.3606 Y71.4862
X269.6379 Y71.3374
X268.9189 Y71.1717
X268.2041 Y70.9891
X267.4937 Y70.7898
X266.7882 Y70.5737
X266.088 Y70.3411
X265.3936 Y70.0919
X264.7058 Y69.8248
X264.1158 Y69.5696
X263.7919 Y69.3974
X263.7292 Y69.3573
X263.587 Y69.2389
X263.4785 Y69.089
X263.4106 Y68.9168
X263.3875 Y68.7332
Y67.3762
G3 X263.9608 Y67.1995 I0.3173 J0.0111
G1 X264.0026 Y67.2564 Z-1.992
X264.0423 Y67.3105 Z-1.9686
X264.0779 Y67.3591 Z-1.9307
X264.1077 Y67.3996 Z-1.8805
X264.13 Y67.4301 Z-1.8203
X264.1439 Y67.449 Z-1.7532
X264.1487 Y67.4555 Z-1.6825
G0 Z5
X289.2289 Y65.7655
Z-1.365
G1 Z-1.6825 F3500
X289.233 Y65.7723 Z-1.7532
X289.245 Y65.7925 Z-1.8203
X289.2643 Y65.825 Z-1.8805
X289.29 Y65.8682 Z-1.9307
X289.3208 Y65.92 Z-1.9686
X289.3551 Y65.9777 Z-1.992
X289.3912 Y66.0384 Z-2
G3 X289.6125 Y66.792 I-1.3603 J0.8088
G1 Y68.1325
X289.605 Y68.2823
X289.5813 Y68.4304
X289.5451 Y68.5779
X289.4875 Y68.7515
X289.4063 Y68.9427
X289.3021 Y69.1421
X289.1533 Y69.3784
X288.982 Y69.6074
X288.7385 Y69.8835
X288.4505 Y70.1616
X288.0594 Y70.4827
X287.5954 Y70.805
X286.9645 Y71.1719
X286.299 Y71.4905
X285.6154 Y71.7681
X284.9193 Y72.0129
X284.2142 Y72.2301
X283.5022 Y72.4233
X283.0048 Y72.5422
X282.9479 Y72.5535
X282.8904 Y72.5602
X282.8326 Y72.5625
G3 X282.6558 Y71.9892 I0.0111 J-0.3173
G1 X282.7128 Y71.9474 Z-1.992
X282.7669 Y71.9077 Z-1.9686
X282.8154 Y71.8721 Z-1.9307
X282.8559 Y71.8424 Z-1.8805
X282.8864 Y71.82 Z-1.8203
X282.9054 Y71.8061 Z-1.7531
X282.9118 Y71.8014 Z-1.6825
G0 Z5
X289.2289 Y67.106
Z-1.365
G1 Z-1.6825 F3500
X289.233 Y67.1129 Z-1.7532
X289.245 Y67.1331 Z-1.8203
X289.2643 Y67.1656 Z-1.8805
X289.29 Y67.2088 Z-1.9307
X289.3208 Y67.2605 Z-1.9686
X289.3551 Y67.3182 Z-1.992
X289.3912 Y67.3789 Z-2
G3 X289.6125 Y68.1325 I-1.3603 J0.8088
G1 Y69.3809
X289.6034 Y69.5629
X289.5839 Y69.7116
X289.5515 Y69.8581
X289.5016 Y70.0202
X289.4257 Y70.2109
X289.3324 Y70.3997
X289.1996 Y70.6213
X289.035 Y70.8519
X288.8216 Y71.1051
X288.5411 Y71.3884
X288.2026 Y71.6792
X287.767 Y71.9965
X287.1937 Y72.3474
X286.9267 Y72.4826
X286.8197 Y72.5266
X286.7072 Y72.5535
X286.5919 Y72.5625
G3 X286.3721 Y72.0273 I0.0111 J-0.3173
G1 X286.4117 Y71.9854
X289.0374 Y69.2025
X289.0643 Y69.174
G3 X289.6125 Y69.3809 I0.2309 J0.2179
G1 Y70.7214
X289.6049 Y70.873
X289.5854 Y71.0217
X289.5528 Y71.1681
X289.4995 Y71.3398
X289.4302 Y71.5125
X289.3316 Y71.7108
X289.2006 Y71.9284
X289.0386 Y72.1541
X288.9148 Y72.3004
X288.7546 Y72.4418
X288.5608 Y72.5317
X288.3494 Y72.5625
G3 X288.0904 Y72.0783 I0.0111 J-0.3173
G1 X288.1545 Y71.9745
X289.0251 Y70.5656
G3 X289.6125 Y70.7214 I0.2701 J0.1669
G1 Y71.9865
Y72.028
Y72.0619
X289.605 Y72.2117
X289.5481 Y72.3512
X289.4482 Y72.464
X289.3165 Y72.5371
X289.1679 Y72.5625
G3 X288.8332 Y72.4286 I0.0186 J-0.5318
X289.6125 Y72.0619 I0.3111 J-0.3503
G1 Y72.2295
X289.6102 Y72.2669
X289.6034 Y72.3044
X289.5882 Y72.3507
X289.5643 Y72.3971
X289.5356 Y72.4366
X289.5 Y72.4762
X289.4678 Y72.5027
X289.4357 Y72.523
X289.3938 Y72.5423
X289.3519 Y72.5548
X289.3099 Y72.5613
X289.268 Y72.5625
X270.6555
X269.9186 Y72.5256
X269.1857 Y72.4405
X268.4604 Y72.3055
X267.742 Y72.1373
X267.0298 Y71.9444
X266.3235 Y71.731
X265.6231 Y71.4992
X264.9288 Y71.2496
X264.2433 Y70.9766
X263.8786 Y70.7965
X263.7482 Y70.7186
X263.5985 Y70.6005
X263.484 Y70.4482
X263.412 Y70.2717
X263.3875 Y70.0827
G3 X263.7989 Y69.7906 I0.3173 J0.0111
G1 X263.9921 Y69.8504
X270.7385 Y71.9419
G3 X270.6555 Y72.5625 I-0.094 J0.3033
G1 X266.2958
