%
(Made in : Autodesk CAM Post Processor)
(G Code optimized for OpenBuilds OX CNC 1000 x 750 with GRBL V0.9j controller)

(Program Name : 1001)
(2 Operations :)
(1 : Contour2)
(  Tool : Flat End Mill 2 Flutes, Diam = 1.9mm, Len = 12.7mm)
(  Spindle : RPM = 30000, set router dial to 6)
(  Machining time : 5 min 38 sec)
(2 : Horizontal1)
(  Tool : Flat End Mill 2 Flutes, Diam = 1.9mm, Len = 12.7mm)
(  Spindle : RPM = 30000, set router dial to 6)
(  Machining time : 3 min 16 sec)

G90 G94
G17
G21

(Operation 1 of 2 : Contour2)

G53 G0 Z5
G54
S30000 M3
G4 P1.0
X23.939 Y18.9996
Z6
Z1.1866
G1 Z-0.81 F3200
X23.9449 Y19.0022 Z-0.8592
X23.9623 Y19.0099 Z-0.905
X23.9899 Y19.0222 Z-0.9444
X24.0258 Y19.0381 Z-0.9745
X24.0677 Y19.0567 Z-0.9935
X24.1126 Y19.0767 Z-1
X25.231 Y19.5733
X25.2734 Y19.5992
X25.3075 Y19.6351
X25.3313 Y19.6787
X25.3429 Y19.7269
X25.3416 Y19.7765
X25.3276 Y19.8241
X25.3094 Y19.8695
X25.2938 Y19.9149
X25.2783 Y19.9699
X25.2663 Y20.0249
X25.2577 Y20.08
X25.2523 Y20.135
X25.25 Y20.245
Y89.9991
X25.2516 Y90.0541
X25.2563 Y90.1091
X25.2643 Y90.1641
X25.2757 Y90.2191
X25.2905 Y90.2742
X25.3089 Y90.3292
X25.3276 Y90.3759
X25.3577 Y90.4392
X25.3887 Y90.4942
X25.4249 Y90.5492
X25.4377 Y90.5668
X25.4743 Y90.613
X25.516 Y90.6592
X25.5478 Y90.6907
X25.5952 Y90.7326
X25.6426 Y90.7693
X25.6579 Y90.7801
X25.7129 Y90.8156
X25.768 Y90.8461
X25.8404 Y90.8793
X25.8781 Y90.8938
X25.9331 Y90.9117
X25.9882 Y90.9261
X26.0432 Y90.937
X26.0983 Y90.9445
X26.1533 Y90.9489
X26.2084 Y90.95
X325.7916
X325.8467 Y90.9489
X325.9017 Y90.9445
X325.9568 Y90.937
X326.0118 Y90.9261
X326.0669 Y90.9118
X326.1219 Y90.8938
X326.1597 Y90.8793
X326.232 Y90.8461
X326.2871 Y90.8156
X326.3421 Y90.7801
X326.3575 Y90.7693
X326.4048 Y90.7326
X326.4522 Y90.6907
X326.4841 Y90.6592
X326.5257 Y90.6131
X326.5623 Y90.5669
X326.5752 Y90.5492
X326.6114 Y90.4942
X326.6424 Y90.4392
X326.6725 Y90.376
X326.6912 Y90.3292
X326.7096 Y90.2742
X326.7244 Y90.2191
X326.7357 Y90.1641
X326.7437 Y90.1091
X326.7485 Y90.0541
X326.75 Y89.9991
Y20.245
X326.7478 Y20.135
X326.7424 Y20.08
X326.7338 Y20.0249
X326.7217 Y19.9699
X326.7062 Y19.9149
X326.6907 Y19.8694
X326.6725 Y19.824
X326.664 Y19.8049
X326.6366 Y19.7499
X326.6046 Y19.6949
X326.5623 Y19.6331
X326.524 Y19.5849
X326.4901 Y19.5471
X326.4522 Y19.5093
X326.4137 Y19.4748
X326.3779 Y19.446
X326.3421 Y19.4199
X326.2975 Y19.3906
X326.2528 Y19.3648
X326.232 Y19.3539
X326.177 Y19.328
X326.1219 Y19.3062
X326.0669 Y19.2882
X326.0118 Y19.2739
X325.9568 Y19.263
X325.9017 Y19.2555
X325.8954 Y19.2548
X325.8435 Y19.251
X325.7916 Y19.25
X26.2084
X26.1565 Y19.251
X26.1047 Y19.2548
X26.0983 Y19.2555
X26.0432 Y19.263
X25.9882 Y19.2739
X25.9331 Y19.2883
X25.8781 Y19.3062
X25.823 Y19.328
X25.768 Y19.3539
X25.7473 Y19.3648
X25.7026 Y19.3906
X25.6579 Y19.4199
X25.6221 Y19.446
X25.5863 Y19.4748
X25.5478 Y19.5093
X25.51 Y19.5471
X25.4761 Y19.5849
X25.4377 Y19.6331
X25.3955 Y19.6949
X25.3634 Y19.7499
X25.3361 Y19.8049
X25.3276 Y19.8241
X25.3096 Y19.869
X25.2939 Y19.9148
X25.2805 Y19.9613 Z-1.0001
X25.2696 Y20.0084
X25.261 Y20.056
X25.2549 Y20.1041 Z-1.0002
X25.2512 Y20.1523 Z-1.0003
X25.25 Y20.2007 Z-1.0004
Y20.3943 Z-1.0008
Y20.5879 Z-1.0015
Y20.7814 Z-1.0023
Y20.975 Z-1.0033
Y21.1686 Z-1.0045
Y21.3622 Z-1.0058
Y21.5557 Z-1.0073
Y21.7493 Z-1.009
Y21.9429 Z-1.0109
Y22.1365 Z-1.0129
Y22.33 Z-1.0151
Y22.5236 Z-1.0174
Y22.7172 Z-1.0199
Y22.9108 Z-1.0225
Y23.1043 Z-1.0253
Y23.2979 Z-1.0283
Y23.4915 Z-1.0314
Y23.6851 Z-1.0347
Y23.8786 Z-1.0381
Y24.0722 Z-1.0416
Y24.2658 Z-1.0453
Y24.4594 Z-1.0491
Y24.6529 Z-1.0531
Y24.8465 Z-1.0572
Y25.0401 Z-1.0614
Y25.2337 Z-1.0658
Y25.4272 Z-1.0702
Y25.6208 Z-1.0749
Y25.8144 Z-1.0796
Y26.0079 Z-1.0845
Y26.2015 Z-1.0894
Y26.2983 Z-1.092
Y26.3951 Z-1.0945
Y26.4919 Z-1.0971
Y26.5887 Z-1.0997
Y26.6855 Z-1.1024
Y26.7822 Z-1.1051
Y26.879 Z-1.1078
Y26.9758 Z-1.1105
Y27.0726 Z-1.1133
Y27.1694 Z-1.1161
Y27.2662 Z-1.1189
Y27.363 Z-1.1217
Y27.4598 Z-1.1246
Y27.5565 Z-1.1275
Y27.6533 Z-1.1304
Y27.7501 Z-1.1334
Y27.8469 Z-1.1363
Y27.9437 Z-1.1393
Y28.0405 Z-1.1423
Y28.1373 Z-1.1454
Y28.2341 Z-1.1485
Y28.3308 Z-1.1516
Y28.4276 Z-1.1547
Y28.5244 Z-1.1578
Y28.6212 Z-1.161
Y28.718 Z-1.1642
Y28.8148 Z-1.1674
Y28.9116 Z-1.1706
Y29.0084 Z-1.1739
Y29.1051 Z-1.1772
Y29.2019 Z-1.1805
Y29.2987 Z-1.1838
Y29.3955 Z-1.1871
Y29.5891 Z-1.1939
Y29.6859 Z-1.1972
Y29.7827 Z-1.2006
Y29.8794 Z-1.204
Y29.9762 Z-1.2074
Y30.073 Z-1.2108
Y30.1698 Z-1.2141
Y30.2666 Z-1.2175
Y30.3634 Z-1.2209
Y30.4602 Z-1.2243
Y30.557 Z-1.2277
Y30.6537 Z-1.231
Y30.7505 Z-1.2344
Y30.9441 Z-1.2412
Y31.2345 Z-1.2513
Y31.5248 Z-1.2614
Y31.8152 Z-1.2716
Y32.1056 Z-1.2817
Y32.3959 Z-1.2919
Y32.6863 Z-1.302
Y32.9766 Z-1.3121
Y33.267 Z-1.3223
Y33.5574 Z-1.3324
Y33.8477 Z-1.3426
Y34.3317 Z-1.3595
Y34.8156 Z-1.3764
Y35.2995 Z-1.3933
Y35.977 Z-1.4169
Y36.8481 Z-1.4473
Y38.2999 Z-1.498
Y45.2686 Z-1.7413
Y45.559 Z-1.7515
Y45.8494 Z-1.7616
Y45.9461 Z-1.765
Y46.0429 Z-1.7684
Y46.1397 Z-1.7717
Y46.2365 Z-1.7751
Y46.3333 Z-1.7785
Y46.4301 Z-1.7819
Y46.5269 Z-1.7853
Y46.6237 Z-1.7886
Y46.7204 Z-1.792
Y46.8172 Z-1.7954
Y46.914 Z-1.7988
Y47.0108 Z-1.8022
Y47.1076 Z-1.8055
Y47.2044 Z-1.8089
Y47.3012 Z-1.8123
Y47.3979 Z-1.8156
Y47.4947 Z-1.819
Y47.5915 Z-1.8223
Y47.6883 Z-1.8255
Y47.7851 Z-1.8288
Y47.8819 Z-1.832
Y47.9787 Z-1.8353
Y48.0755 Z-1.8385
Y48.1722 Z-1.8416
Y48.269 Z-1.8448
Y48.3658 Z-1.8479
Y48.4626 Z-1.851
Y48.5594 Z-1.8541
Y48.6562 Z-1.8571
Y48.753 Z-1.8601
Y48.8498 Z-1.8631
Y48.9465 Z-1.8661
Y49.0433 Z-1.8691
Y49.1401 Z-1.872
Y49.2369 Z-1.8749
Y49.3337 Z-1.8778
Y49.4305 Z-1.8806
Y49.5273 Z-1.8834
Y49.6241 Z-1.8862
Y49.7208 Z-1.889
Y49.8176 Z-1.8917
Y49.9144 Z-1.8945
Y50.0112 Z-1.8971
Y50.108 Z-1.8998
Y50.2048 Z-1.9024
Y50.3016 Z-1.905
Y50.3984 Z-1.9076
Y50.4951 Z-1.9101
Y50.5919 Z-1.9126
Y50.7855 Z-1.9176
Y50.9791 Z-1.9224
Y51.1727 Z-1.9271
Y51.3662 Z-1.9316
Y51.5598 Z-1.9361
Y51.7534 Z-1.9404
Y51.947 Z-1.9445
Y52.1405 Z-1.9486
Y52.3341 Z-1.9525
Y52.5277 Z-1.9562
Y52.7213 Z-1.9599
Y52.9148 Z-1.9634
Y53.1084 Z-1.9667
Y53.302 Z-1.9699
Y53.4956 Z-1.9729
Y53.6891 Z-1.9758
Y53.8827 Z-1.9786
Y54.0763 Z-1.9812
Y54.2699 Z-1.9836
Y54.4634 Z-1.9859
Y54.657 Z-1.988
Y54.8506 Z-1.9899
Y55.0442 Z-1.9917
Y55.2377 Z-1.9933
Y55.4313 Z-1.9948
Y55.6249 Z-1.996
Y55.8185 Z-1.9971
Y56.012 Z-1.9981
Y56.2056 Z-1.9988
Y56.3992 Z-1.9994
Y56.5927 Z-1.9998
Y56.7863 Z-2
Y56.9001
Y89.9991
X25.2516 Y90.0541
X25.2563 Y90.1091
X25.2643 Y90.1641
X25.2757 Y90.2191
X25.2905 Y90.2742
X25.3089 Y90.3292
X25.3276 Y90.3759
X25.3577 Y90.4392
X25.3887 Y90.4942
X25.4249 Y90.5492
X25.4377 Y90.5668
X25.4743 Y90.613
X25.516 Y90.6592
X25.5478 Y90.6907
X25.5952 Y90.7326
X25.6426 Y90.7693
X25.6579 Y90.7801
X25.7129 Y90.8156
X25.768 Y90.8461
X25.8404 Y90.8793
X25.8781 Y90.8938
X25.9331 Y90.9117
X25.9882 Y90.9261
X26.0432 Y90.937
X26.0983 Y90.9445
X26.1533 Y90.9489
X26.2084 Y90.95
X325.7916
X325.8467 Y90.9489
X325.9017 Y90.9445
X325.9568 Y90.937
X326.0118 Y90.9261
X326.0669 Y90.9118
X326.1219 Y90.8938
X326.1597 Y90.8793
X326.232 Y90.8461
X326.2871 Y90.8156
X326.3421 Y90.7801
X326.3575 Y90.7693
X326.4048 Y90.7326
X326.4522 Y90.6907
X326.4841 Y90.6592
X326.5257 Y90.6131
X326.5623 Y90.5669
X326.5752 Y90.5492
X326.6114 Y90.4942
X326.6424 Y90.4392
X326.6725 Y90.376
X326.6912 Y90.3292
X326.7096 Y90.2742
X326.7244 Y90.2191
X326.7357 Y90.1641
X326.7437 Y90.1091
X326.7485 Y90.0541
X326.75 Y89.9991
Y20.245
X326.7478 Y20.135
X326.7424 Y20.08
X326.7338 Y20.0249
X326.7217 Y19.9699
X326.7062 Y19.9149
X326.6907 Y19.8694
X326.6725 Y19.824
X326.664 Y19.8049
X326.6366 Y19.7499
X326.6046 Y19.6949
X326.5623 Y19.6331
X326.524 Y19.5849
X326.4901 Y19.5471
X326.4522 Y19.5093
X326.4137 Y19.4748
X326.3779 Y19.446
X326.3421 Y19.4199
X326.2975 Y19.3906
X326.2528 Y19.3648
X326.232 Y19.3539
X326.177 Y19.328
X326.1219 Y19.3062
X326.0669 Y19.2882
X326.0118 Y19.2739
X325.9568 Y19.263
X325.9017 Y19.2555
X325.8954 Y19.2548
X325.8435 Y19.251
X325.7916 Y19.25
X26.2084
X26.1565 Y19.251
X26.1047 Y19.2548
X26.0983 Y19.2555
X26.0432 Y19.263
X25.9882 Y19.2739
X25.9331 Y19.2883
X25.8781 Y19.3062
X25.823 Y19.328
X25.768 Y19.3539
X25.7473 Y19.3648
X25.7026 Y19.3906
X25.6579 Y19.4199
X25.6221 Y19.446
X25.5863 Y19.4748
X25.5478 Y19.5093
X25.51 Y19.5471
X25.4761 Y19.5849
X25.4377 Y19.6331
X25.3955 Y19.6949
X25.3634 Y19.7499
X25.3361 Y19.8049
X25.3276 Y19.8241
X25.3094 Y19.8695
X25.2938 Y19.9149
X25.2783 Y19.9699
X25.2663 Y20.0249
X25.2577 Y20.08
X25.2523 Y20.135
X25.25 Y20.245
Y56.9001
Y57.0937 Z-2.0001
Y57.2873 Z-2.0004
Y57.4809 Z-2.0008
Y57.6744 Z-2.0015
Y57.868 Z-2.0023
Y58.0616 Z-2.0033
Y58.2551 Z-2.0045
Y58.4487 Z-2.0058
Y58.6423 Z-2.0073
Y58.8359 Z-2.009
Y59.0294 Z-2.0109
Y59.223 Z-2.0129
Y59.4166 Z-2.0151
Y59.6102 Z-2.0174
Y59.8037 Z-2.0199
Y59.9973 Z-2.0225
Y60.1909 Z-2.0253
Y60.3845 Z-2.0283
Y60.578 Z-2.0314
Y60.7716 Z-2.0347
Y60.9652 Z-2.0381
Y61.1588 Z-2.0416
Y61.3523 Z-2.0453
Y61.5459 Z-2.0491
Y61.7395 Z-2.0531
Y61.9331 Z-2.0572
Y62.1266 Z-2.0614
Y62.3202 Z-2.0658
Y62.5138 Z-2.0702
Y62.7074 Z-2.0749
Y62.9009 Z-2.0796
Y63.0945 Z-2.0845
Y63.2881 Z-2.0894
Y63.3849 Z-2.092
Y63.4817 Z-2.0945
Y63.5784 Z-2.0971
Y63.6752 Z-2.0997
Y63.772 Z-2.1024
Y63.8688 Z-2.1051
Y63.9656 Z-2.1078
Y64.0624 Z-2.1105
Y64.1592 Z-2.1133
Y64.256 Z-2.1161
Y64.3528 Z-2.1189
Y64.4495 Z-2.1217
Y64.5463 Z-2.1246
Y64.6431 Z-2.1275
Y64.7399 Z-2.1304
Y64.8367 Z-2.1334
Y64.9335 Z-2.1363
Y65.0303 Z-2.1393
Y65.127 Z-2.1423
Y65.2238 Z-2.1454
Y65.3206 Z-2.1485
Y65.4174 Z-2.1516
Y65.5142 Z-2.1547
Y65.611 Z-2.1578
Y65.7078 Z-2.161
Y65.8046 Z-2.1642
Y65.9013 Z-2.1674
Y65.9981 Z-2.1706
Y66.0949 Z-2.1739
Y66.1917 Z-2.1772
Y66.2885 Z-2.1805
Y66.3853 Z-2.1838
Y66.4821 Z-2.1871
Y66.6756 Z-2.1939
Y66.7724 Z-2.1972
Y66.8692 Z-2.2006
Y66.966 Z-2.204
Y67.0628 Z-2.2074
Y67.1596 Z-2.2108
Y67.2564 Z-2.2141
Y67.3532 Z-2.2175
Y67.4499 Z-2.2209
Y67.5467 Z-2.2243
Y67.6435 Z-2.2277
Y67.7403 Z-2.231
Y67.8371 Z-2.2344
Y68.0307 Z-2.2412
Y68.321 Z-2.2513
Y68.6114 Z-2.2614
Y68.9018 Z-2.2716
Y69.1921 Z-2.2817
Y69.4825 Z-2.2919
Y69.7728 Z-2.302
Y70.0632 Z-2.3121
Y70.3536 Z-2.3223
Y70.6439 Z-2.3324
Y70.9343 Z-2.3426
Y71.4182 Z-2.3595
Y71.9022 Z-2.3764
Y72.3861 Z-2.3933
Y73.0636 Z-2.4169
Y73.9347 Z-2.4473
Y75.3865 Z-2.498
Y82.3552 Z-2.7413
Y82.6456 Z-2.7515
Y82.9359 Z-2.7616
Y83.0327 Z-2.765
Y83.1295 Z-2.7684
Y83.2263 Z-2.7717
Y83.3231 Z-2.7751
Y83.4199 Z-2.7785
Y83.5166 Z-2.7819
Y83.6134 Z-2.7853
Y83.7102 Z-2.7886
Y83.807 Z-2.792
Y83.9038 Z-2.7954
Y84.0006 Z-2.7988
Y84.0974 Z-2.8022
Y84.1942 Z-2.8055
Y84.2909 Z-2.8089
Y84.3877 Z-2.8123
Y84.4845 Z-2.8156
Y84.5813 Z-2.819
Y84.6781 Z-2.8223
Y84.7749 Z-2.8255
Y84.8717 Z-2.8288
Y84.9685 Z-2.832
Y85.0652 Z-2.8353
Y85.162 Z-2.8385
Y85.2588 Z-2.8416
Y85.3556 Z-2.8448
Y85.4524 Z-2.8479
Y85.5492 Z-2.851
Y85.646 Z-2.8541
Y85.7428 Z-2.8571
Y85.8395 Z-2.8601
Y85.9363 Z-2.8631
Y86.0331 Z-2.8661
Y86.1299 Z-2.8691
Y86.2267 Z-2.872
Y86.3235 Z-2.8749
Y86.4203 Z-2.8778
Y86.5171 Z-2.8806
Y86.6138 Z-2.8834
Y86.7106 Z-2.8862
Y86.8074 Z-2.889
Y86.9042 Z-2.8917
Y87.001 Z-2.8945
Y87.0978 Z-2.8971
Y87.1946 Z-2.8998
Y87.2914 Z-2.9024
Y87.3881 Z-2.905
Y87.4849 Z-2.9076
Y87.5817 Z-2.9101
Y87.6785 Z-2.9126
Y87.8721 Z-2.9176
Y88.0656 Z-2.9224
Y88.2592 Z-2.9271
Y88.4528 Z-2.9316
Y88.6464 Z-2.9361
Y88.8399 Z-2.9404
Y89.0335 Z-2.9445
Y89.2271 Z-2.9486
Y89.4207 Z-2.9525
Y89.6142 Z-2.9562
Y89.8078 Z-2.9599
Y90.0014 Z-2.9634
X25.2513 Y90.0498 Z-2.9642
X25.2551 Y90.098 Z-2.965
X25.2613 Y90.146 Z-2.9659
X25.27 Y90.1936 Z-2.9667
X25.2811 Y90.2407 Z-2.9675
X25.2945 Y90.2872 Z-2.9683
X25.3103 Y90.333 Z-2.9691
X25.3284 Y90.3779 Z-2.9699
X25.3488 Y90.4218 Z-2.9707
X25.3714 Y90.4646 Z-2.9714
X25.3961 Y90.5062 Z-2.9722
X25.4229 Y90.5464 Z-2.9729
X25.4518 Y90.5853 Z-2.9737
X25.4825 Y90.6227 Z-2.9744
X25.5152 Y90.6584 Z-2.9751
X25.5496 Y90.6924 Z-2.9758
X25.5857 Y90.7246 Z-2.9765
X25.6234 Y90.755 Z-2.9772
X25.6626 Y90.7834 Z-2.9779
X25.7032 Y90.8097 Z-2.9786
X25.7451 Y90.834 Z-2.9792
X25.7882 Y90.8561 Z-2.9799
X25.8323 Y90.8759 Z-2.9805
X25.8774 Y90.8935 Z-2.9812
X25.9233 Y90.9088 Z-2.9818
X25.9699 Y90.9217 Z-2.9824
X26.0172 Y90.9322 Z-2.983
X26.0649 Y90.9403 Z-2.9836
X26.113 Y90.946 Z-2.9842
X26.1613 Y90.9492 Z-2.9847
X26.258 Y90.95 Z-2.9859
X26.4516 Z-2.988
X26.6452 Z-2.9899
X26.8387 Z-2.9917
X27.0323 Z-2.9933
X27.2259 Z-2.9948
X27.4195 Z-2.996
X27.613 Z-2.9971
X27.8066 Z-2.9981
X28.0002 Z-2.9988
X28.1938 Z-2.9994
X28.3873 Z-2.9998
X28.5809 Z-3
X28.6947
X325.7916
X325.8467 Y90.9489
X325.9017 Y90.9445
X325.9568 Y90.937
X326.0118 Y90.9261
X326.0669 Y90.9118
X326.1219 Y90.8938
X326.1597 Y90.8793
X326.232 Y90.8461
X326.2871 Y90.8156
X326.3421 Y90.7801
X326.3575 Y90.7693
X326.4048 Y90.7326
X326.4522 Y90.6907
X326.4841 Y90.6592
X326.5257 Y90.6131
X326.5623 Y90.5669
X326.5752 Y90.5492
X326.6114 Y90.4942
X326.6424 Y90.4392
X326.6725 Y90.376
X326.6912 Y90.3292
X326.7096 Y90.2742
X326.7244 Y90.2191
X326.7357 Y90.1641
X326.7437 Y90.1091
X326.7485 Y90.0541
X326.75 Y89.9991
Y20.245
X326.7478 Y20.135
X326.7424 Y20.08
X326.7338 Y20.0249
X326.7217 Y19.9699
X326.7062 Y19.9149
X326.6907 Y19.8694
X326.6725 Y19.824
X326.664 Y19.8049
X326.6366 Y19.7499
X326.6046 Y19.6949
X326.5623 Y19.6331
X326.524 Y19.5849
X326.4901 Y19.5471
X326.4522 Y19.5093
X326.4137 Y19.4748
X326.3779 Y19.446
X326.3421 Y19.4199
X326.2975 Y19.3906
X326.2528 Y19.3648
X326.232 Y19.3539
X326.177 Y19.328
X326.1219 Y19.3062
X326.0669 Y19.2882
X326.0118 Y19.2739
X325.9568 Y19.263
X325.9017 Y19.2555
X325.8954 Y19.2548
X325.8435 Y19.251
X325.7916 Y19.25
X26.2084
X26.1565 Y19.251
X26.1047 Y19.2548
X26.0983 Y19.2555
X26.0432 Y19.263
X25.9882 Y19.2739
X25.9331 Y19.2883
X25.8781 Y19.3062
X25.823 Y19.328
X25.768 Y19.3539
X25.7473 Y19.3648
X25.7026 Y19.3906
X25.6579 Y19.4199
X25.6221 Y19.446
X25.5863 Y19.4748
X25.5478 Y19.5093
X25.51 Y19.5471
X25.4761 Y19.5849
X25.4377 Y19.6331
X25.3955 Y19.6949
X25.3634 Y19.7499
X25.3361 Y19.8049
X25.3276 Y19.8241
X25.3094 Y19.8695
X25.2938 Y19.9149
X25.2783 Y19.9699
X25.2663 Y20.0249
X25.2577 Y20.08
X25.2523 Y20.135
X25.25 Y20.245
Y56.9001
Y89.9991
X25.2516 Y90.0541
X25.2563 Y90.1091
X25.2643 Y90.1641
X25.2757 Y90.2191
X25.2905 Y90.2742
X25.3089 Y90.3292
X25.3276 Y90.3759
X25.3577 Y90.4392
X25.3887 Y90.4942
X25.4249 Y90.5492
X25.4377 Y90.5668
X25.4743 Y90.613
X25.516 Y90.6592
X25.5478 Y90.6907
X25.5952 Y90.7326
X25.6426 Y90.7693
X25.6579 Y90.7801
X25.7129 Y90.8156
X25.768 Y90.8461
X25.8404 Y90.8793
X25.8781 Y90.8938
X25.9331 Y90.9117
X25.9882 Y90.9261
X26.0432 Y90.937
X26.0983 Y90.9445
X26.1533 Y90.9489
X26.2084 Y90.95
X28.6947
X28.8883 Z-3.0001
X29.0819 Z-3.0004
X29.2754 Z-3.0008
X29.469 Z-3.0015
X29.6626 Z-3.0023
X29.8562 Z-3.0033
X30.0497 Z-3.0045
X30.2433 Z-3.0058
X30.4369 Z-3.0073
X30.6305 Z-3.009
X30.824 Z-3.0109
X31.0176 Z-3.0129
X31.2112 Z-3.0151
X31.4048 Z-3.0174
X31.5983 Z-3.0199
X31.7919 Z-3.0225
X31.9855 Z-3.0253
X32.1791 Z-3.0283
X32.3726 Z-3.0314
X32.5662 Z-3.0347
X32.7598 Z-3.0381
X32.9534 Z-3.0416
X33.1469 Z-3.0453
X33.3405 Z-3.0491
X33.5341 Z-3.0531
X33.7277 Z-3.0572
X33.9212 Z-3.0614
X34.1148 Z-3.0658
X34.3084 Z-3.0702
X34.502 Z-3.0749
X34.6955 Z-3.0796
X34.8891 Z-3.0845
X35.0827 Z-3.0894
X35.1795 Z-3.092
X35.2763 Z-3.0945
X35.373 Z-3.0971
X35.4698 Z-3.0997
X35.5666 Z-3.1024
X35.6634 Z-3.1051
X35.7602 Z-3.1078
X35.857 Z-3.1105
X35.9538 Z-3.1133
X36.0506 Z-3.1161
X36.1473 Z-3.1189
X36.2441 Z-3.1217
X36.3409 Z-3.1246
X36.4377 Z-3.1275
X36.5345 Z-3.1304
X36.6313 Z-3.1334
X36.7281 Z-3.1363
X36.8249 Z-3.1393
X36.9216 Z-3.1423
X37.0184 Z-3.1454
X37.1152 Z-3.1485
X37.212 Z-3.1516
X37.3088 Z-3.1547
X37.4056 Z-3.1578
X37.5024 Z-3.161
X37.5992 Z-3.1642
X37.6959 Z-3.1674
X37.7927 Z-3.1706
X37.8895 Z-3.1739
X37.9863 Z-3.1772
X38.0831 Z-3.1805
X38.1799 Z-3.1838
X38.2767 Z-3.1871
X38.4702 Z-3.1939
X38.567 Z-3.1972
X38.6638 Z-3.2006
X38.7606 Z-3.204
X38.8574 Z-3.2074
X38.9542 Z-3.2108
X39.051 Z-3.2141
X39.1478 Z-3.2175
X39.2445 Z-3.2209
X39.3413 Z-3.2243
X39.4381 Z-3.2277
X39.5349 Z-3.231
X39.6317 Z-3.2344
X39.8253 Z-3.2412
X40.1156 Z-3.2513
X40.406 Z-3.2614
X40.6963 Z-3.2716
X40.9867 Z-3.2817
X41.2771 Z-3.2919
X41.5674 Z-3.302
X41.8578 Z-3.3121
X42.1482 Z-3.3223
X42.4385 Z-3.3324
X42.7289 Z-3.3426
X43.2128 Z-3.3595
X43.6968 Z-3.3764
X44.1807 Z-3.3933
X44.8582 Z-3.4169
X45.7293 Z-3.4473
X47.1811 Z-3.498
X54.1498 Z-3.7413
X54.4401 Z-3.7515
X54.7305 Z-3.7616
X54.8273 Z-3.765
X54.9241 Z-3.7684
X55.0209 Z-3.7717
X55.1177 Z-3.7751
X55.2144 Z-3.7785
X55.3112 Z-3.7819
X55.408 Z-3.7853
X55.5048 Z-3.7886
X55.6016 Z-3.792
X55.6984 Z-3.7954
X55.7952 Z-3.7988
X55.892 Z-3.8022
X55.9887 Z-3.8055
X56.0855 Z-3.8089
X56.1823 Z-3.8123
X56.2791 Z-3.8156
X56.3759 Z-3.819
X56.4727 Z-3.8223
X56.5695 Z-3.8255
X56.6663 Z-3.8288
X56.763 Z-3.832
X56.8598 Z-3.8353
X56.9566 Z-3.8385
X57.0534 Z-3.8416
X57.1502 Z-3.8448
X57.247 Z-3.8479
X57.3438 Z-3.851
X57.4406 Z-3.8541
X57.5373 Z-3.8571
X57.6341 Z-3.8601
X57.7309 Z-3.8631
X57.8277 Z-3.8661
X57.9245 Z-3.8691
X58.0213 Z-3.872
X58.1181 Z-3.8749
X58.2149 Z-3.8778
X58.3116 Z-3.8806
X58.4084 Z-3.8834
X58.5052 Z-3.8862
X58.602 Z-3.889
X58.6988 Z-3.8917
X58.7956 Z-3.8945
X58.8924 Z-3.8971
X58.9892 Z-3.8998
X59.0859 Z-3.9024
X59.1827 Z-3.905
X59.2795 Z-3.9076
X59.3763 Z-3.9101
X59.4731 Z-3.9126
X59.6667 Z-3.9176
X59.8602 Z-3.9224
X60.0538 Z-3.9271
X60.2474 Z-3.9316
X60.441 Z-3.9361
X60.6345 Z-3.9404
X60.8281 Z-3.9445
X61.0217 Z-3.9486
X61.2153 Z-3.9525
X61.4088 Z-3.9562
X61.6024 Z-3.9599
X61.796 Z-3.9634
X61.9896 Z-3.9667
X62.1831 Z-3.9699
X62.3767 Z-3.9729
X62.5703 Z-3.9758
X62.7639 Z-3.9786
X62.9574 Z-3.9812
X63.151 Z-3.9836
X63.3446 Z-3.9859
X63.5382 Z-3.988
X63.7317 Z-3.9899
X63.9253 Z-3.9917
X64.1189 Z-3.9933
X64.3125 Z-3.9948
X64.506 Z-3.996
X64.6996 Z-3.9971
X64.8932 Z-3.9981
X65.0868 Z-3.9988
X65.2803 Z-3.9994
X65.4739 Z-3.9998
X65.6675 Z-4
X65.7813
X325.7916
X325.8467 Y90.9489
X325.9017 Y90.9445
X325.9568 Y90.937
X326.0118 Y90.9261
X326.0669 Y90.9118
X326.1219 Y90.8938
X326.1597 Y90.8793
X326.232 Y90.8461
X326.2871 Y90.8156
X326.3421 Y90.7801
X326.3575 Y90.7693
X326.4048 Y90.7326
X326.4522 Y90.6907
X326.4841 Y90.6592
X326.5257 Y90.6131
X326.5623 Y90.5669
X326.5752 Y90.5492
X326.6114 Y90.4942
X326.6424 Y90.4392
X326.6725 Y90.376
X326.6912 Y90.3292
X326.7096 Y90.2742
X326.7244 Y90.2191
X326.7357 Y90.1641
X326.7437 Y90.1091
X326.7485 Y90.0541
X326.75 Y89.9991
Y20.245
X326.7478 Y20.135
X326.7424 Y20.08
X326.7338 Y20.0249
X326.7217 Y19.9699
X326.7062 Y19.9149
X326.6907 Y19.8694
X326.6725 Y19.824
X326.664 Y19.8049
X326.6366 Y19.7499
X326.6046 Y19.6949
X326.5623 Y19.6331
X326.524 Y19.5849
X326.4901 Y19.5471
X326.4522 Y19.5093
X326.4137 Y19.4748
X326.3779 Y19.446
X326.3421 Y19.4199
X326.2975 Y19.3906
X326.2528 Y19.3648
X326.232 Y19.3539
X326.177 Y19.328
X326.1219 Y19.3062
X326.0669 Y19.2882
X326.0118 Y19.2739
X325.9568 Y19.263
X325.9017 Y19.2555
X325.8954 Y19.2548
X325.8435 Y19.251
X325.7916 Y19.25
X26.2084
X26.1565 Y19.251
X26.1047 Y19.2548
X26.0983 Y19.2555
X26.0432 Y19.263
X25.9882 Y19.2739
X25.9331 Y19.2883
X25.8781 Y19.3062
X25.823 Y19.328
X25.768 Y19.3539
X25.7473 Y19.3648
X25.7026 Y19.3906
X25.6579 Y19.4199
X25.6221 Y19.446
X25.5863 Y19.4748
X25.5478 Y19.5093
X25.51 Y19.5471
X25.4761 Y19.5849
X25.4377 Y19.6331
X25.3955 Y19.6949
X25.3634 Y19.7499
X25.3361 Y19.8049
X25.3276 Y19.8241
X25.3094 Y19.8695
X25.2938 Y19.9149
X25.2783 Y19.9699
X25.2663 Y20.0249
X25.2577 Y20.08
X25.2523 Y20.135
X25.25 Y20.245
Y89.9991
X25.2516 Y90.0541
X25.2563 Y90.1091
X25.2643 Y90.1641
X25.2757 Y90.2191
X25.2905 Y90.2742
X25.3089 Y90.3292
X25.3276 Y90.3759
X25.3577 Y90.4392
X25.3887 Y90.4942
X25.4249 Y90.5492
X25.4377 Y90.5668
X25.4743 Y90.613
X25.516 Y90.6592
X25.5478 Y90.6907
X25.5952 Y90.7326
X25.6426 Y90.7693
X25.6579 Y90.7801
X25.7129 Y90.8156
X25.768 Y90.8461
X25.8404 Y90.8793
X25.8781 Y90.8938
X25.9331 Y90.9117
X25.9882 Y90.9261
X26.0432 Y90.937
X26.0983 Y90.9445
X26.1533 Y90.9489
X26.2084 Y90.95
X65.7813
X65.9749 Z-4.0001
X66.1684 Z-4.0004
X66.362 Z-4.0008
X66.5556 Z-4.0015
X66.7492 Z-4.0023
X66.9427 Z-4.0033
X67.1363 Z-4.0045
X67.3299 Z-4.0058
X67.5235 Z-4.0073
X67.717 Z-4.009
X67.9106 Z-4.0109
X68.1042 Z-4.0129
X68.2978 Z-4.0151
X68.4913 Z-4.0174
X68.6849 Z-4.0199
X68.8785 Z-4.0225
X69.0721 Z-4.0253
X69.2656 Z-4.0283
X69.4592 Z-4.0314
X69.6528 Z-4.0347
X69.8464 Z-4.0381
X70.0399 Z-4.0416
X70.2335 Z-4.0453
X70.4271 Z-4.0491
X70.6207 Z-4.0531
X70.8142 Z-4.0572
X71.0078 Z-4.0614
X71.2014 Z-4.0658
X71.3949 Z-4.0702
X71.5885 Z-4.0749
X71.7821 Z-4.0796
X71.9757 Z-4.0845
X72.1692 Z-4.0894
X72.266 Z-4.092
X72.3628 Z-4.0945
X72.4596 Z-4.0971
X72.5564 Z-4.0997
X72.6532 Z-4.1024
X72.75 Z-4.1051
X72.8468 Z-4.1078
X72.9435 Z-4.1105
X73.0403 Z-4.1133
X73.1371 Z-4.1161
X73.2339 Z-4.1189
X73.3307 Z-4.1217
X73.4275 Z-4.1246
X73.5243 Z-4.1275
X73.6211 Z-4.1304
X73.7178 Z-4.1334
X73.8146 Z-4.1363
X73.9114 Z-4.1393
X74.0082 Z-4.1423
X74.105 Z-4.1454
X74.2018 Z-4.1485
X74.2986 Z-4.1516
X74.3954 Z-4.1547
X74.4921 Z-4.1578
X74.5889 Z-4.161
X74.6857 Z-4.1642
X74.7825 Z-4.1674
X74.8793 Z-4.1706
X74.9761 Z-4.1739
X75.0729 Z-4.1772
X75.1697 Z-4.1805
X75.2664 Z-4.1838
X75.3632 Z-4.1871
X75.5568 Z-4.1939
X75.6536 Z-4.1972
X75.7504 Z-4.2006
X75.8472 Z-4.204
X75.944 Z-4.2074
X76.0407 Z-4.2108
X76.1375 Z-4.2141
X76.2343 Z-4.2175
X76.3311 Z-4.2209
X76.4279 Z-4.2243
X76.5247 Z-4.2277
X76.6215 Z-4.231
X76.7182 Z-4.2344
X76.9118 Z-4.2412
X77.2022 Z-4.2513
X77.4925 Z-4.2614
X77.7829 Z-4.2716
X78.0733 Z-4.2817
X78.3636 Z-4.2919
X78.654 Z-4.302
X78.9444 Z-4.3121
X79.2347 Z-4.3223
X79.5251 Z-4.3324
X79.8154 Z-4.3426
X80.2994 Z-4.3595
X80.7833 Z-4.3764
X81.2673 Z-4.3933
X81.9448 Z-4.4169
X82.8158 Z-4.4473
X84.2677 Z-4.498
X91.2364 Z-4.7413
X91.5267 Z-4.7515
X91.8171 Z-4.7616
X91.9139 Z-4.765
X92.0107 Z-4.7684
X92.1074 Z-4.7717
X92.2042 Z-4.7751
X92.301 Z-4.7785
X92.3978 Z-4.7819
X92.4946 Z-4.7853
X92.5914 Z-4.7886
X92.6882 Z-4.792
X92.785 Z-4.7954
X92.8817 Z-4.7988
X92.9785 Z-4.8022
X93.0753 Z-4.8055
X93.1721 Z-4.8089
X93.2689 Z-4.8123
X93.3657 Z-4.8156
X93.4625 Z-4.819
X93.5592 Z-4.8223
X93.656 Z-4.8255
X93.7528 Z-4.8288
X93.8496 Z-4.832
X93.9464 Z-4.8353
X94.0432 Z-4.8385
X94.14 Z-4.8416
X94.2368 Z-4.8448
X94.3335 Z-4.8479
X94.4303 Z-4.851
X94.5271 Z-4.8541
X94.6239 Z-4.8571
X94.7207 Z-4.8601
X94.8175 Z-4.8631
X94.9143 Z-4.8661
X95.0111 Z-4.8691
X95.1078 Z-4.872
X95.2046 Z-4.8749
X95.3014 Z-4.8778
X95.3982 Z-4.8806
X95.495 Z-4.8834
X95.5918 Z-4.8862
X95.6886 Z-4.889
X95.7854 Z-4.8917
X95.8821 Z-4.8945
X95.9789 Z-4.8971
X96.0757 Z-4.8998
X96.1725 Z-4.9024
X96.2693 Z-4.905
X96.3661 Z-4.9076
X96.4629 Z-4.9101
X96.5597 Z-4.9126
X96.7532 Z-4.9176
X96.9468 Z-4.9224
X97.1404 Z-4.9271
X97.334 Z-4.9316
X97.5275 Z-4.9361
X97.7211 Z-4.9404
X97.9147 Z-4.9445
X98.1083 Z-4.9486
X98.3018 Z-4.9525
X98.4954 Z-4.9562
X98.689 Z-4.9599
X98.8826 Z-4.9634
X99.0761 Z-4.9667
X99.2697 Z-4.9699
X99.4633 Z-4.9729
X99.6568 Z-4.9758
X99.8504 Z-4.9786
X100.044 Z-4.9812
X100.2376 Z-4.9836
X100.4311 Z-4.9859
X100.6247 Z-4.988
X100.8183 Z-4.9899
X101.0119 Z-4.9917
X101.2054 Z-4.9933
X101.399 Z-4.9948
X101.5926 Z-4.996
X101.7862 Z-4.9971
X101.9797 Z-4.9981
X102.1733 Z-4.9988
X102.3669 Z-4.9994
X102.5605 Z-4.9998
X102.754 Z-5
X102.8678
X325.7916
X325.8467 Y90.9489
X325.9017 Y90.9445
X325.9568 Y90.937
X326.0118 Y90.9261
X326.0669 Y90.9118
X326.1219 Y90.8938
X326.1597 Y90.8793
X326.232 Y90.8461
X326.2871 Y90.8156
X326.3421 Y90.7801
X326.3575 Y90.7693
X326.4048 Y90.7326
X326.4522 Y90.6907
X326.4841 Y90.6592
X326.5257 Y90.6131
X326.5623 Y90.5669
X326.5752 Y90.5492
X326.6114 Y90.4942
X326.6424 Y90.4392
X326.6725 Y90.376
X326.6912 Y90.3292
X326.7096 Y90.2742
X326.7244 Y90.2191
X326.7357 Y90.1641
X326.7437 Y90.1091
X326.7485 Y90.0541
X326.75 Y89.9991
Y20.245
X326.7478 Y20.135
X326.7424 Y20.08
X326.7338 Y20.0249
X326.7217 Y19.9699
X326.7062 Y19.9149
X326.6907 Y19.8694
X326.6725 Y19.824
X326.664 Y19.8049
X326.6366 Y19.7499
X326.6046 Y19.6949
X326.5623 Y19.6331
X326.524 Y19.5849
X326.4901 Y19.5471
X326.4522 Y19.5093
X326.4137 Y19.4748
X326.3779 Y19.446
X326.3421 Y19.4199
X326.2975 Y19.3906
X326.2528 Y19.3648
X326.232 Y19.3539
X326.177 Y19.328
X326.1219 Y19.3062
X326.0669 Y19.2882
X326.0118 Y19.2739
X325.9568 Y19.263
X325.9017 Y19.2555
X325.8954 Y19.2548
X325.8435 Y19.251
X325.7916 Y19.25
X26.2084
X26.1565 Y19.251
X26.1047 Y19.2548
X26.0983 Y19.2555
X26.0432 Y19.263
X25.9882 Y19.2739
X25.9331 Y19.2883
X25.8781 Y19.3062
X25.823 Y19.328
X25.768 Y19.3539
X25.7473 Y19.3648
X25.7026 Y19.3906
X25.6579 Y19.4199
X25.6221 Y19.446
X25.5863 Y19.4748
X25.5478 Y19.5093
X25.51 Y19.5471
X25.4761 Y19.5849
X25.4377 Y19.6331
X25.3955 Y19.6949
X25.3634 Y19.7499
X25.3361 Y19.8049
X25.3276 Y19.8241
X25.3094 Y19.8695
X25.2938 Y19.9149
X25.2783 Y19.9699
X25.2663 Y20.0249
X25.2577 Y20.08
X25.2523 Y20.135
X25.25 Y20.245
Y89.9991
X25.2516 Y90.0541
X25.2563 Y90.1091
X25.2643 Y90.1641
X25.2757 Y90.2191
X25.2905 Y90.2742
X25.3089 Y90.3292
X25.3276 Y90.3759
X25.3577 Y90.4392
X25.3887 Y90.4942
X25.4249 Y90.5492
X25.4377 Y90.5668
X25.4743 Y90.613
X25.516 Y90.6592
X25.5478 Y90.6907
X25.5952 Y90.7326
X25.6426 Y90.7693
X25.6579 Y90.7801
X25.7129 Y90.8156
X25.768 Y90.8461
X25.8404 Y90.8793
X25.8781 Y90.8938
X25.9331 Y90.9117
X25.9882 Y90.9261
X26.0432 Y90.937
X26.0983 Y90.9445
X26.1533 Y90.9489
X26.2084 Y90.95
X65.7813
X102.8678
X103.0614 Z-5.0001
X103.255 Z-5.0004
X103.4486 Z-5.0008
X103.6421 Z-5.0015
X103.8357 Z-5.0023
X104.0293 Z-5.0033
X104.2229 Z-5.0045
X104.4164 Z-5.0058
X104.61 Z-5.0073
X104.8036 Z-5.009
X104.9972 Z-5.0109
X105.1907 Z-5.0129
X105.3843 Z-5.0151
X105.5779 Z-5.0174
X105.7715 Z-5.0199
X105.965 Z-5.0225
X106.1586 Z-5.0253
X106.3522 Z-5.0283
X106.5458 Z-5.0314
X106.7393 Z-5.0347
X106.9329 Z-5.0381
X107.1265 Z-5.0416
X107.3201 Z-5.0453
X107.5136 Z-5.0491
X107.7072 Z-5.0531
X107.9008 Z-5.0572
X108.0944 Z-5.0614
X108.2879 Z-5.0658
X108.4815 Z-5.0702
X108.6751 Z-5.0749
X108.8687 Z-5.0796
X109.0622 Z-5.0845
X109.2558 Z-5.0894
X109.3526 Z-5.092
X109.4494 Z-5.0945
X109.5462 Z-5.0971
X109.643 Z-5.0997
X109.7397 Z-5.1024
X109.8365 Z-5.1051
X109.9333 Z-5.1078
X110.0301 Z-5.1105
X110.1269 Z-5.1133
X110.2237 Z-5.1161
X110.3205 Z-5.1189
X110.4173 Z-5.1217
X110.514 Z-5.1246
X110.6108 Z-5.1275
X110.7076 Z-5.1304
X110.8044 Z-5.1334
X110.9012 Z-5.1363
X110.998 Z-5.1393
X111.0948 Z-5.1423
X111.1916 Z-5.1454
X111.2883 Z-5.1485
X111.3851 Z-5.1516
X111.4819 Z-5.1547
X111.5787 Z-5.1578
X111.6755 Z-5.161
X111.7723 Z-5.1642
X111.8691 Z-5.1674
X111.9659 Z-5.1706
X112.0626 Z-5.1739
X112.1594 Z-5.1772
X112.2562 Z-5.1805
X112.353 Z-5.1838
X112.4498 Z-5.1871
X112.6434 Z-5.1939
X112.7402 Z-5.1972
X112.8369 Z-5.2006
X112.9337 Z-5.204
X113.0305 Z-5.2074
X113.1273 Z-5.2108
X113.2241 Z-5.2141
X113.3209 Z-5.2175
X113.4177 Z-5.2209
X113.5145 Z-5.2243
X113.6112 Z-5.2277
X113.708 Z-5.231
X113.8048 Z-5.2344
X113.9984 Z-5.2412
X114.2887 Z-5.2513
X114.5791 Z-5.2614
X114.8695 Z-5.2716
X115.1598 Z-5.2817
X115.4502 Z-5.2919
X115.7406 Z-5.302
X116.0309 Z-5.3121
X116.3213 Z-5.3223
X116.6116 Z-5.3324
X116.902 Z-5.3426
X117.3859 Z-5.3595
X117.8699 Z-5.3764
X118.3538 Z-5.3933
X119.0313 Z-5.4169
X119.9024 Z-5.4473
X121.3542 Z-5.498
X128.3229 Z-5.7413
X128.6133 Z-5.7515
X128.9036 Z-5.7616
X129.0004 Z-5.765
X129.0972 Z-5.7684
X129.194 Z-5.7717
X129.2908 Z-5.7751
X129.3876 Z-5.7785
X129.4844 Z-5.7819
X129.5811 Z-5.7853
X129.6779 Z-5.7886
X129.7747 Z-5.792
X129.8715 Z-5.7954
X129.9683 Z-5.7988
X130.0651 Z-5.8022
X130.1619 Z-5.8055
X130.2587 Z-5.8089
X130.3555 Z-5.8123
X130.4522 Z-5.8156
X130.549 Z-5.819
X130.6458 Z-5.8223
X130.7426 Z-5.8255
X130.8394 Z-5.8288
X130.9362 Z-5.832
X131.033 Z-5.8353
X131.1297 Z-5.8385
X131.2265 Z-5.8416
X131.3233 Z-5.8448
X131.4201 Z-5.8479
X131.5169 Z-5.851
X131.6137 Z-5.8541
X131.7105 Z-5.8571
X131.8073 Z-5.8601
X131.9041 Z-5.8631
X132.0008 Z-5.8661
X132.0976 Z-5.8691
X132.1944 Z-5.872
X132.2912 Z-5.8749
X132.388 Z-5.8778
X132.4848 Z-5.8806
X132.5816 Z-5.8834
X132.6783 Z-5.8862
X132.7751 Z-5.889
X132.8719 Z-5.8917
X132.9687 Z-5.8945
X133.0655 Z-5.8971
X133.1623 Z-5.8998
X133.2591 Z-5.9024
X133.3559 Z-5.905
X133.4526 Z-5.9076
X133.5494 Z-5.9101
X133.6462 Z-5.9126
X133.8398 Z-5.9176
X134.0334 Z-5.9224
X134.2269 Z-5.9271
X134.4205 Z-5.9316
X134.6141 Z-5.9361
X134.8077 Z-5.9404
X135.0012 Z-5.9445
X135.1948 Z-5.9486
X135.3884 Z-5.9525
X135.582 Z-5.9562
X135.7755 Z-5.9599
X135.9691 Z-5.9634
X136.1627 Z-5.9667
X136.3563 Z-5.9699
X136.5498 Z-5.9729
X136.7434 Z-5.9758
X136.937 Z-5.9786
X137.1306 Z-5.9812
X137.3241 Z-5.9836
X137.5177 Z-5.9859
X137.7113 Z-5.988
X137.9049 Z-5.9899
X138.0984 Z-5.9917
X138.292 Z-5.9933
X138.4856 Z-5.9948
X138.6792 Z-5.996
X138.8727 Z-5.9971
X139.0663 Z-5.9981
X139.2599 Z-5.9988
X139.4535 Z-5.9994
X139.647 Z-5.9998
X139.8406 Z-6
X139.9544
X325.7916
X325.8467 Y90.9489
X325.9017 Y90.9445
X325.9568 Y90.937
X326.0118 Y90.9261
X326.0669 Y90.9118
X326.1219 Y90.8938
X326.1597 Y90.8793
X326.232 Y90.8461
X326.2871 Y90.8156
X326.3421 Y90.7801
X326.3575 Y90.7693
X326.4048 Y90.7326
X326.4522 Y90.6907
X326.4841 Y90.6592
X326.5257 Y90.6131
X326.5623 Y90.5669
X326.5752 Y90.5492
X326.6114 Y90.4942
X326.6424 Y90.4392
X326.6725 Y90.376
X326.6912 Y90.3292
X326.7096 Y90.2742
X326.7244 Y90.2191
X326.7357 Y90.1641
X326.7437 Y90.1091
X326.7485 Y90.0541
X326.75 Y89.9991
Y20.245
X326.7478 Y20.135
X326.7424 Y20.08
X326.7338 Y20.0249
X326.7217 Y19.9699
X326.7062 Y19.9149
X326.6907 Y19.8694
X326.6725 Y19.824
X326.664 Y19.8049
X326.6366 Y19.7499
X326.6046 Y19.6949
X326.5623 Y19.6331
X326.524 Y19.5849
X326.4901 Y19.5471
X326.4522 Y19.5093
X326.4137 Y19.4748
X326.3779 Y19.446
X326.3421 Y19.4199
X326.2975 Y19.3906
X326.2528 Y19.3648
X326.232 Y19.3539
X326.177 Y19.328
X326.1219 Y19.3062
X326.0669 Y19.2882
X326.0118 Y19.2739
X325.9568 Y19.263
X325.9017 Y19.2555
X325.8954 Y19.2548
X325.8435 Y19.251
X325.7916 Y19.25
X26.2084
X26.1565 Y19.251
X26.1047 Y19.2548
X26.0983 Y19.2555
X26.0432 Y19.263
X25.9882 Y19.2739
X25.9331 Y19.2883
X25.8781 Y19.3062
X25.823 Y19.328
X25.768 Y19.3539
X25.7473 Y19.3648
X25.7026 Y19.3906
X25.6579 Y19.4199
X25.6221 Y19.446
X25.5863 Y19.4748
X25.5478 Y19.5093
X25.51 Y19.5471
X25.4761 Y19.5849
X25.4377 Y19.6331
X25.3955 Y19.6949
X25.3634 Y19.7499
X25.3361 Y19.8049
X25.3276 Y19.8241
X25.3094 Y19.8695
X25.2938 Y19.9149
X25.2783 Y19.9699
X25.2663 Y20.0249
X25.2577 Y20.08
X25.2523 Y20.135
X25.25 Y20.245
Y89.9991
X25.2516 Y90.0541
X25.2563 Y90.1091
X25.2643 Y90.1641
X25.2757 Y90.2191
X25.2905 Y90.2742
X25.3089 Y90.3292
X25.3276 Y90.3759
X25.3577 Y90.4392
X25.3887 Y90.4942
X25.4249 Y90.5492
X25.4377 Y90.5668
X25.4743 Y90.613
X25.516 Y90.6592
X25.5478 Y90.6907
X25.5952 Y90.7326
X25.6426 Y90.7693
X25.6579 Y90.7801
X25.7129 Y90.8156
X25.768 Y90.8461
X25.8404 Y90.8793
X25.8781 Y90.8938
X25.9331 Y90.9117
X25.9882 Y90.9261
X26.0432 Y90.937
X26.0983 Y90.9445
X26.1533 Y90.9489
X26.2084 Y90.95
X102.8678
X139.9544
X140.148 Z-6.0001
X140.3416 Z-6.0004
X140.5351 Z-6.0008
X140.7287 Z-6.0015
X140.9223 Z-6.0023
X141.1159 Z-6.0033
X141.3094 Z-6.0045
X141.503 Z-6.0058
X141.6966 Z-6.0073
X141.8902 Z-6.009
X142.0837 Z-6.0109
X142.2773 Z-6.0129
X142.4709 Z-6.0151
X142.6645 Z-6.0174
X142.858 Z-6.0199
X143.0516 Z-6.0225
X143.2452 Z-6.0253
X143.4388 Z-6.0283
X143.6323 Z-6.0314
X143.8259 Z-6.0347
X144.0195 Z-6.0381
X144.2131 Z-6.0416
X144.4066 Z-6.0453
X144.6002 Z-6.0491
X144.7938 Z-6.0531
X144.9874 Z-6.0572
X145.1809 Z-6.0614
X145.3745 Z-6.0658
X145.5681 Z-6.0702
X145.7616 Z-6.0749
X145.9552 Z-6.0796
X146.1488 Z-6.0845
X146.3424 Z-6.0894
X146.4392 Z-6.092
X146.5359 Z-6.0945
X146.6327 Z-6.0971
X146.7295 Z-6.0997
X146.8263 Z-6.1024
X146.9231 Z-6.1051
X147.0199 Z-6.1078
X147.1167 Z-6.1105
X147.2135 Z-6.1133
X147.3102 Z-6.1161
X147.407 Z-6.1189
X147.5038 Z-6.1217
X147.6006 Z-6.1246
X147.6974 Z-6.1275
X147.7942 Z-6.1304
X147.891 Z-6.1334
X147.9878 Z-6.1363
X148.0845 Z-6.1393
X148.1813 Z-6.1423
X148.2781 Z-6.1454
X148.3749 Z-6.1485
X148.4717 Z-6.1516
X148.5685 Z-6.1547
X148.6653 Z-6.1578
X148.7621 Z-6.161
X148.8588 Z-6.1642
X148.9556 Z-6.1674
X149.0524 Z-6.1706
X149.1492 Z-6.1739
X149.246 Z-6.1772
X149.3428 Z-6.1805
X149.4396 Z-6.1838
X149.5364 Z-6.1871
X149.7299 Z-6.1939
X149.8267 Z-6.1972
X149.9235 Z-6.2006
X150.0203 Z-6.204
X150.1171 Z-6.2074
X150.2139 Z-6.2108
X150.3107 Z-6.2141
X150.4074 Z-6.2175
X150.5042 Z-6.2209
X150.601 Z-6.2243
X150.6978 Z-6.2277
X150.7946 Z-6.231
X150.8914 Z-6.2344
X151.0849 Z-6.2412
X151.3753 Z-6.2513
X151.6657 Z-6.2614
X151.956 Z-6.2716
X152.2464 Z-6.2817
X152.5368 Z-6.2919
X152.8271 Z-6.302
X153.1175 Z-6.3121
X153.4079 Z-6.3223
X153.6982 Z-6.3324
X153.9886 Z-6.3426
X154.4725 Z-6.3595
X154.9565 Z-6.3764
X155.4404 Z-6.3933
X156.1179 Z-6.4169
X156.989 Z-6.4473
X158.4408 Z-6.498
X165.4095 Z-6.7413
X165.6998 Z-6.7515
X165.9902 Z-6.7616
X166.087 Z-6.765
X166.1838 Z-6.7684
X166.2806 Z-6.7717
X166.3773 Z-6.7751
X166.4741 Z-6.7785
X166.5709 Z-6.7819
X166.6677 Z-6.7853
X166.7645 Z-6.7886
X166.8613 Z-6.792
X166.9581 Z-6.7954
X167.0549 Z-6.7988
X167.1517 Z-6.8022
X167.2484 Z-6.8055
X167.3452 Z-6.8089
X167.442 Z-6.8123
X167.5388 Z-6.8156
X167.6356 Z-6.819
X167.7324 Z-6.8223
X167.8292 Z-6.8255
X167.9259 Z-6.8288
X168.0227 Z-6.832
X168.1195 Z-6.8353
X168.2163 Z-6.8385
X168.3131 Z-6.8416
X168.4099 Z-6.8448
X168.5067 Z-6.8479
X168.6035 Z-6.851
X168.7002 Z-6.8541
X168.797 Z-6.8571
X168.8938 Z-6.8601
X168.9906 Z-6.8631
X169.0874 Z-6.8661
X169.1842 Z-6.8691
X169.281 Z-6.872
X169.3778 Z-6.8749
X169.4745 Z-6.8778
X169.5713 Z-6.8806
X169.6681 Z-6.8834
X169.7649 Z-6.8862
X169.8617 Z-6.889
X169.9585 Z-6.8917
X170.0553 Z-6.8945
X170.1521 Z-6.8971
X170.2488 Z-6.8998
X170.3456 Z-6.9024
X170.4424 Z-6.905
X170.5392 Z-6.9076
X170.636 Z-6.9101
X170.7328 Z-6.9126
X170.9264 Z-6.9176
X171.1199 Z-6.9224
X171.3135 Z-6.9271
X171.5071 Z-6.9316
X171.7007 Z-6.9361
X171.8942 Z-6.9404
X172.0878 Z-6.9445
X172.2814 Z-6.9486
X172.475 Z-6.9525
X172.6685 Z-6.9562
X172.8621 Z-6.9599
X173.0557 Z-6.9634
X173.2493 Z-6.9667
X173.4428 Z-6.9699
X173.6364 Z-6.9729
X173.83 Z-6.9758
X174.0236 Z-6.9786
X174.2171 Z-6.9812
X174.4107 Z-6.9836
X174.6043 Z-6.9859
X174.7979 Z-6.988
X174.9914 Z-6.9899
X175.185 Z-6.9917
X175.3786 Z-6.9933
X175.5721 Z-6.9948
X175.7657 Z-6.996
X175.9593 Z-6.9971
X176.1529 Z-6.9981
X176.3465 Z-6.9988
X176.54 Z-6.9994
X176.7336 Z-6.9998
X176.9272 Z-7
X177.041
X351.9955
X352.0506 Y90.9487
X352.1057 Y90.9441
X352.1607 Y90.9363
X352.2157 Y90.9252
X352.2708 Y90.9106
X352.3258 Y90.8924
X352.3597 Y90.8793
X352.3978 Y90.8627
X352.4359 Y90.8441
X352.491 Y90.8133
X352.5461 Y90.7774
X352.5575 Y90.7693
X352.6068 Y90.731
X352.6561 Y90.687
X352.6841 Y90.6592
X352.728 Y90.6104
X352.7662 Y90.5616
X352.7752 Y90.5492
X352.8114 Y90.4942
X352.8424 Y90.4392
X352.8763 Y90.3669
X352.8912 Y90.3292
X352.9096 Y90.2742
X352.9244 Y90.2191
X352.9357 Y90.1641
X352.9438 Y90.1091
X352.9485 Y90.0541
X352.95 Y89.9991
Y0.0009
X352.9485 Y-0.0541
X352.9438 Y-0.1091
X352.9357 Y-0.1641
X352.9244 Y-0.2191
X352.9096 Y-0.2742
X352.8912 Y-0.3292
X352.8763 Y-0.3668
X352.8424 Y-0.4392
X352.8114 Y-0.4942
X352.7752 Y-0.5492
X352.7662 Y-0.5616
X352.728 Y-0.6104
X352.6841 Y-0.6592
X352.6561 Y-0.687
X352.6068 Y-0.731
X352.5575 Y-0.7693
X352.5461 Y-0.7774
X352.491 Y-0.8133
X352.4359 Y-0.8441
X352.3978 Y-0.8627
X352.3597 Y-0.8793
X352.3258 Y-0.8924
X352.2708 Y-0.9106
X352.2157 Y-0.9252
X352.1607 Y-0.9363
X352.1057 Y-0.9441
X352.0506 Y-0.9487
X351.9955 Y-0.95
X25.3276
X0.0045
X-0.0506 Y-0.9487
X-0.1056 Y-0.9441
X-0.1607 Y-0.9363
X-0.2157 Y-0.9252
X-0.2708 Y-0.9106
X-0.3258 Y-0.8924
X-0.3597 Y-0.8793
X-0.3978 Y-0.8627
X-0.4359 Y-0.8441
X-0.491 Y-0.8133
X-0.546 Y-0.7774
X-0.5574 Y-0.7693
X-0.6068 Y-0.731
X-0.6561 Y-0.687
X-0.684 Y-0.6592
X-0.7279 Y-0.6104
X-0.7662 Y-0.5616
X-0.7752 Y-0.5492
X-0.8113 Y-0.4942
X-0.8424 Y-0.4392
X-0.8763 Y-0.3668
X-0.8911 Y-0.3292
X-0.9096 Y-0.2742
X-0.9244 Y-0.2191
X-0.9357 Y-0.1641
X-0.9437 Y-0.1091
X-0.9485 Y-0.0541
X-0.95 Y0.0009
Y89.9991
X-0.9485 Y90.0541
X-0.9437 Y90.1091
X-0.9357 Y90.1641
X-0.9244 Y90.2191
X-0.9096 Y90.2742
X-0.8911 Y90.3292
X-0.8763 Y90.3669
X-0.8424 Y90.4392
X-0.8113 Y90.4942
X-0.7752 Y90.5492
X-0.7662 Y90.5616
X-0.7279 Y90.6104
X-0.684 Y90.6592
X-0.6561 Y90.687
X-0.6068 Y90.731
X-0.5574 Y90.7693
X-0.546 Y90.7774
X-0.491 Y90.8133
X-0.4359 Y90.8441
X-0.3978 Y90.8627
X-0.3597 Y90.8793
X-0.3258 Y90.8924
X-0.2708 Y90.9106
X-0.2157 Y90.9252
X-0.1607 Y90.9363
X-0.1056 Y90.9441
X-0.0506 Y90.9487
X0.0045 Y90.95
X139.9544
X177.041
X177.2345 Z-7.0001
X177.4281 Z-7.0004
X177.6217 Z-7.0008
X177.8153 Z-7.0015
X178.0089 Z-7.0023
X178.2024 Z-7.0033
X178.396 Z-7.0045
X178.5896 Z-7.0058
X178.7831 Z-7.0073
X178.9767 Z-7.009
X179.1703 Z-7.0109
X179.3639 Z-7.0129
X179.5574 Z-7.0151
X179.751 Z-7.0174
X179.9446 Z-7.0199
X180.1382 Z-7.0225
X180.3317 Z-7.0253
X180.5253 Z-7.0283
X180.7189 Z-7.0314
X180.9125 Z-7.0347
X181.106 Z-7.0381
X181.2996 Z-7.0416
X181.4932 Z-7.0453
X181.6868 Z-7.0491
X181.8803 Z-7.0531
X182.0739 Z-7.0572
X182.2675 Z-7.0614
X182.4611 Z-7.0658
X182.6546 Z-7.0702
X182.8482 Z-7.0749
X183.0418 Z-7.0796
X183.2354 Z-7.0845
X183.4289 Z-7.0894
X183.5257 Z-7.092
X183.6225 Z-7.0945
X183.7193 Z-7.0971
X183.8161 Z-7.0997
X183.9129 Z-7.1024
X184.0097 Z-7.1051
X184.1064 Z-7.1078
X184.2032 Z-7.1105
X184.3 Z-7.1133
X184.3968 Z-7.1161
X184.4936 Z-7.1189
X184.5904 Z-7.1217
X184.6872 Z-7.1246
X184.784 Z-7.1275
X184.8808 Z-7.1304
X184.9775 Z-7.1334
X185.0743 Z-7.1363
X185.1711 Z-7.1393
X185.2679 Z-7.1423
X185.3647 Z-7.1454
X185.4615 Z-7.1485
X185.5583 Z-7.1516
X185.655 Z-7.1547
X185.7518 Z-7.1578
X185.8486 Z-7.161
X185.9454 Z-7.1642
X186.0422 Z-7.1674
X186.139 Z-7.1706
X186.2358 Z-7.1739
X186.3326 Z-7.1772
X186.4294 Z-7.1805
X186.5261 Z-7.1838
X186.6229 Z-7.1871
X186.8165 Z-7.1939
X186.9133 Z-7.1972
X187.0101 Z-7.2006
X187.1069 Z-7.204
X187.2036 Z-7.2074
X187.3004 Z-7.2108
X187.3972 Z-7.2141
X187.494 Z-7.2175
X187.5908 Z-7.2209
X187.6876 Z-7.2243
X187.7844 Z-7.2277
X187.8811 Z-7.231
X187.9779 Z-7.2344
X188.1715 Z-7.2412
X188.4619 Z-7.2513
X188.7522 Z-7.2614
X189.0426 Z-7.2716
X189.333 Z-7.2817
X189.6233 Z-7.2919
X189.9137 Z-7.302
X190.2041 Z-7.3121
X190.4944 Z-7.3223
X190.7848 Z-7.3324
X191.0751 Z-7.3426
X191.5591 Z-7.3595
X192.043 Z-7.3764
X192.5269 Z-7.3933
X193.2045 Z-7.4169
X194.0755 Z-7.4473
X195.5274 Z-7.498
X202.496 Z-7.7413
X202.7864 Z-7.7515
X203.0768 Z-7.7616
X203.1736 Z-7.765
X203.2703 Z-7.7684
X203.3671 Z-7.7717
X203.4639 Z-7.7751
X203.5607 Z-7.7785
X203.6575 Z-7.7819
X203.7543 Z-7.7853
X203.8511 Z-7.7886
X203.9479 Z-7.792
X204.0446 Z-7.7954
X204.1414 Z-7.7988
X204.2382 Z-7.8022
X204.335 Z-7.8055
X204.4318 Z-7.8089
X204.5286 Z-7.8123
X204.6254 Z-7.8156
X204.7222 Z-7.819
X204.8189 Z-7.8223
X204.9157 Z-7.8255
X205.0125 Z-7.8288
X205.1093 Z-7.832
X205.2061 Z-7.8353
X205.3029 Z-7.8385
X205.3997 Z-7.8416
X205.4964 Z-7.8448
X205.5932 Z-7.8479
X205.69 Z-7.851
X205.7868 Z-7.8541
X205.8836 Z-7.8571
X205.9804 Z-7.8601
X206.0772 Z-7.8631
X206.174 Z-7.8661
X206.2708 Z-7.8691
X206.3675 Z-7.872
X206.4643 Z-7.8749
X206.5611 Z-7.8778
X206.6579 Z-7.8806
X206.7547 Z-7.8834
X206.8515 Z-7.8862
X206.9483 Z-7.889
X207.045 Z-7.8917
X207.1418 Z-7.8945
X207.2386 Z-7.8971
X207.3354 Z-7.8998
X207.4322 Z-7.9024
X207.529 Z-7.905
X207.6258 Z-7.9076
X207.7226 Z-7.9101
X207.8194 Z-7.9126
X208.0129 Z-7.9176
X208.2065 Z-7.9224
X208.4001 Z-7.9271
X208.5936 Z-7.9316
X208.7872 Z-7.9361
X208.9808 Z-7.9404
X209.1744 Z-7.9445
X209.368 Z-7.9486
X209.5615 Z-7.9525
X209.7551 Z-7.9562
X209.9487 Z-7.9599
X210.1422 Z-7.9634
X210.3358 Z-7.9667
X210.5294 Z-7.9699
X210.723 Z-7.9729
X210.9165 Z-7.9758
X211.1101 Z-7.9786
X211.3037 Z-7.9812
X211.4973 Z-7.9836
X211.6908 Z-7.9859
X211.8844 Z-7.988
X212.078 Z-7.9899
X212.2716 Z-7.9917
X212.4651 Z-7.9933
X212.6587 Z-7.9948
X212.8523 Z-7.996
X213.0459 Z-7.9971
X213.2394 Z-7.9981
X213.433 Z-7.9988
X213.6266 Z-7.9994
X213.8202 Z-7.9998
X214.0137 Z-8
X214.1275
X351.9955
X352.0506 Y90.9487
X352.1057 Y90.9441
X352.1607 Y90.9363
X352.2157 Y90.9252
X352.2708 Y90.9106
X352.3258 Y90.8924
X352.3597 Y90.8793
X352.3978 Y90.8627
X352.4359 Y90.8441
X352.491 Y90.8133
X352.5461 Y90.7774
X352.5575 Y90.7693
X352.6068 Y90.731
X352.6561 Y90.687
X352.6841 Y90.6592
X352.728 Y90.6104
X352.7662 Y90.5616
X352.7752 Y90.5492
X352.8114 Y90.4942
X352.8424 Y90.4392
X352.8763 Y90.3669
X352.8912 Y90.3292
X352.9096 Y90.2742
X352.9244 Y90.2191
X352.9357 Y90.1641
X352.9438 Y90.1091
X352.9485 Y90.0541
X352.95 Y89.9991
Y0.0009
X352.9485 Y-0.0541
X352.9438 Y-0.1091
X352.9357 Y-0.1641
X352.9244 Y-0.2191
X352.9096 Y-0.2742
X352.8912 Y-0.3292
X352.8763 Y-0.3668
X352.8424 Y-0.4392
X352.8114 Y-0.4942
X352.7752 Y-0.5492
X352.7662 Y-0.5616
X352.728 Y-0.6104
X352.6841 Y-0.6592
X352.6561 Y-0.687
X352.6068 Y-0.731
X352.5575 Y-0.7693
X352.5461 Y-0.7774
X352.491 Y-0.8133
X352.4359 Y-0.8441
X352.3978 Y-0.8627
X352.3597 Y-0.8793
X352.3258 Y-0.8924
X352.2708 Y-0.9106
X352.2157 Y-0.9252
X352.1607 Y-0.9363
X352.1057 Y-0.9441
X352.0506 Y-0.9487
X351.9955 Y-0.95
X25.3276
X0.0045
X-0.0506 Y-0.9487
X-0.1056 Y-0.9441
X-0.1607 Y-0.9363
X-0.2157 Y-0.9252
X-0.2708 Y-0.9106
X-0.3258 Y-0.8924
X-0.3597 Y-0.8793
X-0.3978 Y-0.8627
X-0.4359 Y-0.8441
X-0.491 Y-0.8133
X-0.546 Y-0.7774
X-0.5574 Y-0.7693
X-0.6068 Y-0.731
X-0.6561 Y-0.687
X-0.684 Y-0.6592
X-0.7279 Y-0.6104
X-0.7662 Y-0.5616
X-0.7752 Y-0.5492
X-0.8113 Y-0.4942
X-0.8424 Y-0.4392
X-0.8763 Y-0.3668
X-0.8911 Y-0.3292
X-0.9096 Y-0.2742
X-0.9244 Y-0.2191
X-0.9357 Y-0.1641
X-0.9437 Y-0.1091
X-0.9485 Y-0.0541
X-0.95 Y0.0009
Y89.9991
X-0.9485 Y90.0541
X-0.9437 Y90.1091
X-0.9357 Y90.1641
X-0.9244 Y90.2191
X-0.9096 Y90.2742
X-0.8911 Y90.3292
X-0.8763 Y90.3669
X-0.8424 Y90.4392
X-0.8113 Y90.4942
X-0.7752 Y90.5492
X-0.7662 Y90.5616
X-0.7279 Y90.6104
X-0.684 Y90.6592
X-0.6561 Y90.687
X-0.6068 Y90.731
X-0.5574 Y90.7693
X-0.546 Y90.7774
X-0.491 Y90.8133
X-0.4359 Y90.8441
X-0.3978 Y90.8627
X-0.3597 Y90.8793
X-0.3258 Y90.8924
X-0.2708 Y90.9106
X-0.2157 Y90.9252
X-0.1607 Y90.9363
X-0.1056 Y90.9441
X-0.0506 Y90.9487
X0.0045 Y90.95
X177.041
X214.1275
X214.3211 Z-8.0001
X214.5147 Z-8.0004
X214.7083 Z-8.0008
X214.9018 Z-8.0015
X215.0954 Z-8.0023
X215.289 Z-8.0033
X215.4826 Z-8.0045
X215.6761 Z-8.0058
X215.8697 Z-8.0073
X216.0633 Z-8.009
X216.2569 Z-8.0109
X216.4504 Z-8.0129
X216.644 Z-8.0151
X216.8376 Z-8.0174
X217.0312 Z-8.0199
X217.2247 Z-8.0225
X217.4183 Z-8.0253
X217.6119 Z-8.0283
X217.8055 Z-8.0314
X217.999 Z-8.0347
X218.1926 Z-8.0381
X218.3862 Z-8.0416
X218.5798 Z-8.0453
X218.7733 Z-8.0491
X218.9669 Z-8.0531
X219.1605 Z-8.0572
X219.354 Z-8.0614
X219.5476 Z-8.0658
X219.7412 Z-8.0702
X219.9348 Z-8.0749
X220.1284 Z-8.0796
X220.3219 Z-8.0845
X220.5155 Z-8.0894
X220.6123 Z-8.092
X220.7091 Z-8.0945
X220.8059 Z-8.0971
X220.9026 Z-8.0997
X220.9994 Z-8.1024
X221.0962 Z-8.1051
X221.193 Z-8.1078
X221.2898 Z-8.1105
X221.3866 Z-8.1133
X221.4834 Z-8.1161
X221.5802 Z-8.1189
X221.677 Z-8.1217
X221.7737 Z-8.1246
X221.8705 Z-8.1275
X221.9673 Z-8.1304
X222.0641 Z-8.1334
X222.1609 Z-8.1363
X222.2577 Z-8.1393
X222.3545 Z-8.1424
X222.4512 Z-8.1454
X222.548 Z-8.1485
X222.6448 Z-8.1516
X222.7416 Z-8.1547
X222.8384 Z-8.1578
X222.9352 Z-8.161
X223.032 Z-8.1642
X223.1288 Z-8.1674
X223.2255 Z-8.1706
X223.3223 Z-8.1739
X223.4191 Z-8.1772
X223.5159 Z-8.1805
X223.6127 Z-8.1838
X223.7095 Z-8.1871
X223.9031 Z-8.1939
X223.9998 Z-8.1972
X224.0966 Z-8.2006
X224.1934 Z-8.204
X224.2902 Z-8.2074
X224.387 Z-8.2108
X224.4838 Z-8.2141
X224.5806 Z-8.2175
X224.6774 Z-8.2209
X224.7741 Z-8.2243
X224.8709 Z-8.2277
X224.9677 Z-8.231
X225.0645 Z-8.2344
X225.2581 Z-8.2412
X225.5484 Z-8.2513
X225.8388 Z-8.2614
X226.1292 Z-8.2716
X226.4195 Z-8.2817
X226.7099 Z-8.2919
X227.0003 Z-8.302
X227.2906 Z-8.3121
X227.581 Z-8.3223
X227.8713 Z-8.3324
X228.1617 Z-8.3426
X228.6456 Z-8.3595
X229.1296 Z-8.3764
X229.6135 Z-8.3933
X230.291 Z-8.4169
X231.1621 Z-8.4473
X232.6139 Z-8.498
X239.5826 Z-8.7413
X239.873 Z-8.7515
X240.1633 Z-8.7616
X240.2601 Z-8.765
X240.3569 Z-8.7684
X240.4537 Z-8.7717
X240.5505 Z-8.7751
X240.6473 Z-8.7785
X240.744 Z-8.7819
X240.8408 Z-8.7853
X240.9376 Z-8.7886
X241.0344 Z-8.792
X241.1312 Z-8.7954
X241.228 Z-8.7988
X241.3248 Z-8.8022
X241.4216 Z-8.8055
X241.5184 Z-8.8089
X241.6151 Z-8.8123
X241.7119 Z-8.8156
X241.8087 Z-8.819
X241.9055 Z-8.8223
X242.0023 Z-8.8255
X242.0991 Z-8.8288
X242.1959 Z-8.832
X242.2926 Z-8.8353
X242.3894 Z-8.8385
X242.4862 Z-8.8416
X242.583 Z-8.8448
X242.6798 Z-8.8479
X242.7766 Z-8.851
X242.8734 Z-8.8541
X242.9702 Z-8.8571
X243.067 Z-8.8601
X243.1637 Z-8.8631
X243.2605 Z-8.8661
X243.3573 Z-8.8691
X243.4541 Z-8.872
X243.5509 Z-8.8749
X243.6477 Z-8.8778
X243.7445 Z-8.8806
X243.8412 Z-8.8834
X243.938 Z-8.8862
X244.0348 Z-8.889
X244.1316 Z-8.8917
X244.2284 Z-8.8945
X244.3252 Z-8.8971
X244.422 Z-8.8998
X244.5188 Z-8.9024
X244.6156 Z-8.905
X244.7123 Z-8.9076
X244.8091 Z-8.9101
X244.9059 Z-8.9126
X245.0995 Z-8.9176
X245.2931 Z-8.9224
X245.4866 Z-8.9271
X245.6802 Z-8.9316
X245.8738 Z-8.9361
X246.0674 Z-8.9404
X246.2609 Z-8.9445
X246.4545 Z-8.9486
X246.6481 Z-8.9525
X246.8417 Z-8.9562
X247.0352 Z-8.9599
X247.2288 Z-8.9634
X247.4224 Z-8.9667
X247.616 Z-8.9699
X247.8095 Z-8.9729
X248.0031 Z-8.9758
X248.1967 Z-8.9786
X248.3903 Z-8.9812
X248.5838 Z-8.9836
X248.7774 Z-8.9859
X248.971 Z-8.988
X249.1646 Z-8.9899
X249.3581 Z-8.9917
X249.5517 Z-8.9933
X249.7453 Z-8.9948
X249.9389 Z-8.996
X250.1324 Z-8.9971
X250.326 Z-8.9981
X250.5196 Z-8.9988
X250.7132 Z-8.9994
X250.9067 Z-8.9998
X251.1003 Z-9
X251.2141
X351.9955
X352.0506 Y90.9487
X352.1057 Y90.9441
X352.1607 Y90.9363
X352.2157 Y90.9252
X352.2708 Y90.9106
X352.3258 Y90.8924
X352.3597 Y90.8793
X352.3978 Y90.8627
X352.4359 Y90.8441
X352.491 Y90.8133
X352.5461 Y90.7774
X352.5575 Y90.7693
X352.6068 Y90.731
X352.6561 Y90.687
X352.6841 Y90.6592
X352.728 Y90.6104
X352.7662 Y90.5616
X352.7752 Y90.5492
X352.8114 Y90.4942
X352.8424 Y90.4392
X352.8763 Y90.3669
X352.8912 Y90.3292
X352.9096 Y90.2742
X352.9244 Y90.2191
X352.9357 Y90.1641
X352.9438 Y90.1091
X352.9485 Y90.0541
X352.95 Y89.9991
Y0.0009
X352.9485 Y-0.0541
X352.9438 Y-0.1091
X352.9357 Y-0.1641
X352.9244 Y-0.2191
X352.9096 Y-0.2742
X352.8912 Y-0.3292
X352.8763 Y-0.3668
X352.8424 Y-0.4392
X352.8114 Y-0.4942
X352.7752 Y-0.5492
X352.7662 Y-0.5616
X352.728 Y-0.6104
X352.6841 Y-0.6592
X352.6561 Y-0.687
X352.6068 Y-0.731
X352.5575 Y-0.7693
X352.5461 Y-0.7774
X352.491 Y-0.8133
X352.4359 Y-0.8441
X352.3978 Y-0.8627
X352.3597 Y-0.8793
X352.3258 Y-0.8924
X352.2708 Y-0.9106
X352.2157 Y-0.9252
X352.1607 Y-0.9363
X352.1057 Y-0.9441
X352.0506 Y-0.9487
X351.9955 Y-0.95
X25.3276
X0.0045
X-0.0506 Y-0.9487
X-0.1056 Y-0.9441
X-0.1607 Y-0.9363
X-0.2157 Y-0.9252
X-0.2708 Y-0.9106
X-0.3258 Y-0.8924
X-0.3597 Y-0.8793
X-0.3978 Y-0.8627
X-0.4359 Y-0.8441
X-0.491 Y-0.8133
X-0.546 Y-0.7774
X-0.5574 Y-0.7693
X-0.6068 Y-0.731
X-0.6561 Y-0.687
X-0.684 Y-0.6592
X-0.7279 Y-0.6104
X-0.7662 Y-0.5616
X-0.7752 Y-0.5492
X-0.8113 Y-0.4942
X-0.8424 Y-0.4392
X-0.8763 Y-0.3668
X-0.8911 Y-0.3292
X-0.9096 Y-0.2742
X-0.9244 Y-0.2191
X-0.9357 Y-0.1641
X-0.9437 Y-0.1091
X-0.9485 Y-0.0541
X-0.95 Y0.0009
Y89.9991
X-0.9485 Y90.0541
X-0.9437 Y90.1091
X-0.9357 Y90.1641
X-0.9244 Y90.2191
X-0.9096 Y90.2742
X-0.8911 Y90.3292
X-0.8763 Y90.3669
X-0.8424 Y90.4392
X-0.8113 Y90.4942
X-0.7752 Y90.5492
X-0.7662 Y90.5616
X-0.7279 Y90.6104
X-0.684 Y90.6592
X-0.6561 Y90.687
X-0.6068 Y90.731
X-0.5574 Y90.7693
X-0.546 Y90.7774
X-0.491 Y90.8133
X-0.4359 Y90.8441
X-0.3978 Y90.8627
X-0.3597 Y90.8793
X-0.3258 Y90.8924
X-0.2708 Y90.9106
X-0.2157 Y90.9252
X-0.1607 Y90.9363
X-0.1056 Y90.9441
X-0.0506 Y90.9487
X0.0045 Y90.95
X214.1275
X251.2141
X251.4077 Z-9.0001
X251.6013 Z-9.0004
X251.7948 Z-9.0008
X251.9884 Z-9.0015
X252.182 Z-9.0023
X252.3755 Z-9.0033
X252.5691 Z-9.0045
X252.7627 Z-9.0058
X252.9563 Z-9.0073
X253.1499 Z-9.009
X253.3434 Z-9.0109
X253.537 Z-9.0129
X253.7306 Z-9.0151
X253.9241 Z-9.0174
X254.1177 Z-9.0199
X254.3113 Z-9.0225
X254.5049 Z-9.0253
X254.6984 Z-9.0283
X254.892 Z-9.0314
X255.0856 Z-9.0347
X255.2792 Z-9.0381
X255.4727 Z-9.0416
X255.6663 Z-9.0453
X255.8599 Z-9.0491
X256.0535 Z-9.0531
X256.247 Z-9.0572
X256.4406 Z-9.0614
X256.6342 Z-9.0658
X256.8278 Z-9.0702
X257.0213 Z-9.0749
X257.2149 Z-9.0796
X257.4085 Z-9.0845
X257.6021 Z-9.0894
X257.6989 Z-9.092
X257.7957 Z-9.0945
X257.8924 Z-9.0971
X257.9892 Z-9.0997
X258.086 Z-9.1024
X258.1828 Z-9.1051
X258.2796 Z-9.1078
X258.3764 Z-9.1105
X258.4731 Z-9.1133
X258.5699 Z-9.1161
X258.6667 Z-9.1189
X258.7635 Z-9.1217
X258.8603 Z-9.1246
X258.9571 Z-9.1275
X259.0539 Z-9.1304
X259.1507 Z-9.1334
X259.2474 Z-9.1363
X259.3442 Z-9.1393
X259.441 Z-9.1424
X259.5378 Z-9.1454
X259.6346 Z-9.1485
X259.7314 Z-9.1516
X259.8282 Z-9.1547
X259.925 Z-9.1578
X260.0218 Z-9.161
X260.1185 Z-9.1642
X260.2153 Z-9.1674
X260.3121 Z-9.1706
X260.4089 Z-9.1739
X260.5057 Z-9.1772
X260.6025 Z-9.1805
X260.6992 Z-9.1838
X260.7961 Z-9.1871
X260.9896 Z-9.1939
X261.0864 Z-9.1972
X261.1832 Z-9.2006
X261.28 Z-9.204
X261.3768 Z-9.2074
X261.4736 Z-9.2108
X261.5703 Z-9.2141
X261.6671 Z-9.2175
X261.7639 Z-9.2209
X261.8607 Z-9.2243
X261.9575 Z-9.2277
X262.0543 Z-9.231
X262.1511 Z-9.2344
X262.3446 Z-9.2412
X262.635 Z-9.2513
X262.9254 Z-9.2614
X263.2157 Z-9.2716
X263.5061 Z-9.2817
X263.7964 Z-9.2919
X264.0868 Z-9.302
X264.3772 Z-9.3121
X264.6675 Z-9.3223
X264.9579 Z-9.3324
X265.2483 Z-9.3426
X265.7322 Z-9.3595
X266.2161 Z-9.3764
X266.7001 Z-9.3933
X267.3776 Z-9.4169
X268.2487 Z-9.4473
X269.7005 Z-9.498
X276.6692 Z-9.7413
X276.9595 Z-9.7515
X277.2499 Z-9.7616
X277.3467 Z-9.765
X277.4435 Z-9.7684
X277.5403 Z-9.7717
X277.6371 Z-9.7751
X277.7338 Z-9.7785
X277.8306 Z-9.7819
X277.9274 Z-9.7853
X278.0242 Z-9.7886
X278.121 Z-9.792
X278.2178 Z-9.7954
X278.3145 Z-9.7988
X278.4113 Z-9.8022
X278.5081 Z-9.8055
X278.6049 Z-9.8089
X278.7017 Z-9.8123
X278.7985 Z-9.8156
X278.8953 Z-9.819
X278.9921 Z-9.8223
X279.0889 Z-9.8255
X279.1856 Z-9.8288
X279.2824 Z-9.832
X279.3792 Z-9.8353
X279.476 Z-9.8385
X279.5728 Z-9.8416
X279.6696 Z-9.8448
X279.7664 Z-9.8479
X279.8632 Z-9.851
X279.9599 Z-9.8541
X280.0567 Z-9.8571
X280.1535 Z-9.8601
X280.2503 Z-9.8631
X280.3471 Z-9.8661
X280.4439 Z-9.8691
X280.5407 Z-9.872
X280.6375 Z-9.8749
X280.7343 Z-9.8778
X280.831 Z-9.8806
X280.9278 Z-9.8834
X281.0246 Z-9.8862
X281.1214 Z-9.889
X281.2182 Z-9.8917
X281.315 Z-9.8945
X281.4117 Z-9.8971
X281.5085 Z-9.8998
X281.6053 Z-9.9024
X281.7021 Z-9.905
X281.7989 Z-9.9076
X281.8957 Z-9.9101
X281.9925 Z-9.9126
X282.186 Z-9.9176
X282.3796 Z-9.9224
X282.5732 Z-9.9271
X282.7668 Z-9.9316
X282.9604 Z-9.9361
X283.1539 Z-9.9404
X283.3475 Z-9.9445
X283.5411 Z-9.9486
X283.7346 Z-9.9525
X283.9282 Z-9.9562
X284.1218 Z-9.9599
X284.3154 Z-9.9634
X284.5089 Z-9.9667
X284.7025 Z-9.9699
X284.8961 Z-9.9729
X285.0897 Z-9.9758
X285.2832 Z-9.9786
X285.4768 Z-9.9812
X285.6704 Z-9.9836
X285.864 Z-9.9859
X286.0576 Z-9.988
X286.2511 Z-9.9899
X286.4447 Z-9.9917
X286.6383 Z-9.9933
X286.8318 Z-9.9948
X287.0254 Z-9.996
X287.219 Z-9.9971
X287.4126 Z-9.9981
X287.6061 Z-9.9988
X287.7997 Z-9.9994
X287.9933 Z-9.9998
X288.1869 Z-10
X288.3007
X351.9955
X352.0506 Y90.9487
X352.1057 Y90.9441
X352.1607 Y90.9363
X352.2157 Y90.9252
X352.2708 Y90.9106
X352.3258 Y90.8924
X352.3597 Y90.8793
X352.3978 Y90.8627
X352.4359 Y90.8441
X352.491 Y90.8133
X352.5461 Y90.7774
X352.5575 Y90.7693
X352.6068 Y90.731
X352.6561 Y90.687
X352.6841 Y90.6592
X352.728 Y90.6104
X352.7662 Y90.5616
X352.7752 Y90.5492
X352.8114 Y90.4942
X352.8424 Y90.4392
X352.8763 Y90.3669
X352.8912 Y90.3292
X352.9096 Y90.2742
X352.9244 Y90.2191
X352.9357 Y90.1641
X352.9438 Y90.1091
X352.9485 Y90.0541
X352.95 Y89.9991
Y0.0009
X352.9485 Y-0.0541
X352.9438 Y-0.1091
X352.9357 Y-0.1641
X352.9244 Y-0.2191
X352.9096 Y-0.2742
X352.8912 Y-0.3292
X352.8763 Y-0.3668
X352.8424 Y-0.4392
X352.8114 Y-0.4942
X352.7752 Y-0.5492
X352.7662 Y-0.5616
X352.728 Y-0.6104
X352.6841 Y-0.6592
X352.6561 Y-0.687
X352.6068 Y-0.731
X352.5575 Y-0.7693
X352.5461 Y-0.7774
X352.491 Y-0.8133
X352.4359 Y-0.8441
X352.3978 Y-0.8627
X352.3597 Y-0.8793
X352.3258 Y-0.8924
X352.2708 Y-0.9106
X352.2157 Y-0.9252
X352.1607 Y-0.9363
X352.1057 Y-0.9441
X352.0506 Y-0.9487
X351.9955 Y-0.95
X25.3276
X0.0045
X-0.0506 Y-0.9487
X-0.1056 Y-0.9441
X-0.1607 Y-0.9363
X-0.2157 Y-0.9252
X-0.2708 Y-0.9106
X-0.3258 Y-0.8924
X-0.3597 Y-0.8793
X-0.3978 Y-0.8627
X-0.4359 Y-0.8441
X-0.491 Y-0.8133
X-0.546 Y-0.7774
X-0.5574 Y-0.7693
X-0.6068 Y-0.731
X-0.6561 Y-0.687
X-0.684 Y-0.6592
X-0.7279 Y-0.6104
X-0.7662 Y-0.5616
X-0.7752 Y-0.5492
X-0.8113 Y-0.4942
X-0.8424 Y-0.4392
X-0.8763 Y-0.3668
X-0.8911 Y-0.3292
X-0.9096 Y-0.2742
X-0.9244 Y-0.2191
X-0.9357 Y-0.1641
X-0.9437 Y-0.1091
X-0.9485 Y-0.0541
X-0.95 Y0.0009
Y89.9991
X-0.9485 Y90.0541
X-0.9437 Y90.1091
X-0.9357 Y90.1641
X-0.9244 Y90.2191
X-0.9096 Y90.2742
X-0.8911 Y90.3292
X-0.8763 Y90.3669
X-0.8424 Y90.4392
X-0.8113 Y90.4942
X-0.7752 Y90.5492
X-0.7662 Y90.5616
X-0.7279 Y90.6104
X-0.684 Y90.6592
X-0.6561 Y90.687
X-0.6068 Y90.731
X-0.5574 Y90.7693
X-0.546 Y90.7774
X-0.491 Y90.8133
X-0.4359 Y90.8441
X-0.3978 Y90.8627
X-0.3597 Y90.8793
X-0.3258 Y90.8924
X-0.2708 Y90.9106
X-0.2157 Y90.9252
X-0.1607 Y90.9363
X-0.1056 Y90.9441
X-0.0506 Y90.9487
X0.0045 Y90.95
X251.2141
X288.3007
X288.4942 Z-10.0001
X288.6878 Z-10.0004
X288.8814 Z-10.0008
X289.075 Z-10.0015
X289.2686 Z-10.0023
X289.4621 Z-10.0033
X289.6557 Z-10.0045
X289.8493 Z-10.0058
X290.0428 Z-10.0073
X290.2364 Z-10.009
X290.43 Z-10.0109
X290.6236 Z-10.0129
X290.8171 Z-10.0151
X291.0107 Z-10.0174
X291.2043 Z-10.0199
X291.3979 Z-10.0225
X291.5914 Z-10.0253
X291.785 Z-10.0283
X291.9786 Z-10.0314
X292.1721 Z-10.0347
X292.3657 Z-10.0381
X292.5593 Z-10.0416
X292.7529 Z-10.0453
X292.9465 Z-10.0491
X293.14 Z-10.0531
X293.3336 Z-10.0572
X293.5272 Z-10.0614
X293.7208 Z-10.0658
X293.9143 Z-10.0702
X294.1079 Z-10.0749
X294.3015 Z-10.0796
X294.4951 Z-10.0845
X294.6886 Z-10.0894
X294.7854 Z-10.092
X294.8822 Z-10.0945
X294.979 Z-10.0971
X295.0758 Z-10.0997
X295.1726 Z-10.1024
X295.2693 Z-10.1051
X295.3661 Z-10.1078
X295.4629 Z-10.1105
X295.5597 Z-10.1133
X295.6565 Z-10.1161
X295.7533 Z-10.1189
X295.8501 Z-10.1217
X295.9469 Z-10.1246
X296.0436 Z-10.1275
X296.1404 Z-10.1304
X296.2372 Z-10.1334
X296.334 Z-10.1363
X296.4308 Z-10.1393
X296.5276 Z-10.1424
X296.6244 Z-10.1454
X296.7212 Z-10.1485
X296.818 Z-10.1516
X296.9147 Z-10.1547
X297.0115 Z-10.1578
X297.1083 Z-10.161
X297.2051 Z-10.1642
X297.3019 Z-10.1674
X297.3987 Z-10.1706
X297.4955 Z-10.1739
X297.5923 Z-10.1772
X297.689 Z-10.1805
X297.7858 Z-10.1838
X297.8826 Z-10.1871
X298.0762 Z-10.1939
X298.173 Z-10.1972
X298.2698 Z-10.2006
X298.3665 Z-10.204
X298.4633 Z-10.2074
X298.5601 Z-10.2108
X298.6569 Z-10.2141
X298.7537 Z-10.2175
X298.8505 Z-10.2209
X298.9473 Z-10.2243
X299.0441 Z-10.2277
X299.1408 Z-10.231
X299.2376 Z-10.2344
X299.4312 Z-10.2412
X299.7216 Z-10.2513
X300.0119 Z-10.2614
X300.3023 Z-10.2716
X300.5927 Z-10.2817
X300.883 Z-10.2919
X301.1734 Z-10.302
X301.4637 Z-10.3121
X301.7541 Z-10.3223
X302.0445 Z-10.3324
X302.3348 Z-10.3426
X302.8188 Z-10.3595
X303.3027 Z-10.3764
X303.7867 Z-10.3933
X304.4641 Z-10.4169
X305.3352 Z-10.4473
X306.787 Z-10.498
X313.7557 Z-10.7413
X314.0461 Z-10.7515
X314.3365 Z-10.7616
X314.4333 Z-10.765
X314.53 Z-10.7684
X314.6268 Z-10.7717
X314.7236 Z-10.7751
X314.8204 Z-10.7785
X314.9172 Z-10.7819
X315.014 Z-10.7853
X315.1107 Z-10.7886
X315.2076 Z-10.792
X315.3043 Z-10.7954
X315.4011 Z-10.7988
X315.4979 Z-10.8022
X315.5947 Z-10.8055
X315.6915 Z-10.8089
X315.7883 Z-10.8123
X315.8851 Z-10.8156
X315.9818 Z-10.819
X316.0786 Z-10.8223
X316.1754 Z-10.8255
X316.2722 Z-10.8288
X316.369 Z-10.832
X316.4658 Z-10.8353
X316.5626 Z-10.8385
X316.6594 Z-10.8416
X316.7561 Z-10.8448
X316.8529 Z-10.8479
X316.9497 Z-10.851
X317.0465 Z-10.8541
X317.1433 Z-10.8571
X317.2401 Z-10.8601
X317.3369 Z-10.8631
X317.4337 Z-10.8661
X317.5305 Z-10.8691
X317.6272 Z-10.872
X317.724 Z-10.8749
X317.8208 Z-10.8778
X317.9176 Z-10.8806
X318.0144 Z-10.8834
X318.1112 Z-10.8862
X318.2079 Z-10.889
X318.3047 Z-10.8917
X318.4015 Z-10.8945
X318.4983 Z-10.8971
X318.5951 Z-10.8998
X318.6919 Z-10.9024
X318.7887 Z-10.905
X318.8855 Z-10.9076
X318.9822 Z-10.9101
X319.079 Z-10.9126
X319.2726 Z-10.9176
X319.4662 Z-10.9224
X319.6598 Z-10.9271
X319.8533 Z-10.9316
X320.0469 Z-10.9361
X320.2405 Z-10.9404
X320.4341 Z-10.9445
X320.6276 Z-10.9486
X320.8212 Z-10.9525
X321.0148 Z-10.9562
X321.2084 Z-10.9599
X321.4019 Z-10.9634
X321.5955 Z-10.9667
X321.7891 Z-10.9699
X321.9827 Z-10.9729
X322.1762 Z-10.9758
X322.3698 Z-10.9786
X322.5634 Z-10.9812
X322.757 Z-10.9836
X322.9505 Z-10.9859
X323.1441 Z-10.988
X323.3377 Z-10.9899
X323.5313 Z-10.9917
X323.7248 Z-10.9933
X323.9184 Z-10.9948
X324.112 Z-10.996
X324.3055 Z-10.9971
X324.4991 Z-10.9981
X324.6927 Z-10.9988
X324.8863 Z-10.9994
X325.0799 Z-10.9998
X325.2734 Z-11
X325.3872
X351.9955
X352.0506 Y90.9487
X352.1057 Y90.9441
X352.1607 Y90.9363
X352.2157 Y90.9252
X352.2708 Y90.9106
X352.3258 Y90.8924
X352.3597 Y90.8793
X352.3978 Y90.8627
X352.4359 Y90.8441
X352.491 Y90.8133
X352.5461 Y90.7774
X352.5575 Y90.7693
X352.6068 Y90.731
X352.6561 Y90.687
X352.6841 Y90.6592
X352.728 Y90.6104
X352.7662 Y90.5616
X352.7752 Y90.5492
X352.8114 Y90.4942
X352.8424 Y90.4392
X352.8763 Y90.3669
X352.8912 Y90.3292
X352.9096 Y90.2742
X352.9244 Y90.2191
X352.9357 Y90.1641
X352.9438 Y90.1091
X352.9485 Y90.0541
X352.95 Y89.9991
Y0.0009
X352.9485 Y-0.0541
X352.9438 Y-0.1091
X352.9357 Y-0.1641
X352.9244 Y-0.2191
X352.9096 Y-0.2742
X352.8912 Y-0.3292
X352.8763 Y-0.3668
X352.8424 Y-0.4392
X352.8114 Y-0.4942
X352.7752 Y-0.5492
X352.7662 Y-0.5616
X352.728 Y-0.6104
X352.6841 Y-0.6592
X352.6561 Y-0.687
X352.6068 Y-0.731
X352.5575 Y-0.7693
X352.5461 Y-0.7774
X352.491 Y-0.8133
X352.4359 Y-0.8441
X352.3978 Y-0.8627
X352.3597 Y-0.8793
X352.3258 Y-0.8924
X352.2708 Y-0.9106
X352.2157 Y-0.9252
X352.1607 Y-0.9363
X352.1057 Y-0.9441
X352.0506 Y-0.9487
X351.9955 Y-0.95
X25.3276
X0.0045
X-0.0506 Y-0.9487
X-0.1056 Y-0.9441
X-0.1607 Y-0.9363
X-0.2157 Y-0.9252
X-0.2708 Y-0.9106
X-0.3258 Y-0.8924
X-0.3597 Y-0.8793
X-0.3978 Y-0.8627
X-0.4359 Y-0.8441
X-0.491 Y-0.8133
X-0.546 Y-0.7774
X-0.5574 Y-0.7693
X-0.6068 Y-0.731
X-0.6561 Y-0.687
X-0.684 Y-0.6592
X-0.7279 Y-0.6104
X-0.7662 Y-0.5616
X-0.7752 Y-0.5492
X-0.8113 Y-0.4942
X-0.8424 Y-0.4392
X-0.8763 Y-0.3668
X-0.8911 Y-0.3292
X-0.9096 Y-0.2742
X-0.9244 Y-0.2191
X-0.9357 Y-0.1641
X-0.9437 Y-0.1091
X-0.9485 Y-0.0541
X-0.95 Y0.0009
Y89.9991
X-0.9485 Y90.0541
X-0.9437 Y90.1091
X-0.9357 Y90.1641
X-0.9244 Y90.2191
X-0.9096 Y90.2742
X-0.8911 Y90.3292
X-0.8763 Y90.3669
X-0.8424 Y90.4392
X-0.8113 Y90.4942
X-0.7752 Y90.5492
X-0.7662 Y90.5616
X-0.7279 Y90.6104
X-0.684 Y90.6592
X-0.6561 Y90.687
X-0.6068 Y90.731
X-0.5574 Y90.7693
X-0.546 Y90.7774
X-0.491 Y90.8133
X-0.4359 Y90.8441
X-0.3978 Y90.8627
X-0.3597 Y90.8793
X-0.3258 Y90.8924
X-0.2708 Y90.9106
X-0.2157 Y90.9252
X-0.1607 Y90.9363
X-0.1056 Y90.9441
X-0.0506 Y90.9487
X0.0045 Y90.95
X288.3007
X325.3872
X325.5808 Z-11.0001
X325.7744 Z-11.0004
X325.968 Z-11.0008
X326.1615 Z-11.0015
X326.3551 Z-11.0023
X326.5487 Z-11.0033
X326.7422 Z-11.0045
X326.9358 Z-11.0058
X327.1294 Z-11.0073
X327.323 Z-11.009
X327.5165 Z-11.0109
X327.7101 Z-11.0129
X327.9037 Z-11.0151
X328.0973 Z-11.0174
X328.2909 Z-11.0199
X328.4844 Z-11.0225
X328.678 Z-11.0253
X328.8716 Z-11.0283
X329.0652 Z-11.0314
X329.2587 Z-11.0347
X329.4523 Z-11.0381
X329.6459 Z-11.0416
X329.8394 Z-11.0453
X330.033 Z-11.0491
X330.2266 Z-11.0531
X330.4202 Z-11.0572
X330.6137 Z-11.0614
X330.8073 Z-11.0658
X331.0009 Z-11.0702
X331.1945 Z-11.0749
X331.388 Z-11.0796
X331.5816 Z-11.0845
X331.7752 Z-11.0894
X331.872 Z-11.092
X331.9688 Z-11.0945
X332.0656 Z-11.0971
X332.1624 Z-11.0997
X332.2591 Z-11.1024
X332.3559 Z-11.1051
X332.4527 Z-11.1078
X332.5495 Z-11.1105
X332.6463 Z-11.1133
X332.7431 Z-11.1161
X332.8398 Z-11.1189
X332.9366 Z-11.1217
X333.0334 Z-11.1246
X333.1302 Z-11.1275
X333.227 Z-11.1304
X333.3238 Z-11.1334
X333.4206 Z-11.1363
X333.5174 Z-11.1393
X333.6142 Z-11.1424
X333.7109 Z-11.1454
X333.8077 Z-11.1485
X333.9045 Z-11.1516
X334.0013 Z-11.1547
X334.0981 Z-11.1578
X334.1949 Z-11.161
X334.2917 Z-11.1642
X334.3885 Z-11.1674
X334.4852 Z-11.1706
X334.582 Z-11.1739
X334.6788 Z-11.1772
X334.7756 Z-11.1805
X334.8724 Z-11.1838
X334.9692 Z-11.1871
X335.1628 Z-11.1939
X335.2596 Z-11.1972
X335.3563 Z-11.2006
X335.4531 Z-11.204
X335.5499 Z-11.2074
X335.6467 Z-11.2108
X335.7435 Z-11.2141
X335.8403 Z-11.2175
X335.937 Z-11.2209
X336.0338 Z-11.2243
X336.1306 Z-11.2277
X336.2274 Z-11.231
X336.3242 Z-11.2344
X336.5178 Z-11.2412
X336.8081 Z-11.2513
X337.0985 Z-11.2614
X337.3889 Z-11.2716
X337.6792 Z-11.2817
X337.9696 Z-11.2919
X338.2599 Z-11.302
X338.5503 Z-11.3121
X338.8407 Z-11.3223
X339.131 Z-11.3324
X339.4214 Z-11.3426
X339.9053 Z-11.3595
X340.3893 Z-11.3764
X340.8732 Z-11.3933
X341.5507 Z-11.4169
X342.4218 Z-11.4473
X343.8736 Z-11.498
X350.8423 Z-11.7413
X351.1327 Z-11.7515
X351.423 Z-11.7616
X351.5198 Z-11.765
X351.6166 Z-11.7684
X351.7134 Z-11.7717
X351.8102 Z-11.7751
X351.907 Z-11.7785
X352.0037 Z-11.7819
X352.0521 Y90.9486 Z-11.7836
X352.1004 Y90.9447 Z-11.7853
X352.1483 Y90.9384 Z-11.7869
X352.1959 Y90.9296 Z-11.7886
X352.243 Y90.9184 Z-11.7903
X352.2895 Y90.9048 Z-11.792
X352.3352 Y90.8889 Z-11.7937
X352.38 Y90.8707 Z-11.7954
X352.4239 Y90.8502 Z-11.7971
X352.4666 Y90.8275 Z-11.7987
X352.5081 Y90.8027 Z-11.8004
X352.5484 Y90.7758 Z-11.8021
X352.5872 Y90.7468 Z-11.8038
X352.6244 Y90.716 Z-11.8055
X352.6601 Y90.6832 Z-11.8072
X352.694 Y90.6487 Z-11.8089
X352.7262 Y90.6126 Z-11.8106
X352.7564 Y90.5748 Z-11.8122
X352.7847 Y90.5355 Z-11.8139
X352.811 Y90.4949 Z-11.8156
X352.8351 Y90.4529 Z-11.8173
X352.8571 Y90.4098 Z-11.8189
X352.8769 Y90.3656 Z-11.8206
X352.8943 Y90.3205 Z-11.8222
X352.9095 Y90.2745 Z-11.8239
X352.9223 Y90.2279 Z-11.8255
X352.9327 Y90.1806 Z-11.8271
X352.9407 Y90.1329 Z-11.8288
X352.9462 Y90.0848 Z-11.8304
X352.9493 Y90.0365 Z-11.832
X352.95 Y89.9397 Z-11.8352
Y89.8429 Z-11.8384
Y89.7461 Z-11.8416
Y89.6493 Z-11.8447
Y89.5526 Z-11.8479
Y89.4558 Z-11.851
Y89.359 Z-11.854
Y89.2622 Z-11.8571
Y89.1654 Z-11.8601
Y89.0686 Z-11.8631
Y88.9718 Z-11.8661
Y88.875 Z-11.869
Y88.7783 Z-11.872
Y88.6815 Z-11.8749
Y88.5847 Z-11.8777
Y88.4879 Z-11.8806
Y88.3911 Z-11.8834
Y88.2943 Z-11.8862
Y88.1975 Z-11.889
Y88.1007 Z-11.8917
Y88.004 Z-11.8944
Y87.9072 Z-11.8971
Y87.8104 Z-11.8998
Y87.7136 Z-11.9024
Y87.6168 Z-11.905
Y87.52 Z-11.9076
Y87.4232 Z-11.9101
Y87.3264 Z-11.9126
Y87.1329 Z-11.9175
Y86.9393 Z-11.9223
Y86.7457 Z-11.927
Y86.5521 Z-11.9316
Y86.3586 Z-11.936
Y86.165 Z-11.9403
Y85.9714 Z-11.9445
Y85.7778 Z-11.9486
Y85.5843 Z-11.9525
Y85.3907 Z-11.9562
Y85.1971 Z-11.9599
Y85.0036 Z-11.9633
Y84.81 Z-11.9667
Y84.6164 Z-11.9699
Y84.4228 Z-11.9729
Y84.2293 Z-11.9758
Y84.0357 Z-11.9786
Y83.8421 Z-11.9811
Y83.6485 Z-11.9836
Y83.455 Z-11.9858
Y83.2614 Z-11.988
Y83.0678 Z-11.9899
Y82.8742 Z-11.9917
Y82.6807 Z-11.9933
Y82.4871 Z-11.9948
Y82.2935 Z-11.996
Y82.0999 Z-11.9971
Y81.9064 Z-11.9981
Y81.7128 Z-11.9988
Y81.5192 Z-11.9994
Y81.3256 Z-11.9998
Y81.1321 Z-12
Y81.017
Y0.0009
X352.9485 Y-0.0541
X352.9438 Y-0.1091
X352.9357 Y-0.1641
X352.9244 Y-0.2191
X352.9096 Y-0.2742
X352.8912 Y-0.3292
X352.8763 Y-0.3668
X352.8424 Y-0.4392
X352.8114 Y-0.4942
X352.7752 Y-0.5492
X352.7662 Y-0.5616
X352.728 Y-0.6104
X352.6841 Y-0.6592
X352.6561 Y-0.687
X352.6068 Y-0.731
X352.5575 Y-0.7693
X352.5461 Y-0.7774
X352.491 Y-0.8133
X352.4359 Y-0.8441
X352.3978 Y-0.8627
X352.3597 Y-0.8793
X352.3258 Y-0.8924
X352.2708 Y-0.9106
X352.2157 Y-0.9252
X352.1607 Y-0.9363
X352.1057 Y-0.9441
X352.0506 Y-0.9487
X351.9955 Y-0.95
X25.3276
X0.0045
X-0.0506 Y-0.9487
X-0.1056 Y-0.9441
X-0.1607 Y-0.9363
X-0.2157 Y-0.9252
X-0.2708 Y-0.9106
X-0.3258 Y-0.8924
X-0.3597 Y-0.8793
X-0.3978 Y-0.8627
X-0.4359 Y-0.8441
X-0.491 Y-0.8133
X-0.546 Y-0.7774
X-0.5574 Y-0.7693
X-0.6068 Y-0.731
X-0.6561 Y-0.687
X-0.684 Y-0.6592
X-0.7279 Y-0.6104
X-0.7662 Y-0.5616
X-0.7752 Y-0.5492
X-0.8113 Y-0.4942
X-0.8424 Y-0.4392
X-0.8763 Y-0.3668
X-0.8911 Y-0.3292
X-0.9096 Y-0.2742
X-0.9244 Y-0.2191
X-0.9357 Y-0.1641
X-0.9437 Y-0.1091
X-0.9485 Y-0.0541
X-0.95 Y0.0009
Y89.9991
X-0.9485 Y90.0541
X-0.9437 Y90.1091
X-0.9357 Y90.1641
X-0.9244 Y90.2191
X-0.9096 Y90.2742
X-0.8911 Y90.3292
X-0.8763 Y90.3669
X-0.8424 Y90.4392
X-0.8113 Y90.4942
X-0.7752 Y90.5492
X-0.7662 Y90.5616
X-0.7279 Y90.6104
X-0.684 Y90.6592
X-0.6561 Y90.687
X-0.6068 Y90.731
X-0.5574 Y90.7693
X-0.546 Y90.7774
X-0.491 Y90.8133
X-0.4359 Y90.8441
X-0.3978 Y90.8627
X-0.3597 Y90.8793
X-0.3258 Y90.8924
X-0.2708 Y90.9106
X-0.2157 Y90.9252
X-0.1607 Y90.9363
X-0.1056 Y90.9441
X-0.0506 Y90.9487
X0.0045 Y90.95
X325.3872
X351.9955
X352.0506 Y90.9487
X352.1057 Y90.9441
X352.1607 Y90.9363
X352.2157 Y90.9252
X352.2708 Y90.9106
X352.3258 Y90.8924
X352.3597 Y90.8793
X352.3978 Y90.8627
X352.4359 Y90.8441
X352.491 Y90.8133
X352.5461 Y90.7774
X352.5575 Y90.7693
X352.6068 Y90.731
X352.6561 Y90.687
X352.6841 Y90.6592
X352.728 Y90.6104
X352.7662 Y90.5616
X352.7752 Y90.5492
X352.8114 Y90.4942
X352.8424 Y90.4392
X352.8763 Y90.3669
X352.8912 Y90.3292
X352.9096 Y90.2742
X352.9244 Y90.2191
X352.9357 Y90.1641
X352.9438 Y90.1091
X352.9485 Y90.0541
X352.95 Y89.9991
Y81.017
Y80.8235 Z-12.0001
Y80.6299 Z-12.0004
Y80.4363 Z-12.0008
Y80.2427 Z-12.0015
Y80.0492 Z-12.0023
Y79.8556 Z-12.0033
Y79.662 Z-12.0045
Y79.4684 Z-12.0058
Y79.2749 Z-12.0073
Y79.0813 Z-12.009
Y78.8877 Z-12.0109
Y78.6941 Z-12.0129
Y78.5006 Z-12.0151
Y78.307 Z-12.0174
Y78.1134 Z-12.0199
Y77.9198 Z-12.0225
Y77.7263 Z-12.0253
Y77.5327 Z-12.0283
Y77.3391 Z-12.0314
Y77.1455 Z-12.0347
Y76.952 Z-12.0381
Y76.7584 Z-12.0416
Y76.5648 Z-12.0453
Y76.3712 Z-12.0491
Y76.1777 Z-12.0531
Y75.9841 Z-12.0572
Y75.7905 Z-12.0614
Y75.5969 Z-12.0658
Y75.4034 Z-12.0702
Y75.2098 Z-12.0749
Y75.0162 Z-12.0796
Y74.8226 Z-12.0845
Y74.6291 Z-12.0894
Y74.5323 Z-12.092
Y74.4355 Z-12.0945
Y74.3387 Z-12.0971
Y74.2419 Z-12.0997
Y74.1451 Z-12.1024
Y74.0483 Z-12.1051
Y73.9516 Z-12.1078
Y73.8548 Z-12.1105
Y73.758 Z-12.1133
Y73.6612 Z-12.1161
Y73.5644 Z-12.1189
Y73.4676 Z-12.1217
Y73.3708 Z-12.1246
Y73.274 Z-12.1275
Y73.1773 Z-12.1304
Y73.0805 Z-12.1334
Y72.9837 Z-12.1363
Y72.8869 Z-12.1393
Y72.7901 Z-12.1424
Y72.6933 Z-12.1454
Y72.5965 Z-12.1485
Y72.4997 Z-12.1516
Y72.403 Z-12.1547
Y72.3062 Z-12.1578
Y72.2094 Z-12.161
Y72.1126 Z-12.1642
Y72.0158 Z-12.1674
Y71.919 Z-12.1706
Y71.8222 Z-12.1739
Y71.7254 Z-12.1772
Y71.6287 Z-12.1805
Y71.5319 Z-12.1838
Y71.4351 Z-12.1871
Y71.2415 Z-12.1939
Y71.1447 Z-12.1972
Y71.0479 Z-12.2006
Y70.9512 Z-12.204
Y70.8544 Z-12.2074
Y70.7576 Z-12.2108
Y70.6608 Z-12.2141
Y70.564 Z-12.2175
Y70.4672 Z-12.2209
Y70.3704 Z-12.2243
Y70.2736 Z-12.2277
Y70.1769 Z-12.231
Y70.0801 Z-12.2344
Y69.8865 Z-12.2412
Y69.5961 Z-12.2513
Y69.3058 Z-12.2614
Y69.0154 Z-12.2716
Y68.725 Z-12.2817
Y68.4347 Z-12.2919
Y68.1443 Z-12.302
Y67.854 Z-12.3121
Y67.5636 Z-12.3223
Y67.2732 Z-12.3324
Y66.9829 Z-12.3426
Y66.4989 Z-12.3595
Y66.015 Z-12.3764
Y65.5311 Z-12.3933
Y64.8536 Z-12.4169
Y63.9825 Z-12.4473
Y62.5307 Z-12.498
Y55.562 Z-12.7413
Y55.2716 Z-12.7515
Y54.9812 Z-12.7616
Y54.8845 Z-12.765
Y54.7877 Z-12.7684
Y54.6909 Z-12.7717
Y54.5941 Z-12.7751
Y54.4973 Z-12.7785
Y54.4005 Z-12.7819
Y54.3037 Z-12.7853
Y54.2069 Z-12.7886
Y54.1102 Z-12.792
Y54.0134 Z-12.7954
Y53.9166 Z-12.7988
Y53.8198 Z-12.8022
Y53.723 Z-12.8055
Y53.6262 Z-12.8089
Y53.5294 Z-12.8123
Y53.4326 Z-12.8156
Y53.3359 Z-12.819
Y53.2391 Z-12.8223
Y53.1423 Z-12.8255
Y53.0455 Z-12.8288
Y52.9487 Z-12.832
Y52.8519 Z-12.8353
Y52.7551 Z-12.8385
Y52.6583 Z-12.8416
Y52.5616 Z-12.8448
Y52.4648 Z-12.8479
Y52.368 Z-12.851
Y52.2712 Z-12.8541
Y52.1744 Z-12.8571
Y52.0776 Z-12.8601
Y51.9808 Z-12.8631
Y51.884 Z-12.8661
Y51.7873 Z-12.8691
Y51.6905 Z-12.872
Y51.5937 Z-12.8749
Y51.4969 Z-12.8778
Y51.4001 Z-12.8806
Y51.3033 Z-12.8834
Y51.2065 Z-12.8862
Y51.1097 Z-12.889
Y51.013 Z-12.8917
Y50.9162 Z-12.8945
Y50.8194 Z-12.8971
Y50.7226 Z-12.8998
Y50.6258 Z-12.9024
Y50.529 Z-12.905
Y50.4322 Z-12.9076
Y50.3354 Z-12.9101
Y50.2387 Z-12.9126
Y50.0451 Z-12.9176
Y49.8515 Z-12.9224
Y49.6579 Z-12.9271
Y49.4644 Z-12.9316
Y49.2708 Z-12.9361
Y49.0772 Z-12.9404
Y48.8836 Z-12.9445
Y48.6901 Z-12.9486
Y48.4965 Z-12.9525
Y48.3029 Z-12.9562
Y48.1093 Z-12.9599
Y47.9158 Z-12.9634
Y47.7222 Z-12.9667
Y47.5286 Z-12.9699
Y47.335 Z-12.9729
Y47.1415 Z-12.9758
Y46.9479 Z-12.9786
Y46.7543 Z-12.9812
Y46.5607 Z-12.9836
Y46.3672 Z-12.9859
Y46.1736 Z-12.988
Y45.98 Z-12.9899
Y45.7864 Z-12.9917
Y45.5929 Z-12.9933
Y45.3993 Z-12.9948
Y45.2057 Z-12.996
Y45.0121 Z-12.9971
Y44.8186 Z-12.9981
Y44.625 Z-12.9988
Y44.4314 Z-12.9994
Y44.2379 Z-12.9998
Y44.0443 Z-13
Y43.9305
Y0.0009
X352.9485 Y-0.0541
X352.9438 Y-0.1091
X352.9357 Y-0.1641
X352.9244 Y-0.2191
X352.9096 Y-0.2742
X352.8912 Y-0.3292
X352.8763 Y-0.3668
X352.8424 Y-0.4392
X352.8114 Y-0.4942
X352.7752 Y-0.5492
X352.7662 Y-0.5616
X352.728 Y-0.6104
X352.6841 Y-0.6592
X352.6561 Y-0.687
X352.6068 Y-0.731
X352.5575 Y-0.7693
X352.5461 Y-0.7774
X352.491 Y-0.8133
X352.4359 Y-0.8441
X352.3978 Y-0.8627
X352.3597 Y-0.8793
X352.3258 Y-0.8924
X352.2708 Y-0.9106
X352.2157 Y-0.9252
X352.1607 Y-0.9363
X352.1057 Y-0.9441
X352.0506 Y-0.9487
X351.9955 Y-0.95
X25.3276
X0.0045
X-0.0506 Y-0.9487
X-0.1056 Y-0.9441
X-0.1607 Y-0.9363
X-0.2157 Y-0.9252
X-0.2708 Y-0.9106
X-0.3258 Y-0.8924
X-0.3597 Y-0.8793
X-0.3978 Y-0.8627
X-0.4359 Y-0.8441
X-0.491 Y-0.8133
X-0.546 Y-0.7774
X-0.5574 Y-0.7693
X-0.6068 Y-0.731
X-0.6561 Y-0.687
X-0.684 Y-0.6592
X-0.7279 Y-0.6104
X-0.7662 Y-0.5616
X-0.7752 Y-0.5492
X-0.8113 Y-0.4942
X-0.8424 Y-0.4392
X-0.8763 Y-0.3668
X-0.8911 Y-0.3292
X-0.9096 Y-0.2742
X-0.9244 Y-0.2191
X-0.9357 Y-0.1641
X-0.9437 Y-0.1091
X-0.9485 Y-0.0541
X-0.95 Y0.0009
Y89.9991
X-0.9485 Y90.0541
X-0.9437 Y90.1091
X-0.9357 Y90.1641
X-0.9244 Y90.2191
X-0.9096 Y90.2742
X-0.8911 Y90.3292
X-0.8763 Y90.3669
X-0.8424 Y90.4392
X-0.8113 Y90.4942
X-0.7752 Y90.5492
X-0.7662 Y90.5616
X-0.7279 Y90.6104
X-0.684 Y90.6592
X-0.6561 Y90.687
X-0.6068 Y90.731
X-0.5574 Y90.7693
X-0.546 Y90.7774
X-0.491 Y90.8133
X-0.4359 Y90.8441
X-0.3978 Y90.8627
X-0.3597 Y90.8793
X-0.3258 Y90.8924
X-0.2708 Y90.9106
X-0.2157 Y90.9252
X-0.1607 Y90.9363
X-0.1056 Y90.9441
X-0.0506 Y90.9487
X0.0045 Y90.95
X351.9955
X352.0506 Y90.9487
X352.1057 Y90.9441
X352.1607 Y90.9363
X352.2157 Y90.9252
X352.2708 Y90.9106
X352.3258 Y90.8924
X352.3597 Y90.8793
X352.3978 Y90.8627
X352.4359 Y90.8441
X352.491 Y90.8133
X352.5461 Y90.7774
X352.5575 Y90.7693
X352.6068 Y90.731
X352.6561 Y90.687
X352.6841 Y90.6592
X352.728 Y90.6104
X352.7662 Y90.5616
X352.7752 Y90.5492
X352.8114 Y90.4942
X352.8424 Y90.4392
X352.8763 Y90.3669
X352.8912 Y90.3292
X352.9096 Y90.2742
X352.9244 Y90.2191
X352.9357 Y90.1641
X352.9438 Y90.1091
X352.9485 Y90.0541
X352.95 Y89.9991
Y43.9305
Y43.7368 Z-13.0001
Y43.5431 Z-13.0004
Y43.3494 Z-13.0009
Y43.1557 Z-13.0016
Y42.962 Z-13.0026
Y42.7683 Z-13.0037
Y42.5746 Z-13.005
Y42.3809 Z-13.0064
Y42.1872 Z-13.0081
Y41.9935 Z-13.01
Y41.7998 Z-13.012
Y41.6061 Z-13.0143
Y41.4124 Z-13.0167
Y41.2187 Z-13.0192
Y41.025 Z-13.022
Y40.8314 Z-13.0249
Y40.6377 Z-13.028
Y40.444 Z-13.0312
Y40.2503 Z-13.0346
Y40.0566 Z-13.0382
Y39.8629 Z-13.0419
Y39.6692 Z-13.0458
Y39.4755 Z-13.0499
Y39.2818 Z-13.054
Y39.0881 Z-13.0584
Y38.8944 Z-13.0628
Y38.7007 Z-13.0674
Y38.507 Z-13.0722
Y38.3133 Z-13.0771
Y38.2165 Z-13.0796
Y38.1196 Z-13.0821
Y38.0228 Z-13.0847
Y37.9259 Z-13.0873
Y37.8291 Z-13.0899
Y37.7322 Z-13.0925
Y37.6354 Z-13.0952
Y37.5385 Z-13.0979
Y37.4417 Z-13.1007
Y37.3448 Z-13.1035
Y37.248 Z-13.1063
Y37.1511 Z-13.1091
Y37.0543 Z-13.112
Y36.9575 Z-13.1149
Y36.8606 Z-13.1178
Y36.7638 Z-13.1208
Y36.6669 Z-13.1237
Y36.5701 Z-13.1267
Y36.4732 Z-13.1298
Y36.3764 Z-13.1328
Y36.2795 Z-13.1359
Y36.1827 Z-13.1391
Y36.0858 Z-13.1422
Y35.989 Z-13.1454
Y35.8921 Z-13.1486
Y35.7953 Z-13.1518
Y35.6984 Z-13.155
Y35.6016 Z-13.1583
Y35.5047 Z-13.1616
Y35.4079 Z-13.1649
Y35.3111 Z-13.1683
Y35.1174 Z-13.175
Y35.0205 Z-13.1784
Y34.9237 Z-13.1818
Y34.8268 Z-13.1852
Y34.73 Z-13.1885
Y34.6331 Z-13.1919
Y34.5363 Z-13.1953
Y34.4394 Z-13.1987
Y34.3426 Z-13.2021
Y34.2457 Z-13.2054
Y34.1489 Z-13.2088
Y34.052 Z-13.2122
Y33.9552 Z-13.2156
Y33.8583 Z-13.219
Y33.7615 Z-13.2223
Y33.6646 Z-13.2257
Y33.4709 Z-13.2325
Y33.1804 Z-13.2426
Y32.8899 Z-13.2528
Y32.5993 Z-13.2629
Y32.3088 Z-13.2731
Y32.0182 Z-13.2832
Y31.7277 Z-13.2934
Y31.4372 Z-13.3035
Y31.1466 Z-13.3137
Y30.7592 Z-13.3272
Y30.275 Z-13.3441
Y29.7907 Z-13.361
Y29.1128 Z-13.3847
Y28.2412 Z-13.4151
Y26.3042 Z-13.4827
Y24.8515 Z-13.5335
Y24.1736 Z-13.5571
Y23.6894 Z-13.574
Y23.2051 Z-13.5909
Y22.9146 Z-13.6011
Y22.624 Z-13.6112
Y22.3335 Z-13.6214
Y22.0429 Z-13.6315
Y21.7524 Z-13.6417
Y21.4619 Z-13.6518
Y21.1713 Z-13.6619
Y20.8808 Z-13.6721
Y20.7839 Z-13.6755
Y20.6871 Z-13.6788
Y20.5902 Z-13.6822
Y20.4934 Z-13.6856
Y20.3965 Z-13.689
Y20.2997 Z-13.6924
Y20.2028 Z-13.6958
Y20.106 Z-13.6991
Y20.0092 Z-13.7025
Y19.9123 Z-13.7059
Y19.8155 Z-13.7093
Y19.7186 Z-13.7127
Y19.6218 Z-13.7161
Y19.5249 Z-13.7194
Y19.4281 Z-13.7228
Y19.1375 Z-13.7329
Y19.0407 Z-13.7363
Y18.9438 Z-13.7396
Y18.847 Z-13.7429
Y18.7501 Z-13.7461
Y18.6533 Z-13.7494
Y18.5564 Z-13.7526
Y18.4596 Z-13.7558
Y18.3627 Z-13.7589
Y18.2659 Z-13.7621
Y18.1691 Z-13.7652
Y18.0722 Z-13.7682
Y17.9754 Z-13.7713
Y17.8785 Z-13.7743
Y17.7817 Z-13.7773
Y17.6848 Z-13.7803
Y17.588 Z-13.7832
Y17.4911 Z-13.7862
Y17.3943 Z-13.789
Y17.2974 Z-13.7919
Y17.2006 Z-13.7947
Y17.1037 Z-13.7975
Y17.0069 Z-13.8003
Y16.91 Z-13.803
Y16.8132 Z-13.8057
Y16.7163 Z-13.8084
Y16.6195 Z-13.8111
Y16.5226 Z-13.8137
Y16.4258 Z-13.8162
Y16.3289 Z-13.8188
Y16.2321 Z-13.8213
Y16.0384 Z-13.8262
Y15.8447 Z-13.831
Y15.651 Z-13.8357
Y15.4573 Z-13.8402
Y15.2636 Z-13.8446
Y15.0699 Z-13.8488
Y14.8762 Z-13.8529
Y14.6825 Z-13.8568
Y14.4888 Z-13.8606
Y14.2952 Z-13.8642
Y14.1015 Z-13.8677
Y13.9078 Z-13.871
Y13.7141 Z-13.8741
Y13.5204 Z-13.8771
Y13.3267 Z-13.8799
Y13.133 Z-13.8825
Y12.9393 Z-13.885
Y12.7456 Z-13.8873
Y12.5519 Z-13.8894
Y12.3582 Z-13.8913
Y12.1645 Z-13.893
Y11.9708 Z-13.8946
Y11.7771 Z-13.8959
Y11.5834 Z-13.8971
Y11.3897 Z-13.8981
Y11.196 Z-13.8989
Y11.0023 Z-13.8994
Y10.8086 Z-13.8998
Y10.6149 Z-13.9
Y10.5524
Y0.0009
X352.9485 Y-0.0541
X352.9438 Y-0.1091
X352.9357 Y-0.1641
X352.9244 Y-0.2191
X352.9096 Y-0.2742
X352.8912 Y-0.3292
X352.8763 Y-0.3668
X352.8424 Y-0.4392
X352.8114 Y-0.4942
X352.7752 Y-0.5492
X352.7662 Y-0.5616
X352.728 Y-0.6104
X352.6841 Y-0.6592
X352.6561 Y-0.687
X352.6068 Y-0.731
X352.5575 Y-0.7693
X352.5461 Y-0.7774
X352.491 Y-0.8133
X352.4359 Y-0.8441
X352.3978 Y-0.8627
X352.3597 Y-0.8793
X352.3258 Y-0.8924
X352.2708 Y-0.9106
X352.2157 Y-0.9252
X352.1607 Y-0.9363
X352.1057 Y-0.9441
X352.0506 Y-0.9487
X351.9955 Y-0.95
X25.3276
X0.0045
X-0.0506 Y-0.9487
X-0.1056 Y-0.9441
X-0.1607 Y-0.9363
X-0.2157 Y-0.9252
X-0.2708 Y-0.9106
X-0.3258 Y-0.8924
X-0.3597 Y-0.8793
X-0.3978 Y-0.8627
X-0.4359 Y-0.8441
X-0.491 Y-0.8133
X-0.546 Y-0.7774
X-0.5574 Y-0.7693
X-0.6068 Y-0.731
X-0.6561 Y-0.687
X-0.684 Y-0.6592
X-0.7279 Y-0.6104
X-0.7662 Y-0.5616
X-0.7752 Y-0.5492
X-0.8113 Y-0.4942
X-0.8424 Y-0.4392
X-0.8763 Y-0.3668
X-0.8911 Y-0.3292
X-0.9096 Y-0.2742
X-0.9244 Y-0.2191
X-0.9357 Y-0.1641
X-0.9437 Y-0.1091
X-0.9485 Y-0.0541
X-0.95 Y0.0009
Y89.9991
X-0.9485 Y90.0541
X-0.9437 Y90.1091
X-0.9357 Y90.1641
X-0.9244 Y90.2191
X-0.9096 Y90.2742
X-0.8911 Y90.3292
X-0.8763 Y90.3669
X-0.8424 Y90.4392
X-0.8113 Y90.4942
X-0.7752 Y90.5492
X-0.7662 Y90.5616
X-0.7279 Y90.6104
X-0.684 Y90.6592
X-0.6561 Y90.687
X-0.6068 Y90.731
X-0.5574 Y90.7693
X-0.546 Y90.7774
X-0.491 Y90.8133
X-0.4359 Y90.8441
X-0.3978 Y90.8627
X-0.3597 Y90.8793
X-0.3258 Y90.8924
X-0.2708 Y90.9106
X-0.2157 Y90.9252
X-0.1607 Y90.9363
X-0.1056 Y90.9441
X-0.0506 Y90.9487
X0.0045 Y90.95
X351.9955
X352.0506 Y90.9487
X352.1057 Y90.9441
X352.1607 Y90.9363
X352.2157 Y90.9252
X352.2708 Y90.9106
X352.3258 Y90.8924
X352.3597 Y90.8793
X352.3978 Y90.8627
X352.4359 Y90.8441
X352.491 Y90.8133
X352.5461 Y90.7774
X352.5575 Y90.7693
X352.6068 Y90.731
X352.6561 Y90.687
X352.6841 Y90.6592
X352.728 Y90.6104
X352.7662 Y90.5616
X352.7752 Y90.5492
X352.8114 Y90.4942
X352.8424 Y90.4392
X352.8763 Y90.3669
X352.8912 Y90.3292
X352.9096 Y90.2742
X352.9244 Y90.2191
X352.9357 Y90.1641
X352.9438 Y90.1091
X352.9485 Y90.0541
X352.95 Y89.9991
Y43.9305
Y10.5524
X352.9574 Y10.5
X352.9789 Y10.4517
X353.0129 Y10.4112
X353.0568 Y10.3816
X353.1071 Y10.3653
X353.16 Y10.3635
X354.7637 Y10.5326
X354.8126 Y10.5378 Z-13.8935
X354.8582 Y10.5426 Z-13.8745
X354.8973 Y10.5467 Z-13.8444
X354.9274 Y10.5499 Z-13.805
X354.9463 Y10.5519 Z-13.7592
X354.9527 Y10.5526 Z-13.71
G0 Z5
X37.5828 Y9.8325
Z-4.9168
G1 Z-7 F3200
X37.6355 Y9.8178
X37.6902 Y9.8187
X37.7424 Y9.8351
X37.7877 Y9.8658
X37.8224 Y9.9081
X37.8436 Y9.9585
X37.8496 Y10.0129
X37.8457 Y10.1229
X37.8351 Y10.233
X37.8179 Y10.343
X37.7935 Y10.453
X37.7689 Y10.5415
X37.7622 Y10.563
X37.7226 Y10.6731
X37.6758 Y10.7831
X37.6588 Y10.8186
X37.6195 Y10.8931
X37.5538 Y11.0031
X37.5487 Y11.0108
X37.4777 Y11.1131
X37.4386 Y11.1626
X37.3873 Y11.2232
X37.3285 Y11.2868
X37.2821 Y11.3332
X37.2184 Y11.392
X37.1572 Y11.4432
X37.1083 Y11.4811
X37.0047 Y11.5532
X36.9982 Y11.5575
X36.8881 Y11.6227
X36.8088 Y11.6633
X36.778 Y11.678
X36.6679 Y11.725
X36.5578 Y11.7634
X36.5265 Y11.7733
X36.4477 Y11.7946
X36.3376 Y11.8186
X36.2275 Y11.8355
X36.1174 Y11.8459
X36.0073 Y11.8497
X35.8972 Y11.8467
X35.7871 Y11.8373
X35.677 Y11.8213
X35.5669 Y11.798
X35.4735 Y11.7733
X35.4568 Y11.768
X35.3467 Y11.7304
X35.2366 Y11.6849
X35.1913 Y11.6633
X35.1265 Y11.6304
X35.0164 Y11.5665
X34.9953 Y11.5532
X34.9063 Y11.4916
X34.8429 Y11.4432
X34.7962 Y11.4046
X34.718 Y11.3332
X34.6861 Y11.302
X34.6127 Y11.2232
X34.576 Y11.1801
X34.5224 Y11.1131
X34.4659 Y11.0328
X34.4463 Y11.0031
X34.3806 Y10.8931
X34.3558 Y10.8469
X34.3243 Y10.7831
X34.2775 Y10.6731
X34.2457 Y10.587
X34.2379 Y10.563
X34.2066 Y10.453
X34.1821 Y10.343
X34.1655 Y10.233
X34.1544 Y10.1229
X34.1505 Y10.0129
X34.1531 Y9.9029
X34.1621 Y9.7929
X34.1776 Y9.6829
X34.2005 Y9.5728
X34.2298 Y9.4628
X34.2457 Y9.413
X34.2675 Y9.3528
X34.3124 Y9.2428
X34.3558 Y9.1531
X34.3666 Y9.1327
X34.43 Y9.0227
X34.4659 Y8.9672
X34.5035 Y8.9127
X34.576 Y8.8199
X34.5904 Y8.8027
X34.6861 Y8.698
X34.6913 Y8.6927
X34.7438 Y8.6422
X34.7962 Y8.5954
X34.8115 Y8.5826
X34.9063 Y8.5084
X34.9567 Y8.4726
X35.0164 Y8.4335
X35.1265 Y8.3696
X35.1401 Y8.3626
X35.2366 Y8.3151
X35.3467 Y8.2695
X35.3942 Y8.2526
X35.4568 Y8.232
X35.5669 Y8.202
X35.677 Y8.1787
X35.7871 Y8.1627
X35.8972 Y8.1533
X36.0073 Y8.1503
X36.1174 Y8.1541
X36.2275 Y8.1645
X36.3376 Y8.1814
X36.4477 Y8.2054
X36.5578 Y8.2366
X36.6063 Y8.2526
X36.6679 Y8.275
X36.778 Y8.322
X36.86 Y8.3626
X36.8881 Y8.3773
X36.9982 Y8.4425
X37.0434 Y8.4726
X37.1083 Y8.5189
X37.1885 Y8.5826
X37.2184 Y8.608
X37.3088 Y8.6927
X37.3285 Y8.7132
X37.4097 Y8.8027
X37.4386 Y8.8374
X37.4965 Y8.9127
X37.5487 Y8.9892
X37.57 Y9.0227
X37.6334 Y9.1327
X37.6588 Y9.1814
X37.6877 Y9.2428
X37.7326 Y9.3528
X37.7689 Y9.4585
X37.7703 Y9.4628
X37.7996 Y9.5728
X37.8228 Y9.6829
X37.8383 Y9.7929
X37.847 Y9.9029
X37.8496 Y10.0129
X37.8464 Y10.1081
X37.8387 Y10.2031 Z-7.0001
X37.826 Y10.2975 Z-7.0002
X37.8081 Y10.391 Z-7.0004
X37.7584 Y10.5749 Z-7.0008
X37.7259 Y10.6644 Z-7.0011
X37.6897 Y10.7525 Z-7.0014
X37.6487 Y10.8385 Z-7.0018
X37.6031 Y10.9221 Z-7.0022
X37.5536 Y11.0035 Z-7.0027
X37.5001 Y11.0823 Z-7.0032
X37.4424 Y11.1581 Z-7.0037
X37.3806 Y11.2306 Z-7.0043
X37.3156 Y11.3002 Z-7.005
X37.247 Y11.3662 Z-7.0056
X37.175 Y11.4286 Z-7.0063
X37.0999 Y11.4872 Z-7.0071
X37.0219 Y11.5418 Z-7.0079
X36.9413 Y11.5925 Z-7.0087
X36.7725 Y11.6807 Z-7.0105
X36.685 Y11.7183 Z-7.0115
X36.5956 Y11.7512 Z-7.0125
X36.5046 Y11.7795 Z-7.0135
X36.4123 Y11.803 Z-7.0146
X36.319 Y11.822 Z-7.0157
X36.2247 Y11.8358 Z-7.0169
X36.13 Y11.8453 Z-7.0181
X36.0348 Y11.8492 Z-7.0193
X35.9395 Y11.8488 Z-7.0205
X35.8444 Y11.8431 Z-7.0219
X35.7498 Y11.8326 Z-7.0232
X35.6558 Y11.8173 Z-7.0246
X35.5627 Y11.797 Z-7.026
X35.4707 Y11.7724 Z-7.0274
X35.3802 Y11.7425 Z-7.0289
X35.2911 Y11.7088 Z-7.0305
X35.1193 Y11.6266 Z-7.0336
X35.0368 Y11.5791 Z-7.0352
X34.9568 Y11.5274 Z-7.0369
X34.8796 Y11.4717 Z-7.0386
X34.8052 Y11.4121 Z-7.0403
X34.7341 Y11.3487 Z-7.0421
X34.6666 Y11.2816 Z-7.0439
X34.6022 Y11.2114 Z-7.0458
X34.5417 Y11.1378 Z-7.0476
X34.485 Y11.0613 Z-7.0495
X34.4328 Y10.9816 Z-7.0515
X34.3843 Y10.8997 Z-7.0535
X34.3397 Y10.8155 Z-7.0555
X34.3 Y10.7289 Z-7.0575
X34.265 Y10.6403 Z-7.0596
X34.2339 Y10.5503 Z-7.0617
X34.2079 Y10.4586 Z-7.0638
X34.1707 Y10.2719 Z-7.0682
X34.1589 Y10.1774 Z-7.0704
X34.1523 Y10.0823 Z-7.0726
X34.1505 Y9.9871 Z-7.0749
X34.1536 Y9.8919 Z-7.0772
X34.1615 Y9.797 Z-7.0796
X34.1746 Y9.7026 Z-7.082
X34.192 Y9.609 Z-7.0844
X34.2146 Y9.5165 Z-7.0868
X34.2416 Y9.4251 Z-7.0893
X34.2741 Y9.3356 Z-7.0918
X34.3103 Y9.2475 Z-7.0943
X34.3514 Y9.1615 Z-7.0968
X34.3969 Y9.0779 Z-7.0994
X34.4465 Y8.9965 Z-7.102
X34.5 Y8.9177 Z-7.1046
X34.5577 Y8.8419 Z-7.1073
X34.6194 Y8.7694 Z-7.11
X34.6844 Y8.6998 Z-7.1127
X34.7531 Y8.6338 Z-7.1154
X34.8251 Y8.5714 Z-7.1182
X34.9002 Y8.5128 Z-7.121
X34.9782 Y8.4582 Z-7.1238
X35.0588 Y8.4075 Z-7.1267
X35.1422 Y8.3615 Z-7.1295
X35.2276 Y8.3193 Z-7.1324
X35.3152 Y8.2818 Z-7.1353
X35.4046 Y8.2489 Z-7.1383
X35.4955 Y8.2205 Z-7.1412
X35.5878 Y8.197 Z-7.1442
X35.6812 Y8.178 Z-7.1472
X35.7754 Y8.1642 Z-7.1503
X35.8702 Y8.1547 Z-7.1533
X35.9653 Y8.1508 Z-7.1564
X36.0606 Y8.1512 Z-7.1595
X36.1557 Y8.1569 Z-7.1626
X36.2504 Y8.1674 Z-7.1658
X36.3444 Y8.1827 Z-7.169
X36.4374 Y8.203 Z-7.1722
X36.5294 Y8.2276 Z-7.1754
X36.6199 Y8.2574 Z-7.1786
X36.709 Y8.2912 Z-7.1819
X36.7958 Y8.3305 Z-7.1851
X36.8808 Y8.3734 Z-7.1884
X36.9633 Y8.421 Z-7.1918
X37.0434 Y8.4726 Z-7.1951
X37.1205 Y8.5284 Z-7.1984
X37.1949 Y8.5879 Z-7.2017
X37.266 Y8.6513 Z-7.2051
X37.3335 Y8.7184 Z-7.2084
X37.3979 Y8.7886 Z-7.2117
X37.4583 Y8.8623 Z-7.215
X37.5151 Y8.9387 Z-7.2184
X37.5673 Y9.0184 Z-7.2217
X37.6158 Y9.1004 Z-7.225
X37.6604 Y9.1846 Z-7.2283
X37.7001 Y9.2712 Z-7.2317
X37.7351 Y9.3597 Z-7.235
X37.7662 Y9.4498 Z-7.2383
X37.7922 Y9.5414 Z-7.2416
X37.8133 Y9.6343 Z-7.245
X37.8301 Y9.7281 Z-7.2483
X37.8412 Y9.8227 Z-7.2516
X37.8477 Y9.9177 Z-7.2549
X37.8496 Y10.0129 Z-7.2583
X37.8464 Y10.1081 Z-7.2616
X37.8387 Y10.2031 Z-7.2649
X37.826 Y10.2975 Z-7.2682
X37.8081 Y10.391 Z-7.2716
X37.7854 Y10.4835 Z-7.2749
X37.7584 Y10.5749 Z-7.2782
X37.7259 Y10.6644 Z-7.2815
X37.6897 Y10.7525 Z-7.2849
X37.6487 Y10.8385 Z-7.2882
X37.6031 Y10.9221 Z-7.2915
X37.5536 Y11.0035 Z-7.2948
X37.5001 Y11.0823 Z-7.2982
X37.4424 Y11.1581 Z-7.3015
X37.3806 Y11.2306 Z-7.3048
X37.3156 Y11.3002 Z-7.3081
X37.247 Y11.3662 Z-7.3115
X37.175 Y11.4286 Z-7.3148
X37.0999 Y11.4872 Z-7.3181
X37.0219 Y11.5418 Z-7.3214
X36.9413 Y11.5925 Z-7.3248
X36.8579 Y11.6385 Z-7.3281
X36.7725 Y11.6807 Z-7.3314
X36.685 Y11.7183 Z-7.3347
X36.5956 Y11.7512 Z-7.3381
X36.5046 Y11.7795 Z-7.3414
X36.4123 Y11.803 Z-7.3447
X36.319 Y11.822 Z-7.348
X36.2247 Y11.8358 Z-7.3513
X36.13 Y11.8453 Z-7.3547
X36.0348 Y11.8492 Z-7.358
X35.9395 Y11.8488 Z-7.3613
X35.8444 Y11.8431 Z-7.3646
X35.7498 Y11.8326 Z-7.368
X35.6558 Y11.8173 Z-7.3713
X35.5627 Y11.797 Z-7.3746
X35.4707 Y11.7724 Z-7.3779
X35.3802 Y11.7425 Z-7.3813
X35.2911 Y11.7088 Z-7.3846
X35.2044 Y11.6695 Z-7.3879
X35.1193 Y11.6266 Z-7.3912
X35.0368 Y11.5791 Z-7.3946
X34.9568 Y11.5274 Z-7.3979
X34.8796 Y11.4717 Z-7.4012
X34.8052 Y11.4121 Z-7.4045
X34.7341 Y11.3487 Z-7.4079
X34.6666 Y11.2816 Z-7.4112
X34.6022 Y11.2114 Z-7.4145
X34.5417 Y11.1378 Z-7.4178
X34.485 Y11.0613 Z-7.4212
X34.4328 Y10.9816 Z-7.4245
X34.3843 Y10.8997 Z-7.4278
X34.3397 Y10.8155 Z-7.4311
X34.3 Y10.7289 Z-7.4345
X34.265 Y10.6403 Z-7.4378
X34.2339 Y10.5503 Z-7.4411
X34.2079 Y10.4586 Z-7.4444
X34.1868 Y10.3658 Z-7.4478
X34.1707 Y10.2719 Z-7.4511
X34.1589 Y10.1774 Z-7.4544
X34.1523 Y10.0823 Z-7.4577
X34.1505 Y9.9871 Z-7.4611
X34.1536 Y9.8919 Z-7.4644
X34.1615 Y9.797 Z-7.4677
X34.1746 Y9.7026 Z-7.471
X34.192 Y9.609 Z-7.4744
X34.2146 Y9.5165 Z-7.4777
X34.2416 Y9.4251 Z-7.481
X34.2741 Y9.3356 Z-7.4843
X34.3103 Y9.2475 Z-7.4877
X34.3514 Y9.1615 Z-7.491
X34.3969 Y9.0779 Z-7.4943
X34.4465 Y8.9965 Z-7.4976
X34.5 Y8.9177 Z-7.501
X34.5577 Y8.8419 Z-7.5043
X34.6194 Y8.7694 Z-7.5076
X34.6844 Y8.6998 Z-7.5109
X34.7531 Y8.6338 Z-7.5143
X34.8251 Y8.5714 Z-7.5176
X34.9002 Y8.5128 Z-7.5209
X34.9782 Y8.4582 Z-7.5242
X35.0588 Y8.4075 Z-7.5276
X35.1422 Y8.3615 Z-7.5309
X35.2276 Y8.3193 Z-7.5342
X35.3152 Y8.2818 Z-7.5375
X35.4046 Y8.2489 Z-7.5409
X35.4955 Y8.2205 Z-7.5442
X35.5878 Y8.197 Z-7.5475
X35.6812 Y8.178 Z-7.5508
X35.7754 Y8.1642 Z-7.5542
X35.8702 Y8.1547 Z-7.5575
X35.9653 Y8.1508 Z-7.5608
X36.0606 Y8.1512 Z-7.5641
X36.1557 Y8.1569 Z-7.5675
X36.2504 Y8.1674 Z-7.5708
X36.3444 Y8.1827 Z-7.5741
X36.4374 Y8.203 Z-7.5774
X36.5294 Y8.2276 Z-7.5808
X36.6199 Y8.2574 Z-7.5841
X36.709 Y8.2912 Z-7.5874
X36.7958 Y8.3305 Z-7.5907
X36.8808 Y8.3734 Z-7.594
X36.9633 Y8.421 Z-7.5974
X37.0434 Y8.4726 Z-7.6007
X37.1205 Y8.5284 Z-7.604
X37.1949 Y8.5879 Z-7.6073
X37.266 Y8.6513 Z-7.6107
X37.3335 Y8.7184 Z-7.614
X37.3979 Y8.7886 Z-7.6173
X37.4583 Y8.8623 Z-7.6206
X37.5151 Y8.9387 Z-7.624
X37.5673 Y9.0184 Z-7.6273
X37.6158 Y9.1004 Z-7.6306
X37.6604 Y9.1846 Z-7.6339
X37.7001 Y9.2712 Z-7.6373
X37.7351 Y9.3597 Z-7.6406
X37.7662 Y9.4498 Z-7.6439
X37.7922 Y9.5414 Z-7.6472
X37.8133 Y9.6343 Z-7.6506
X37.8301 Y9.7281 Z-7.6539
X37.8412 Y9.8227 Z-7.6572
X37.8477 Y9.9177 Z-7.6605
X37.8496 Y10.0129 Z-7.6639
X37.8464 Y10.1081 Z-7.6672
X37.8387 Y10.2031 Z-7.6705
X37.826 Y10.2975 Z-7.6738
X37.8081 Y10.391 Z-7.6772
X37.7854 Y10.4835 Z-7.6805
X37.7584 Y10.5749 Z-7.6838
X37.7259 Y10.6644 Z-7.6871
X37.6897 Y10.7525 Z-7.6905
X37.6487 Y10.8385 Z-7.6938
X37.6031 Y10.9221 Z-7.6971
X37.5536 Y11.0035 Z-7.7004
X37.5001 Y11.0823 Z-7.7038
X37.4424 Y11.1581 Z-7.7071
X37.3806 Y11.2306 Z-7.7104
X37.3156 Y11.3002 Z-7.7137
X37.247 Y11.3662 Z-7.717
X37.175 Y11.4286 Z-7.7204
X37.0999 Y11.4872 Z-7.7237
X37.0219 Y11.5418 Z-7.727
X36.9413 Y11.5925 Z-7.7303
X36.8579 Y11.6385 Z-7.7337
X36.7725 Y11.6807 Z-7.737
X36.685 Y11.7183 Z-7.7403
X36.5956 Y11.7512 Z-7.7436
X36.5046 Y11.7795 Z-7.747
X36.4123 Y11.803 Z-7.7503
X36.319 Y11.822 Z-7.7536
X36.2247 Y11.8358 Z-7.7569
X36.13 Y11.8453 Z-7.7603
X36.0348 Y11.8492 Z-7.7636
X35.9395 Y11.8488 Z-7.7669
X35.8444 Y11.8431 Z-7.7702
X35.7498 Y11.8326 Z-7.7736
X35.6558 Y11.8173 Z-7.7769
X35.5627 Y11.797 Z-7.7802
X35.4707 Y11.7724 Z-7.7835
X35.3802 Y11.7425 Z-7.7869
X35.2911 Y11.7088 Z-7.7902
X35.2044 Y11.6695 Z-7.7935
X35.1193 Y11.6266 Z-7.7968
X35.0368 Y11.5791 Z-7.8002
X34.9568 Y11.5274 Z-7.8035
X34.8796 Y11.4717 Z-7.8068
X34.8052 Y11.4121 Z-7.8101
X34.7341 Y11.3487 Z-7.8134
X34.6666 Y11.2816 Z-7.8167
X34.6022 Y11.2114 Z-7.82
X34.5417 Y11.1378 Z-7.8232
X34.485 Y11.0613 Z-7.8265
X34.4328 Y10.9816 Z-7.8297
X34.3843 Y10.8997 Z-7.8328
X34.3397 Y10.8155 Z-7.836
X34.3 Y10.7289 Z-7.8391
X34.265 Y10.6403 Z-7.8423
X34.2339 Y10.5503 Z-7.8453
X34.2079 Y10.4586 Z-7.8484
X34.1868 Y10.3658 Z-7.8515
X34.1707 Y10.2719 Z-7.8545
X34.1589 Y10.1774 Z-7.8575
X34.1523 Y10.0823 Z-7.8605
X34.1505 Y9.9871 Z-7.8634
X34.1536 Y9.8919 Z-7.8663
X34.1615 Y9.797 Z-7.8692
X34.1746 Y9.7026 Z-7.8721
X34.192 Y9.609 Z-7.875
X34.2146 Y9.5165 Z-7.8778
X34.2416 Y9.4251 Z-7.8806
X34.2741 Y9.3356 Z-7.8834
X34.3103 Y9.2475 Z-7.8861
X34.3514 Y9.1615 Z-7.8889
X34.3969 Y9.0779 Z-7.8916
X34.4465 Y8.9965 Z-7.8942
X34.5 Y8.9177 Z-7.8969
X34.5577 Y8.8419 Z-7.8995
X34.6194 Y8.7694 Z-7.9021
X34.6844 Y8.6998 Z-7.9046
X34.7531 Y8.6338 Z-7.9072
X34.8251 Y8.5714 Z-7.9097
X34.9002 Y8.5128 Z-7.9121
X34.9782 Y8.4582 Z-7.9146
X35.0588 Y8.4075 Z-7.917
X35.1422 Y8.3615 Z-7.9194
X35.2276 Y8.3193 Z-7.9218
X35.3152 Y8.2818 Z-7.9241
X35.4046 Y8.2489 Z-7.9264
X35.4955 Y8.2205 Z-7.9287
X35.5878 Y8.197 Z-7.9309
X35.6812 Y8.178 Z-7.9331
X35.7754 Y8.1642 Z-7.9353
X35.8702 Y8.1547 Z-7.9374
X36.0606 Y8.1512 Z-7.9416
X36.1557 Y8.1569 Z-7.9437
X36.2504 Y8.1674 Z-7.9457
X36.3444 Y8.1827 Z-7.9477
X36.4374 Y8.203 Z-7.9496
X36.5294 Y8.2276 Z-7.9516
X36.6199 Y8.2574 Z-7.9534
X36.709 Y8.2912 Z-7.9553
X36.7958 Y8.3305 Z-7.9571
X36.8808 Y8.3734 Z-7.9589
X36.9633 Y8.421 Z-7.9606
X37.0434 Y8.4726 Z-7.9624
X37.1205 Y8.5284 Z-7.964
X37.1949 Y8.5879 Z-7.9657
X37.266 Y8.6513 Z-7.9673
X37.3979 Y8.7886 Z-7.9704
X37.4583 Y8.8623 Z-7.9719
X37.5151 Y8.9387 Z-7.9734
X37.5673 Y9.0184 Z-7.9748
X37.6158 Y9.1004 Z-7.9762
X37.6604 Y9.1846 Z-7.9776
X37.7001 Y9.2712 Z-7.9789
X37.7351 Y9.3597 Z-7.9802
X37.7662 Y9.4498 Z-7.9814
X37.7922 Y9.5414 Z-7.9826
X37.8133 Y9.6343 Z-7.9838
X37.8301 Y9.7281 Z-7.9849
X37.8412 Y9.8227 Z-7.986
X37.8477 Y9.9177 Z-7.9871
X37.8496 Y10.0129 Z-7.9881
X37.8464 Y10.1081 Z-7.9891
X37.8387 Y10.2031 Z-7.99
X37.826 Y10.2975 Z-7.9909
X37.8081 Y10.391 Z-7.9917
X37.7584 Y10.5749 Z-7.9933
X37.7259 Y10.6644 Z-7.9941
X37.6897 Y10.7525 Z-7.9948
X37.6487 Y10.8385 Z-7.9954
X37.6031 Y10.9221 Z-7.996
X37.5536 Y11.0035 Z-7.9966
X37.5001 Y11.0823 Z-7.9971
X37.4424 Y11.1581 Z-7.9976
X37.3806 Y11.2306 Z-7.998
X37.3156 Y11.3002 Z-7.9984
X37.247 Y11.3662 Z-7.9988
X37.175 Y11.4286 Z-7.9991
X37.0999 Y11.4872 Z-7.9993
X37.0219 Y11.5418 Z-7.9996
X36.9413 Y11.5925 Z-7.9997
X36.8579 Y11.6385 Z-7.9999
X36.7725 Y11.6807 Z-8
X36.6487 Y11.7317
X36.5578 Y11.7634
X36.5265 Y11.7733
X36.4477 Y11.7946
X36.3376 Y11.8186
X36.2275 Y11.8355
X36.1174 Y11.8459
X36.0073 Y11.8497
X35.8972 Y11.8467
X35.7871 Y11.8373
X35.677 Y11.8213
X35.5669 Y11.798
X35.4735 Y11.7733
X35.4568 Y11.768
X35.3467 Y11.7304
X35.2366 Y11.6849
X35.1913 Y11.6633
X35.1265 Y11.6304
X35.0164 Y11.5665
X34.9953 Y11.5532
X34.9063 Y11.4916
X34.8429 Y11.4432
X34.7962 Y11.4046
X34.718 Y11.3332
X34.6861 Y11.302
X34.6127 Y11.2232
X34.576 Y11.1801
X34.5224 Y11.1131
X34.4659 Y11.0328
X34.4463 Y11.0031
X34.3806 Y10.8931
X34.3558 Y10.8469
X34.3243 Y10.7831
X34.2775 Y10.6731
X34.2457 Y10.587
X34.2379 Y10.563
X34.2066 Y10.453
X34.1821 Y10.343
X34.1655 Y10.233
X34.1544 Y10.1229
X34.1505 Y10.0129
X34.1531 Y9.9029
X34.1621 Y9.7929
X34.1776 Y9.6829
X34.2005 Y9.5728
X34.2298 Y9.4628
X34.2457 Y9.413
X34.2675 Y9.3528
X34.3124 Y9.2428
X34.3558 Y9.1531
X34.3666 Y9.1327
X34.43 Y9.0227
X34.4659 Y8.9672
X34.5035 Y8.9127
X34.576 Y8.8199
X34.5904 Y8.8027
X34.6861 Y8.698
X34.6913 Y8.6927
X34.7438 Y8.6422
X34.7962 Y8.5954
X34.8115 Y8.5826
X34.9063 Y8.5084
X34.9567 Y8.4726
X35.0164 Y8.4335
X35.1265 Y8.3696
X35.1401 Y8.3626
X35.2366 Y8.3151
X35.3467 Y8.2695
X35.3942 Y8.2526
X35.4568 Y8.232
X35.5669 Y8.202
X35.677 Y8.1787
X35.7871 Y8.1627
X35.8972 Y8.1533
X36.0073 Y8.1503
X36.1174 Y8.1541
X36.2275 Y8.1645
X36.3376 Y8.1814
X36.4477 Y8.2054
X36.5578 Y8.2366
X36.6063 Y8.2526
X36.6679 Y8.275
X36.778 Y8.322
X36.86 Y8.3626
X36.8881 Y8.3773
X36.9982 Y8.4425
X37.0434 Y8.4726
X37.1083 Y8.5189
X37.1885 Y8.5826
X37.2184 Y8.608
X37.3088 Y8.6927
X37.3285 Y8.7132
X37.4097 Y8.8027
X37.4386 Y8.8374
X37.4965 Y8.9127
X37.5487 Y8.9892
X37.57 Y9.0227
X37.6334 Y9.1327
X37.6588 Y9.1814
X37.6877 Y9.2428
X37.7326 Y9.3528
X37.7689 Y9.4585
X37.7703 Y9.4628
X37.7996 Y9.5728
X37.8228 Y9.6829
X37.8383 Y9.7929
X37.847 Y9.9029
X37.8496 Y10.0129
X37.8457 Y10.1229
X37.8351 Y10.233
X37.8179 Y10.343
X37.7935 Y10.453
X37.7689 Y10.5415
X37.7622 Y10.563
X37.7226 Y10.6731
X37.6758 Y10.7831
X37.6588 Y10.8186
X37.6195 Y10.8931
X37.5538 Y11.0031
X37.5487 Y11.0108
X37.4777 Y11.1131
X37.4386 Y11.1626
X37.3873 Y11.2232
X37.3285 Y11.2868
X37.2821 Y11.3332
X37.2184 Y11.392
X37.1572 Y11.4432
X37.1083 Y11.4811
X37.0047 Y11.5532
X36.9982 Y11.5575
X36.8881 Y11.6227
X36.8088 Y11.6633
X36.778 Y11.678
X36.6679 Y11.725
X36.6487 Y11.7317
X36.5588 Y11.7631
X36.4673 Y11.7896 Z-8.0001
X36.3745 Y11.8112 Z-8.0002
X36.2808 Y11.8281 Z-8.0004
X36.1863 Y11.8403 Z-8.0006
X36.0913 Y11.8473 Z-8.0008
X35.9961 Y11.8498 Z-8.0011
X35.9009 Y11.8469 Z-8.0014
X35.8059 Y11.8396 Z-8.0018
X35.7115 Y11.8269 Z-8.0022
X35.6178 Y11.8097 Z-8.0027
X35.5252 Y11.7875 Z-8.0032
X35.4338 Y11.7608 Z-8.0037
X35.3439 Y11.7293 Z-8.0043
X35.2557 Y11.6933 Z-8.005
X35.1695 Y11.6527 Z-8.0056
X35.0039 Y11.5588 Z-8.0071
X34.9251 Y11.5052 Z-8.0079
X34.849 Y11.448 Z-8.0087
X34.7759 Y11.3869 Z-8.0096
X34.7063 Y11.3219 Z-8.0105
X34.64 Y11.2535 Z-8.0115
X34.5774 Y11.1817 Z-8.0125
X34.5179 Y11.1074 Z-8.0135
X34.4635 Y11.0292 Z-8.0146
X34.4123 Y10.9488 Z-8.0157
X34.3658 Y10.8657 Z-8.0169
X34.3231 Y10.7806 Z-8.0181
X34.2853 Y10.6931 Z-8.0193
X34.2519 Y10.604 Z-8.0205
X34.2226 Y10.5133 Z-8.0219
X34.199 Y10.421 Z-8.0232
X34.1792 Y10.3278 Z-8.0246
X34.1554 Y10.1389 Z-8.0274
X34.1511 Y10.0437 Z-8.0289
X34.1513 Y9.9485 Z-8.0305
X34.1561 Y9.8533 Z-8.032
X34.1666 Y9.7587 Z-8.0336
X34.1806 Y9.6644 Z-8.0352
X34.2008 Y9.5714 Z-8.0369
X34.2247 Y9.4791 Z-8.0386
X34.2545 Y9.3887 Z-8.0403
X34.2881 Y9.2995 Z-8.0421
X34.3264 Y9.2123 Z-8.0439
X34.3695 Y9.1274 Z-8.0458
X34.4165 Y9.0445 Z-8.0476
X34.4678 Y8.9643 Z-8.0495
X34.5227 Y8.8864 Z-8.0515
X34.6453 Y8.7407 Z-8.0555
X34.712 Y8.6726 Z-8.0575
X34.7818 Y8.6079 Z-8.0596
X34.8552 Y8.5472 Z-8.0617
X34.9315 Y8.4902 Z-8.0638
X35.0106 Y8.4371 Z-8.066
X35.0924 Y8.3883 Z-8.0682
X35.1766 Y8.3438 Z-8.0704
X35.263 Y8.3036 Z-8.0726
X35.3512 Y8.2678 Z-8.0749
X35.4413 Y8.2369 Z-8.0772
X35.5328 Y8.2104 Z-8.0796
X35.6256 Y8.1887 Z-8.082
X35.7193 Y8.1719 Z-8.0844
X35.8138 Y8.1597 Z-8.0868
X35.9088 Y8.1527 Z-8.0893
X36.004 Y8.1502 Z-8.0918
X36.0992 Y8.1531 Z-8.0943
X36.1942 Y8.1604 Z-8.0968
X36.2886 Y8.1731 Z-8.0994
X36.3823 Y8.1903 Z-8.102
X36.4749 Y8.2125 Z-8.1046
X36.5663 Y8.2392 Z-8.1073
X36.6563 Y8.2704 Z-8.11
X36.7444 Y8.3068 Z-8.1127
X36.8306 Y8.3473 Z-8.1154
X36.9145 Y8.3923 Z-8.1182
X36.9962 Y8.4413 Z-8.121
X37.075 Y8.4948 Z-8.1238
X37.1511 Y8.5521 Z-8.1267
X37.2242 Y8.6132 Z-8.1295
X37.2938 Y8.6781 Z-8.1324
X37.3601 Y8.7466 Z-8.1353
X37.4227 Y8.8183 Z-8.1383
X37.4822 Y8.8927 Z-8.1412
X37.5366 Y8.9709 Z-8.1442
X37.5878 Y9.0512 Z-8.1472
X37.6343 Y9.1344 Z-8.1503
X37.677 Y9.2195 Z-8.1533
X37.7148 Y9.3069 Z-8.1564
X37.7482 Y9.3961 Z-8.1595
X37.7774 Y9.4868 Z-8.1626
X37.801 Y9.5791 Z-8.1658
X37.821 Y9.6722 Z-8.169
X37.8351 Y9.7664 Z-8.1722
X37.8447 Y9.8612 Z-8.1754
X37.849 Y9.9563 Z-8.1786
X37.8488 Y10.0516 Z-8.1819
X37.844 Y10.1467 Z-8.1851
X37.8341 Y10.2414 Z-8.1884
X37.8194 Y10.3356 Z-8.1918
X37.7992 Y10.4286 Z-8.1951
X37.7754 Y10.5209 Z-8.1984
X37.7456 Y10.6113 Z-8.2017
X37.712 Y10.7005 Z-8.2051
X37.6736 Y10.7877 Z-8.2084
X37.6306 Y10.8726 Z-8.2117
X37.5836 Y10.9555 Z-8.215
X37.5322 Y11.0357 Z-8.2184
X37.4774 Y11.1136 Z-8.2217
X37.4176 Y11.1878 Z-8.225
X37.3548 Y11.2593 Z-8.2283
X37.2881 Y11.3273 Z-8.2317
X37.2183 Y11.3921 Z-8.235
X37.1449 Y11.4528 Z-8.2383
X37.0686 Y11.5098 Z-8.2416
X36.9895 Y11.5629 Z-8.245
X36.9077 Y11.6116 Z-8.2483
X36.8235 Y11.6562 Z-8.2516
X36.7371 Y11.6964 Z-8.2549
X36.649 Y11.7325 Z-8.2583
X36.5588 Y11.7631 Z-8.2616
X36.4673 Y11.7896 Z-8.2649
X36.3745 Y11.8112 Z-8.2682
X36.2808 Y11.8281 Z-8.2716
X36.1863 Y11.8403 Z-8.2749
X36.0913 Y11.8473 Z-8.2782
X35.9961 Y11.8498 Z-8.2815
X35.9009 Y11.8469 Z-8.2849
X35.8059 Y11.8396 Z-8.2882
X35.7115 Y11.8269 Z-8.2915
X35.6178 Y11.8097 Z-8.2948
X35.5252 Y11.7875 Z-8.2982
X35.4338 Y11.7608 Z-8.3015
X35.3439 Y11.7293 Z-8.3048
X35.2557 Y11.6933 Z-8.3081
X35.1695 Y11.6527 Z-8.3115
X35.0856 Y11.6078 Z-8.3148
X35.0039 Y11.5588 Z-8.3181
X34.9251 Y11.5052 Z-8.3214
X34.849 Y11.448 Z-8.3247
X34.7759 Y11.3869 Z-8.3281
X34.7063 Y11.3219 Z-8.3314
X34.64 Y11.2535 Z-8.3347
X34.5774 Y11.1817 Z-8.338
X34.5179 Y11.1074 Z-8.3414
X34.4635 Y11.0292 Z-8.3447
X34.4123 Y10.9488 Z-8.348
X34.3658 Y10.8657 Z-8.3513
X34.3231 Y10.7806 Z-8.3547
X34.2853 Y10.6931 Z-8.358
X34.2519 Y10.604 Z-8.3613
X34.2226 Y10.5133 Z-8.3646
X34.199 Y10.421 Z-8.368
X34.1792 Y10.3278 Z-8.3713
X34.1655 Y10.2336 Z-8.3746
X34.1554 Y10.1389 Z-8.3779
X34.1511 Y10.0437 Z-8.3813
X34.1513 Y9.9485 Z-8.3846
X34.1561 Y9.8533 Z-8.3879
X34.1666 Y9.7587 Z-8.3912
X34.1806 Y9.6644 Z-8.3946
X34.2008 Y9.5714 Z-8.3979
X34.2247 Y9.4791 Z-8.4012
X34.2545 Y9.3887 Z-8.4045
X34.2881 Y9.2995 Z-8.4079
X34.3264 Y9.2123 Z-8.4112
X34.3695 Y9.1274 Z-8.4145
X34.4165 Y9.0445 Z-8.4178
X34.4678 Y8.9643 Z-8.4212
X34.5227 Y8.8864 Z-8.4245
X34.5824 Y8.8122 Z-8.4278
X34.6453 Y8.7407 Z-8.4311
X34.712 Y8.6726 Z-8.4345
X34.7818 Y8.6079 Z-8.4378
X34.8552 Y8.5472 Z-8.4411
X34.9315 Y8.4902 Z-8.4444
X35.0106 Y8.4371 Z-8.4478
X35.0924 Y8.3883 Z-8.4511
X35.1766 Y8.3438 Z-8.4544
X35.263 Y8.3036 Z-8.4577
X35.3512 Y8.2678 Z-8.4611
X35.4413 Y8.2369 Z-8.4644
X35.5328 Y8.2104 Z-8.4677
