%
(Made in : Autodesk CAM Post Processor)
(G Code optimized for OpenBuilds OX CNC 1000 x 750 with GRBL V0.9j controller)

(Program Name : 1001)
(2 Operations :)
(1 : Contour2)
(  Tool : Flat End Mill 2 Flutes, Diam = 1.9mm, Len = 12.7mm)
(  Spindle : RPM = 30000, set router dial to 6)
(  Machining time : 5 min 38 sec)
(2 : Horizontal1)
(  Tool : Flat End Mill 2 Flutes, Diam = 1.9mm, Len = 12.7mm)
(  Spindle : RPM = 30000, set router dial to 6)
(  Machining time : 3 min 16 sec)

G90 G94
G17
G21

(Operation 1 of 2 : Contour2)

G53 G0 Z5
G54
S30000 M3
G4 P1.0
X24.0273 Y18.8484
Z6
Z1.1881
G1 Z-0.81 F3200
X24.033 Y18.8515 Z-0.8592
X24.0497 Y18.8604 Z-0.905
X24.0763 Y18.8747 Z-0.9444
X24.111 Y18.8932 Z-0.9745
X24.1514 Y18.9149 Z-0.9935
X24.1948 Y18.9381 Z-1
X25.2737 Y19.5154
X25.3141 Y19.5443
X25.3455 Y19.5827
X25.3659 Y19.6279
X25.374 Y19.6768
X25.3691 Y19.7262
X25.3516 Y19.7726
X25.3203 Y19.8414
X25.2999 Y19.8964
X25.2831 Y19.9515
X25.27 Y20.0065
X25.2602 Y20.0616
X25.2537 Y20.1166
X25.2505 Y20.1717
X25.25 Y20.2818
Y89.9772
X25.2506 Y90.0323
X25.2541 Y90.0873
X25.2608 Y90.1424
X25.2708 Y90.1974
X25.2842 Y90.2525
X25.3012 Y90.3075
X25.322 Y90.3626
X25.3468 Y90.4176
X25.3516 Y90.4274
X25.3788 Y90.4776
X25.4101 Y90.5277
X25.4347 Y90.5628
X25.4618 Y90.5979
X25.496 Y90.6379
X25.5339 Y90.6774
X25.5719 Y90.7127
X25.6143 Y90.748
X25.6482 Y90.7733
X25.682 Y90.7963
X25.7371 Y90.8295
X25.7921 Y90.858
X25.7923 Y90.8581
X25.8473 Y90.8821
X25.9022 Y90.9021
X25.9573 Y90.9185
X26.0124 Y90.9313
X26.0674 Y90.9407
X26.1225 Y90.9468
X26.2326 Y90.95
X325.7674
X325.8775 Y90.9468
X325.9326 Y90.9407
X325.9877 Y90.9313
X326.0427 Y90.9185
X326.0978 Y90.9021
X326.1528 Y90.8821
X326.2077 Y90.8581
X326.2079 Y90.858
X326.263 Y90.8296
X326.318 Y90.7963
X326.3519 Y90.7733
X326.3857 Y90.748
X326.4282 Y90.7127
X326.4661 Y90.6774
X326.5041 Y90.6379
X326.5383 Y90.5979
X326.5654 Y90.5628
X326.59 Y90.5277
X326.6212 Y90.4776
X326.6484 Y90.4275
X326.6533 Y90.4176
X326.6781 Y90.3626
X326.6989 Y90.3075
X326.7159 Y90.2525
X326.7293 Y90.1974
X326.7393 Y90.1424
X326.746 Y90.0873
X326.7495 Y90.0323
X326.75 Y89.9772
Y20.2818
X326.7496 Y20.1717
X326.7464 Y20.1166
X326.7399 Y20.0616
X326.7301 Y20.0065
X326.7169 Y19.9515
X326.7002 Y19.8964
X326.6797 Y19.8414
X326.6484 Y19.7725
X326.6263 Y19.7313
X326.5926 Y19.6762
X326.5533 Y19.6212
X326.5383 Y19.6021
X326.499 Y19.5566
X326.4542 Y19.5111
X326.4282 Y19.4873
X326.3731 Y19.4423
X326.318 Y19.4036
X326.3139 Y19.401
X326.2609 Y19.3693
X326.2079 Y19.342
X326.1528 Y19.3179
X326.0978 Y19.2979
X326.0757 Y19.2909
X326.0316 Y19.2787
X325.9877 Y19.2687
X325.9326 Y19.2593
X325.8775 Y19.2532
X325.7674 Y19.25
X26.2326
X26.1225 Y19.2532
X26.0674 Y19.2593
X26.0124 Y19.2687
X25.9684 Y19.2787
X25.9244 Y19.2909
X25.9022 Y19.2979
X25.8472 Y19.318
X25.7921 Y19.342
X25.7392 Y19.3693
X25.6862 Y19.401
X25.682 Y19.4037
X25.6269 Y19.4423
X25.5719 Y19.4873
X25.5459 Y19.5111
X25.5011 Y19.5566
X25.4618 Y19.6021
X25.4467 Y19.6212
X25.4075 Y19.6762
X25.3737 Y19.7313
X25.3516 Y19.7726
X25.331 Y19.8163
X25.3126 Y19.8611
X25.2964 Y19.9067 Z-1.0001
X25.2827 Y19.9531
X25.2713 Y20.0002
X25.2623 Y20.0477 Z-1.0002
X25.2558 Y20.0957 Z-1.0003
X25.2517 Y20.1439 Z-1.0004
X25.25 Y20.3374 Z-1.0008
Y20.531 Z-1.0015
Y20.7246 Z-1.0023
Y20.9182 Z-1.0033
Y21.1117 Z-1.0045
Y21.3053 Z-1.0058
Y21.4989 Z-1.0073
Y21.6925 Z-1.009
Y21.886 Z-1.0109
Y22.0796 Z-1.0129
Y22.2732 Z-1.0151
Y22.4668 Z-1.0174
Y22.6603 Z-1.0199
Y22.8539 Z-1.0225
Y23.0475 Z-1.0253
Y23.2411 Z-1.0283
Y23.4346 Z-1.0314
Y23.6282 Z-1.0347
Y23.8218 Z-1.0381
Y24.0154 Z-1.0416
Y24.2089 Z-1.0453
Y24.4025 Z-1.0491
Y24.5961 Z-1.0531
Y24.7897 Z-1.0572
Y24.9832 Z-1.0614
Y25.1768 Z-1.0658
Y25.3704 Z-1.0702
Y25.564 Z-1.0749
Y25.7575 Z-1.0796
Y25.9511 Z-1.0845
Y26.1447 Z-1.0894
Y26.2415 Z-1.092
Y26.3383 Z-1.0945
Y26.435 Z-1.0971
Y26.5318 Z-1.0997
Y26.6286 Z-1.1024
Y26.7254 Z-1.1051
Y26.8222 Z-1.1078
Y26.919 Z-1.1105
Y27.0158 Z-1.1133
Y27.1126 Z-1.1161
Y27.2093 Z-1.1189
Y27.3061 Z-1.1217
Y27.4029 Z-1.1246
Y27.4997 Z-1.1275
Y27.5965 Z-1.1304
Y27.6933 Z-1.1334
Y27.7901 Z-1.1363
Y27.8869 Z-1.1393
Y27.9836 Z-1.1423
Y28.0804 Z-1.1454
Y28.1772 Z-1.1485
Y28.274 Z-1.1516
Y28.3708 Z-1.1547
Y28.4676 Z-1.1578
Y28.5644 Z-1.161
Y28.6612 Z-1.1642
Y28.7579 Z-1.1674
Y28.8547 Z-1.1706
Y28.9515 Z-1.1739
Y29.0483 Z-1.1772
Y29.1451 Z-1.1805
Y29.2419 Z-1.1838
Y29.3387 Z-1.1871
Y29.5322 Z-1.1939
Y29.629 Z-1.1972
Y29.7258 Z-1.2006
Y29.8226 Z-1.204
Y29.9194 Z-1.2074
Y30.0162 Z-1.2108
Y30.113 Z-1.2141
Y30.2098 Z-1.2175
Y30.3065 Z-1.2209
Y30.4033 Z-1.2243
Y30.5001 Z-1.2277
Y30.5969 Z-1.231
Y30.6937 Z-1.2344
Y30.8873 Z-1.2412
Y31.1776 Z-1.2513
Y31.468 Z-1.2614
Y31.7584 Z-1.2716
Y32.0487 Z-1.2817
Y32.3391 Z-1.2919
Y32.6294 Z-1.302
Y32.9198 Z-1.3121
Y33.2102 Z-1.3223
Y33.5005 Z-1.3324
Y33.7909 Z-1.3426
Y34.2748 Z-1.3595
Y34.7588 Z-1.3764
Y35.2427 Z-1.3933
Y35.9202 Z-1.4169
Y36.7913 Z-1.4473
Y38.2431 Z-1.498
Y45.2118 Z-1.7413
Y45.5022 Z-1.7515
Y45.7925 Z-1.7616
Y45.8893 Z-1.765
Y45.9861 Z-1.7684
Y46.0829 Z-1.7717
Y46.1797 Z-1.7751
Y46.2765 Z-1.7785
Y46.3732 Z-1.7819
Y46.47 Z-1.7853
Y46.5668 Z-1.7886
Y46.6636 Z-1.792
Y46.7604 Z-1.7954
Y46.8572 Z-1.7988
Y46.954 Z-1.8022
Y47.0508 Z-1.8055
Y47.1475 Z-1.8089
Y47.2443 Z-1.8123
Y47.3411 Z-1.8156
Y47.4379 Z-1.819
Y47.5347 Z-1.8223
Y47.6315 Z-1.8255
Y47.7283 Z-1.8288
Y47.8251 Z-1.832
Y47.9218 Z-1.8353
Y48.0186 Z-1.8385
Y48.1154 Z-1.8416
Y48.2122 Z-1.8448
Y48.309 Z-1.8479
Y48.4058 Z-1.851
Y48.5026 Z-1.8541
Y48.5993 Z-1.8571
Y48.6961 Z-1.8601
Y48.7929 Z-1.8631
Y48.8897 Z-1.8661
Y48.9865 Z-1.8691
Y49.0833 Z-1.872
Y49.1801 Z-1.8749
Y49.2769 Z-1.8778
Y49.3736 Z-1.8806
Y49.4704 Z-1.8834
Y49.5672 Z-1.8862
Y49.664 Z-1.889
Y49.7608 Z-1.8917
Y49.8576 Z-1.8945
Y49.9544 Z-1.8971
Y50.0512 Z-1.8998
Y50.1479 Z-1.9024
Y50.2447 Z-1.905
Y50.3415 Z-1.9076
Y50.4383 Z-1.9101
Y50.5351 Z-1.9126
Y50.7287 Z-1.9176
Y50.9222 Z-1.9224
Y51.1158 Z-1.9271
Y51.3094 Z-1.9316
Y51.503 Z-1.9361
Y51.6965 Z-1.9404
Y51.8901 Z-1.9445
Y52.0837 Z-1.9486
Y52.2773 Z-1.9525
Y52.4708 Z-1.9562
Y52.6644 Z-1.9599
Y52.858 Z-1.9634
Y53.0516 Z-1.9667
Y53.2451 Z-1.9699
Y53.4387 Z-1.9729
Y53.6323 Z-1.9758
Y53.8259 Z-1.9786
Y54.0194 Z-1.9812
Y54.213 Z-1.9836
Y54.4066 Z-1.9859
Y54.6002 Z-1.988
Y54.7937 Z-1.9899
Y54.9873 Z-1.9917
Y55.1809 Z-1.9933
Y55.3745 Z-1.9948
Y55.568 Z-1.996
Y55.7616 Z-1.9971
Y55.9552 Z-1.9981
Y56.1488 Z-1.9988
Y56.3423 Z-1.9994
Y56.5359 Z-1.9998
Y56.7295 Z-2
Y56.8433
Y89.9772
X25.2506 Y90.0323
X25.2541 Y90.0873
X25.2608 Y90.1424
X25.2708 Y90.1974
X25.2842 Y90.2525
X25.3012 Y90.3075
X25.322 Y90.3626
X25.3468 Y90.4176
X25.3516 Y90.4274
X25.3788 Y90.4776
X25.4101 Y90.5277
X25.4347 Y90.5628
X25.4618 Y90.5979
X25.496 Y90.6379
X25.5339 Y90.6774
X25.5719 Y90.7127
X25.6143 Y90.748
X25.6482 Y90.7733
X25.682 Y90.7963
X25.7371 Y90.8295
X25.7921 Y90.858
X25.7923 Y90.8581
X25.8473 Y90.8821
X25.9022 Y90.9021
X25.9573 Y90.9185
X26.0124 Y90.9313
X26.0674 Y90.9407
X26.1225 Y90.9468
X26.2326 Y90.95
X325.7674
X325.8775 Y90.9468
X325.9326 Y90.9407
X325.9877 Y90.9313
X326.0427 Y90.9185
X326.0978 Y90.9021
X326.1528 Y90.8821
X326.2077 Y90.8581
X326.2079 Y90.858
X326.263 Y90.8296
X326.318 Y90.7963
X326.3519 Y90.7733
X326.3857 Y90.748
X326.4282 Y90.7127
X326.4661 Y90.6774
X326.5041 Y90.6379
X326.5383 Y90.5979
X326.5654 Y90.5628
X326.59 Y90.5277
X326.6212 Y90.4776
X326.6484 Y90.4275
X326.6533 Y90.4176
X326.6781 Y90.3626
X326.6989 Y90.3075
X326.7159 Y90.2525
X326.7293 Y90.1974
X326.7393 Y90.1424
X326.746 Y90.0873
X326.7495 Y90.0323
X326.75 Y89.9772
Y20.2818
X326.7496 Y20.1717
X326.7464 Y20.1166
X326.7399 Y20.0616
X326.7301 Y20.0065
X326.7169 Y19.9515
X326.7002 Y19.8964
X326.6797 Y19.8414
X326.6484 Y19.7725
X326.6263 Y19.7313
X326.5926 Y19.6762
X326.5533 Y19.6212
X326.5383 Y19.6021
X326.499 Y19.5566
X326.4542 Y19.5111
X326.4282 Y19.4873
X326.3731 Y19.4423
X326.318 Y19.4036
X326.3139 Y19.401
X326.2609 Y19.3693
X326.2079 Y19.342
X326.1528 Y19.3179
X326.0978 Y19.2979
X326.0757 Y19.2909
X326.0316 Y19.2787
X325.9877 Y19.2687
X325.9326 Y19.2593
X325.8775 Y19.2532
X325.7674 Y19.25
X26.2326
X26.1225 Y19.2532
X26.0674 Y19.2593
X26.0124 Y19.2687
X25.9684 Y19.2787
X25.9244 Y19.2909
X25.9022 Y19.2979
X25.8472 Y19.318
X25.7921 Y19.342
X25.7392 Y19.3693
X25.6862 Y19.401
X25.682 Y19.4037
X25.6269 Y19.4423
X25.5719 Y19.4873
X25.5459 Y19.5111
X25.5011 Y19.5566
X25.4618 Y19.6021
X25.4467 Y19.6212
X25.4075 Y19.6762
X25.3737 Y19.7313
X25.3516 Y19.7726
X25.3203 Y19.8414
X25.2999 Y19.8964
X25.2831 Y19.9515
X25.27 Y20.0065
X25.2602 Y20.0616
X25.2537 Y20.1166
X25.2505 Y20.1717
X25.25 Y20.2818
Y56.8433
Y57.0369 Z-2.0001
Y57.2304 Z-2.0004
Y57.424 Z-2.0008
Y57.6176 Z-2.0015
Y57.8112 Z-2.0023
Y58.0047 Z-2.0033
Y58.1983 Z-2.0045
Y58.3919 Z-2.0058
Y58.5855 Z-2.0073
Y58.779 Z-2.009
Y58.9726 Z-2.0109
Y59.1662 Z-2.0129
Y59.3598 Z-2.0151
Y59.5533 Z-2.0174
Y59.7469 Z-2.0199
Y59.9405 Z-2.0225
Y60.1341 Z-2.0253
Y60.3276 Z-2.0283
Y60.5212 Z-2.0314
Y60.7148 Z-2.0347
Y60.9084 Z-2.0381
Y61.1019 Z-2.0416
Y61.2955 Z-2.0453
Y61.4891 Z-2.0491
Y61.6827 Z-2.0531
Y61.8762 Z-2.0572
Y62.0698 Z-2.0614
Y62.2634 Z-2.0658
Y62.457 Z-2.0702
Y62.6505 Z-2.0749
Y62.8441 Z-2.0796
Y63.0377 Z-2.0845
Y63.2313 Z-2.0894
Y63.328 Z-2.092
Y63.4248 Z-2.0945
Y63.5216 Z-2.0971
Y63.6184 Z-2.0997
Y63.7152 Z-2.1024
Y63.812 Z-2.1051
Y63.9088 Z-2.1078
Y64.0055 Z-2.1105
Y64.1023 Z-2.1133
Y64.1991 Z-2.1161
Y64.2959 Z-2.1189
Y64.3927 Z-2.1217
Y64.4895 Z-2.1246
Y64.5863 Z-2.1275
Y64.6831 Z-2.1304
Y64.7798 Z-2.1334
Y64.8766 Z-2.1363
Y64.9734 Z-2.1393
Y65.0702 Z-2.1423
Y65.167 Z-2.1454
Y65.2638 Z-2.1485
Y65.3606 Z-2.1516
Y65.4574 Z-2.1547
Y65.5541 Z-2.1578
Y65.6509 Z-2.161
Y65.7477 Z-2.1642
Y65.8445 Z-2.1674
Y65.9413 Z-2.1706
Y66.0381 Z-2.1739
Y66.1349 Z-2.1772
Y66.2317 Z-2.1805
Y66.3284 Z-2.1838
Y66.4252 Z-2.1871
Y66.6188 Z-2.1939
Y66.7156 Z-2.1972
Y66.8124 Z-2.2006
Y66.9092 Z-2.204
Y67.006 Z-2.2074
Y67.1027 Z-2.2108
Y67.1995 Z-2.2141
Y67.2963 Z-2.2175
Y67.3931 Z-2.2209
Y67.4899 Z-2.2243
Y67.5867 Z-2.2277
Y67.6835 Z-2.231
Y67.7803 Z-2.2344
Y67.9738 Z-2.2412
Y68.2642 Z-2.2513
Y68.5546 Z-2.2614
Y68.8449 Z-2.2716
Y69.1353 Z-2.2817
Y69.4256 Z-2.2919
Y69.716 Z-2.302
Y70.0064 Z-2.3121
Y70.2967 Z-2.3223
Y70.5871 Z-2.3324
Y70.8774 Z-2.3426
Y71.3614 Z-2.3595
Y71.8453 Z-2.3764
Y72.3293 Z-2.3933
Y73.0068 Z-2.4169
Y73.8779 Z-2.4473
Y75.3297 Z-2.498
Y82.2984 Z-2.7413
Y82.5887 Z-2.7515
Y82.8791 Z-2.7616
Y82.9759 Z-2.765
Y83.0727 Z-2.7684
Y83.1694 Z-2.7717
Y83.2662 Z-2.7751
Y83.363 Z-2.7785
Y83.4598 Z-2.7819
Y83.5566 Z-2.7853
Y83.6534 Z-2.7886
Y83.7502 Z-2.792
Y83.847 Z-2.7954
Y83.9437 Z-2.7988
Y84.0405 Z-2.8022
Y84.1373 Z-2.8055
Y84.2341 Z-2.8089
Y84.3309 Z-2.8123
Y84.4277 Z-2.8156
Y84.5245 Z-2.819
Y84.6213 Z-2.8223
Y84.718 Z-2.8255
Y84.8148 Z-2.8288
Y84.9116 Z-2.832
Y85.0084 Z-2.8353
Y85.1052 Z-2.8385
Y85.202 Z-2.8416
Y85.2988 Z-2.8448
Y85.3956 Z-2.8479
Y85.4923 Z-2.851
Y85.5891 Z-2.8541
Y85.6859 Z-2.8571
Y85.7827 Z-2.8601
Y85.8795 Z-2.8631
Y85.9763 Z-2.8661
Y86.0731 Z-2.8691
Y86.1698 Z-2.872
Y86.2666 Z-2.8749
Y86.3634 Z-2.8778
Y86.4602 Z-2.8806
Y86.557 Z-2.8834
Y86.6538 Z-2.8862
Y86.7506 Z-2.889
Y86.8474 Z-2.8917
Y86.9441 Z-2.8945
Y87.0409 Z-2.8971
Y87.1377 Z-2.8998
Y87.2345 Z-2.9024
Y87.3313 Z-2.905
Y87.4281 Z-2.9076
Y87.5249 Z-2.9101
Y87.6217 Z-2.9126
Y87.8152 Z-2.9176
Y88.0088 Z-2.9224
Y88.2024 Z-2.9271
Y88.396 Z-2.9316
Y88.5895 Z-2.9361
Y88.7831 Z-2.9404
Y88.9767 Z-2.9445
Y89.1703 Z-2.9486
Y89.3638 Z-2.9525
Y89.5574 Z-2.9562
Y89.751 Z-2.9599
Y89.9446 Z-2.9634
X25.2509 Y90.0413 Z-2.965
X25.2543 Y90.0896 Z-2.9659
X25.2601 Y90.1377 Z-2.9667
X25.2683 Y90.1853 Z-2.9675
X25.2789 Y90.2326 Z-2.9683
X25.292 Y90.2792 Z-2.9691
X25.3074 Y90.3251 Z-2.9699
X25.3251 Y90.3701 Z-2.9707
X25.3451 Y90.4142 Z-2.9714
X25.3673 Y90.4572 Z-2.9722
X25.3916 Y90.499 Z-2.9729
X25.4181 Y90.5395 Z-2.9737
X25.4466 Y90.5786 Z-2.9744
X25.477 Y90.6162 Z-2.9751
X25.5094 Y90.6523 Z-2.9758
X25.5435 Y90.6866 Z-2.9765
X25.5793 Y90.7191 Z-2.9772
X25.6167 Y90.7498 Z-2.9779
X25.6557 Y90.7785 Z-2.9786
X25.696 Y90.8053 Z-2.9792
X25.7377 Y90.8299 Z-2.9799
X25.7805 Y90.8524 Z-2.9805
X25.8245 Y90.8726 Z-2.9812
X25.8694 Y90.8906 Z-2.9818
X25.9152 Y90.9063 Z-2.9824
X25.9617 Y90.9196 Z-2.983
X26.0089 Y90.9306 Z-2.9836
X26.0565 Y90.9391 Z-2.9842
X26.1045 Y90.9452 Z-2.9847
X26.1528 Y90.9488 Z-2.9853
X26.2012 Y90.95 Z-2.9859
X26.3948 Z-2.988
X26.5883 Z-2.9899
X26.7819 Z-2.9917
X26.9755 Z-2.9933
X27.1691 Z-2.9948
X27.3626 Z-2.996
X27.5562 Z-2.9971
X27.7498 Z-2.9981
X27.9434 Z-2.9988
X28.1369 Z-2.9994
X28.3305 Z-2.9998
X28.5241 Z-3
X28.6379
X325.7674
X325.8775 Y90.9468
X325.9326 Y90.9407
X325.9877 Y90.9313
X326.0427 Y90.9185
X326.0978 Y90.9021
X326.1528 Y90.8821
X326.2077 Y90.8581
X326.2079 Y90.858
X326.263 Y90.8296
X326.318 Y90.7963
X326.3519 Y90.7733
X326.3857 Y90.748
X326.4282 Y90.7127
X326.4661 Y90.6774
X326.5041 Y90.6379
X326.5383 Y90.5979
X326.5654 Y90.5628
X326.59 Y90.5277
X326.6212 Y90.4776
X326.6484 Y90.4275
X326.6533 Y90.4176
X326.6781 Y90.3626
X326.6989 Y90.3075
X326.7159 Y90.2525
X326.7293 Y90.1974
X326.7393 Y90.1424
X326.746 Y90.0873
X326.7495 Y90.0323
X326.75 Y89.9772
Y20.2818
X326.7496 Y20.1717
X326.7464 Y20.1166
X326.7399 Y20.0616
X326.7301 Y20.0065
X326.7169 Y19.9515
X326.7002 Y19.8964
X326.6797 Y19.8414
X326.6484 Y19.7725
X326.6263 Y19.7313
X326.5926 Y19.6762
X326.5533 Y19.6212
X326.5383 Y19.6021
X326.499 Y19.5566
X326.4542 Y19.5111
X326.4282 Y19.4873
X326.3731 Y19.4423
X326.318 Y19.4036
X326.3139 Y19.401
X326.2609 Y19.3693
X326.2079 Y19.342
X326.1528 Y19.3179
X326.0978 Y19.2979
X326.0757 Y19.2909
X326.0316 Y19.2787
X325.9877 Y19.2687
X325.9326 Y19.2593
X325.8775 Y19.2532
X325.7674 Y19.25
X26.2326
X26.1225 Y19.2532
X26.0674 Y19.2593
X26.0124 Y19.2687
X25.9684 Y19.2787
X25.9244 Y19.2909
X25.9022 Y19.2979
X25.8472 Y19.318
X25.7921 Y19.342
X25.7392 Y19.3693
X25.6862 Y19.401
X25.682 Y19.4037
X25.6269 Y19.4423
X25.5719 Y19.4873
X25.5459 Y19.5111
X25.5011 Y19.5566
X25.4618 Y19.6021
X25.4467 Y19.6212
X25.4075 Y19.6762
X25.3737 Y19.7313
X25.3516 Y19.7726
X25.3203 Y19.8414
X25.2999 Y19.8964
X25.2831 Y19.9515
X25.27 Y20.0065
X25.2602 Y20.0616
X25.2537 Y20.1166
X25.2505 Y20.1717
X25.25 Y20.2818
Y56.8433
Y89.9772
X25.2506 Y90.0323
X25.2541 Y90.0873
X25.2608 Y90.1424
X25.2708 Y90.1974
X25.2842 Y90.2525
X25.3012 Y90.3075
X25.322 Y90.3626
X25.3468 Y90.4176
X25.3516 Y90.4274
X25.3788 Y90.4776
X25.4101 Y90.5277
X25.4347 Y90.5628
X25.4618 Y90.5979
X25.496 Y90.6379
X25.5339 Y90.6774
X25.5719 Y90.7127
X25.6143 Y90.748
X25.6482 Y90.7733
X25.682 Y90.7963
X25.7371 Y90.8295
X25.7921 Y90.858
X25.7923 Y90.8581
X25.8473 Y90.8821
X25.9022 Y90.9021
X25.9573 Y90.9185
X26.0124 Y90.9313
X26.0674 Y90.9407
X26.1225 Y90.9468
X26.2326 Y90.95
X28.6379
X28.8315 Z-3.0001
X29.025 Z-3.0004
X29.2186 Z-3.0008
X29.4122 Z-3.0015
X29.6058 Z-3.0023
X29.7993 Z-3.0033
X29.9929 Z-3.0045
X30.1865 Z-3.0058
X30.38 Z-3.0073
X30.5736 Z-3.009
X30.7672 Z-3.0109
X30.9608 Z-3.0129
X31.1543 Z-3.0151
X31.3479 Z-3.0174
X31.5415 Z-3.0199
X31.7351 Z-3.0225
X31.9286 Z-3.0253
X32.1222 Z-3.0283
X32.3158 Z-3.0314
X32.5094 Z-3.0347
X32.7029 Z-3.0381
X32.8965 Z-3.0416
X33.0901 Z-3.0453
X33.2837 Z-3.0491
X33.4772 Z-3.0531
X33.6708 Z-3.0572
X33.8644 Z-3.0614
X34.058 Z-3.0658
X34.2515 Z-3.0702
X34.4451 Z-3.0749
X34.6387 Z-3.0796
X34.8323 Z-3.0845
X35.0258 Z-3.0894
X35.1226 Z-3.092
X35.2194 Z-3.0945
X35.3162 Z-3.0971
X35.413 Z-3.0997
X35.5098 Z-3.1024
X35.6066 Z-3.1051
X35.7034 Z-3.1078
X35.8001 Z-3.1105
X35.8969 Z-3.1133
X35.9937 Z-3.1161
X36.0905 Z-3.1189
X36.1873 Z-3.1217
X36.2841 Z-3.1246
X36.3809 Z-3.1275
X36.4776 Z-3.1304
X36.5744 Z-3.1334
X36.6712 Z-3.1363
X36.768 Z-3.1393
X36.8648 Z-3.1423
X36.9616 Z-3.1454
X37.0584 Z-3.1485
X37.1552 Z-3.1516
X37.2519 Z-3.1547
X37.3487 Z-3.1578
X37.4455 Z-3.161
X37.5423 Z-3.1642
X37.6391 Z-3.1674
X37.7359 Z-3.1706
X37.8327 Z-3.1739
X37.9295 Z-3.1772
X38.0262 Z-3.1805
X38.123 Z-3.1838
X38.2198 Z-3.1871
X38.4134 Z-3.1939
X38.5102 Z-3.1972
X38.607 Z-3.2006
X38.7038 Z-3.204
X38.8005 Z-3.2074
X38.8973 Z-3.2108
X38.9941 Z-3.2141
X39.0909 Z-3.2175
X39.1877 Z-3.2209
X39.2845 Z-3.2243
X39.3813 Z-3.2277
X39.4781 Z-3.231
X39.5748 Z-3.2344
X39.7684 Z-3.2412
X40.0588 Z-3.2513
X40.3491 Z-3.2614
X40.6395 Z-3.2716
X40.9299 Z-3.2817
X41.2202 Z-3.2919
X41.5106 Z-3.302
X41.801 Z-3.3121
X42.0913 Z-3.3223
X42.3817 Z-3.3324
X42.672 Z-3.3426
X43.156 Z-3.3595
X43.6399 Z-3.3764
X44.1239 Z-3.3933
X44.8014 Z-3.4169
X45.6724 Z-3.4473
X47.1243 Z-3.498
X54.0929 Z-3.7413
X54.3833 Z-3.7515
X54.6737 Z-3.7616
X54.7705 Z-3.765
X54.8672 Z-3.7684
X54.964 Z-3.7717
X55.0608 Z-3.7751
X55.1576 Z-3.7785
X55.2544 Z-3.7819
X55.3512 Z-3.7853
X55.448 Z-3.7886
X55.5448 Z-3.792
X55.6415 Z-3.7954
X55.7383 Z-3.7988
X55.8351 Z-3.8022
X55.9319 Z-3.8055
X56.0287 Z-3.8089
X56.1255 Z-3.8123
X56.2223 Z-3.8156
X56.3191 Z-3.819
X56.4158 Z-3.8223
X56.5126 Z-3.8255
X56.6094 Z-3.8288
X56.7062 Z-3.832
X56.803 Z-3.8353
X56.8998 Z-3.8385
X56.9966 Z-3.8416
X57.0934 Z-3.8448
X57.1901 Z-3.8479
X57.2869 Z-3.851
X57.3837 Z-3.8541
X57.4805 Z-3.8571
X57.5773 Z-3.8601
X57.6741 Z-3.8631
X57.7709 Z-3.8661
X57.8677 Z-3.8691
X57.9644 Z-3.872
X58.0612 Z-3.8749
X58.158 Z-3.8778
X58.2548 Z-3.8806
X58.3516 Z-3.8834
X58.4484 Z-3.8862
X58.5452 Z-3.889
X58.642 Z-3.8917
X58.7387 Z-3.8945
X58.8355 Z-3.8971
X58.9323 Z-3.8998
X59.0291 Z-3.9024
X59.1259 Z-3.905
X59.2227 Z-3.9076
X59.3195 Z-3.9101
X59.4163 Z-3.9126
X59.6098 Z-3.9176
X59.8034 Z-3.9224
X59.997 Z-3.9271
X60.1905 Z-3.9316
X60.3841 Z-3.9361
X60.5777 Z-3.9404
X60.7713 Z-3.9445
X60.9648 Z-3.9486
X61.1584 Z-3.9525
X61.352 Z-3.9562
X61.5456 Z-3.9599
X61.7391 Z-3.9634
X61.9327 Z-3.9667
X62.1263 Z-3.9699
X62.3199 Z-3.9729
X62.5134 Z-3.9758
X62.707 Z-3.9786
X62.9006 Z-3.9812
X63.0942 Z-3.9836
X63.2877 Z-3.9859
X63.4813 Z-3.988
X63.6749 Z-3.9899
X63.8685 Z-3.9917
X64.062 Z-3.9933
X64.2556 Z-3.9948
X64.4492 Z-3.996
X64.6428 Z-3.9971
X64.8363 Z-3.9981
X65.0299 Z-3.9988
X65.2235 Z-3.9994
X65.4171 Z-3.9998
X65.6106 Z-4
X65.7244
X325.7674
X325.8775 Y90.9468
X325.9326 Y90.9407
X325.9877 Y90.9313
X326.0427 Y90.9185
X326.0978 Y90.9021
X326.1528 Y90.8821
X326.2077 Y90.8581
X326.2079 Y90.858
X326.263 Y90.8296
X326.318 Y90.7963
X326.3519 Y90.7733
X326.3857 Y90.748
X326.4282 Y90.7127
X326.4661 Y90.6774
X326.5041 Y90.6379
X326.5383 Y90.5979
X326.5654 Y90.5628
X326.59 Y90.5277
X326.6212 Y90.4776
X326.6484 Y90.4275
X326.6533 Y90.4176
X326.6781 Y90.3626
X326.6989 Y90.3075
X326.7159 Y90.2525
X326.7293 Y90.1974
X326.7393 Y90.1424
X326.746 Y90.0873
X326.7495 Y90.0323
X326.75 Y89.9772
Y20.2818
X326.7496 Y20.1717
X326.7464 Y20.1166
X326.7399 Y20.0616
X326.7301 Y20.0065
X326.7169 Y19.9515
X326.7002 Y19.8964
X326.6797 Y19.8414
X326.6484 Y19.7725
X326.6263 Y19.7313
X326.5926 Y19.6762
X326.5533 Y19.6212
X326.5383 Y19.6021
X326.499 Y19.5566
X326.4542 Y19.5111
X326.4282 Y19.4873
X326.3731 Y19.4423
X326.318 Y19.4036
X326.3139 Y19.401
X326.2609 Y19.3693
X326.2079 Y19.342
X326.1528 Y19.3179
X326.0978 Y19.2979
X326.0757 Y19.2909
X326.0316 Y19.2787
X325.9877 Y19.2687
X325.9326 Y19.2593
X325.8775 Y19.2532
X325.7674 Y19.25
X26.2326
X26.1225 Y19.2532
X26.0674 Y19.2593
X26.0124 Y19.2687
X25.9684 Y19.2787
X25.9244 Y19.2909
X25.9022 Y19.2979
X25.8472 Y19.318
X25.7921 Y19.342
X25.7392 Y19.3693
X25.6862 Y19.401
X25.682 Y19.4037
X25.6269 Y19.4423
X25.5719 Y19.4873
X25.5459 Y19.5111
X25.5011 Y19.5566
X25.4618 Y19.6021
X25.4467 Y19.6212
X25.4075 Y19.6762
X25.3737 Y19.7313
X25.3516 Y19.7726
X25.3203 Y19.8414
X25.2999 Y19.8964
X25.2831 Y19.9515
X25.27 Y20.0065
X25.2602 Y20.0616
X25.2537 Y20.1166
X25.2505 Y20.1717
X25.25 Y20.2818
Y89.9772
X25.2506 Y90.0323
X25.2541 Y90.0873
X25.2608 Y90.1424
X25.2708 Y90.1974
X25.2842 Y90.2525
X25.3012 Y90.3075
X25.322 Y90.3626
X25.3468 Y90.4176
X25.3516 Y90.4274
X25.3788 Y90.4776
X25.4101 Y90.5277
X25.4347 Y90.5628
X25.4618 Y90.5979
X25.496 Y90.6379
X25.5339 Y90.6774
X25.5719 Y90.7127
X25.6143 Y90.748
X25.6482 Y90.7733
X25.682 Y90.7963
X25.7371 Y90.8295
X25.7921 Y90.858
X25.7923 Y90.8581
X25.8473 Y90.8821
X25.9022 Y90.9021
X25.9573 Y90.9185
X26.0124 Y90.9313
X26.0674 Y90.9407
X26.1225 Y90.9468
X26.2326 Y90.95
X65.7244
X65.918 Z-4.0001
X66.1116 Z-4.0004
X66.3052 Z-4.0008
X66.4987 Z-4.0015
X66.6923 Z-4.0023
X66.8859 Z-4.0033
X67.0795 Z-4.0045
X67.273 Z-4.0058
X67.4666 Z-4.0073
X67.6602 Z-4.009
X67.8538 Z-4.0109
X68.0473 Z-4.0129
X68.2409 Z-4.0151
X68.4345 Z-4.0174
X68.6281 Z-4.0199
X68.8216 Z-4.0225
X69.0152 Z-4.0253
X69.2088 Z-4.0283
X69.4024 Z-4.0314
X69.5959 Z-4.0347
X69.7895 Z-4.0381
X69.9831 Z-4.0416
X70.1767 Z-4.0453
X70.3702 Z-4.0491
X70.5638 Z-4.0531
X70.7574 Z-4.0572
X70.951 Z-4.0614
X71.1445 Z-4.0658
X71.3381 Z-4.0702
X71.5317 Z-4.0749
X71.7253 Z-4.0796
X71.9188 Z-4.0845
X72.1124 Z-4.0894
X72.2092 Z-4.092
X72.306 Z-4.0945
X72.4028 Z-4.0971
X72.4996 Z-4.0997
X72.5963 Z-4.1024
X72.6931 Z-4.1051
X72.7899 Z-4.1078
X72.8867 Z-4.1105
X72.9835 Z-4.1133
X73.0803 Z-4.1161
X73.1771 Z-4.1189
X73.2739 Z-4.1217
X73.3706 Z-4.1246
X73.4674 Z-4.1275
X73.5642 Z-4.1304
X73.661 Z-4.1334
X73.7578 Z-4.1363
X73.8546 Z-4.1393
X73.9514 Z-4.1423
X74.0481 Z-4.1454
X74.1449 Z-4.1485
X74.2417 Z-4.1516
X74.3385 Z-4.1547
X74.4353 Z-4.1578
X74.5321 Z-4.161
X74.6289 Z-4.1642
X74.7257 Z-4.1674
X74.8224 Z-4.1706
X74.9192 Z-4.1739
X75.016 Z-4.1772
X75.1128 Z-4.1805
X75.2096 Z-4.1838
X75.3064 Z-4.1871
X75.5 Z-4.1939
X75.5967 Z-4.1972
X75.6935 Z-4.2006
X75.7903 Z-4.204
X75.8871 Z-4.2074
X75.9839 Z-4.2108
X76.0807 Z-4.2141
X76.1775 Z-4.2175
X76.2743 Z-4.2209
X76.371 Z-4.2243
X76.4678 Z-4.2277
X76.5646 Z-4.231
X76.6614 Z-4.2344
X76.855 Z-4.2412
X77.1453 Z-4.2513
X77.4357 Z-4.2614
X77.7261 Z-4.2716
X78.0164 Z-4.2817
X78.3068 Z-4.2919
X78.5972 Z-4.302
X78.8875 Z-4.3121
X79.1779 Z-4.3223
X79.4682 Z-4.3324
X79.7586 Z-4.3426
X80.2425 Z-4.3595
X80.7265 Z-4.3764
X81.2104 Z-4.3933
X81.8879 Z-4.4169
X82.759 Z-4.4473
X84.2108 Z-4.498
X91.1795 Z-4.7413
X91.4699 Z-4.7515
X91.7602 Z-4.7616
X91.857 Z-4.765
X91.9538 Z-4.7684
X92.0506 Z-4.7717
X92.1474 Z-4.7751
X92.2442 Z-4.7785
X92.341 Z-4.7819
X92.4377 Z-4.7853
X92.5345 Z-4.7886
X92.6313 Z-4.792
X92.7281 Z-4.7954
X92.8249 Z-4.7988
X92.9217 Z-4.8022
X93.0185 Z-4.8055
X93.1153 Z-4.8089
X93.212 Z-4.8123
X93.3088 Z-4.8156
X93.4056 Z-4.819
X93.5024 Z-4.8223
X93.5992 Z-4.8255
X93.696 Z-4.8288
X93.7928 Z-4.832
X93.8896 Z-4.8353
X93.9863 Z-4.8385
X94.0831 Z-4.8416
X94.1799 Z-4.8448
X94.2767 Z-4.8479
X94.3735 Z-4.851
X94.4703 Z-4.8541
X94.5671 Z-4.8571
X94.6639 Z-4.8601
X94.7606 Z-4.8631
X94.8574 Z-4.8661
X94.9542 Z-4.8691
X95.051 Z-4.872
X95.1478 Z-4.8749
X95.2446 Z-4.8778
X95.3414 Z-4.8806
X95.4382 Z-4.8834
X95.5349 Z-4.8862
X95.6317 Z-4.889
X95.7285 Z-4.8917
X95.8253 Z-4.8945
X95.9221 Z-4.8971
X96.0189 Z-4.8998
X96.1157 Z-4.9024
X96.2125 Z-4.905
X96.3092 Z-4.9076
X96.406 Z-4.9101
X96.5028 Z-4.9126
X96.6964 Z-4.9176
X96.89 Z-4.9224
X97.0835 Z-4.9271
X97.2771 Z-4.9316
X97.4707 Z-4.9361
X97.6643 Z-4.9404
X97.8578 Z-4.9445
X98.0514 Z-4.9486
X98.245 Z-4.9525
X98.4386 Z-4.9562
X98.6321 Z-4.9599
X98.8257 Z-4.9634
X99.0193 Z-4.9667
X99.2129 Z-4.9699
X99.4064 Z-4.9729
X99.6 Z-4.9758
X99.7936 Z-4.9786
X99.9872 Z-4.9812
X100.1807 Z-4.9836
X100.3743 Z-4.9859
X100.5679 Z-4.988
X100.7615 Z-4.9899
X100.955 Z-4.9917
X101.1486 Z-4.9933
X101.3422 Z-4.9948
X101.5358 Z-4.996
X101.7293 Z-4.9971
X101.9229 Z-4.9981
X102.1165 Z-4.9988
X102.3101 Z-4.9994
X102.5036 Z-4.9998
X102.6972 Z-5
X102.811
X325.7674
X325.8775 Y90.9468
X325.9326 Y90.9407
X325.9877 Y90.9313
X326.0427 Y90.9185
X326.0978 Y90.9021
X326.1528 Y90.8821
X326.2077 Y90.8581
X326.2079 Y90.858
X326.263 Y90.8296
X326.318 Y90.7963
X326.3519 Y90.7733
X326.3857 Y90.748
X326.4282 Y90.7127
X326.4661 Y90.6774
X326.5041 Y90.6379
X326.5383 Y90.5979
X326.5654 Y90.5628
X326.59 Y90.5277
X326.6212 Y90.4776
X326.6484 Y90.4275
X326.6533 Y90.4176
X326.6781 Y90.3626
X326.6989 Y90.3075
X326.7159 Y90.2525
X326.7293 Y90.1974
X326.7393 Y90.1424
X326.746 Y90.0873
X326.7495 Y90.0323
X326.75 Y89.9772
Y20.2818
X326.7496 Y20.1717
X326.7464 Y20.1166
X326.7399 Y20.0616
X326.7301 Y20.0065
X326.7169 Y19.9515
X326.7002 Y19.8964
X326.6797 Y19.8414
X326.6484 Y19.7725
X326.6263 Y19.7313
X326.5926 Y19.6762
X326.5533 Y19.6212
X326.5383 Y19.6021
X326.499 Y19.5566
X326.4542 Y19.5111
X326.4282 Y19.4873
X326.3731 Y19.4423
X326.318 Y19.4036
X326.3139 Y19.401
X326.2609 Y19.3693
X326.2079 Y19.342
X326.1528 Y19.3179
X326.0978 Y19.2979
X326.0757 Y19.2909
X326.0316 Y19.2787
X325.9877 Y19.2687
X325.9326 Y19.2593
X325.8775 Y19.2532
X325.7674 Y19.25
X26.2326
X26.1225 Y19.2532
X26.0674 Y19.2593
X26.0124 Y19.2687
X25.9684 Y19.2787
X25.9244 Y19.2909
X25.9022 Y19.2979
X25.8472 Y19.318
X25.7921 Y19.342
X25.7392 Y19.3693
X25.6862 Y19.401
X25.682 Y19.4037
X25.6269 Y19.4423
X25.5719 Y19.4873
X25.5459 Y19.5111
X25.5011 Y19.5566
X25.4618 Y19.6021
X25.4467 Y19.6212
X25.4075 Y19.6762
X25.3737 Y19.7313
X25.3516 Y19.7726
X25.3203 Y19.8414
X25.2999 Y19.8964
X25.2831 Y19.9515
X25.27 Y20.0065
X25.2602 Y20.0616
X25.2537 Y20.1166
X25.2505 Y20.1717
X25.25 Y20.2818
Y89.9772
X25.2506 Y90.0323
X25.2541 Y90.0873
X25.2608 Y90.1424
X25.2708 Y90.1974
X25.2842 Y90.2525
X25.3012 Y90.3075
X25.322 Y90.3626
X25.3468 Y90.4176
X25.3516 Y90.4274
X25.3788 Y90.4776
X25.4101 Y90.5277
X25.4347 Y90.5628
X25.4618 Y90.5979
X25.496 Y90.6379
X25.5339 Y90.6774
X25.5719 Y90.7127
X25.6143 Y90.748
X25.6482 Y90.7733
X25.682 Y90.7963
X25.7371 Y90.8295
X25.7921 Y90.858
X25.7923 Y90.8581
X25.8473 Y90.8821
X25.9022 Y90.9021
X25.9573 Y90.9185
X26.0124 Y90.9313
X26.0674 Y90.9407
X26.1225 Y90.9468
X26.2326 Y90.95
X65.7244
X102.811
X103.0046 Z-5.0001
X103.1982 Z-5.0004
X103.3917 Z-5.0008
X103.5853 Z-5.0015
X103.7789 Z-5.0023
X103.9725 Z-5.0033
X104.166 Z-5.0045
X104.3596 Z-5.0058
X104.5532 Z-5.0073
X104.7467 Z-5.009
X104.9403 Z-5.0109
X105.1339 Z-5.0129
X105.3275 Z-5.0151
X105.521 Z-5.0174
X105.7146 Z-5.0199
X105.9082 Z-5.0225
X106.1018 Z-5.0253
X106.2953 Z-5.0283
X106.4889 Z-5.0314
X106.6825 Z-5.0347
X106.8761 Z-5.0381
X107.0696 Z-5.0416
X107.2632 Z-5.0453
X107.4568 Z-5.0491
X107.6504 Z-5.0531
X107.8439 Z-5.0572
X108.0375 Z-5.0614
X108.2311 Z-5.0658
X108.4247 Z-5.0702
X108.6182 Z-5.0749
X108.8118 Z-5.0796
X109.0054 Z-5.0845
X109.199 Z-5.0894
X109.2958 Z-5.092
X109.3925 Z-5.0945
X109.4893 Z-5.0971
X109.5861 Z-5.0997
X109.6829 Z-5.1024
X109.7797 Z-5.1051
X109.8765 Z-5.1078
X109.9733 Z-5.1105
X110.0701 Z-5.1133
X110.1668 Z-5.1161
X110.2636 Z-5.1189
X110.3604 Z-5.1217
X110.4572 Z-5.1246
X110.554 Z-5.1275
X110.6508 Z-5.1304
X110.7476 Z-5.1334
X110.8444 Z-5.1363
X110.9411 Z-5.1393
X111.0379 Z-5.1423
X111.1347 Z-5.1454
X111.2315 Z-5.1485
X111.3283 Z-5.1516
X111.4251 Z-5.1547
X111.5219 Z-5.1578
X111.6187 Z-5.161
X111.7154 Z-5.1642
X111.8122 Z-5.1674
X111.909 Z-5.1706
X112.0058 Z-5.1739
X112.1026 Z-5.1772
X112.1994 Z-5.1805
X112.2962 Z-5.1838
X112.393 Z-5.1871
X112.5865 Z-5.1939
X112.6833 Z-5.1972
X112.7801 Z-5.2006
X112.8769 Z-5.204
X112.9737 Z-5.2074
X113.0705 Z-5.2108
X113.1673 Z-5.2141
X113.264 Z-5.2175
X113.3608 Z-5.2209
X113.4576 Z-5.2243
X113.5544 Z-5.2277
X113.6512 Z-5.231
X113.748 Z-5.2344
X113.9416 Z-5.2412
X114.2319 Z-5.2513
X114.5223 Z-5.2614
X114.8126 Z-5.2716
X115.103 Z-5.2817
X115.3934 Z-5.2919
X115.6837 Z-5.302
X115.9741 Z-5.3121
X116.2644 Z-5.3223
X116.5548 Z-5.3324
X116.8452 Z-5.3426
X117.3291 Z-5.3595
X117.813 Z-5.3764
X118.297 Z-5.3933
X118.9745 Z-5.4169
X119.8456 Z-5.4473
X121.2974 Z-5.498
X128.2661 Z-5.7413
X128.5564 Z-5.7515
X128.8468 Z-5.7616
X128.9436 Z-5.765
X129.0404 Z-5.7684
X129.1372 Z-5.7717
X129.2339 Z-5.7751
X129.3307 Z-5.7785
X129.4275 Z-5.7819
X129.5243 Z-5.7853
X129.6211 Z-5.7886
X129.7179 Z-5.792
X129.8147 Z-5.7954
X129.9115 Z-5.7988
X130.0083 Z-5.8022
X130.105 Z-5.8055
X130.2018 Z-5.8089
X130.2986 Z-5.8123
X130.3954 Z-5.8156
X130.4922 Z-5.819
X130.589 Z-5.8223
X130.6858 Z-5.8255
X130.7825 Z-5.8288
X130.8793 Z-5.832
X130.9761 Z-5.8353
X131.0729 Z-5.8385
X131.1697 Z-5.8416
X131.2665 Z-5.8448
X131.3633 Z-5.8479
X131.4601 Z-5.851
X131.5568 Z-5.8541
X131.6536 Z-5.8571
X131.7504 Z-5.8601
X131.8472 Z-5.8631
X131.944 Z-5.8661
X132.0408 Z-5.8691
X132.1376 Z-5.872
X132.2344 Z-5.8749
X132.3311 Z-5.8778
X132.4279 Z-5.8806
X132.5247 Z-5.8834
X132.6215 Z-5.8862
X132.7183 Z-5.889
X132.8151 Z-5.8917
X132.9119 Z-5.8945
X133.0087 Z-5.8971
X133.1054 Z-5.8998
X133.2022 Z-5.9024
X133.299 Z-5.905
X133.3958 Z-5.9076
X133.4926 Z-5.9101
X133.5894 Z-5.9126
X133.783 Z-5.9176
X133.9765 Z-5.9224
X134.1701 Z-5.9271
X134.3637 Z-5.9316
X134.5573 Z-5.9361
X134.7508 Z-5.9404
X134.9444 Z-5.9445
X135.138 Z-5.9486
X135.3316 Z-5.9525
X135.5251 Z-5.9562
X135.7187 Z-5.9599
X135.9123 Z-5.9634
X136.1059 Z-5.9667
X136.2994 Z-5.9699
X136.493 Z-5.9729
X136.6866 Z-5.9758
X136.8801 Z-5.9786
X137.0737 Z-5.9812
X137.2673 Z-5.9836
X137.4609 Z-5.9859
X137.6544 Z-5.988
X137.848 Z-5.9899
X138.0416 Z-5.9917
X138.2352 Z-5.9933
X138.4287 Z-5.9948
X138.6223 Z-5.996
X138.8159 Z-5.9971
X139.0095 Z-5.9981
X139.203 Z-5.9988
X139.3966 Z-5.9994
X139.5902 Z-5.9998
X139.7838 Z-6
X139.8976
X325.7674
X325.8775 Y90.9468
X325.9326 Y90.9407
X325.9877 Y90.9313
X326.0427 Y90.9185
X326.0978 Y90.9021
X326.1528 Y90.8821
X326.2077 Y90.8581
X326.2079 Y90.858
X326.263 Y90.8296
X326.318 Y90.7963
X326.3519 Y90.7733
X326.3857 Y90.748
X326.4282 Y90.7127
X326.4661 Y90.6774
X326.5041 Y90.6379
X326.5383 Y90.5979
X326.5654 Y90.5628
X326.59 Y90.5277
X326.6212 Y90.4776
X326.6484 Y90.4275
X326.6533 Y90.4176
X326.6781 Y90.3626
X326.6989 Y90.3075
X326.7159 Y90.2525
X326.7293 Y90.1974
X326.7393 Y90.1424
X326.746 Y90.0873
X326.7495 Y90.0323
X326.75 Y89.9772
Y20.2818
X326.7496 Y20.1717
X326.7464 Y20.1166
X326.7399 Y20.0616
X326.7301 Y20.0065
X326.7169 Y19.9515
X326.7002 Y19.8964
X326.6797 Y19.8414
X326.6484 Y19.7725
X326.6263 Y19.7313
X326.5926 Y19.6762
X326.5533 Y19.6212
X326.5383 Y19.6021
X326.499 Y19.5566
X326.4542 Y19.5111
X326.4282 Y19.4873
X326.3731 Y19.4423
X326.318 Y19.4036
X326.3139 Y19.401
X326.2609 Y19.3693
X326.2079 Y19.342
X326.1528 Y19.3179
X326.0978 Y19.2979
X326.0757 Y19.2909
X326.0316 Y19.2787
X325.9877 Y19.2687
X325.9326 Y19.2593
X325.8775 Y19.2532
X325.7674 Y19.25
X26.2326
X26.1225 Y19.2532
X26.0674 Y19.2593
X26.0124 Y19.2687
X25.9684 Y19.2787
X25.9244 Y19.2909
X25.9022 Y19.2979
X25.8472 Y19.318
X25.7921 Y19.342
X25.7392 Y19.3693
X25.6862 Y19.401
X25.682 Y19.4037
X25.6269 Y19.4423
X25.5719 Y19.4873
X25.5459 Y19.5111
X25.5011 Y19.5566
X25.4618 Y19.6021
X25.4467 Y19.6212
X25.4075 Y19.6762
X25.3737 Y19.7313
X25.3516 Y19.7726
X25.3203 Y19.8414
X25.2999 Y19.8964
X25.2831 Y19.9515
X25.27 Y20.0065
X25.2602 Y20.0616
X25.2537 Y20.1166
X25.2505 Y20.1717
X25.25 Y20.2818
Y89.9772
X25.2506 Y90.0323
X25.2541 Y90.0873
X25.2608 Y90.1424
X25.2708 Y90.1974
X25.2842 Y90.2525
X25.3012 Y90.3075
X25.322 Y90.3626
X25.3468 Y90.4176
X25.3516 Y90.4274
X25.3788 Y90.4776
X25.4101 Y90.5277
X25.4347 Y90.5628
X25.4618 Y90.5979
X25.496 Y90.6379
X25.5339 Y90.6774
X25.5719 Y90.7127
X25.6143 Y90.748
X25.6482 Y90.7733
X25.682 Y90.7963
X25.7371 Y90.8295
X25.7921 Y90.858
X25.7923 Y90.8581
X25.8473 Y90.8821
X25.9022 Y90.9021
X25.9573 Y90.9185
X26.0124 Y90.9313
X26.0674 Y90.9407
X26.1225 Y90.9468
X26.2326 Y90.95
X102.811
X139.8976
X140.0911 Z-6.0001
X140.2847 Z-6.0004
X140.4783 Z-6.0008
X140.6719 Z-6.0015
X140.8654 Z-6.0023
X141.059 Z-6.0033
X141.2526 Z-6.0045
X141.4462 Z-6.0058
X141.6397 Z-6.0073
X141.8333 Z-6.009
X142.0269 Z-6.0109
X142.2205 Z-6.0129
X142.414 Z-6.0151
X142.6076 Z-6.0174
X142.8012 Z-6.0199
X142.9948 Z-6.0225
X143.1883 Z-6.0253
X143.3819 Z-6.0283
X143.5755 Z-6.0314
X143.7691 Z-6.0347
X143.9626 Z-6.0381
X144.1562 Z-6.0416
X144.3498 Z-6.0453
X144.5434 Z-6.0491
X144.7369 Z-6.0531
X144.9305 Z-6.0572
X145.1241 Z-6.0614
X145.3177 Z-6.0658
X145.5112 Z-6.0702
X145.7048 Z-6.0749
X145.8984 Z-6.0796
X146.092 Z-6.0845
X146.2855 Z-6.0894
X146.3823 Z-6.092
X146.4791 Z-6.0945
X146.5759 Z-6.0971
X146.6727 Z-6.0997
X146.7695 Z-6.1024
X146.8663 Z-6.1051
X146.963 Z-6.1078
X147.0598 Z-6.1105
X147.1566 Z-6.1133
X147.2534 Z-6.1161
X147.3502 Z-6.1189
X147.447 Z-6.1217
X147.5438 Z-6.1246
X147.6406 Z-6.1275
X147.7374 Z-6.1304
X147.8341 Z-6.1334
X147.9309 Z-6.1363
X148.0277 Z-6.1393
X148.1245 Z-6.1423
X148.2213 Z-6.1454
X148.3181 Z-6.1485
X148.4149 Z-6.1516
X148.5116 Z-6.1547
X148.6084 Z-6.1578
X148.7052 Z-6.161
X148.802 Z-6.1642
X148.8988 Z-6.1674
X148.9956 Z-6.1706
X149.0924 Z-6.1739
X149.1891 Z-6.1772
X149.2859 Z-6.1805
X149.3827 Z-6.1838
X149.4795 Z-6.1871
X149.6731 Z-6.1939
X149.7699 Z-6.1972
X149.8667 Z-6.2006
X149.9635 Z-6.204
X150.0602 Z-6.2074
X150.157 Z-6.2108
X150.2538 Z-6.2141
X150.3506 Z-6.2175
X150.4474 Z-6.2209
X150.5442 Z-6.2243
X150.641 Z-6.2277
X150.7377 Z-6.231
X150.8345 Z-6.2344
X151.0281 Z-6.2412
X151.3185 Z-6.2513
X151.6088 Z-6.2614
X151.8992 Z-6.2716
X152.1896 Z-6.2817
X152.4799 Z-6.2919
X152.7703 Z-6.302
X153.0607 Z-6.3121
X153.351 Z-6.3223
X153.6414 Z-6.3324
X153.9317 Z-6.3426
X154.4157 Z-6.3595
X154.8996 Z-6.3764
X155.3835 Z-6.3933
X156.0611 Z-6.4169
X156.9321 Z-6.4473
X158.384 Z-6.498
X165.3526 Z-6.7413
X165.643 Z-6.7515
X165.9334 Z-6.7616
X166.0302 Z-6.765
X166.1269 Z-6.7684
X166.2237 Z-6.7717
X166.3205 Z-6.7751
X166.4173 Z-6.7785
X166.5141 Z-6.7819
X166.6109 Z-6.7853
X166.7077 Z-6.7886
X166.8044 Z-6.792
X166.9012 Z-6.7954
X166.998 Z-6.7988
X167.0948 Z-6.8022
X167.1916 Z-6.8055
X167.2884 Z-6.8089
X167.3852 Z-6.8123
X167.482 Z-6.8156
X167.5788 Z-6.819
X167.6755 Z-6.8223
X167.7723 Z-6.8255
X167.8691 Z-6.8288
X167.9659 Z-6.832
X168.0627 Z-6.8353
X168.1595 Z-6.8385
X168.2563 Z-6.8416
X168.353 Z-6.8448
X168.4498 Z-6.8479
X168.5466 Z-6.851
X168.6434 Z-6.8541
X168.7402 Z-6.8571
X168.837 Z-6.8601
X168.9338 Z-6.8631
X169.0306 Z-6.8661
X169.1273 Z-6.8691
X169.2241 Z-6.872
X169.3209 Z-6.8749
X169.4177 Z-6.8778
X169.5145 Z-6.8806
X169.6113 Z-6.8834
X169.7081 Z-6.8862
X169.8049 Z-6.889
X169.9016 Z-6.8917
X169.9984 Z-6.8945
X170.0952 Z-6.8971
X170.192 Z-6.8998
X170.2888 Z-6.9024
X170.3856 Z-6.905
X170.4824 Z-6.9076
X170.5792 Z-6.9101
X170.6759 Z-6.9126
X170.8695 Z-6.9176
X171.0631 Z-6.9224
X171.2567 Z-6.9271
X171.4502 Z-6.9316
X171.6438 Z-6.9361
X171.8374 Z-6.9404
X172.031 Z-6.9445
X172.2245 Z-6.9486
X172.4181 Z-6.9525
X172.6117 Z-6.9562
X172.8053 Z-6.9599
X172.9988 Z-6.9634
X173.1924 Z-6.9667
X173.386 Z-6.9699
X173.5796 Z-6.9729
X173.7731 Z-6.9758
X173.9667 Z-6.9786
X174.1603 Z-6.9812
X174.3539 Z-6.9836
X174.5474 Z-6.9859
X174.741 Z-6.988
X174.9346 Z-6.9899
X175.1282 Z-6.9917
X175.3217 Z-6.9933
X175.5153 Z-6.9948
X175.7089 Z-6.996
X175.9025 Z-6.9971
X176.096 Z-6.9981
X176.2896 Z-6.9988
X176.4832 Z-6.9994
X176.6768 Z-6.9998
X176.8703 Z-7
X176.9841
X351.9767
X352.0318 Y90.9495
X352.0868 Y90.946
X352.1419 Y90.9393
X352.197 Y90.9294
X352.252 Y90.916
X352.3071 Y90.899
X352.3574 Y90.8802
X352.4077 Y90.8581
X352.4172 Y90.8535
X352.4723 Y90.8243
X352.5273 Y90.7902
X352.5858 Y90.748
X352.6375 Y90.7044
X352.6707 Y90.6728
X352.704 Y90.6379
X352.7476 Y90.5862
X352.7899 Y90.5277
X352.8241 Y90.4727
X352.8533 Y90.4176
X352.8577 Y90.4085
X352.88 Y90.358
X352.8989 Y90.3075
X352.9159 Y90.2525
X352.9293 Y90.1974
X352.9393 Y90.1424
X352.946 Y90.0873
X352.9495 Y90.0323
X352.95 Y89.9772
Y0.0228
X352.9495 Y-0.0323
X352.946 Y-0.0873
X352.9393 Y-0.1424
X352.9293 Y-0.1974
X352.9159 Y-0.2525
X352.8989 Y-0.3075
X352.88 Y-0.358
X352.8577 Y-0.4085
X352.8533 Y-0.4176
X352.8241 Y-0.4727
X352.7899 Y-0.5277
X352.7476 Y-0.5862
X352.704 Y-0.6379
X352.6707 Y-0.6728
X352.6375 Y-0.7044
X352.5858 Y-0.748
X352.5273 Y-0.7902
X352.4723 Y-0.8243
X352.4172 Y-0.8535
X352.4077 Y-0.8581
X352.3574 Y-0.8802
X352.3071 Y-0.899
X352.252 Y-0.916
X352.197 Y-0.9294
X352.1419 Y-0.9393
X352.0868 Y-0.946
X352.0318 Y-0.9495
X351.9767 Y-0.95
X25.3516
X0.0233
X-0.0317 Y-0.9495
X-0.0868 Y-0.946
X-0.1419 Y-0.9393
X-0.1969 Y-0.9294
X-0.252 Y-0.916
X-0.307 Y-0.899
X-0.3574 Y-0.8802
X-0.4077 Y-0.8581
X-0.4172 Y-0.8535
X-0.4722 Y-0.8243
X-0.5273 Y-0.7902
X-0.5857 Y-0.748
X-0.6374 Y-0.7044
X-0.6707 Y-0.6728
X-0.704 Y-0.6379
X-0.7475 Y-0.5862
X-0.7899 Y-0.5277
X-0.824 Y-0.4727
X-0.8533 Y-0.4176
X-0.8577 Y-0.4085
X-0.8799 Y-0.358
X-0.8988 Y-0.3075
X-0.9158 Y-0.2525
X-0.9293 Y-0.1974
X-0.9393 Y-0.1424
X-0.946 Y-0.0873
X-0.9495 Y-0.0323
X-0.95 Y0.0228
Y89.9772
X-0.9495 Y90.0323
X-0.946 Y90.0873
X-0.9393 Y90.1424
X-0.9293 Y90.1974
X-0.9158 Y90.2525
X-0.8988 Y90.3075
X-0.8799 Y90.358
X-0.8577 Y90.4085
X-0.8533 Y90.4176
X-0.824 Y90.4727
X-0.7899 Y90.5277
X-0.7475 Y90.5862
X-0.704 Y90.6379
X-0.6707 Y90.6728
X-0.6374 Y90.7044
X-0.5857 Y90.748
X-0.5273 Y90.7902
X-0.4722 Y90.8243
X-0.4172 Y90.8535
X-0.4077 Y90.8581
X-0.3574 Y90.8802
X-0.307 Y90.899
X-0.252 Y90.916
X-0.1969 Y90.9294
X-0.1419 Y90.9393
X-0.0868 Y90.946
X-0.0317 Y90.9495
X0.0233 Y90.95
X139.8976
X176.9841
X177.1777 Z-7.0001
X177.3713 Z-7.0004
X177.5649 Z-7.0008
X177.7584 Z-7.0015
X177.952 Z-7.0023
X178.1456 Z-7.0033
X178.3392 Z-7.0045
X178.5327 Z-7.0058
X178.7263 Z-7.0073
X178.9199 Z-7.009
X179.1134 Z-7.0109
X179.307 Z-7.0129
X179.5006 Z-7.0151
X179.6942 Z-7.0174
X179.8878 Z-7.0199
X180.0813 Z-7.0225
X180.2749 Z-7.0253
X180.4685 Z-7.0283
X180.662 Z-7.0314
X180.8556 Z-7.0347
X181.0492 Z-7.0381
X181.2428 Z-7.0416
X181.4364 Z-7.0453
X181.6299 Z-7.0491
X181.8235 Z-7.0531
X182.0171 Z-7.0572
X182.2106 Z-7.0614
X182.4042 Z-7.0658
X182.5978 Z-7.0702
X182.7914 Z-7.0749
X182.985 Z-7.0796
X183.1785 Z-7.0845
X183.3721 Z-7.0894
X183.4689 Z-7.092
X183.5657 Z-7.0945
X183.6625 Z-7.0971
X183.7592 Z-7.0997
X183.856 Z-7.1024
X183.9528 Z-7.1051
X184.0496 Z-7.1078
X184.1464 Z-7.1105
X184.2432 Z-7.1133
X184.34 Z-7.1161
X184.4368 Z-7.1189
X184.5336 Z-7.1217
X184.6303 Z-7.1246
X184.7271 Z-7.1275
X184.8239 Z-7.1304
X184.9207 Z-7.1334
X185.0175 Z-7.1363
X185.1143 Z-7.1393
X185.2111 Z-7.1423
X185.3078 Z-7.1454
X185.4046 Z-7.1485
X185.5014 Z-7.1516
X185.5982 Z-7.1547
X185.695 Z-7.1578
X185.7918 Z-7.161
X185.8886 Z-7.1642
X185.9854 Z-7.1674
X186.0821 Z-7.1706
X186.1789 Z-7.1739
X186.2757 Z-7.1772
X186.3725 Z-7.1805
X186.4693 Z-7.1838
X186.5661 Z-7.1871
X186.7597 Z-7.1939
X186.8564 Z-7.1972
X186.9532 Z-7.2006
X187.05 Z-7.204
X187.1468 Z-7.2074
X187.2436 Z-7.2108
X187.3404 Z-7.2141
X187.4372 Z-7.2175
X187.534 Z-7.2209
X187.6307 Z-7.2243
X187.7275 Z-7.2277
X187.8243 Z-7.231
X187.9211 Z-7.2344
X188.1147 Z-7.2412
X188.405 Z-7.2513
X188.6954 Z-7.2614
X188.9858 Z-7.2716
X189.2761 Z-7.2817
X189.5665 Z-7.2919
X189.8569 Z-7.302
X190.1472 Z-7.3121
X190.4376 Z-7.3223
X190.7279 Z-7.3324
X191.0183 Z-7.3426
X191.5022 Z-7.3595
X191.9862 Z-7.3764
X192.4701 Z-7.3933
X193.1476 Z-7.4169
X194.0187 Z-7.4473
X195.4705 Z-7.498
X202.4392 Z-7.7413
X202.7296 Z-7.7515
X203.0199 Z-7.7616
X203.1167 Z-7.765
X203.2135 Z-7.7684
X203.3103 Z-7.7717
X203.4071 Z-7.7751
X203.5039 Z-7.7785
X203.6006 Z-7.7819
X203.6974 Z-7.7853
X203.7942 Z-7.7886
X203.891 Z-7.792
X203.9878 Z-7.7954
X204.0846 Z-7.7988
X204.1814 Z-7.8022
X204.2782 Z-7.8055
X204.375 Z-7.8089
X204.4717 Z-7.8123
X204.5685 Z-7.8156
X204.6653 Z-7.819
X204.7621 Z-7.8223
X204.8589 Z-7.8255
X204.9557 Z-7.8288
X205.0525 Z-7.832
X205.1492 Z-7.8353
X205.246 Z-7.8385
X205.3428 Z-7.8416
X205.4396 Z-7.8448
X205.5364 Z-7.8479
X205.6332 Z-7.851
X205.73 Z-7.8541
X205.8268 Z-7.8571
X205.9236 Z-7.8601
X206.0203 Z-7.8631
X206.1171 Z-7.8661
X206.2139 Z-7.8691
X206.3107 Z-7.872
X206.4075 Z-7.8749
X206.5043 Z-7.8778
X206.6011 Z-7.8806
X206.6978 Z-7.8834
X206.7946 Z-7.8862
X206.8914 Z-7.889
X206.9882 Z-7.8917
X207.085 Z-7.8945
X207.1818 Z-7.8971
X207.2786 Z-7.8998
X207.3754 Z-7.9024
X207.4722 Z-7.905
X207.5689 Z-7.9076
X207.6657 Z-7.9101
X207.7625 Z-7.9126
X207.9561 Z-7.9176
X208.1497 Z-7.9224
X208.3432 Z-7.9271
X208.5368 Z-7.9316
X208.7304 Z-7.9361
X208.924 Z-7.9404
X209.1175 Z-7.9445
X209.3111 Z-7.9486
X209.5047 Z-7.9525
X209.6983 Z-7.9562
X209.8918 Z-7.9599
X210.0854 Z-7.9634
X210.279 Z-7.9667
X210.4725 Z-7.9699
X210.6661 Z-7.9729
X210.8597 Z-7.9758
X211.0533 Z-7.9786
X211.2469 Z-7.9812
X211.4404 Z-7.9836
X211.634 Z-7.9859
X211.8276 Z-7.988
X212.0211 Z-7.9899
X212.2147 Z-7.9917
X212.4083 Z-7.9933
X212.6019 Z-7.9948
X212.7955 Z-7.996
X212.989 Z-7.9971
X213.1826 Z-7.9981
X213.3762 Z-7.9988
X213.5697 Z-7.9994
X213.7633 Z-7.9998
X213.9569 Z-8
X214.0707
X351.9767
X352.0318 Y90.9495
X352.0868 Y90.946
X352.1419 Y90.9393
X352.197 Y90.9294
X352.252 Y90.916
X352.3071 Y90.899
X352.3574 Y90.8802
X352.4077 Y90.8581
X352.4172 Y90.8535
X352.4723 Y90.8243
X352.5273 Y90.7902
X352.5858 Y90.748
X352.6375 Y90.7044
X352.6707 Y90.6728
X352.704 Y90.6379
X352.7476 Y90.5862
X352.7899 Y90.5277
X352.8241 Y90.4727
X352.8533 Y90.4176
X352.8577 Y90.4085
X352.88 Y90.358
X352.8989 Y90.3075
X352.9159 Y90.2525
X352.9293 Y90.1974
X352.9393 Y90.1424
X352.946 Y90.0873
X352.9495 Y90.0323
X352.95 Y89.9772
Y0.0228
X352.9495 Y-0.0323
X352.946 Y-0.0873
X352.9393 Y-0.1424
X352.9293 Y-0.1974
X352.9159 Y-0.2525
X352.8989 Y-0.3075
X352.88 Y-0.358
X352.8577 Y-0.4085
X352.8533 Y-0.4176
X352.8241 Y-0.4727
X352.7899 Y-0.5277
X352.7476 Y-0.5862
X352.704 Y-0.6379
X352.6707 Y-0.6728
X352.6375 Y-0.7044
X352.5858 Y-0.748
X352.5273 Y-0.7902
X352.4723 Y-0.8243
X352.4172 Y-0.8535
X352.4077 Y-0.8581
X352.3574 Y-0.8802
X352.3071 Y-0.899
X352.252 Y-0.916
X352.197 Y-0.9294
X352.1419 Y-0.9393
X352.0868 Y-0.946
X352.0318 Y-0.9495
X351.9767 Y-0.95
X25.3516
X0.0233
X-0.0317 Y-0.9495
X-0.0868 Y-0.946
X-0.1419 Y-0.9393
X-0.1969 Y-0.9294
X-0.252 Y-0.916
X-0.307 Y-0.899
X-0.3574 Y-0.8802
X-0.4077 Y-0.8581
X-0.4172 Y-0.8535
X-0.4722 Y-0.8243
X-0.5273 Y-0.7902
X-0.5857 Y-0.748
X-0.6374 Y-0.7044
X-0.6707 Y-0.6728
X-0.704 Y-0.6379
X-0.7475 Y-0.5862
X-0.7899 Y-0.5277
X-0.824 Y-0.4727
X-0.8533 Y-0.4176
X-0.8577 Y-0.4085
X-0.8799 Y-0.358
X-0.8988 Y-0.3075
X-0.9158 Y-0.2525
X-0.9293 Y-0.1974
X-0.9393 Y-0.1424
X-0.946 Y-0.0873
X-0.9495 Y-0.0323
X-0.95 Y0.0228
Y89.9772
X-0.9495 Y90.0323
X-0.946 Y90.0873
X-0.9393 Y90.1424
X-0.9293 Y90.1974
X-0.9158 Y90.2525
X-0.8988 Y90.3075
X-0.8799 Y90.358
X-0.8577 Y90.4085
X-0.8533 Y90.4176
X-0.824 Y90.4727
X-0.7899 Y90.5277
X-0.7475 Y90.5862
X-0.704 Y90.6379
X-0.6707 Y90.6728
X-0.6374 Y90.7044
X-0.5857 Y90.748
X-0.5273 Y90.7902
X-0.4722 Y90.8243
X-0.4172 Y90.8535
X-0.4077 Y90.8581
X-0.3574 Y90.8802
X-0.307 Y90.899
X-0.252 Y90.916
X-0.1969 Y90.9294
X-0.1419 Y90.9393
X-0.0868 Y90.946
X-0.0317 Y90.9495
X0.0233 Y90.95
X176.9841
X214.0707
X214.2643 Z-8.0001
X214.4579 Z-8.0004
X214.6514 Z-8.0008
X214.845 Z-8.0015
X215.0386 Z-8.0023
X215.2321 Z-8.0033
X215.4257 Z-8.0045
X215.6193 Z-8.0058
X215.8129 Z-8.0073
X216.0064 Z-8.009
X216.2 Z-8.0109
X216.3936 Z-8.0129
X216.5872 Z-8.0151
X216.7807 Z-8.0174
X216.9743 Z-8.0199
X217.1679 Z-8.0225
X217.3615 Z-8.0253
X217.555 Z-8.0283
X217.7486 Z-8.0314
X217.9422 Z-8.0347
X218.1358 Z-8.0381
X218.3293 Z-8.0416
X218.5229 Z-8.0453
X218.7165 Z-8.0491
X218.9101 Z-8.0531
X219.1036 Z-8.0572
X219.2972 Z-8.0614
X219.4908 Z-8.0658
X219.6844 Z-8.0702
X219.8779 Z-8.0749
X220.0715 Z-8.0796
X220.2651 Z-8.0845
X220.4587 Z-8.0894
X220.5555 Z-8.092
X220.6522 Z-8.0945
X220.749 Z-8.0971
X220.8458 Z-8.0997
X220.9426 Z-8.1024
X221.0394 Z-8.1051
X221.1362 Z-8.1078
X221.233 Z-8.1105
X221.3297 Z-8.1133
X221.4265 Z-8.1161
X221.5233 Z-8.1189
X221.6201 Z-8.1217
X221.7169 Z-8.1246
X221.8137 Z-8.1275
X221.9105 Z-8.1304
X222.0073 Z-8.1334
X222.104 Z-8.1363
X222.2008 Z-8.1393
X222.2976 Z-8.1424
X222.3944 Z-8.1454
X222.4912 Z-8.1485
X222.588 Z-8.1516
X222.6848 Z-8.1547
X222.7816 Z-8.1578
X222.8783 Z-8.161
X222.9751 Z-8.1642
X223.0719 Z-8.1674
X223.1687 Z-8.1706
X223.2655 Z-8.1739
X223.3623 Z-8.1772
X223.4591 Z-8.1805
X223.5559 Z-8.1838
X223.6526 Z-8.1871
X223.8462 Z-8.1939
X223.943 Z-8.1972
X224.0398 Z-8.2006
X224.1366 Z-8.204
X224.2334 Z-8.2074
X224.3302 Z-8.2108
X224.4269 Z-8.2141
X224.5237 Z-8.2175
X224.6205 Z-8.2209
X224.7173 Z-8.2243
X224.8141 Z-8.2277
X224.9109 Z-8.231
X225.0077 Z-8.2344
X225.2012 Z-8.2412
X225.4916 Z-8.2513
X225.782 Z-8.2614
X226.0723 Z-8.2716
X226.3627 Z-8.2817
X226.653 Z-8.2919
X226.9434 Z-8.302
X227.2338 Z-8.3121
X227.5241 Z-8.3223
X227.8145 Z-8.3324
X228.1049 Z-8.3426
X228.5888 Z-8.3595
X229.0727 Z-8.3764
X229.5567 Z-8.3933
X230.2342 Z-8.4169
X231.1053 Z-8.4473
X232.5571 Z-8.498
X239.5258 Z-8.7413
X239.8161 Z-8.7515
X240.1065 Z-8.7616
X240.2033 Z-8.765
X240.3001 Z-8.7684
X240.3969 Z-8.7717
X240.4936 Z-8.7751
X240.5904 Z-8.7785
X240.6872 Z-8.7819
X240.784 Z-8.7853
X240.8808 Z-8.7886
X240.9776 Z-8.792
X241.0744 Z-8.7954
X241.1712 Z-8.7988
X241.2679 Z-8.8022
X241.3647 Z-8.8055
X241.4615 Z-8.8089
X241.5583 Z-8.8123
X241.6551 Z-8.8156
X241.7519 Z-8.819
X241.8487 Z-8.8223
X241.9454 Z-8.8255
X242.0422 Z-8.8288
X242.139 Z-8.832
X242.2358 Z-8.8353
X242.3326 Z-8.8385
X242.4294 Z-8.8416
X242.5262 Z-8.8448
X242.623 Z-8.8479
X242.7198 Z-8.851
X242.8165 Z-8.8541
X242.9133 Z-8.8571
X243.0101 Z-8.8601
X243.1069 Z-8.8631
X243.2037 Z-8.8661
X243.3005 Z-8.8691
X243.3973 Z-8.872
X243.494 Z-8.8749
X243.5908 Z-8.8778
X243.6876 Z-8.8806
X243.7844 Z-8.8834
X243.8812 Z-8.8862
X243.978 Z-8.889
X244.0748 Z-8.8917
X244.1716 Z-8.8945
X244.2683 Z-8.8971
X244.3651 Z-8.8998
X244.4619 Z-8.9024
X244.5587 Z-8.905
X244.6555 Z-8.9076
X244.7523 Z-8.9101
X244.8491 Z-8.9126
X245.0426 Z-8.9176
X245.2362 Z-8.9224
X245.4298 Z-8.9271
X245.6234 Z-8.9316
X245.8169 Z-8.9361
X246.0105 Z-8.9404
X246.2041 Z-8.9445
X246.3977 Z-8.9486
X246.5912 Z-8.9525
X246.7848 Z-8.9562
X246.9784 Z-8.9599
X247.172 Z-8.9634
X247.3655 Z-8.9667
X247.5591 Z-8.9699
X247.7527 Z-8.9729
X247.9463 Z-8.9758
X248.1398 Z-8.9786
X248.3334 Z-8.9812
X248.527 Z-8.9836
X248.7206 Z-8.9859
X248.9141 Z-8.988
X249.1077 Z-8.9899
X249.3013 Z-8.9917
X249.4949 Z-8.9933
X249.6884 Z-8.9948
X249.882 Z-8.996
X250.0756 Z-8.9971
X250.2692 Z-8.9981
X250.4627 Z-8.9988
X250.6563 Z-8.9994
X250.8499 Z-8.9998
X251.0435 Z-9
X251.1573
X351.9767
X352.0318 Y90.9495
X352.0868 Y90.946
X352.1419 Y90.9393
X352.197 Y90.9294
X352.252 Y90.916
X352.3071 Y90.899
X352.3574 Y90.8802
X352.4077 Y90.8581
X352.4172 Y90.8535
X352.4723 Y90.8243
X352.5273 Y90.7902
X352.5858 Y90.748
X352.6375 Y90.7044
X352.6707 Y90.6728
X352.704 Y90.6379
X352.7476 Y90.5862
X352.7899 Y90.5277
X352.8241 Y90.4727
X352.8533 Y90.4176
X352.8577 Y90.4085
X352.88 Y90.358
X352.8989 Y90.3075
X352.9159 Y90.2525
X352.9293 Y90.1974
X352.9393 Y90.1424
X352.946 Y90.0873
X352.9495 Y90.0323
X352.95 Y89.9772
Y0.0228
X352.9495 Y-0.0323
X352.946 Y-0.0873
X352.9393 Y-0.1424
X352.9293 Y-0.1974
X352.9159 Y-0.2525
X352.8989 Y-0.3075
X352.88 Y-0.358
X352.8577 Y-0.4085
X352.8533 Y-0.4176
X352.8241 Y-0.4727
X352.7899 Y-0.5277
X352.7476 Y-0.5862
X352.704 Y-0.6379
X352.6707 Y-0.6728
X352.6375 Y-0.7044
X352.5858 Y-0.748
X352.5273 Y-0.7902
X352.4723 Y-0.8243
X352.4172 Y-0.8535
X352.4077 Y-0.8581
X352.3574 Y-0.8802
X352.3071 Y-0.899
X352.252 Y-0.916
X352.197 Y-0.9294
X352.1419 Y-0.9393
X352.0868 Y-0.946
X352.0318 Y-0.9495
X351.9767 Y-0.95
X25.3516
X0.0233
X-0.0317 Y-0.9495
X-0.0868 Y-0.946
X-0.1419 Y-0.9393
X-0.1969 Y-0.9294
X-0.252 Y-0.916
X-0.307 Y-0.899
X-0.3574 Y-0.8802
X-0.4077 Y-0.8581
X-0.4172 Y-0.8535
X-0.4722 Y-0.8243
X-0.5273 Y-0.7902
X-0.5857 Y-0.748
X-0.6374 Y-0.7044
X-0.6707 Y-0.6728
X-0.704 Y-0.6379
X-0.7475 Y-0.5862
X-0.7899 Y-0.5277
X-0.824 Y-0.4727
X-0.8533 Y-0.4176
X-0.8577 Y-0.4085
X-0.8799 Y-0.358
X-0.8988 Y-0.3075
X-0.9158 Y-0.2525
X-0.9293 Y-0.1974
X-0.9393 Y-0.1424
X-0.946 Y-0.0873
X-0.9495 Y-0.0323
X-0.95 Y0.0228
Y89.9772
X-0.9495 Y90.0323
X-0.946 Y90.0873
X-0.9393 Y90.1424
X-0.9293 Y90.1974
X-0.9158 Y90.2525
X-0.8988 Y90.3075
X-0.8799 Y90.358
X-0.8577 Y90.4085
X-0.8533 Y90.4176
X-0.824 Y90.4727
X-0.7899 Y90.5277
X-0.7475 Y90.5862
X-0.704 Y90.6379
X-0.6707 Y90.6728
X-0.6374 Y90.7044
X-0.5857 Y90.748
X-0.5273 Y90.7902
X-0.4722 Y90.8243
X-0.4172 Y90.8535
X-0.4077 Y90.8581
X-0.3574 Y90.8802
X-0.307 Y90.899
X-0.252 Y90.916
X-0.1969 Y90.9294
X-0.1419 Y90.9393
X-0.0868 Y90.946
X-0.0317 Y90.9495
X0.0233 Y90.95
X214.0707
X251.1573
X251.3508 Z-9.0001
X251.5444 Z-9.0004
X251.738 Z-9.0008
X251.9316 Z-9.0015
X252.1251 Z-9.0023
X252.3187 Z-9.0033
X252.5123 Z-9.0045
X252.7059 Z-9.0058
X252.8994 Z-9.0073
X253.093 Z-9.009
X253.2866 Z-9.0109
X253.4802 Z-9.0129
X253.6737 Z-9.0151
X253.8673 Z-9.0174
X254.0609 Z-9.0199
X254.2545 Z-9.0225
X254.448 Z-9.0253
X254.6416 Z-9.0283
X254.8352 Z-9.0314
X255.0288 Z-9.0347
X255.2223 Z-9.0381
X255.4159 Z-9.0416
X255.6095 Z-9.0453
X255.8031 Z-9.0491
X255.9966 Z-9.0531
X256.1902 Z-9.0572
X256.3838 Z-9.0614
X256.5774 Z-9.0658
X256.7709 Z-9.0702
X256.9645 Z-9.0749
X257.1581 Z-9.0796
X257.3517 Z-9.0845
X257.5452 Z-9.0894
X257.642 Z-9.092
X257.7388 Z-9.0945
X257.8356 Z-9.0971
X257.9324 Z-9.0997
X258.0292 Z-9.1024
X258.1259 Z-9.1051
X258.2227 Z-9.1078
X258.3195 Z-9.1105
X258.4163 Z-9.1133
X258.5131 Z-9.1161
X258.6099 Z-9.1189
X258.7067 Z-9.1217
X258.8035 Z-9.1246
X258.9002 Z-9.1275
X258.997 Z-9.1304
X259.0938 Z-9.1334
X259.1906 Z-9.1363
X259.2874 Z-9.1393
X259.3842 Z-9.1424
X259.481 Z-9.1454
X259.5778 Z-9.1485
X259.6746 Z-9.1516
X259.7713 Z-9.1547
X259.8681 Z-9.1578
X259.9649 Z-9.161
X260.0617 Z-9.1642
X260.1585 Z-9.1674
X260.2553 Z-9.1706
X260.3521 Z-9.1739
X260.4489 Z-9.1772
X260.5456 Z-9.1805
X260.6424 Z-9.1838
X260.7392 Z-9.1871
X260.9328 Z-9.1939
X261.0296 Z-9.1972
X261.1264 Z-9.2006
X261.2231 Z-9.204
X261.3199 Z-9.2074
X261.4167 Z-9.2108
X261.5135 Z-9.2141
X261.6103 Z-9.2175
X261.7071 Z-9.2209
X261.8039 Z-9.2243
X261.9007 Z-9.2277
X261.9974 Z-9.231
X262.0942 Z-9.2344
X262.2878 Z-9.2412
X262.5782 Z-9.2513
X262.8685 Z-9.2614
X263.1589 Z-9.2716
X263.4492 Z-9.2817
X263.7396 Z-9.2919
X264.03 Z-9.302
X264.3203 Z-9.3121
X264.6107 Z-9.3223
X264.9011 Z-9.3324
X265.1914 Z-9.3426
X265.6754 Z-9.3595
X266.1593 Z-9.3764
X266.6432 Z-9.3933
X267.3207 Z-9.4169
X268.1918 Z-9.4473
X269.6436 Z-9.498
X276.6123 Z-9.7413
X276.9027 Z-9.7515
X277.1931 Z-9.7616
X277.2899 Z-9.765
X277.3866 Z-9.7684
X277.4834 Z-9.7717
X277.5802 Z-9.7751
X277.677 Z-9.7785
X277.7738 Z-9.7819
X277.8706 Z-9.7853
X277.9673 Z-9.7886
X278.0641 Z-9.792
X278.1609 Z-9.7954
X278.2577 Z-9.7988
X278.3545 Z-9.8022
X278.4513 Z-9.8055
X278.5481 Z-9.8089
X278.6449 Z-9.8123
X278.7417 Z-9.8156
X278.8384 Z-9.819
X278.9352 Z-9.8223
X279.032 Z-9.8255
X279.1288 Z-9.8288
X279.2256 Z-9.832
X279.3224 Z-9.8353
X279.4192 Z-9.8385
X279.516 Z-9.8416
X279.6127 Z-9.8448
X279.7095 Z-9.8479
X279.8063 Z-9.851
X279.9031 Z-9.8541
X279.9999 Z-9.8571
X280.0967 Z-9.8601
X280.1935 Z-9.8631
X280.2903 Z-9.8661
X280.387 Z-9.8691
X280.4838 Z-9.872
X280.5806 Z-9.8749
X280.6774 Z-9.8778
X280.7742 Z-9.8806
X280.871 Z-9.8834
X280.9678 Z-9.8862
X281.0645 Z-9.889
X281.1613 Z-9.8917
X281.2581 Z-9.8945
X281.3549 Z-9.8971
X281.4517 Z-9.8998
X281.5485 Z-9.9024
X281.6453 Z-9.905
X281.7421 Z-9.9076
X281.8388 Z-9.9101
X281.9356 Z-9.9126
X282.1292 Z-9.9176
X282.3228 Z-9.9224
X282.5164 Z-9.9271
X282.7099 Z-9.9316
X282.9035 Z-9.9361
X283.0971 Z-9.9404
X283.2906 Z-9.9445
X283.4842 Z-9.9486
X283.6778 Z-9.9525
X283.8714 Z-9.9562
X284.065 Z-9.9599
X284.2585 Z-9.9634
X284.4521 Z-9.9667
X284.6457 Z-9.9699
X284.8393 Z-9.9729
X285.0328 Z-9.9758
X285.2264 Z-9.9786
X285.42 Z-9.9812
X285.6136 Z-9.9836
X285.8071 Z-9.9859
X286.0007 Z-9.988
X286.1943 Z-9.9899
X286.3878 Z-9.9917
X286.5814 Z-9.9933
X286.775 Z-9.9948
X286.9686 Z-9.996
X287.1621 Z-9.9971
X287.3557 Z-9.9981
X287.5493 Z-9.9988
X287.7429 Z-9.9994
X287.9365 Z-9.9998
X288.13 Z-10
X288.2438
X351.9767
X352.0318 Y90.9495
X352.0868 Y90.946
X352.1419 Y90.9393
X352.197 Y90.9294
X352.252 Y90.916
X352.3071 Y90.899
X352.3574 Y90.8802
X352.4077 Y90.8581
X352.4172 Y90.8535
X352.4723 Y90.8243
X352.5273 Y90.7902
X352.5858 Y90.748
X352.6375 Y90.7044
X352.6707 Y90.6728
X352.704 Y90.6379
X352.7476 Y90.5862
X352.7899 Y90.5277
X352.8241 Y90.4727
X352.8533 Y90.4176
X352.8577 Y90.4085
X352.88 Y90.358
X352.8989 Y90.3075
X352.9159 Y90.2525
X352.9293 Y90.1974
X352.9393 Y90.1424
X352.946 Y90.0873
X352.9495 Y90.0323
X352.95 Y89.9772
Y0.0228
X352.9495 Y-0.0323
X352.946 Y-0.0873
X352.9393 Y-0.1424
X352.9293 Y-0.1974
X352.9159 Y-0.2525
X352.8989 Y-0.3075
X352.88 Y-0.358
X352.8577 Y-0.4085
X352.8533 Y-0.4176
X352.8241 Y-0.4727
X352.7899 Y-0.5277
X352.7476 Y-0.5862
X352.704 Y-0.6379
X352.6707 Y-0.6728
X352.6375 Y-0.7044
X352.5858 Y-0.748
X352.5273 Y-0.7902
X352.4723 Y-0.8243
X352.4172 Y-0.8535
X352.4077 Y-0.8581
X352.3574 Y-0.8802
X352.3071 Y-0.899
X352.252 Y-0.916
X352.197 Y-0.9294
X352.1419 Y-0.9393
X352.0868 Y-0.946
X352.0318 Y-0.9495
X351.9767 Y-0.95
X25.3516
X0.0233
X-0.0317 Y-0.9495
X-0.0868 Y-0.946
X-0.1419 Y-0.9393
X-0.1969 Y-0.9294
X-0.252 Y-0.916
X-0.307 Y-0.899
X-0.3574 Y-0.8802
X-0.4077 Y-0.8581
X-0.4172 Y-0.8535
X-0.4722 Y-0.8243
X-0.5273 Y-0.7902
X-0.5857 Y-0.748
X-0.6374 Y-0.7044
X-0.6707 Y-0.6728
X-0.704 Y-0.6379
X-0.7475 Y-0.5862
X-0.7899 Y-0.5277
X-0.824 Y-0.4727
X-0.8533 Y-0.4176
X-0.8577 Y-0.4085
X-0.8799 Y-0.358
X-0.8988 Y-0.3075
X-0.9158 Y-0.2525
X-0.9293 Y-0.1974
X-0.9393 Y-0.1424
X-0.946 Y-0.0873
X-0.9495 Y-0.0323
X-0.95 Y0.0228
Y89.9772
X-0.9495 Y90.0323
X-0.946 Y90.0873
X-0.9393 Y90.1424
X-0.9293 Y90.1974
X-0.9158 Y90.2525
X-0.8988 Y90.3075
X-0.8799 Y90.358
X-0.8577 Y90.4085
X-0.8533 Y90.4176
X-0.824 Y90.4727
X-0.7899 Y90.5277
X-0.7475 Y90.5862
X-0.704 Y90.6379
X-0.6707 Y90.6728
X-0.6374 Y90.7044
X-0.5857 Y90.748
X-0.5273 Y90.7902
X-0.4722 Y90.8243
X-0.4172 Y90.8535
X-0.4077 Y90.8581
X-0.3574 Y90.8802
X-0.307 Y90.899
X-0.252 Y90.916
X-0.1969 Y90.9294
X-0.1419 Y90.9393
X-0.0868 Y90.946
X-0.0317 Y90.9495
X0.0233 Y90.95
X251.1573
X288.2438
X288.4374 Z-10.0001
X288.631 Z-10.0004
X288.8246 Z-10.0008
X289.0181 Z-10.0015
X289.2117 Z-10.0023
X289.4053 Z-10.0033
X289.5988 Z-10.0045
X289.7924 Z-10.0058
X289.986 Z-10.0073
X290.1796 Z-10.009
X290.3731 Z-10.0109
X290.5667 Z-10.0129
X290.7603 Z-10.0151
X290.9539 Z-10.0174
X291.1475 Z-10.0199
X291.341 Z-10.0225
X291.5346 Z-10.0253
X291.7282 Z-10.0283
X291.9218 Z-10.0314
X292.1153 Z-10.0347
X292.3089 Z-10.0381
X292.5025 Z-10.0416
X292.696 Z-10.0453
X292.8896 Z-10.0491
X293.0832 Z-10.0531
X293.2768 Z-10.0572
X293.4703 Z-10.0614
X293.6639 Z-10.0658
X293.8575 Z-10.0702
X294.0511 Z-10.0749
X294.2446 Z-10.0796
X294.4382 Z-10.0845
X294.6318 Z-10.0894
X294.7286 Z-10.092
X294.8254 Z-10.0945
X294.9221 Z-10.0971
X295.019 Z-10.0997
X295.1157 Z-10.1024
X295.2125 Z-10.1051
X295.3093 Z-10.1078
X295.4061 Z-10.1105
X295.5029 Z-10.1133
X295.5997 Z-10.1161
X295.6964 Z-10.1189
X295.7932 Z-10.1217
X295.89 Z-10.1246
X295.9868 Z-10.1275
X296.0836 Z-10.1304
X296.1804 Z-10.1334
X296.2772 Z-10.1363
X296.374 Z-10.1393
X296.4708 Z-10.1424
X296.5675 Z-10.1454
X296.6643 Z-10.1485
X296.7611 Z-10.1516
X296.8579 Z-10.1547
X296.9547 Z-10.1578
X297.0515 Z-10.161
X297.1483 Z-10.1642
X297.2451 Z-10.1674
X297.3418 Z-10.1706
X297.4386 Z-10.1739
X297.5354 Z-10.1772
X297.6322 Z-10.1805
X297.729 Z-10.1838
X297.8258 Z-10.1871
X298.0193 Z-10.1939
X298.1161 Z-10.1972
X298.2129 Z-10.2006
X298.3097 Z-10.204
X298.4065 Z-10.2074
X298.5033 Z-10.2108
X298.6001 Z-10.2141
X298.6969 Z-10.2175
X298.7936 Z-10.2209
X298.8904 Z-10.2243
X298.9872 Z-10.2277
X299.084 Z-10.231
X299.1808 Z-10.2344
X299.3744 Z-10.2412
X299.6647 Z-10.2513
X299.9551 Z-10.2614
X300.2455 Z-10.2716
X300.5358 Z-10.2817
X300.8262 Z-10.2919
X301.1165 Z-10.302
X301.4069 Z-10.3121
X301.6973 Z-10.3223
X301.9876 Z-10.3324
X302.278 Z-10.3426
X302.7619 Z-10.3595
X303.2458 Z-10.3764
X303.7298 Z-10.3933
X304.4073 Z-10.4169
X305.2784 Z-10.4473
X306.7302 Z-10.498
X313.6989 Z-10.7413
X313.9893 Z-10.7515
X314.2796 Z-10.7616
X314.3764 Z-10.765
X314.4732 Z-10.7684
X314.57 Z-10.7717
X314.6668 Z-10.7751
X314.7635 Z-10.7785
X314.8604 Z-10.7819
X314.9571 Z-10.7853
X315.0539 Z-10.7886
X315.1507 Z-10.792
X315.2475 Z-10.7954
X315.3443 Z-10.7988
X315.4411 Z-10.8022
X315.5378 Z-10.8055
X315.6346 Z-10.8089
X315.7314 Z-10.8123
X315.8282 Z-10.8156
X315.925 Z-10.819
X316.0218 Z-10.8223
X316.1186 Z-10.8255
X316.2154 Z-10.8288
X316.3122 Z-10.832
X316.4089 Z-10.8353
X316.5057 Z-10.8385
X316.6025 Z-10.8416
X316.6993 Z-10.8448
X316.7961 Z-10.8479
X316.8929 Z-10.851
X316.9897 Z-10.8541
X317.0865 Z-10.8571
X317.1832 Z-10.8601
X317.28 Z-10.8631
X317.3768 Z-10.8661
X317.4736 Z-10.8691
X317.5704 Z-10.872
X317.6672 Z-10.8749
X317.764 Z-10.8778
X317.8607 Z-10.8806
X317.9576 Z-10.8834
X318.0543 Z-10.8862
X318.1511 Z-10.889
X318.2479 Z-10.8917
X318.3447 Z-10.8945
X318.4415 Z-10.8971
X318.5383 Z-10.8998
X318.635 Z-10.9024
X318.7318 Z-10.905
X318.8286 Z-10.9076
X318.9254 Z-10.9101
X319.0222 Z-10.9126
X319.2158 Z-10.9176
X319.4094 Z-10.9224
X319.6029 Z-10.9271
X319.7965 Z-10.9316
X319.9901 Z-10.9361
X320.1837 Z-10.9404
X320.3772 Z-10.9445
X320.5708 Z-10.9486
X320.7644 Z-10.9525
X320.9579 Z-10.9562
X321.1515 Z-10.9599
X321.3451 Z-10.9634
X321.5387 Z-10.9667
X321.7322 Z-10.9699
X321.9258 Z-10.9729
X322.1194 Z-10.9758
X322.313 Z-10.9786
X322.5065 Z-10.9812
X322.7001 Z-10.9836
X322.8937 Z-10.9859
X323.0873 Z-10.988
X323.2809 Z-10.9899
X323.4744 Z-10.9917
X323.668 Z-10.9933
X323.8616 Z-10.9948
X324.0551 Z-10.996
X324.2487 Z-10.9971
X324.4423 Z-10.9981
X324.6359 Z-10.9988
X324.8294 Z-10.9994
X325.023 Z-10.9998
X325.2166 Z-11
X325.3304
X351.9767
X352.0318 Y90.9495
X352.0868 Y90.946
X352.1419 Y90.9393
X352.197 Y90.9294
X352.252 Y90.916
X352.3071 Y90.899
X352.3574 Y90.8802
X352.4077 Y90.8581
X352.4172 Y90.8535
X352.4723 Y90.8243
X352.5273 Y90.7902
X352.5858 Y90.748
X352.6375 Y90.7044
X352.6707 Y90.6728
X352.704 Y90.6379
X352.7476 Y90.5862
X352.7899 Y90.5277
X352.8241 Y90.4727
X352.8533 Y90.4176
X352.8577 Y90.4085
X352.88 Y90.358
X352.8989 Y90.3075
X352.9159 Y90.2525
X352.9293 Y90.1974
X352.9393 Y90.1424
X352.946 Y90.0873
X352.9495 Y90.0323
X352.95 Y89.9772
Y0.0228
X352.9495 Y-0.0323
X352.946 Y-0.0873
X352.9393 Y-0.1424
X352.9293 Y-0.1974
X352.9159 Y-0.2525
X352.8989 Y-0.3075
X352.88 Y-0.358
X352.8577 Y-0.4085
X352.8533 Y-0.4176
X352.8241 Y-0.4727
X352.7899 Y-0.5277
X352.7476 Y-0.5862
X352.704 Y-0.6379
X352.6707 Y-0.6728
X352.6375 Y-0.7044
X352.5858 Y-0.748
X352.5273 Y-0.7902
X352.4723 Y-0.8243
X352.4172 Y-0.8535
X352.4077 Y-0.8581
X352.3574 Y-0.8802
X352.3071 Y-0.899
X352.252 Y-0.916
X352.197 Y-0.9294
X352.1419 Y-0.9393
X352.0868 Y-0.946
X352.0318 Y-0.9495
X351.9767 Y-0.95
X25.3516
X0.0233
X-0.0317 Y-0.9495
X-0.0868 Y-0.946
X-0.1419 Y-0.9393
X-0.1969 Y-0.9294
X-0.252 Y-0.916
X-0.307 Y-0.899
X-0.3574 Y-0.8802
X-0.4077 Y-0.8581
X-0.4172 Y-0.8535
X-0.4722 Y-0.8243
X-0.5273 Y-0.7902
X-0.5857 Y-0.748
X-0.6374 Y-0.7044
X-0.6707 Y-0.6728
X-0.704 Y-0.6379
X-0.7475 Y-0.5862
X-0.7899 Y-0.5277
X-0.824 Y-0.4727
X-0.8533 Y-0.4176
X-0.8577 Y-0.4085
X-0.8799 Y-0.358
X-0.8988 Y-0.3075
X-0.9158 Y-0.2525
X-0.9293 Y-0.1974
X-0.9393 Y-0.1424
X-0.946 Y-0.0873
X-0.9495 Y-0.0323
X-0.95 Y0.0228
Y89.9772
X-0.9495 Y90.0323
X-0.946 Y90.0873
X-0.9393 Y90.1424
X-0.9293 Y90.1974
X-0.9158 Y90.2525
X-0.8988 Y90.3075
X-0.8799 Y90.358
X-0.8577 Y90.4085
X-0.8533 Y90.4176
X-0.824 Y90.4727
X-0.7899 Y90.5277
X-0.7475 Y90.5862
X-0.704 Y90.6379
X-0.6707 Y90.6728
X-0.6374 Y90.7044
X-0.5857 Y90.748
X-0.5273 Y90.7902
X-0.4722 Y90.8243
X-0.4172 Y90.8535
X-0.4077 Y90.8581
X-0.3574 Y90.8802
X-0.307 Y90.899
X-0.252 Y90.916
X-0.1969 Y90.9294
X-0.1419 Y90.9393
X-0.0868 Y90.946
X-0.0317 Y90.9495
X0.0233 Y90.95
X288.2438
X325.3304
X325.524 Z-11.0001
X325.7175 Z-11.0004
X325.9111 Z-11.0008
X326.1047 Z-11.0015
X326.2983 Z-11.0023
X326.4919 Z-11.0033
X326.6854 Z-11.0045
X326.879 Z-11.0058
X327.0726 Z-11.0073
X327.2661 Z-11.009
X327.4597 Z-11.0109
X327.6533 Z-11.0129
X327.8469 Z-11.0151
X328.0404 Z-11.0174
X328.234 Z-11.0199
X328.4276 Z-11.0225
X328.6212 Z-11.0253
X328.8147 Z-11.0283
X329.0083 Z-11.0314
X329.2019 Z-11.0347
X329.3954 Z-11.0381
X329.589 Z-11.0416
X329.7826 Z-11.0453
X329.9762 Z-11.0491
X330.1698 Z-11.0531
X330.3633 Z-11.0572
X330.5569 Z-11.0614
X330.7505 Z-11.0658
X330.9441 Z-11.0702
X331.1376 Z-11.0749
X331.3312 Z-11.0796
X331.5248 Z-11.0845
X331.7184 Z-11.0894
X331.8152 Z-11.092
X331.9119 Z-11.0945
X332.0087 Z-11.0971
X332.1055 Z-11.0997
X332.2023 Z-11.1024
X332.2991 Z-11.1051
X332.3959 Z-11.1078
X332.4926 Z-11.1105
X332.5894 Z-11.1133
X332.6862 Z-11.1161
X332.783 Z-11.1189
X332.8798 Z-11.1217
X332.9766 Z-11.1246
X333.0734 Z-11.1275
X333.1702 Z-11.1304
X333.267 Z-11.1334
X333.3637 Z-11.1363
X333.4605 Z-11.1393
X333.5573 Z-11.1424
X333.6541 Z-11.1454
X333.7509 Z-11.1485
X333.8477 Z-11.1516
X333.9445 Z-11.1547
X334.0413 Z-11.1578
X334.138 Z-11.161
X334.2348 Z-11.1642
X334.3316 Z-11.1674
X334.4284 Z-11.1706
X334.5252 Z-11.1739
X334.622 Z-11.1772
X334.7188 Z-11.1805
X334.8156 Z-11.1838
X334.9123 Z-11.1871
X335.1059 Z-11.1939
X335.2027 Z-11.1972
X335.2995 Z-11.2006
X335.3963 Z-11.204
X335.4931 Z-11.2074
X335.5898 Z-11.2108
X335.6866 Z-11.2141
X335.7834 Z-11.2175
X335.8802 Z-11.2209
X335.977 Z-11.2243
X336.0738 Z-11.2277
X336.1706 Z-11.231
X336.2674 Z-11.2344
X336.4609 Z-11.2412
X336.7513 Z-11.2513
X337.0417 Z-11.2614
X337.332 Z-11.2716
X337.6224 Z-11.2817
X337.9128 Z-11.2919
X338.2031 Z-11.302
X338.4935 Z-11.3121
X338.7838 Z-11.3223
X339.0742 Z-11.3324
X339.3646 Z-11.3426
X339.8485 Z-11.3595
X340.3324 Z-11.3764
X340.8164 Z-11.3933
X341.4939 Z-11.4169
X342.365 Z-11.4473
X343.8168 Z-11.498
X350.7855 Z-11.7413
X351.0758 Z-11.7515
X351.3662 Z-11.7616
X351.463 Z-11.765
X351.5598 Z-11.7684
X351.6566 Z-11.7717
X351.7533 Z-11.7751
X351.8501 Z-11.7785
X351.9469 Z-11.7819
X352.0437 Y90.949 Z-11.7853
X352.0919 Y90.9455 Z-11.787
X352.14 Y90.9396 Z-11.7886
X352.1877 Y90.9313 Z-11.7903
X352.2348 Y90.9205 Z-11.792
X352.2814 Y90.9074 Z-11.7937
X352.3273 Y90.8919 Z-11.7954
X352.3723 Y90.874 Z-11.7971
X352.4163 Y90.854 Z-11.7988
X352.4592 Y90.8316 Z-11.8004
X352.501 Y90.8072 Z-11.8021
X352.5414 Y90.7806 Z-11.8038
X352.5805 Y90.752 Z-11.8055
X352.618 Y90.7215 Z-11.8072
X352.654 Y90.6891 Z-11.8089
X352.6882 Y90.6549 Z-11.8106
X352.7207 Y90.619 Z-11.8122
X352.7513 Y90.5815 Z-11.8139
X352.7799 Y90.5425 Z-11.8156
X352.8065 Y90.502 Z-11.8173
X352.8311 Y90.4603 Z-11.8189
X352.8534 Y90.4174 Z-11.8206
X352.8736 Y90.3734 Z-11.8222
X352.8914 Y90.3284 Z-11.8239
X352.907 Y90.2826 Z-11.8255
X352.9202 Y90.236 Z-11.8271
X352.9311 Y90.1889 Z-11.8288
X352.9395 Y90.1412 Z-11.8304
X352.9454 Y90.0932 Z-11.832
X352.949 Y90.0449 Z-11.8336
X352.95 Y89.9965 Z-11.8352
Y89.8998 Z-11.8384
Y89.803 Z-11.8416
Y89.7062 Z-11.8447
Y89.6094 Z-11.8479
Y89.5126 Z-11.851
Y89.4158 Z-11.854
Y89.319 Z-11.8571
Y89.2222 Z-11.8601
Y89.1255 Z-11.8631
Y89.0287 Z-11.8661
Y88.9319 Z-11.869
Y88.8351 Z-11.872
Y88.7383 Z-11.8749
Y88.6415 Z-11.8777
Y88.5447 Z-11.8806
Y88.4479 Z-11.8834
Y88.3512 Z-11.8862
Y88.2544 Z-11.889
Y88.1576 Z-11.8917
Y88.0608 Z-11.8944
Y87.964 Z-11.8971
Y87.8672 Z-11.8998
Y87.7704 Z-11.9024
Y87.6736 Z-11.905
Y87.5769 Z-11.9076
Y87.4801 Z-11.9101
Y87.3833 Z-11.9126
Y87.1897 Z-11.9175
Y86.9961 Z-11.9223
Y86.8026 Z-11.927
Y86.609 Z-11.9316
Y86.4154 Z-11.936
Y86.2218 Z-11.9403
Y86.0283 Z-11.9445
Y85.8347 Z-11.9486
Y85.6411 Z-11.9525
Y85.4475 Z-11.9562
Y85.254 Z-11.9599
Y85.0604 Z-11.9633
Y84.8668 Z-11.9667
Y84.6732 Z-11.9699
Y84.4797 Z-11.9729
Y84.2861 Z-11.9758
Y84.0925 Z-11.9786
Y83.8989 Z-11.9811
Y83.7054 Z-11.9836
Y83.5118 Z-11.9858
Y83.3182 Z-11.988
Y83.1246 Z-11.9899
Y82.9311 Z-11.9917
Y82.7375 Z-11.9933
Y82.5439 Z-11.9948
Y82.3503 Z-11.996
Y82.1568 Z-11.9971
Y81.9632 Z-11.9981
Y81.7696 Z-11.9988
Y81.576 Z-11.9994
Y81.3825 Z-11.9998
Y81.1889 Z-12
Y81.074
Y0.0228
X352.9495 Y-0.0323
X352.946 Y-0.0873
X352.9393 Y-0.1424
X352.9293 Y-0.1974
X352.9159 Y-0.2525
X352.8989 Y-0.3075
X352.88 Y-0.358
X352.8577 Y-0.4085
X352.8533 Y-0.4176
X352.8241 Y-0.4727
X352.7899 Y-0.5277
X352.7476 Y-0.5862
X352.704 Y-0.6379
X352.6707 Y-0.6728
X352.6375 Y-0.7044
X352.5858 Y-0.748
X352.5273 Y-0.7902
X352.4723 Y-0.8243
X352.4172 Y-0.8535
X352.4077 Y-0.8581
X352.3574 Y-0.8802
X352.3071 Y-0.899
X352.252 Y-0.916
X352.197 Y-0.9294
X352.1419 Y-0.9393
X352.0868 Y-0.946
X352.0318 Y-0.9495
X351.9767 Y-0.95
X25.3516
X0.0233
X-0.0317 Y-0.9495
X-0.0868 Y-0.946
X-0.1419 Y-0.9393
X-0.1969 Y-0.9294
X-0.252 Y-0.916
X-0.307 Y-0.899
X-0.3574 Y-0.8802
X-0.4077 Y-0.8581
X-0.4172 Y-0.8535
X-0.4722 Y-0.8243
X-0.5273 Y-0.7902
X-0.5857 Y-0.748
X-0.6374 Y-0.7044
X-0.6707 Y-0.6728
X-0.704 Y-0.6379
X-0.7475 Y-0.5862
X-0.7899 Y-0.5277
X-0.824 Y-0.4727
X-0.8533 Y-0.4176
X-0.8577 Y-0.4085
X-0.8799 Y-0.358
X-0.8988 Y-0.3075
X-0.9158 Y-0.2525
X-0.9293 Y-0.1974
X-0.9393 Y-0.1424
X-0.946 Y-0.0873
X-0.9495 Y-0.0323
X-0.95 Y0.0228
Y89.9772
X-0.9495 Y90.0323
X-0.946 Y90.0873
X-0.9393 Y90.1424
X-0.9293 Y90.1974
X-0.9158 Y90.2525
X-0.8988 Y90.3075
X-0.8799 Y90.358
X-0.8577 Y90.4085
X-0.8533 Y90.4176
X-0.824 Y90.4727
X-0.7899 Y90.5277
X-0.7475 Y90.5862
X-0.704 Y90.6379
X-0.6707 Y90.6728
X-0.6374 Y90.7044
X-0.5857 Y90.748
X-0.5273 Y90.7902
X-0.4722 Y90.8243
X-0.4172 Y90.8535
X-0.4077 Y90.8581
X-0.3574 Y90.8802
X-0.307 Y90.899
X-0.252 Y90.916
X-0.1969 Y90.9294
X-0.1419 Y90.9393
X-0.0868 Y90.946
X-0.0317 Y90.9495
X0.0233 Y90.95
X325.3304
X351.9767
X352.0318 Y90.9495
X352.0868 Y90.946
X352.1419 Y90.9393
X352.197 Y90.9294
X352.252 Y90.916
X352.3071 Y90.899
X352.3574 Y90.8802
X352.4077 Y90.8581
X352.4172 Y90.8535
X352.4723 Y90.8243
X352.5273 Y90.7902
X352.5858 Y90.748
X352.6375 Y90.7044
X352.6707 Y90.6728
X352.704 Y90.6379
X352.7476 Y90.5862
X352.7899 Y90.5277
X352.8241 Y90.4727
X352.8533 Y90.4176
X352.8577 Y90.4085
X352.88 Y90.358
X352.8989 Y90.3075
X352.9159 Y90.2525
X352.9293 Y90.1974
X352.9393 Y90.1424
X352.946 Y90.0873
X352.9495 Y90.0323
X352.95 Y89.9772
Y81.074
Y80.8804 Z-12.0001
Y80.6868 Z-12.0004
Y80.4933 Z-12.0008
Y80.2997 Z-12.0015
Y80.1061 Z-12.0023
Y79.9125 Z-12.0033
Y79.719 Z-12.0045
Y79.5254 Z-12.0058
Y79.3318 Z-12.0073
Y79.1382 Z-12.009
Y78.9447 Z-12.0109
Y78.7511 Z-12.0129
Y78.5575 Z-12.0151
Y78.3639 Z-12.0174
Y78.1704 Z-12.0199
Y77.9768 Z-12.0225
Y77.7832 Z-12.0253
Y77.5896 Z-12.0283
Y77.3961 Z-12.0314
Y77.2025 Z-12.0347
Y77.0089 Z-12.0381
Y76.8153 Z-12.0416
Y76.6218 Z-12.0453
Y76.4282 Z-12.0491
Y76.2346 Z-12.0531
Y76.041 Z-12.0572
Y75.8475 Z-12.0614
Y75.6539 Z-12.0658
Y75.4603 Z-12.0702
Y75.2667 Z-12.0749
Y75.0732 Z-12.0796
Y74.8796 Z-12.0845
Y74.686 Z-12.0894
Y74.5892 Z-12.092
Y74.4924 Z-12.0945
Y74.3957 Z-12.0971
Y74.2989 Z-12.0997
Y74.2021 Z-12.1024
Y74.1053 Z-12.1051
Y74.0085 Z-12.1078
Y73.9117 Z-12.1105
Y73.8149 Z-12.1133
Y73.7181 Z-12.1161
Y73.6214 Z-12.1189
Y73.5246 Z-12.1217
Y73.4278 Z-12.1246
Y73.331 Z-12.1275
Y73.2342 Z-12.1304
Y73.1374 Z-12.1334
Y73.0406 Z-12.1363
Y72.9438 Z-12.1393
Y72.8471 Z-12.1424
Y72.7503 Z-12.1454
Y72.6535 Z-12.1485
Y72.5567 Z-12.1516
Y72.4599 Z-12.1547
Y72.3631 Z-12.1578
Y72.2663 Z-12.161
Y72.1695 Z-12.1642
Y72.0728 Z-12.1674
Y71.976 Z-12.1706
Y71.8792 Z-12.1739
Y71.7824 Z-12.1772
Y71.6856 Z-12.1805
Y71.5888 Z-12.1838
Y71.492 Z-12.1871
Y71.2985 Z-12.1939
Y71.2017 Z-12.1972
Y71.1049 Z-12.2006
Y71.0081 Z-12.204
Y70.9113 Z-12.2074
Y70.8145 Z-12.2108
Y70.7177 Z-12.2141
Y70.6209 Z-12.2175
Y70.5242 Z-12.2209
Y70.4274 Z-12.2243
Y70.3306 Z-12.2277
Y70.2338 Z-12.231
Y70.137 Z-12.2344
Y69.9434 Z-12.2412
Y69.6531 Z-12.2513
Y69.3627 Z-12.2614
Y69.0723 Z-12.2716
Y68.782 Z-12.2817
Y68.4916 Z-12.2919
Y68.2013 Z-12.302
Y67.9109 Z-12.3121
Y67.6205 Z-12.3223
Y67.3302 Z-12.3324
Y67.0398 Z-12.3426
Y66.5559 Z-12.3595
Y66.0719 Z-12.3764
Y65.588 Z-12.3933
Y64.9105 Z-12.4169
Y64.0394 Z-12.4473
Y62.5876 Z-12.498
Y55.6189 Z-12.7413
Y55.3285 Z-12.7515
Y55.0382 Z-12.7616
Y54.9414 Z-12.765
Y54.8446 Z-12.7684
Y54.7478 Z-12.7717
Y54.651 Z-12.7751
Y54.5542 Z-12.7785
Y54.4575 Z-12.7819
Y54.3607 Z-12.7853
Y54.2639 Z-12.7886
Y54.1671 Z-12.792
Y54.0703 Z-12.7954
Y53.9735 Z-12.7988
Y53.8767 Z-12.8022
Y53.7799 Z-12.8055
Y53.6832 Z-12.8089
Y53.5864 Z-12.8123
Y53.4896 Z-12.8156
Y53.3928 Z-12.819
Y53.296 Z-12.8223
Y53.1992 Z-12.8255
Y53.1024 Z-12.8288
Y53.0056 Z-12.832
Y52.9089 Z-12.8353
Y52.8121 Z-12.8385
Y52.7153 Z-12.8416
Y52.6185 Z-12.8448
Y52.5217 Z-12.8479
Y52.4249 Z-12.851
Y52.3281 Z-12.8541
Y52.2313 Z-12.8571
Y52.1346 Z-12.8601
Y52.0378 Z-12.8631
Y51.941 Z-12.8661
Y51.8442 Z-12.8691
Y51.7474 Z-12.872
Y51.6506 Z-12.8749
Y51.5538 Z-12.8778
Y51.4571 Z-12.8806
Y51.3603 Z-12.8834
Y51.2635 Z-12.8862
Y51.1667 Z-12.889
Y51.0699 Z-12.8917
Y50.9731 Z-12.8945
Y50.8763 Z-12.8971
Y50.7795 Z-12.8998
Y50.6828 Z-12.9024
Y50.586 Z-12.905
Y50.4892 Z-12.9076
Y50.3924 Z-12.9101
Y50.2956 Z-12.9126
Y50.102 Z-12.9176
Y49.9085 Z-12.9224
Y49.7149 Z-12.9271
Y49.5213 Z-12.9316
Y49.3277 Z-12.9361
Y49.1342 Z-12.9404
Y48.9406 Z-12.9445
Y48.747 Z-12.9486
Y48.5534 Z-12.9525
Y48.3599 Z-12.9562
Y48.1663 Z-12.9599
Y47.9727 Z-12.9634
Y47.7791 Z-12.9667
Y47.5856 Z-12.9699
Y47.392 Z-12.9729
Y47.1984 Z-12.9758
Y47.0048 Z-12.9786
Y46.8113 Z-12.9812
Y46.6177 Z-12.9836
Y46.4241 Z-12.9859
Y46.2305 Z-12.988
Y46.037 Z-12.9899
Y45.8434 Z-12.9917
Y45.6498 Z-12.9933
Y45.4562 Z-12.9948
Y45.2627 Z-12.996
Y45.0691 Z-12.9971
Y44.8755 Z-12.9981
Y44.6819 Z-12.9988
Y44.4884 Z-12.9994
Y44.2948 Z-12.9998
Y44.1012 Z-13
Y43.9874
Y0.0228
X352.9495 Y-0.0323
X352.946 Y-0.0873
X352.9393 Y-0.1424
X352.9293 Y-0.1974
X352.9159 Y-0.2525
X352.8989 Y-0.3075
X352.88 Y-0.358
X352.8577 Y-0.4085
X352.8533 Y-0.4176
X352.8241 Y-0.4727
X352.7899 Y-0.5277
X352.7476 Y-0.5862
X352.704 Y-0.6379
X352.6707 Y-0.6728
X352.6375 Y-0.7044
X352.5858 Y-0.748
X352.5273 Y-0.7902
X352.4723 Y-0.8243
X352.4172 Y-0.8535
X352.4077 Y-0.8581
X352.3574 Y-0.8802
X352.3071 Y-0.899
X352.252 Y-0.916
X352.197 Y-0.9294
X352.1419 Y-0.9393
X352.0868 Y-0.946
X352.0318 Y-0.9495
X351.9767 Y-0.95
X25.3516
X0.0233
X-0.0317 Y-0.9495
X-0.0868 Y-0.946
X-0.1419 Y-0.9393
X-0.1969 Y-0.9294
X-0.252 Y-0.916
X-0.307 Y-0.899
X-0.3574 Y-0.8802
X-0.4077 Y-0.8581
X-0.4172 Y-0.8535
X-0.4722 Y-0.8243
X-0.5273 Y-0.7902
X-0.5857 Y-0.748
X-0.6374 Y-0.7044
X-0.6707 Y-0.6728
X-0.704 Y-0.6379
X-0.7475 Y-0.5862
X-0.7899 Y-0.5277
X-0.824 Y-0.4727
X-0.8533 Y-0.4176
X-0.8577 Y-0.4085
X-0.8799 Y-0.358
X-0.8988 Y-0.3075
X-0.9158 Y-0.2525
X-0.9293 Y-0.1974
X-0.9393 Y-0.1424
X-0.946 Y-0.0873
X-0.9495 Y-0.0323
X-0.95 Y0.0228
Y89.9772
X-0.9495 Y90.0323
X-0.946 Y90.0873
X-0.9393 Y90.1424
X-0.9293 Y90.1974
X-0.9158 Y90.2525
X-0.8988 Y90.3075
X-0.8799 Y90.358
X-0.8577 Y90.4085
X-0.8533 Y90.4176
X-0.824 Y90.4727
X-0.7899 Y90.5277
X-0.7475 Y90.5862
X-0.704 Y90.6379
X-0.6707 Y90.6728
X-0.6374 Y90.7044
X-0.5857 Y90.748
X-0.5273 Y90.7902
X-0.4722 Y90.8243
X-0.4172 Y90.8535
X-0.4077 Y90.8581
X-0.3574 Y90.8802
X-0.307 Y90.899
X-0.252 Y90.916
X-0.1969 Y90.9294
X-0.1419 Y90.9393
X-0.0868 Y90.946
X-0.0317 Y90.9495
X0.0233 Y90.95
X351.9767
X352.0318 Y90.9495
X352.0868 Y90.946
X352.1419 Y90.9393
X352.197 Y90.9294
X352.252 Y90.916
X352.3071 Y90.899
X352.3574 Y90.8802
X352.4077 Y90.8581
X352.4172 Y90.8535
X352.4723 Y90.8243
X352.5273 Y90.7902
X352.5858 Y90.748
X352.6375 Y90.7044
X352.6707 Y90.6728
X352.704 Y90.6379
X352.7476 Y90.5862
X352.7899 Y90.5277
X352.8241 Y90.4727
X352.8533 Y90.4176
X352.8577 Y90.4085
X352.88 Y90.358
X352.8989 Y90.3075
X352.9159 Y90.2525
X352.9293 Y90.1974
X352.9393 Y90.1424
X352.946 Y90.0873
X352.9495 Y90.0323
X352.95 Y89.9772
Y43.9874
Y43.7937 Z-13.0001
Y43.6 Z-13.0004
Y43.4063 Z-13.0009
Y43.2126 Z-13.0016
Y43.0189 Z-13.0026
Y42.8252 Z-13.0037
Y42.6315 Z-13.005
Y42.4379 Z-13.0064
Y42.2442 Z-13.0081
Y42.0505 Z-13.01
Y41.8568 Z-13.012
Y41.6631 Z-13.0143
Y41.4694 Z-13.0167
Y41.2757 Z-13.0192
Y41.082 Z-13.022
Y40.8883 Z-13.0249
Y40.6946 Z-13.028
Y40.5009 Z-13.0312
Y40.3072 Z-13.0346
Y40.1135 Z-13.0382
Y39.9198 Z-13.0419
Y39.7261 Z-13.0458
Y39.5324 Z-13.0499
Y39.3387 Z-13.054
Y39.145 Z-13.0584
Y38.9513 Z-13.0628
Y38.7576 Z-13.0674
Y38.564 Z-13.0722
Y38.3703 Z-13.0771
Y38.2734 Z-13.0796
Y38.1766 Z-13.0821
Y38.0797 Z-13.0847
Y37.9829 Z-13.0873
Y37.886 Z-13.0899
Y37.7892 Z-13.0925
Y37.6923 Z-13.0952
Y37.5955 Z-13.0979
Y37.4986 Z-13.1007
Y37.4018 Z-13.1035
Y37.3049 Z-13.1063
Y37.2081 Z-13.1091
Y37.1112 Z-13.112
Y37.0144 Z-13.1149
Y36.9175 Z-13.1178
Y36.8207 Z-13.1208
Y36.7239 Z-13.1237
Y36.627 Z-13.1267
Y36.5302 Z-13.1298
Y36.4333 Z-13.1328
Y36.3365 Z-13.1359
Y36.2396 Z-13.1391
Y36.1428 Z-13.1422
Y36.0459 Z-13.1454
Y35.9491 Z-13.1486
Y35.8522 Z-13.1518
Y35.7554 Z-13.155
Y35.6585 Z-13.1583
Y35.5617 Z-13.1616
Y35.4648 Z-13.1649
Y35.368 Z-13.1683
Y35.1743 Z-13.175
Y35.0774 Z-13.1784
Y34.9806 Z-13.1818
Y34.8838 Z-13.1852
Y34.7869 Z-13.1885
Y34.6901 Z-13.1919
Y34.5932 Z-13.1953
Y34.4964 Z-13.1987
Y34.3995 Z-13.2021
Y34.3027 Z-13.2054
Y34.2058 Z-13.2088
Y34.109 Z-13.2122
Y34.0121 Z-13.2156
Y33.9153 Z-13.219
Y33.8184 Z-13.2223
Y33.7216 Z-13.2257
Y33.5279 Z-13.2325
Y33.2373 Z-13.2426
Y32.9468 Z-13.2528
Y32.6563 Z-13.2629
Y32.3657 Z-13.2731
Y32.0752 Z-13.2832
Y31.7846 Z-13.2934
Y31.4941 Z-13.3035
Y31.2035 Z-13.3137
Y30.8162 Z-13.3272
Y30.3319 Z-13.3441
Y29.8477 Z-13.361
Y29.1698 Z-13.3847
Y28.2981 Z-13.4151
Y26.3612 Z-13.4827
Y24.9085 Z-13.5335
Y24.2305 Z-13.5571
Y23.7463 Z-13.574
Y23.2621 Z-13.5909
Y22.9715 Z-13.6011
Y22.681 Z-13.6112
Y22.3904 Z-13.6214
Y22.0999 Z-13.6315
Y21.8093 Z-13.6417
Y21.5188 Z-13.6518
Y21.2283 Z-13.6619
Y20.9377 Z-13.6721
Y20.8409 Z-13.6755
Y20.744 Z-13.6788
Y20.6472 Z-13.6822
Y20.5503 Z-13.6856
Y20.4535 Z-13.689
Y20.3566 Z-13.6924
Y20.2598 Z-13.6958
Y20.1629 Z-13.6991
Y20.0661 Z-13.7025
Y19.9692 Z-13.7059
Y19.8724 Z-13.7093
Y19.7755 Z-13.7127
Y19.6787 Z-13.7161
Y19.5819 Z-13.7194
Y19.485 Z-13.7228
Y19.1945 Z-13.7329
Y19.0976 Z-13.7363
Y19.0008 Z-13.7396
Y18.9039 Z-13.7429
Y18.8071 Z-13.7461
Y18.7102 Z-13.7494
Y18.6134 Z-13.7526
Y18.5165 Z-13.7558
Y18.4197 Z-13.7589
Y18.3228 Z-13.7621
Y18.226 Z-13.7652
Y18.1291 Z-13.7682
Y18.0323 Z-13.7713
Y17.9354 Z-13.7743
Y17.8386 Z-13.7773
Y17.7418 Z-13.7803
Y17.6449 Z-13.7832
Y17.5481 Z-13.7862
Y17.4512 Z-13.789
Y17.3544 Z-13.7919
Y17.2575 Z-13.7947
Y17.1607 Z-13.7975
Y17.0638 Z-13.8003
Y16.967 Z-13.803
Y16.8701 Z-13.8057
Y16.7733 Z-13.8084
Y16.6764 Z-13.8111
Y16.5796 Z-13.8137
Y16.4827 Z-13.8162
Y16.3859 Z-13.8188
Y16.289 Z-13.8213
Y16.0953 Z-13.8262
Y15.9017 Z-13.831
Y15.708 Z-13.8357
Y15.5143 Z-13.8402
Y15.3206 Z-13.8446
Y15.1269 Z-13.8488
Y14.9332 Z-13.8529
Y14.7395 Z-13.8568
Y14.5458 Z-13.8606
Y14.3521 Z-13.8642
Y14.1584 Z-13.8677
Y13.9647 Z-13.871
Y13.771 Z-13.8741
Y13.5773 Z-13.8771
Y13.3836 Z-13.8799
Y13.1899 Z-13.8825
Y12.9962 Z-13.885
Y12.8025 Z-13.8873
Y12.6088 Z-13.8894
Y12.4151 Z-13.8913
Y12.2214 Z-13.893
Y12.0278 Z-13.8946
Y11.8341 Z-13.8959
Y11.6404 Z-13.8971
Y11.4467 Z-13.8981
Y11.253 Z-13.8989
Y11.0593 Z-13.8994
Y10.8656 Z-13.8998
Y10.6719 Z-13.9
Y10.6093
Y0.0228
X352.9495 Y-0.0323
X352.946 Y-0.0873
X352.9393 Y-0.1424
X352.9293 Y-0.1974
X352.9159 Y-0.2525
X352.8989 Y-0.3075
X352.88 Y-0.358
X352.8577 Y-0.4085
X352.8533 Y-0.4176
X352.8241 Y-0.4727
X352.7899 Y-0.5277
X352.7476 Y-0.5862
X352.704 Y-0.6379
X352.6707 Y-0.6728
X352.6375 Y-0.7044
X352.5858 Y-0.748
X352.5273 Y-0.7902
X352.4723 Y-0.8243
X352.4172 Y-0.8535
X352.4077 Y-0.8581
X352.3574 Y-0.8802
X352.3071 Y-0.899
X352.252 Y-0.916
X352.197 Y-0.9294
X352.1419 Y-0.9393
X352.0868 Y-0.946
X352.0318 Y-0.9495
X351.9767 Y-0.95
X25.3516
X0.0233
X-0.0317 Y-0.9495
X-0.0868 Y-0.946
X-0.1419 Y-0.9393
X-0.1969 Y-0.9294
X-0.252 Y-0.916
X-0.307 Y-0.899
X-0.3574 Y-0.8802
X-0.4077 Y-0.8581
X-0.4172 Y-0.8535
X-0.4722 Y-0.8243
X-0.5273 Y-0.7902
X-0.5857 Y-0.748
X-0.6374 Y-0.7044
X-0.6707 Y-0.6728
X-0.704 Y-0.6379
X-0.7475 Y-0.5862
X-0.7899 Y-0.5277
X-0.824 Y-0.4727
X-0.8533 Y-0.4176
X-0.8577 Y-0.4085
X-0.8799 Y-0.358
X-0.8988 Y-0.3075
X-0.9158 Y-0.2525
X-0.9293 Y-0.1974
X-0.9393 Y-0.1424
X-0.946 Y-0.0873
X-0.9495 Y-0.0323
X-0.95 Y0.0228
Y89.9772
X-0.9495 Y90.0323
X-0.946 Y90.0873
X-0.9393 Y90.1424
X-0.9293 Y90.1974
X-0.9158 Y90.2525
X-0.8988 Y90.3075
X-0.8799 Y90.358
X-0.8577 Y90.4085
X-0.8533 Y90.4176
X-0.824 Y90.4727
X-0.7899 Y90.5277
X-0.7475 Y90.5862
X-0.704 Y90.6379
X-0.6707 Y90.6728
X-0.6374 Y90.7044
X-0.5857 Y90.748
X-0.5273 Y90.7902
X-0.4722 Y90.8243
X-0.4172 Y90.8535
X-0.4077 Y90.8581
X-0.3574 Y90.8802
X-0.307 Y90.899
X-0.252 Y90.916
X-0.1969 Y90.9294
X-0.1419 Y90.9393
X-0.0868 Y90.946
X-0.0317 Y90.9495
X0.0233 Y90.95
X351.9767
X352.0318 Y90.9495
X352.0868 Y90.946
X352.1419 Y90.9393
X352.197 Y90.9294
X352.252 Y90.916
X352.3071 Y90.899
X352.3574 Y90.8802
X352.4077 Y90.8581
X352.4172 Y90.8535
X352.4723 Y90.8243
X352.5273 Y90.7902
X352.5858 Y90.748
X352.6375 Y90.7044
X352.6707 Y90.6728
X352.704 Y90.6379
X352.7476 Y90.5862
X352.7899 Y90.5277
X352.8241 Y90.4727
X352.8533 Y90.4176
X352.8577 Y90.4085
X352.88 Y90.358
X352.8989 Y90.3075
X352.9159 Y90.2525
X352.9293 Y90.1974
X352.9393 Y90.1424
X352.946 Y90.0873
X352.9495 Y90.0323
X352.95 Y89.9772
Y43.9874
Y10.6093
X352.9574 Y10.557
X352.9789 Y10.5086
X353.0129 Y10.4681
X353.0568 Y10.4386
X353.1071 Y10.4222
X353.16 Y10.4204
X354.7637 Y10.5896
X354.8126 Y10.5947 Z-13.8935
X354.8582 Y10.5995 Z-13.8745
X354.8973 Y10.6037 Z-13.8444
X354.9274 Y10.6068 Z-13.805
X354.9463 Y10.6088 Z-13.7592
X354.9527 Y10.6095 Z-13.71
G0 Z5
X37.5849 Y9.8577
Z-4.9168
G1 Z-7 F3200
X37.6379 Y9.8438
X37.6925 Y9.8456
X37.7445 Y9.8628
X37.7893 Y9.8941
X37.8234 Y9.937
X37.8439 Y9.9877
X37.849 Y10.0422
X37.8434 Y10.1523
X37.8316 Y10.2624
X37.8119 Y10.3725
X37.7955 Y10.4442
X37.7857 Y10.4826
X37.7523 Y10.5927
X37.7111 Y10.7028
X37.6854 Y10.7624
X37.6616 Y10.8129
X37.6026 Y10.923
X37.5753 Y10.9688
X37.534 Y11.0331
X37.4652 Y11.1291
X37.4541 Y11.1432
X37.3602 Y11.2533
X37.355 Y11.259
X37.3026 Y11.3134
X37.2501 Y11.3634
X37.2449 Y11.3681
X37.1348 Y11.4606
X37.1181 Y11.4735
X37.0247 Y11.5399
X36.9559 Y11.5836
X36.9146 Y11.6077
X36.8044 Y11.6654
X36.7433 Y11.6937
X36.6943 Y11.7146
X36.5842 Y11.7551
X36.4741 Y11.7878
X36.4087 Y11.8038
X36.3639 Y11.8134
X36.2538 Y11.8322
X36.1437 Y11.8441
X36.0336 Y11.8492
X35.9234 Y11.8481
X35.8133 Y11.8403
X35.7032 Y11.8255
X35.5931 Y11.8042
X35.5913 Y11.8038
X35.483 Y11.7761
X35.3728 Y11.7399
X35.2627 Y11.6963
X35.2568 Y11.6937
X35.1526 Y11.6439
X35.0442 Y11.5836
X35.0425 Y11.5826
X34.9323 Y11.5104
X34.882 Y11.4735
X34.8222 Y11.4263
X34.75 Y11.3634
X34.7121 Y11.3275
X34.6399 Y11.2533
X34.602 Y11.2112
X34.546 Y11.1432
X34.4918 Y11.071
X34.4661 Y11.0331
X34.3974 Y10.923
X34.3817 Y10.8951
X34.3385 Y10.8129
X34.289 Y10.7028
X34.2716 Y10.6578
X34.2478 Y10.5927
X34.2144 Y10.4826
X34.1882 Y10.3725
X34.1693 Y10.2624
X34.1615 Y10.2025
X34.1566 Y10.1523
X34.1511 Y10.0422
X34.1516 Y9.9321
X34.1589 Y9.822
X34.1615 Y9.7975
X34.1732 Y9.7119
X34.1937 Y9.6018
X34.2213 Y9.4917
X34.2571 Y9.3816
X34.2716 Y9.3422
X34.2999 Y9.2715
X34.3515 Y9.1613
X34.3817 Y9.1049
X34.4123 Y9.0512
X34.4832 Y8.9411
X34.4918 Y8.929
X34.5667 Y8.831
X34.602 Y8.7888
X34.6641 Y8.7209
X34.7121 Y8.6725
X34.7785 Y8.6108
X34.8222 Y8.5737
X34.9169 Y8.5007
X34.9323 Y8.4896
X35.0425 Y8.4174
X35.0884 Y8.3906
X35.1526 Y8.3561
X35.2627 Y8.3037
X35.3185 Y8.2805
X35.3728 Y8.2601
X35.483 Y8.2239
X35.5931 Y8.1957
X35.7032 Y8.1745
X35.7283 Y8.1704
X35.8133 Y8.1597
X35.9234 Y8.1519
X36.0336 Y8.1508
X36.1437 Y8.1559
X36.2538 Y8.1678
X36.2718 Y8.1704
X36.3639 Y8.1866
X36.4741 Y8.2122
X36.5842 Y8.2449
X36.682 Y8.2805
X36.6943 Y8.2854
X36.8044 Y8.3346
X36.9116 Y8.3906
X36.9146 Y8.3923
X37.0247 Y8.4601
X37.0832 Y8.5007
X37.1348 Y8.5394
X37.2216 Y8.6108
X37.2449 Y8.6319
X37.3359 Y8.7209
X37.355 Y8.741
X37.4333 Y8.831
X37.4652 Y8.8709
X37.5169 Y8.9411
X37.5753 Y9.0312
X37.5878 Y9.0512
X37.6486 Y9.1613
X37.6854 Y9.2376
X37.7002 Y9.2715
X37.743 Y9.3816
X37.7787 Y9.4917
X37.7955 Y9.5558
X37.8064 Y9.6018
X37.8275 Y9.7119
X37.8411 Y9.822
X37.8484 Y9.9321
X37.849 Y10.0422
X37.8448 Y10.1373
X37.8352 Y10.2321 Z-7.0001
X37.8213 Y10.3263 Z-7.0002
X37.8014 Y10.4195 Z-7.0004
X37.7778 Y10.5118 Z-7.0006
X37.7487 Y10.6025 Z-7.0008
X37.7154 Y10.6917 Z-7.0011
X37.6777 Y10.7791 Z-7.0014
X37.635 Y10.8643 Z-7.0018
X37.5886 Y10.9475 Z-7.0022
X37.4831 Y11.1061 Z-7.0032
X37.4237 Y11.1805 Z-7.0037
X37.3611 Y11.2523 Z-7.0043
X37.2949 Y11.3208 Z-7.005
X37.2253 Y11.3858 Z-7.0056
X37.1523 Y11.447 Z-7.0063
X37.0762 Y11.5043 Z-7.0071
X36.9975 Y11.558 Z-7.0079
X36.9158 Y11.607 Z-7.0087
X36.8319 Y11.652 Z-7.0096
X36.7457 Y11.6927 Z-7.0105
X36.6577 Y11.729 Z-7.0115
X36.5677 Y11.7603 Z-7.0125
X36.4763 Y11.7871 Z-7.0135
X36.3837 Y11.8094 Z-7.0146
X36.2901 Y11.8266 Z-7.0157
X36.1957 Y11.8395 Z-7.0169
X36.0055 Y11.8498 Z-7.0193
X35.9103 Y11.8474 Z-7.0205
X35.8153 Y11.8404 Z-7.0219
X35.7208 Y11.8284 Z-7.0232
X35.627 Y11.8116 Z-7.0246
X35.5343 Y11.79 Z-7.026
X35.4428 Y11.7636 Z-7.0274
X35.3526 Y11.7327 Z-7.0289
X35.2643 Y11.697 Z-7.0305
X35.1779 Y11.6569 Z-7.032
X35.0937 Y11.6124 Z-7.0336
X35.0119 Y11.5637 Z-7.0352
X34.9327 Y11.5107 Z-7.0369
X34.8564 Y11.4537 Z-7.0386
X34.7829 Y11.3931 Z-7.0403
X34.713 Y11.3284 Z-7.0421
X34.6463 Y11.2604 Z-7.0439
X34.5236 Y11.1147 Z-7.0476
X34.4687 Y11.0369 Z-7.0495
X34.4172 Y10.9568 Z-7.0515
X34.3702 Y10.874 Z-7.0535
X34.3271 Y10.789 Z-7.0555
X34.2886 Y10.7019 Z-7.0575
X34.255 Y10.6128 Z-7.0596
X34.2251 Y10.5223 Z-7.0617
X34.2012 Y10.4301 Z-7.0638
X34.1809 Y10.337 Z-7.066
X34.1668 Y10.2428 Z-7.0682
X34.1562 Y10.1482 Z-7.0704
X34.1513 Y10.0531 Z-7.0726
X34.1511 Y9.9578 Z-7.0749
X34.1553 Y9.8627 Z-7.0772
X34.179 Y9.6737 Z-7.082
X34.1987 Y9.5805 Z-7.0844
X34.2223 Y9.4882 Z-7.0868
X34.2513 Y9.3975 Z-7.0893
X34.2847 Y9.3083 Z-7.0918
X34.3224 Y9.2208 Z-7.0943
X34.3651 Y9.1356 Z-7.0968
X34.4115 Y9.0525 Z-7.0994
X34.4627 Y8.9721 Z-7.102
X34.517 Y8.8939 Z-7.1046
X34.5764 Y8.8194 Z-7.1073
X34.639 Y8.7477 Z-7.11
X34.7052 Y8.6792 Z-7.1127
X34.7748 Y8.6142 Z-7.1154
X34.8478 Y8.553 Z-7.1182
X34.9239 Y8.4957 Z-7.121
X35.0026 Y8.442 Z-7.1238
X35.0843 Y8.393 Z-7.1267
X35.1682 Y8.348 Z-7.1295
X35.2544 Y8.3073 Z-7.1324
X35.3425 Y8.2712 Z-7.1353
X35.4324 Y8.2397 Z-7.1383
X35.5238 Y8.2128 Z-7.1412
X35.6164 Y8.1906 Z-7.1442
X35.71 Y8.1734 Z-7.1472
X35.8044 Y8.1605 Z-7.1503
X35.8994 Y8.1532 Z-7.1533
X35.9946 Y8.1502 Z-7.1564
X36.0898 Y8.1526 Z-7.1595
X36.1848 Y8.1596 Z-7.1626
X36.2793 Y8.1716 Z-7.1658
X36.373 Y8.1884 Z-7.169
X36.4658 Y8.21 Z-7.1722
X36.5573 Y8.2364 Z-7.1754
X36.6475 Y8.267 Z-7.1786
X36.7358 Y8.303 Z-7.1819
X36.8221 Y8.3431 Z-7.1851
X36.9064 Y8.3876 Z-7.1884
X36.9882 Y8.4363 Z-7.1918
X37.0674 Y8.4893 Z-7.1951
X37.1437 Y8.5463 Z-7.1984
X37.2172 Y8.6069 Z-7.2017
X37.2871 Y8.6716 Z-7.2051
X37.3538 Y8.7396 Z-7.2084
X37.4167 Y8.8111 Z-7.2117
X37.4765 Y8.8853 Z-7.215
X37.5314 Y8.9631 Z-7.2184
X37.5828 Y9.0433 Z-7.2217
X37.6299 Y9.1261 Z-7.225
X37.673 Y9.211 Z-7.2283
X37.7114 Y9.2981 Z-7.2317
X37.745 Y9.3873 Z-7.235
X37.775 Y9.4777 Z-7.2383
X37.7989 Y9.5699 Z-7.2416
X37.8191 Y9.663 Z-7.245
X37.8339 Y9.7571 Z-7.2483
X37.8438 Y9.8518 Z-7.2516
X37.8488 Y9.9469 Z-7.2549
X37.849 Y10.0422 Z-7.2583
X37.8448 Y10.1373 Z-7.2616
X37.8352 Y10.2321 Z-7.2649
X37.8213 Y10.3263 Z-7.2682
X37.8014 Y10.4195 Z-7.2715
X37.7778 Y10.5118 Z-7.2749
X37.7487 Y10.6025 Z-7.2782
X37.7154 Y10.6917 Z-7.2815
X37.6777 Y10.7791 Z-7.2848
X37.635 Y10.8643 Z-7.2882
X37.5886 Y10.9475 Z-7.2915
X37.5374 Y11.0278 Z-7.2948
X37.4831 Y11.1061 Z-7.2981
X37.4237 Y11.1805 Z-7.3015
X37.3611 Y11.2523 Z-7.3048
X37.2949 Y11.3208 Z-7.3081
X37.2253 Y11.3858 Z-7.3114
X37.1523 Y11.447 Z-7.3148
X37.0762 Y11.5043 Z-7.3181
X36.9975 Y11.558 Z-7.3214
X36.9158 Y11.607 Z-7.3247
X36.8319 Y11.652 Z-7.3281
X36.7457 Y11.6927 Z-7.3314
X36.6577 Y11.729 Z-7.3347
X36.5677 Y11.7603 Z-7.338
X36.4763 Y11.7871 Z-7.3414
X36.3837 Y11.8094 Z-7.3447
X36.2901 Y11.8266 Z-7.348
X36.1957 Y11.8395 Z-7.3513
X36.1007 Y11.8468 Z-7.3547
X36.0055 Y11.8498 Z-7.358
X35.9103 Y11.8474 Z-7.3613
X35.8153 Y11.8404 Z-7.3646
X35.7208 Y11.8284 Z-7.368
X35.627 Y11.8116 Z-7.3713
X35.5343 Y11.79 Z-7.3746
X35.4428 Y11.7636 Z-7.3779
X35.3526 Y11.7327 Z-7.3813
X35.2643 Y11.697 Z-7.3846
X35.1779 Y11.6569 Z-7.3879
X35.0937 Y11.6124 Z-7.3912
X35.0119 Y11.5637 Z-7.3946
X34.9327 Y11.5107 Z-7.3979
X34.8564 Y11.4537 Z-7.4012
X34.7829 Y11.3931 Z-7.4045
X34.713 Y11.3284 Z-7.4079
X34.6463 Y11.2604 Z-7.4112
X34.5834 Y11.1889 Z-7.4145
X34.5236 Y11.1147 Z-7.4178
X34.4687 Y11.0369 Z-7.4212
X34.4172 Y10.9568 Z-7.4245
X34.3702 Y10.874 Z-7.4278
X34.3271 Y10.789 Z-7.4311
X34.2886 Y10.7019 Z-7.4345
X34.255 Y10.6128 Z-7.4378
X34.2251 Y10.5223 Z-7.4411
X34.2012 Y10.4301 Z-7.4444
X34.1809 Y10.337 Z-7.4478
X34.1668 Y10.2428 Z-7.4511
X34.1562 Y10.1482 Z-7.4544
X34.1513 Y10.0531 Z-7.4577
X34.1511 Y9.9578 Z-7.4611
X34.1553 Y9.8627 Z-7.4644
X34.1653 Y9.7679 Z-7.4677
X34.179 Y9.6737 Z-7.471
X34.1987 Y9.5805 Z-7.4744
X34.2223 Y9.4882 Z-7.4777
X34.2513 Y9.3975 Z-7.481
X34.2847 Y9.3083 Z-7.4843
X34.3224 Y9.2208 Z-7.4877
X34.3651 Y9.1356 Z-7.491
X34.4115 Y9.0525 Z-7.4943
X34.4627 Y8.9721 Z-7.4976
X34.517 Y8.8939 Z-7.501
X34.5764 Y8.8194 Z-7.5043
X34.639 Y8.7477 Z-7.5076
X34.7052 Y8.6792 Z-7.5109
X34.7748 Y8.6142 Z-7.5143
X34.8478 Y8.553 Z-7.5176
X34.9239 Y8.4957 Z-7.5209
X35.0026 Y8.442 Z-7.5242
X35.0843 Y8.393 Z-7.5276
X35.1682 Y8.348 Z-7.5309
X35.2544 Y8.3073 Z-7.5342
X35.3425 Y8.2712 Z-7.5375
X35.4324 Y8.2397 Z-7.5409
X35.5238 Y8.2128 Z-7.5442
X35.6164 Y8.1906 Z-7.5475
X35.71 Y8.1734 Z-7.5508
X35.8044 Y8.1605 Z-7.5542
X35.8994 Y8.1532 Z-7.5575
X35.9946 Y8.1502 Z-7.5608
X36.0898 Y8.1526 Z-7.5641
X36.1848 Y8.1596 Z-7.5674
X36.2793 Y8.1716 Z-7.5708
X36.373 Y8.1884 Z-7.5741
X36.4658 Y8.21 Z-7.5774
X36.5573 Y8.2364 Z-7.5807
X36.6475 Y8.267 Z-7.5841
X36.7358 Y8.303 Z-7.5874
X36.8221 Y8.3431 Z-7.5907
X36.9064 Y8.3876 Z-7.594
X36.9882 Y8.4363 Z-7.5974
X37.0674 Y8.4893 Z-7.6007
X37.1437 Y8.5463 Z-7.604
X37.2172 Y8.6069 Z-7.6073
X37.2871 Y8.6716 Z-7.6107
X37.3538 Y8.7396 Z-7.614
X37.4167 Y8.8111 Z-7.6173
X37.4765 Y8.8853 Z-7.6206
X37.5314 Y8.9631 Z-7.624
X37.5828 Y9.0433 Z-7.6273
X37.6299 Y9.1261 Z-7.6306
X37.673 Y9.211 Z-7.6339
X37.7114 Y9.2981 Z-7.6373
X37.745 Y9.3873 Z-7.6406
X37.775 Y9.4777 Z-7.6439
X37.7989 Y9.5699 Z-7.6472
X37.8191 Y9.663 Z-7.6506
X37.8339 Y9.7571 Z-7.6539
X37.8438 Y9.8518 Z-7.6572
X37.8488 Y9.9469 Z-7.6605
X37.849 Y10.0422 Z-7.6639
X37.8448 Y10.1373 Z-7.6672
X37.8352 Y10.2321 Z-7.6705
X37.8213 Y10.3263 Z-7.6738
X37.8014 Y10.4195 Z-7.6772
X37.7778 Y10.5118 Z-7.6805
X37.7487 Y10.6025 Z-7.6838
X37.7154 Y10.6917 Z-7.6871
X37.6777 Y10.7791 Z-7.6904
X37.635 Y10.8643 Z-7.6938
X37.5886 Y10.9475 Z-7.6971
X37.5374 Y11.0278 Z-7.7004
X37.4831 Y11.1061 Z-7.7037
X37.4237 Y11.1805 Z-7.7071
X37.3611 Y11.2523 Z-7.7104
X37.2949 Y11.3208 Z-7.7137
X37.2253 Y11.3858 Z-7.717
X37.1523 Y11.447 Z-7.7204
X37.0762 Y11.5043 Z-7.7237
X36.9975 Y11.558 Z-7.727
X36.9158 Y11.607 Z-7.7303
X36.8319 Y11.652 Z-7.7337
X36.7457 Y11.6927 Z-7.737
X36.6577 Y11.729 Z-7.7403
X36.5677 Y11.7603 Z-7.7436
X36.4763 Y11.7871 Z-7.747
X36.3837 Y11.8094 Z-7.7503
X36.2901 Y11.8266 Z-7.7536
X36.1957 Y11.8395 Z-7.7569
X36.1007 Y11.8468 Z-7.7603
X36.0055 Y11.8498 Z-7.7636
X35.9103 Y11.8474 Z-7.7669
X35.8153 Y11.8404 Z-7.7702
X35.7208 Y11.8284 Z-7.7736
X35.627 Y11.8116 Z-7.7769
X35.5343 Y11.79 Z-7.7802
X35.4428 Y11.7636 Z-7.7835
X35.3526 Y11.7327 Z-7.7869
X35.2643 Y11.697 Z-7.7902
X35.1779 Y11.6569 Z-7.7935
X35.0937 Y11.6124 Z-7.7968
X35.0119 Y11.5637 Z-7.8002
X34.9327 Y11.5107 Z-7.8035
X34.8564 Y11.4537 Z-7.8068
X34.7829 Y11.3931 Z-7.8101
X34.713 Y11.3284 Z-7.8134
X34.6463 Y11.2604 Z-7.8167
X34.5834 Y11.1889 Z-7.82
X34.5236 Y11.1147 Z-7.8232
X34.4687 Y11.0369 Z-7.8265
X34.4172 Y10.9568 Z-7.8297
X34.3702 Y10.874 Z-7.8328
X34.3271 Y10.789 Z-7.836
X34.2886 Y10.7019 Z-7.8391
X34.255 Y10.6128 Z-7.8423
X34.2251 Y10.5223 Z-7.8453
X34.2012 Y10.4301 Z-7.8484
X34.1809 Y10.337 Z-7.8515
X34.1668 Y10.2428 Z-7.8545
X34.1562 Y10.1482 Z-7.8575
X34.1513 Y10.0531 Z-7.8605
X34.1511 Y9.9578 Z-7.8634
X34.1553 Y9.8627 Z-7.8663
X34.1653 Y9.7679 Z-7.8692
X34.179 Y9.6737 Z-7.8721
X34.1987 Y9.5805 Z-7.875
X34.2223 Y9.4882 Z-7.8778
X34.2513 Y9.3975 Z-7.8806
X34.2847 Y9.3083 Z-7.8834
X34.3224 Y9.2208 Z-7.8861
X34.3651 Y9.1356 Z-7.8889
X34.4115 Y9.0525 Z-7.8915
X34.4627 Y8.9721 Z-7.8942
X34.517 Y8.8939 Z-7.8969
X34.5764 Y8.8194 Z-7.8995
X34.639 Y8.7477 Z-7.9021
X34.7052 Y8.6792 Z-7.9046
X34.7748 Y8.6142 Z-7.9072
X34.8478 Y8.553 Z-7.9097
X34.9239 Y8.4957 Z-7.9121
X35.0026 Y8.442 Z-7.9146
X35.1682 Y8.348 Z-7.9194
X35.2544 Y8.3073 Z-7.9218
X35.3425 Y8.2712 Z-7.9241
X35.4324 Y8.2397 Z-7.9264
X35.5238 Y8.2128 Z-7.9287
X35.6164 Y8.1906 Z-7.9309
X35.71 Y8.1734 Z-7.9331
X35.8044 Y8.1605 Z-7.9353
X35.8994 Y8.1532 Z-7.9374
X35.9946 Y8.1502 Z-7.9395
X36.0898 Y8.1526 Z-7.9416
X36.1848 Y8.1596 Z-7.9437
X36.2793 Y8.1716 Z-7.9457
X36.373 Y8.1884 Z-7.9477
X36.4658 Y8.21 Z-7.9496
X36.6475 Y8.267 Z-7.9534
X36.7358 Y8.303 Z-7.9553
X36.8221 Y8.3431 Z-7.9571
X36.9064 Y8.3876 Z-7.9589
X36.9882 Y8.4363 Z-7.9606
X37.0674 Y8.4893 Z-7.9624
X37.1437 Y8.5463 Z-7.964
X37.2172 Y8.6069 Z-7.9657
X37.2871 Y8.6716 Z-7.9673
X37.3538 Y8.7396 Z-7.9689
X37.4167 Y8.8111 Z-7.9704
X37.4765 Y8.8853 Z-7.9719
X37.5314 Y8.9631 Z-7.9734
X37.5828 Y9.0433 Z-7.9748
X37.6299 Y9.1261 Z-7.9762
X37.673 Y9.211 Z-7.9776
X37.7114 Y9.2981 Z-7.9789
X37.745 Y9.3873 Z-7.9802
X37.775 Y9.4777 Z-7.9814
X37.8191 Y9.663 Z-7.9838
X37.8339 Y9.7571 Z-7.9849
X37.8438 Y9.8518 Z-7.986
X37.8488 Y9.9469 Z-7.9871
X37.849 Y10.0422 Z-7.9881
X37.8448 Y10.1373 Z-7.9891
X37.8352 Y10.2321 Z-7.99
X37.8213 Y10.3263 Z-7.9909
X37.8014 Y10.4195 Z-7.9917
X37.7778 Y10.5118 Z-7.9926
X37.7487 Y10.6025 Z-7.9933
X37.7154 Y10.6917 Z-7.9941
X37.6777 Y10.7791 Z-7.9948
X37.635 Y10.8643 Z-7.9954
X37.5886 Y10.9475 Z-7.996
X37.4831 Y11.1061 Z-7.9971
X37.4237 Y11.1805 Z-7.9976
X37.3611 Y11.2523 Z-7.998
X37.2949 Y11.3208 Z-7.9984
X37.2253 Y11.3858 Z-7.9988
X37.1523 Y11.447 Z-7.9991
X37.0762 Y11.5043 Z-7.9993
X36.9975 Y11.558 Z-7.9996
X36.9158 Y11.607 Z-7.9997
X36.8319 Y11.652 Z-7.9999
X36.7457 Y11.6927 Z-8
X36.621 Y11.7416
X36.5842 Y11.7551
X36.4741 Y11.7878
X36.4087 Y11.8038
X36.3639 Y11.8134
X36.2538 Y11.8322
X36.1437 Y11.8441
X36.0336 Y11.8492
X35.9234 Y11.8481
X35.8133 Y11.8403
X35.7032 Y11.8255
X35.5931 Y11.8042
X35.5913 Y11.8038
X35.483 Y11.7761
X35.3728 Y11.7399
X35.2627 Y11.6963
X35.2568 Y11.6937
X35.1526 Y11.6439
X35.0442 Y11.5836
X35.0425 Y11.5826
X34.9323 Y11.5104
X34.882 Y11.4735
X34.8222 Y11.4263
X34.75 Y11.3634
X34.7121 Y11.3275
X34.6399 Y11.2533
X34.602 Y11.2112
X34.546 Y11.1432
X34.4918 Y11.071
X34.4661 Y11.0331
X34.3974 Y10.923
X34.3817 Y10.8951
X34.3385 Y10.8129
X34.289 Y10.7028
X34.2716 Y10.6578
X34.2478 Y10.5927
X34.2144 Y10.4826
X34.1882 Y10.3725
X34.1693 Y10.2624
X34.1615 Y10.2025
X34.1566 Y10.1523
X34.1511 Y10.0422
X34.1516 Y9.9321
X34.1589 Y9.822
X34.1615 Y9.7975
X34.1732 Y9.7119
X34.1937 Y9.6018
X34.2213 Y9.4917
X34.2571 Y9.3816
X34.2716 Y9.3422
X34.2999 Y9.2715
X34.3515 Y9.1613
X34.3817 Y9.1049
X34.4123 Y9.0512
X34.4832 Y8.9411
X34.4918 Y8.929
X34.5667 Y8.831
X34.602 Y8.7888
X34.6641 Y8.7209
X34.7121 Y8.6725
X34.7785 Y8.6108
X34.8222 Y8.5737
X34.9169 Y8.5007
X34.9323 Y8.4896
X35.0425 Y8.4174
X35.0884 Y8.3906
X35.1526 Y8.3561
X35.2627 Y8.3037
X35.3185 Y8.2805
X35.3728 Y8.2601
X35.483 Y8.2239
X35.5931 Y8.1957
X35.7032 Y8.1745
X35.7283 Y8.1704
X35.8133 Y8.1597
X35.9234 Y8.1519
X36.0336 Y8.1508
X36.1437 Y8.1559
X36.2538 Y8.1678
X36.2718 Y8.1704
X36.3639 Y8.1866
X36.4741 Y8.2122
X36.5842 Y8.2449
X36.682 Y8.2805
X36.6943 Y8.2854
X36.8044 Y8.3346
X36.9116 Y8.3906
X36.9146 Y8.3923
X37.0247 Y8.4601
X37.0832 Y8.5007
X37.1348 Y8.5394
X37.2216 Y8.6108
X37.2449 Y8.6319
X37.3359 Y8.7209
X37.355 Y8.741
X37.4333 Y8.831
X37.4652 Y8.8709
X37.5169 Y8.9411
X37.5753 Y9.0312
X37.5878 Y9.0512
X37.6486 Y9.1613
X37.6854 Y9.2376
X37.7002 Y9.2715
X37.743 Y9.3816
X37.7787 Y9.4917
X37.7955 Y9.5558
X37.8064 Y9.6018
X37.8275 Y9.7119
X37.8411 Y9.822
X37.8484 Y9.9321
X37.849 Y10.0422
X37.8434 Y10.1523
X37.8316 Y10.2624
X37.8119 Y10.3725
X37.7955 Y10.4442
X37.7857 Y10.4826
X37.7523 Y10.5927
X37.7111 Y10.7028
X37.6854 Y10.7624
X37.6616 Y10.8129
X37.6026 Y10.923
X37.5753 Y10.9688
X37.534 Y11.0331
X37.4652 Y11.1291
X37.4541 Y11.1432
X37.3602 Y11.2533
X37.355 Y11.259
X37.3026 Y11.3134
X37.2501 Y11.3634
X37.2449 Y11.3681
X37.1348 Y11.4606
X37.1181 Y11.4735
X37.0247 Y11.5399
X36.9559 Y11.5836
X36.9146 Y11.6077
X36.8044 Y11.6654
X36.7433 Y11.6937
X36.6943 Y11.7146
X36.621 Y11.7416
X36.5307 Y11.772
X36.4387 Y11.7967 Z-8.0001
X36.3457 Y11.817 Z-8.0002
X36.2517 Y11.8324 Z-8.0004
X36.157 Y11.8429 Z-8.0006
X36.062 Y11.8487 Z-8.0008
X35.8715 Y11.8454 Z-8.0014
X35.7767 Y11.836 Z-8.0018
X35.6825 Y11.8222 Z-8.0022
X35.5891 Y11.8033 Z-8.0027
X35.4968 Y11.7798 Z-8.0032
X35.4059 Y11.7515 Z-8.0037
X35.3165 Y11.7187 Z-8.0043
X35.2288 Y11.6813 Z-8.005
X35.1434 Y11.6391 Z-8.0056
X35.06 Y11.5932 Z-8.0063
X34.9793 Y11.5425 Z-8.0071
X34.9012 Y11.488 Z-8.0079
X34.8261 Y11.4295 Z-8.0087
X34.7541 Y11.3671 Z-8.0096
X34.6853 Y11.3012 Z-8.0105
X34.5585 Y11.1591 Z-8.0125
X34.5007 Y11.0834 Z-8.0135
X34.4472 Y11.0046 Z-8.0146
X34.3976 Y10.9233 Z-8.0157
X34.352 Y10.8397 Z-8.0169
X34.3109 Y10.7538 Z-8.0181
X34.2746 Y10.6657 Z-8.0193
X34.242 Y10.5762 Z-8.0205
X34.215 Y10.4848 Z-8.0219
X34.1923 Y10.3923 Z-8.0232
X34.1748 Y10.2987 Z-8.0246
X34.1617 Y10.2044 Z-8.026
X34.1537 Y10.1095 Z-8.0274
X34.1505 Y10.0143 Z-8.0289
X34.1523 Y9.919 Z-8.0305
X34.1588 Y9.824 Z-8.032
X34.1705 Y9.7295 Z-8.0336
X34.2076 Y9.5427 Z-8.0369
X34.2335 Y9.451 Z-8.0386
X34.2645 Y9.361 Z-8.0403
X34.2995 Y9.2724 Z-8.0421
X34.3391 Y9.1858 Z-8.0439
X34.3836 Y9.1015 Z-8.0458
X34.432 Y9.0195 Z-8.0476
X34.4841 Y8.9398 Z-8.0495
X34.5409 Y8.8633 Z-8.0515
X34.6013 Y8.7896 Z-8.0535
X34.6656 Y8.7194 Z-8.0555
X34.7331 Y8.6522 Z-8.0575
X34.8042 Y8.5888 Z-8.0596
X34.8785 Y8.5292 Z-8.0617
X34.9556 Y8.4733 Z-8.0638
X35.0356 Y8.4216 Z-8.066
X35.1181 Y8.374 Z-8.0682
X35.2899 Y8.2917 Z-8.0726
X35.379 Y8.2579 Z-8.0749
X35.4694 Y8.228 Z-8.0772
X35.5614 Y8.2033 Z-8.0796
X35.6544 Y8.183 Z-8.082
X35.7484 Y8.1676 Z-8.0844
X35.8431 Y8.1571 Z-8.0868
X35.9382 Y8.1513 Z-8.0893
X36.0334 Y8.1507 Z-8.0918
X36.1286 Y8.1546 Z-8.0943
X36.2234 Y8.164 Z-8.0968
X36.3176 Y8.1778 Z-8.0994
X36.411 Y8.1967 Z-8.102
X36.5033 Y8.2202 Z-8.1046
X36.5943 Y8.2484 Z-8.1073
X36.6837 Y8.2812 Z-8.11
X36.7712 Y8.3187 Z-8.1127
X36.8567 Y8.3609 Z-8.1154
X36.9401 Y8.4068 Z-8.1182
X37.0208 Y8.4575 Z-8.121
X37.0988 Y8.512 Z-8.1238
X37.174 Y8.5705 Z-8.1267
X37.246 Y8.6329 Z-8.1295
X37.3147 Y8.6988 Z-8.1324
X37.3798 Y8.7684 Z-8.1353
X37.4416 Y8.8409 Z-8.1383
X37.4993 Y8.9166 Z-8.1412
X37.5528 Y8.9954 Z-8.1442
X37.6025 Y9.0767 Z-8.1472
X37.6481 Y9.1603 Z-8.1503
X37.6892 Y9.2463 Z-8.1533
X37.7254 Y9.3343 Z-8.1564
X37.758 Y9.4238 Z-8.1595
X37.7851 Y9.5152 Z-8.1626
X37.8078 Y9.6077 Z-8.1658
X37.8258 Y9.7012 Z-8.169
X37.8386 Y9.7956 Z-8.1722
X37.8464 Y9.8905 Z-8.1754
X37.8495 Y9.9857 Z-8.1786
X37.8478 Y10.081 Z-8.1819
X37.8413 Y10.176 Z-8.1851
X37.8304 Y10.2706 Z-8.1884
X37.8136 Y10.3644 Z-8.1918
X37.7925 Y10.4573 Z-8.1951
X37.7666 Y10.5489 Z-8.1984
X37.7356 Y10.639 Z-8.2017
X37.7006 Y10.7276 Z-8.2051
X37.661 Y10.8142 Z-8.2084
X37.6165 Y10.8984 Z-8.2117
X37.5681 Y10.9804 Z-8.215
X37.5159 Y11.0601 Z-8.2184
X37.4592 Y11.1367 Z-8.2217
X37.3988 Y11.2103 Z-8.225
X37.3345 Y11.2806 Z-8.2283
X37.267 Y11.3477 Z-8.2317
X37.1959 Y11.4112 Z-8.235
X37.1216 Y11.4708 Z-8.2383
X37.0445 Y11.5267 Z-8.2416
X36.9644 Y11.5783 Z-8.245
X36.882 Y11.626 Z-8.2483
X36.7969 Y11.6689 Z-8.2516
X36.7102 Y11.7082 Z-8.2549
X36.6212 Y11.7422 Z-8.2583
X36.5307 Y11.772 Z-8.2616
X36.4387 Y11.7967 Z-8.2649
X36.3457 Y11.817 Z-8.2682
X36.2517 Y11.8324 Z-8.2716
X36.157 Y11.8429 Z-8.2749
X36.062 Y11.8487 Z-8.2782
X35.9667 Y11.8492 Z-8.2815
X35.8715 Y11.8454 Z-8.2849
X35.7767 Y11.836 Z-8.2882
X35.6825 Y11.8222 Z-8.2915
X35.5891 Y11.8033 Z-8.2948
X35.4968 Y11.7798 Z-8.2982
X35.4059 Y11.7515 Z-8.3015
X35.3165 Y11.7187 Z-8.3048
X35.2288 Y11.6813 Z-8.3081
X35.1434 Y11.6391 Z-8.3115
X35.06 Y11.5932 Z-8.3148
X34.9793 Y11.5425 Z-8.3181
X34.9012 Y11.488 Z-8.3214
X34.8261 Y11.4295 Z-8.3247
X34.7541 Y11.3671 Z-8.3281
X34.6853 Y11.3012 Z-8.3314
X34.6203 Y11.2316 Z-8.3347
X34.5585 Y11.1591 Z-8.338
X34.5007 Y11.0834 Z-8.3414
X34.4472 Y11.0046 Z-8.3447
X34.3976 Y10.9233 Z-8.348
X34.352 Y10.8397 Z-8.3513
X34.3109 Y10.7538 Z-8.3547
X34.2746 Y10.6657 Z-8.358
X34.242 Y10.5762 Z-8.3613
X34.215 Y10.4848 Z-8.3646
X34.1923 Y10.3923 Z-8.368
X34.1748 Y10.2987 Z-8.3713
X34.1617 Y10.2044 Z-8.3746
X34.1537 Y10.1095 Z-8.3779
X34.1505 Y10.0143 Z-8.3813
X34.1523 Y9.919 Z-8.3846
X34.1588 Y9.824 Z-8.3879
X34.1705 Y9.7295 Z-8.3912
X34.1865 Y9.6356 Z-8.3946
X34.2076 Y9.5427 Z-8.3979
X34.2335 Y9.451 Z-8.4012
X34.2645 Y9.361 Z-8.4045
X34.2995 Y9.2724 Z-8.4079
X34.3391 Y9.1858 Z-8.4112
X34.3836 Y9.1015 Z-8.4145
X34.432 Y9.0195 Z-8.4178
X34.4841 Y8.9398 Z-8.4212
X34.5409 Y8.8633 Z-8.4245
X34.6013 Y8.7896 Z-8.4278
X34.6656 Y8.7194 Z-8.4311
X34.7331 Y8.6522 Z-8.4345
X34.8042 Y8.5888 Z-8.4378
X34.8785 Y8.5292 Z-8.4411
X34.9556 Y8.4733 Z-8.4444
X35.0356 Y8.4216 Z-8.4478
