%
(Made in : Autodesk CAM Post Processor)
(G Code optimized for OpenBuilds OX CNC 1000 x 750 with GRBL V0.9j controller)

(Program Name : 1001)
(1 Operation :)
(1 : Adaptive1)
(  Tool : Flat End Mill 3 Flutes, Diam = 3.175mm, Len = 20mm)
(  Spindle : RPM = 30000, set router dial to 6)
(  Machining time : 14 min 39 sec)

G90 G94
G17
G21

(Operation 1 of 1 : Adaptive1)

G53 G0 Z5
G54
S30000 M3
G4 P1.0
X206.3906 Y-3.2769
Z6
Z5
Z-1.365
G1 Z-1.6825 F3500
X206.3964 Y-3.2714 Z-1.7531
X206.4135 Y-3.2553 Z-1.8203
X206.4411 Y-3.2294 Z-1.8805
X206.4777 Y-3.1949 Z-1.9307
X206.5215 Y-3.1536 Z-1.9686
X206.5703 Y-3.1076 Z-1.992
X206.6218 Y-3.0592 Z-2
G3 X207.5563 Y-1.584 I-2.4123 J2.5617
G1 X207.5719 Y-1.5293
X207.6067 Y-1.3956
X207.6143 Y-1.3589
X207.5149 Y-1.2466
X207.4019 Y-1.1479
X207.2757 Y-1.0575
X207.1137 Y-0.9602
X206.905 Y-0.8565
X206.6318 Y-0.7473
X206.2628 Y-0.6331
X205.733 Y-0.5147
X205.0023 Y-0.4122
X204.2664 Y-0.3594
X203.5291 Y-0.3319
X202.7914 Y-0.3175
X202.0536 Y-0.31
X201.3158 Y-0.306
X199.8402 Y-0.3028
X195.4133 Y-0.3017
X157.7847 Y-0.3016
X107.6133
X57.4419
X7.2704
X1.5524
X1.3682 Y-0.2919
X1.1921 Y-0.237
X0.8747 Y-0.0489
X0.6171 Y0.2152
X0.2068 Y0.8284
X-0.0267 Y1.5283
X-0.1548 Y2.2549
X-0.2238 Y2.9895
X-0.2605 Y3.7264
X-0.28 Y4.4639
X-0.2902 Y5.2017
X-0.2956 Y5.9395
X-0.2985 Y6.6773
X-0.3008 Y8.1529
X-0.3016 Y15.531
Y43.568
Y88.5747
X-0.2512 Y88.7522
X-0.0805 Y89.0792
X0.1744 Y89.3459
X0.777 Y89.7716
X1.4737 Y90.0146
X2.1993 Y90.1483
X2.9336 Y90.2203
X3.6704 Y90.2587
X4.4079 Y90.279
X5.1456 Y90.2897
X5.8834 Y90.2954
X6.6212 Y90.2983
X8.0969 Y90.3007
X14.7372 Y90.3016
X20.5739
X20.7946 Y90.3353
X20.9952 Y90.4331
X21.1576 Y90.5863
X21.267 Y90.7809
G3 X20.793 Y91.1487 I-0.3008 J0.1017
G1 X20.7338 Y91.1101 Z-1.992
X20.6776 Y91.0735 Z-1.9686
X20.6271 Y91.0407 Z-1.9307
X20.585 Y91.0133 Z-1.8805
X20.5533 Y90.9926 Z-1.8203
X20.5336 Y90.9798 Z-1.7532
X20.5269 Y90.9755 Z-1.6825
G0 Z5
X206.9771 Y-2.2925
Z-1.365
G1 Z-1.6825 F3500
X206.9828 Y-2.2869 Z-1.7532
X206.9995 Y-2.2703 Z-1.8203
X207.0264 Y-2.2437 Z-1.8805
X207.0621 Y-2.2084 Z-1.9307
X207.1049 Y-2.1661 Z-1.9686
X207.1526 Y-2.1189 Z-1.992
X207.2029 Y-2.0692 Z-2
G3 X207.6067 Y-1.3956 I-1.1129 J1.1252
G1 X207.657 Y-1.194
X207.6916 Y-1.0263
X207.7043 Y-0.8768
X207.6429 Y-0.74
X207.5667 Y-0.6107
X207.4779 Y-0.4898
X207.3768 Y-0.3733
X207.247 Y-0.2458
X207.0795 Y-0.1059
X206.896 Y0.0239
X206.6544 Y0.1671
X206.3549 Y0.3135
X205.999 Y0.4534
X205.5275 Y0.5962
X204.8773 Y0.7373
X204.146 Y0.8355
X203.4104 Y0.8923
X202.6733 Y0.9251
X201.9358 Y0.9438
X201.198 Y0.9545
X200.4602 Y0.9606
X199.7224 Y0.964
X198.2468 Y0.967
X193.8199 Y0.9683
X158.4048 Y0.9684
X108.2334
X58.0619
X7.8905
X3.0947
X2.7327 Y1.0395
X2.4049 Y1.2086
X2.1231 Y1.4468
X1.6558 Y2.0177
X1.3659 Y2.6962
X1.1943 Y3.4138
X1.0953 Y4.1449
X1.0392 Y4.8806
X1.0076 Y5.6177
X0.9901 Y6.3553
X0.9803 Y7.0931
X0.9749 Y7.8309
X0.972 Y8.5687
X0.9695 Y10.0443
X0.9684 Y15.209
Y45.4595
Y86.7771
X1.0045 Y87.1442
X1.1406 Y87.4871
X1.3583 Y87.7849
X1.9014 Y88.2843
X2.5695 Y88.5976
X3.2833 Y88.7842
X4.0131 Y88.8923
X4.7484 Y88.9538
X5.4854 Y88.9884
X6.2229 Y89.0077
X6.9607 Y89.0184
X7.6985 Y89.0244
X8.4363 Y89.0276
X9.1741 Y89.0294
X11.3875 Y89.0313
X19.5035 Y89.0316
X19.9193 Y89.047
X20.2351 Y89.0842
X20.475 Y89.1322
X20.5927 Y89.1658
X20.801 Y89.2636
X20.9676 Y89.4223
X21.0753 Y89.6256
X21.1132 Y89.8526
X21.1237 Y90.0202
G3 X20.5626 Y90.2325 I-0.3174 J0.0088
G1 X20.5173 Y90.1782 Z-1.992
X20.4743 Y90.1267 Z-1.9686
X20.4357 Y90.0805 Z-1.9307
X20.4035 Y90.0419 Z-1.8805
X20.3793 Y90.0129 Z-1.8203
X20.3642 Y89.9948 Z-1.7532
X20.3591 Y89.9887 Z-1.6825
G0 Z5
X207.1085 Y-1.9541
Z-1.365
G1 Z-1.6825 F3500
X207.1138 Y-1.9482 Z-1.7532
X207.1297 Y-1.9308 Z-1.8203
X207.1552 Y-1.9029 Z-1.8805
X207.1891 Y-1.8658 Z-1.9307
X207.2296 Y-1.8213 Z-1.9686
X207.2749 Y-1.7718 Z-1.992
X207.3225 Y-1.7196 Z-2
G3 X207.6916 Y-1.0263 I-1.1688 J1.067
G1 X207.7354 Y-0.6909
X207.757 Y-0.5233
X207.7647 Y-0.431
X207.7697 Y-0.2811
X207.7456 Y-0.1331
X207.7028 Y0.0107
X207.6453 Y0.1492
X207.5737 Y0.2833
X207.4892 Y0.4149
X207.3759 Y0.5636
X207.2451 Y0.7094
X207.078 Y0.868
X206.8782 Y1.0291
X206.6382 Y1.1927
X206.3303 Y1.3682
X205.9859 Y1.5294
X205.5325 Y1.6987
X204.957 Y1.8623
X204.2334 Y2.0065
X203.5011 Y2.0966
X202.7654 Y2.1524
X202.0284 Y2.1867
X201.2909 Y2.2075
X200.5532 Y2.2201
X199.8154 Y2.2276
X199.0776 Y2.2321
X198.3398 Y2.2347
X196.8642 Y2.2371
X191.6995 Y2.2384
X158.4978
X108.3264
X58.1549
X7.9835
X4.2944
X3.947 Y2.3625
X3.6371 Y2.5626
X3.1047 Y3.0734
X2.7576 Y3.7245
X2.5434 Y4.4305
X2.4153 Y5.1571
X2.3401 Y5.8911
X2.2965 Y6.6276
X2.2715 Y7.365
X2.2571 Y8.1027
X2.249 Y8.8405
X2.2444 Y9.5783
X2.2417 Y10.3161
X2.2394 Y11.7917
X2.2384 Y17.6942
Y47.9447
Y85.5732
X2.3265 Y85.9314
X2.4993 Y86.2574
X2.9725 Y86.8235
X3.6086 Y87.1973
X4.309 Y87.4293
X5.0335 Y87.5686
X5.7668 Y87.6505
X6.5031 Y87.6981
X7.2404 Y87.7254
X7.978 Y87.7411
X8.7158 Y87.75
X9.4536 Y87.7551
X10.1914 Y87.7579
X11.667 Y87.7605
X13.8805 Y87.7614
X18.3073 Y87.7616
X19.0451 Y87.7674
X19.6233 Y87.8013
X19.9952 Y87.8533
X20.2675 Y87.914
X20.4926 Y87.9836
X20.6464 Y88.045
X20.8362 Y88.1559
X20.985 Y88.3175
X21.0799 Y88.5157
X21.1125 Y88.733
X21.1129 Y89.7771
X21.1132 Y89.8526
G3 X20.5407 Y90.0318 I-0.3174 J-0.0097
G1 X20.4986 Y89.975 Z-1.992
X20.4587 Y89.921 Z-1.9686
X20.4229 Y89.8727 Z-1.9307
X20.393 Y89.8322 Z-1.8805
X20.3705 Y89.8018 Z-1.8203
X20.3565 Y89.783 Z-1.7532
X20.3518 Y89.7766 Z-1.6825
G0 Z5
X207.2972 Y-1.4221
Z-1.365
G1 Z-1.6825 F3500
X207.3019 Y-1.4157 Z-1.7532
X207.3155 Y-1.3965 Z-1.8203
X207.3375 Y-1.3657 Z-1.8805
X207.3667 Y-1.3248 Z-1.9307
X207.4016 Y-1.2758 Z-1.9686
X207.4406 Y-1.2212 Z-1.992
X207.4816 Y-1.1636 Z-2
G3 X207.7647 Y-0.431 I-1.2885 J0.9189
G1 X207.771 Y-0.3556
X207.7864 Y0.1474
Y0.575
X207.7789 Y0.7248
X207.7521 Y0.8724
X207.7088 Y1.016
X207.6523 Y1.155
X207.5767 Y1.3028
X207.4863 Y1.4493
X207.3644 Y1.6152
X207.226 Y1.7752
X207.0401 Y1.9578
X206.8347 Y2.1296
X206.5603 Y2.3239
X206.2592 Y2.5027
X205.8512 Y2.7025
X205.4063 Y2.8777
X204.8119 Y3.0582
X204.091 Y3.2152
X203.3606 Y3.3195
X202.626 Y3.3881
X201.8895 Y3.4325
X201.1523 Y3.4609
X200.4147 Y3.479
X199.6769 Y3.4903
X198.9391 Y3.4974
X198.2014 Y3.5017
X197.4635 Y3.5044
X195.9879 Y3.5069
X191.561 Y3.5083
X158.3593 Y3.5084
X108.1879
X58.0165
X7.8451
X5.6316
X5.2811 Y3.6233
X4.9662 Y3.8156
X4.4234 Y4.3153
X4.0637 Y4.9595
X3.8389 Y5.6623
X3.7027 Y6.3874
X3.6217 Y7.1208
X3.5741 Y7.857
X3.5463 Y8.5943
X3.5302 Y9.332
X3.5209 Y10.0697
X3.5156 Y10.8075
X3.5125 Y11.5453
X3.5097 Y13.0209
X3.5084 Y17.4478
Y50.6495
Y83.8512
X3.5147 Y84.2201
X3.5919 Y84.5808
X3.7536 Y84.9124
X4.2096 Y85.4924
X4.8359 Y85.8825
X5.5316 Y86.1282
X6.2541 Y86.2777
X6.9865 Y86.3667
X7.7225 Y86.4192
X8.4596 Y86.4497
X9.1972 Y86.4675
X9.935 Y86.4778
X10.6728 Y86.4837
X11.4106 Y86.4871
X12.8862 Y86.4902
X16.5753 Y86.4915
X17.3131 Y86.4916
X18.0509 Y86.4937
X18.7885 Y86.5099
X19.4264 Y86.5575
X19.8711 Y86.6268
X20.2177 Y86.7099
X20.4604 Y86.7891
X20.6878 Y86.8841
X20.7112 Y86.8961
X20.8765 Y87.0124
X21.0043 Y87.169
X21.0849 Y87.3544
X21.1125 Y87.5546
Y88.733
G3 X20.5392 Y88.9097 I-0.3173 J-0.0111
G1 X20.4974 Y88.8528 Z-1.992
X20.4577 Y88.7987 Z-1.9686
X20.4221 Y88.7501 Z-1.9307
X20.3924 Y88.7096 Z-1.8805
X20.37 Y88.6791 Z-1.8203
X20.3561 Y88.6602 Z-1.7532
X20.3514 Y88.6537 Z-1.6825
G0 Z5
X207.4028 Y-0.4515
Z-1.365
G1 Z-1.6825 F3500
X207.4069 Y-0.4446 Z-1.7531
X207.4189 Y-0.4244 Z-1.8203
X207.4382 Y-0.3919 Z-1.8805
X207.4639 Y-0.3487 Z-1.9307
X207.4946 Y-0.297 Z-1.9686
X207.5289 Y-0.2393 Z-1.992
X207.565 Y-0.1786 Z-2
G3 X207.7864 Y0.575 I-1.3603 J0.8088
G1 Y1.6565
X207.7789 Y1.8063
X207.7504 Y1.9536
X207.7065 Y2.097
X207.6505 Y2.2361
X207.5719 Y2.3926
X207.4782 Y2.547
X207.3518 Y2.7219
X207.2004 Y2.8994
X207.0094 Y3.0899
X206.7871 Y3.2787
X206.5042 Y3.4822
X206.1782 Y3.679
X205.7525 Y3.8914
X205.2796 Y4.0817
X204.6553 Y4.2763
X203.9356 Y4.4386
X203.2064 Y4.5509
X202.4726 Y4.6278
X201.7366 Y4.6798
X200.9996 Y4.7144
X200.2621 Y4.7373
X199.5245 Y4.7522
X198.7867 Y4.7619
X198.0489 Y4.768
X197.3111 Y4.772
X195.8355 Y4.7759
X192.8842 Y4.778
X158.9447 Y4.7784
X108.7733
X58.6019
X8.4305
X6.9548
X6.602 Y4.8861
X6.283 Y5.0713
X5.7299 Y5.5597
X5.3601 Y6.1981
X5.1271 Y6.8982
X4.985 Y7.6222
X4.8999 Y8.3551
X4.8495 Y9.0912
X4.8198 Y9.8284
X4.8025 Y10.566
X4.7923 Y11.3037
X4.7865 Y12.0415
X4.783 Y12.7793
X4.7799 Y14.255
X4.7785 Y17.944
X4.7784 Y52.6214
Y82.8718
X4.8446 Y83.2347
X4.9943 Y83.5719
X5.2123 Y83.8695
X5.7455 Y84.3795
X6.4044 Y84.7115
X7.1128 Y84.9177
X7.84 Y85.0423
X8.5741 Y85.1166
X9.3106 Y85.1603
X10.048 Y85.186
X10.7856 Y85.201
X11.5234 Y85.2097
X12.2612 Y85.2147
X12.999 Y85.2176
X14.4746 Y85.2203
X16.6881 Y85.2216
X17.4259 Y85.2244
X18.1636 Y85.2367
X18.9004 Y85.2742
X19.5277 Y85.3481
X19.9885 Y85.4403
X20.3092 Y85.5318
X20.5533 Y85.6233
X20.6863 Y85.6857
X20.8611 Y85.8002
X20.9969 Y85.959
X21.083 Y86.1495
X21.1125 Y86.3564
Y87.5546
G3 X20.5392 Y87.7313 I-0.3173 J-0.0111
G1 X20.4974 Y87.6744 Z-1.992
X20.4577 Y87.6203 Z-1.9686
X20.4221 Y87.5717 Z-1.9307
X20.3924 Y87.5312 Z-1.8805
X20.37 Y87.5007 Z-1.8203
X20.3561 Y87.4818 Z-1.7532
X20.3514 Y87.4753 Z-1.6825
G0 Z5
X207.4028 Y0.63
Z-1.365
G1 Z-1.6825 F3500
X207.4069 Y0.6369 Z-1.7531
X207.4189 Y0.657 Z-1.8203
X207.4382 Y0.6896 Z-1.8805
X207.4639 Y0.7328 Z-1.9307
X207.4947 Y0.7845 Z-1.9686
X207.529 Y0.8422 Z-1.992
X207.5651 Y0.9029 Z-2
G3 X207.7864 Y1.6565 I-1.3603 J0.8088
G1 Y2.7548
X207.7789 Y2.9046
X207.7519 Y3.0521
X207.7099 Y3.1961
X207.6548 Y3.3386
X207.5798 Y3.494
X207.4819 Y3.6611
X207.3608 Y3.8341
X207.2011 Y4.0274
X207.0175 Y4.2164
X206.7802 Y4.4243
X206.5082 Y4.6264
X206.1582 Y4.8452
X205.7505 Y5.0566
X205.2499 Y5.2672
X204.6159 Y5.4757
X203.8988 Y5.6492
X203.1714 Y5.7729
X202.4388 Y5.8603
X201.7035 Y5.9213
X200.9669 Y5.9634
X200.2296 Y5.9921
X199.4921 Y6.0115
X198.7543 Y6.0244
X198.0166 Y6.0329
X197.2788 Y6.0385
X196.541 Y6.0421
X195.0654 Y6.0459
X192.1141 Y6.048
X158.9124 Y6.0484
X108.741
X58.5696
X8.3981
X8.0359 Y6.118
X7.6998 Y6.2703
X7.403 Y6.4893
X6.8945 Y7.0239
X6.5622 Y7.6826
X6.3555 Y8.3909
X6.2302 Y9.118
X6.1554 Y9.852
X6.1111 Y10.5885
X6.085 Y11.3258
X6.0698 Y12.0635
X6.0608 Y12.8013
X6.0556 Y13.5391
X6.0526 Y14.2769
X6.0498 Y15.7525
X6.0484 Y20.1794
Y55.5945
Y81.418
X6.0873 Y81.7849
X6.2007 Y82.1359
X6.3895 Y82.4529
X6.8811 Y83.0031
X7.5209 Y83.3704
X8.2214 Y83.6021
X8.9455 Y83.7438
X9.6784 Y83.8289
X10.4145 Y83.8795
X11.1517 Y83.9094
X11.8893 Y83.927
X12.627 Y83.9372
X13.3648 Y83.9432
X14.1026 Y83.9468
X16.3161 Y83.9516
X17.0539 Y83.9564
X17.7915 Y83.9712
X18.5285 Y84.0071
X19.2627 Y84.0802
X19.8055 Y84.1765
X20.182 Y84.275
X20.4677 Y84.3748
X20.6928 Y84.4744
X20.7248 Y84.4918
X20.8849 Y84.6088
X21.0082 Y84.764
X21.086 Y84.9465
X21.1125 Y85.143
Y86.3564
G3 X20.5392 Y86.5331 I-0.3173 J-0.0111
G1 X20.4974 Y86.4761 Z-1.992
X20.4577 Y86.422 Z-1.9686
X20.4221 Y86.3735 Z-1.9307
X20.3924 Y86.333 Z-1.8805
X20.37 Y86.3025 Z-1.8203
X20.3561 Y86.2835 Z-1.7532
X20.3514 Y86.2771 Z-1.6825
G0 Z5
X207.4028 Y1.7283
Z-1.365
G1 Z-1.6825 F3500
X207.4069 Y1.7351 Z-1.7531
X207.4189 Y1.7553 Z-1.8203
X207.4382 Y1.7878 Z-1.8805
X207.4639 Y1.831 Z-1.9307
X207.4947 Y1.8828 Z-1.9686
X207.529 Y1.9405 Z-1.992
X207.5651 Y2.0012 Z-2
G3 X207.7864 Y2.7548 I-1.3603 J0.8088
G1 Y3.8362
X207.7789 Y3.9861
X207.7585 Y4.1347
X207.7228 Y4.2803
X207.673 Y4.4249
X207.6077 Y4.5746
X207.515 Y4.7476
X207.406 Y4.9169
X207.2564 Y5.1125
X207.0867 Y5.301
X206.8586 Y5.5168
X206.6056 Y5.7201
X206.2615 Y5.9539
X205.8911 Y6.1643
X205.3973 Y6.3944
X204.7979 Y6.6171
X204.0879 Y6.8178
X203.3646 Y6.9637
X202.6344 Y7.0692
X201.9005 Y7.145
X201.1646 Y7.1989
X200.4278 Y7.2368
X199.6905 Y7.2633
X198.9529 Y7.2815
X198.2152 Y7.2939
X197.4774 Y7.3022
X196.7396 Y7.3078
X196.0018 Y7.3115
X194.5262 Y7.3156
X191.5749 Y7.3179
X159.1111 Y7.3184
X108.9396
X58.7682
X10.0724
X9.7035 Y7.3199
X9.3409 Y7.3881
X9.002 Y7.5338
X8.7017 Y7.7481
X8.188 Y8.2777
X7.8492 Y8.9331
X7.637 Y9.6397
X7.5077 Y10.3661
X7.4302 Y11.0999
X7.3841 Y11.8363
X7.357 Y12.5736
X7.341 Y13.3112
X7.3316 Y14.049
X7.3261 Y14.7868
X7.3229 Y15.5246
X7.3199 Y17.0002
X7.3185 Y20.6893
X7.3184 Y57.58
Y80.4523
X7.4235 Y80.8059
X7.6035 Y81.1279
X8.0811 Y81.6903
X8.7136 Y82.0702
X9.4107 Y82.3118
X10.1334 Y82.4605
X10.8657 Y82.5504
X11.6015 Y82.6041
X12.3387 Y82.636
X13.0763 Y82.6548
X13.814 Y82.6659
X14.5518 Y82.6724
X16.0274 Y82.6806
X16.7652 Y82.6882
X17.5028 Y82.7058
X18.2397 Y82.7424
X18.9745 Y82.8089
X19.6011 Y82.9058
X20.0625 Y83.0157
X20.3852 Y83.1206
X20.6201 Y83.2184
X20.7104 Y83.2649
X20.876 Y83.3811
X21.004 Y83.5378
X21.0849 Y83.7233
X21.1125 Y83.9237
Y85.143
G3 X20.5392 Y85.3197 I-0.3173 J-0.0111
G1 X20.4974 Y85.2628 Z-1.992
X20.4577 Y85.2087 Z-1.9686
X20.4221 Y85.1601 Z-1.9307
X20.3924 Y85.1196 Z-1.8805
X20.37 Y85.0891 Z-1.8203
X20.3561 Y85.0702 Z-1.7532
X20.3514 Y85.0637 Z-1.6825
G0 Z5
X207.4028 Y2.8098
Z-1.365
G1 Z-1.6825 F3500
X207.4069 Y2.8166 Z-1.7532
X207.4189 Y2.8368 Z-1.8203
X207.4382 Y2.8693 Z-1.8805
X207.4639 Y2.9125 Z-1.9307
X207.4947 Y2.9643 Z-1.9686
X207.529 Y3.022 Z-1.992
X207.5651 Y3.0827 Z-2
G3 X207.7864 Y3.8362 I-1.3603 J0.8088
G1 X207.7865 Y5.01
X207.779 Y5.1598
X207.7569 Y5.3081
X207.7198 Y5.4535
X207.6704 Y5.5951
X207.5972 Y5.7607
X207.5076 Y5.9259
X207.386 Y6.1127
X207.2415 Y6.2998
X207.0534 Y6.5069
X206.8283 Y6.7177
X206.5438 Y6.9442
X206.2102 Y7.1685
X205.7732 Y7.414
X205.2974 Y7.6329
X204.675 Y7.8609
X203.9641 Y8.0581
X203.241 Y8.2049
X202.5112 Y8.3135
X201.7777 Y8.3931
X201.0421 Y8.451
X200.3055 Y8.4926
X199.5683 Y8.5223
X198.8308 Y8.5431
X198.0931 Y8.5577
X197.3554 Y8.5677
X196.6176 Y8.5746
X195.8798 Y8.5793
X195.142 Y8.5824
X193.6663 Y8.5858
X190.7151 Y8.588
X158.989 Y8.5884
X108.8176
X58.6462
X11.0571 Y8.5886
X10.6924 Y8.644
X10.3472 Y8.774
X10.0384 Y8.9759
X9.5058 Y9.4865
X9.1512 Y10.1335
X8.9277 Y10.8367
X8.7908 Y11.5617
X8.7083 Y12.2949
X8.6592 Y13.031
X8.6301 Y13.7683
X8.6129 Y14.5059
X8.6028 Y15.2436
X8.5968 Y15.9814
X8.5933 Y16.7192
X8.5901 Y18.1949
X8.5885 Y21.8839
X8.5884 Y60.2503
Y78.6957
X8.5956 Y79.0645
X8.6703 Y79.4258
X8.8259 Y79.7603
X9.2682 Y80.3508
X9.8858 Y80.7545
X10.5769 Y81.0128
X11.2972 Y81.1725
X12.0287 Y81.2693
X12.7642 Y81.3273
X13.5012 Y81.3618
X14.2387 Y81.3824
X14.9764 Y81.3951
X15.7142 Y81.4049
X16.4519 Y81.4168
X17.1894 Y81.4369
X17.9264 Y81.4728
X18.6617 Y81.5334
X19.3928 Y81.6324
X19.9236 Y81.7465
X20.2817 Y81.8542
X20.5482 Y81.9583
X20.6957 Y82.03
X20.867 Y82.1453
X20.9997 Y82.3033
X21.0838 Y82.4918
X21.1125 Y82.6962
Y83.9237
G3 X20.5392 Y84.1005 I-0.3173 J-0.0111
G1 X20.4974 Y84.0435 Z-1.992
X20.4577 Y83.9894 Z-1.9686
X20.4221 Y83.9409 Z-1.9307
X20.3924 Y83.9003 Z-1.8805
X20.37 Y83.8698 Z-1.8203
X20.3561 Y83.8509 Z-1.7532
X20.3514 Y83.8445 Z-1.6825
G0 Z5
X207.4029 Y3.9835
Z-1.365
G1 Z-1.6825 F3500
X207.4069 Y3.9903 Z-1.7531
X207.4189 Y4.0105 Z-1.8203
X207.4383 Y4.043 Z-1.8805
X207.464 Y4.0862 Z-1.9307
X207.4947 Y4.138 Z-1.9686
X207.529 Y4.1957 Z-1.992
X207.5651 Y4.2564 Z-2
G3 X207.7865 Y5.01 I-1.3603 J0.8088
G1 Y6.1837
X207.779 Y6.3335
X207.7571 Y6.4819
X207.7202 Y6.6273
X207.6707 Y6.7707
X207.5996 Y6.9333
X207.5071 Y7.1056
X207.389 Y7.2886
X207.2326 Y7.4929
X207.0501 Y7.6953
X206.8139 Y7.9184
X206.5389 Y8.1391
X206.1876 Y8.3774
X205.7675 Y8.6155
X205.2652 Y8.8492
X204.6253 Y9.0864
X203.9151 Y9.2865
X203.193 Y9.4377
X202.464 Y9.5515
X201.7311 Y9.6364
X200.996 Y9.6993
X200.2596 Y9.7454
X199.5225 Y9.7789
X198.7851 Y9.8029
X198.0475 Y9.82
X197.3098 Y9.8321
X196.572 Y9.8405
X195.8342 Y9.8463
X195.0964 Y9.8503
X193.6208 Y9.8548
X191.4073 Y9.8574
X182.5536 Y9.8584
X158.9435
X108.772
X58.6006
X12.1183
X11.7636 Y9.96
X11.4393 Y10.1358
X10.8705 Y10.6057
X10.4848 Y11.2347
X10.2386 Y11.9302
X10.0865 Y12.6522
X9.9943 Y13.3842
X9.939 Y14.1199
X9.906 Y14.857
X9.8865 Y15.5946
X9.875 Y16.3323
X9.8681 Y17.0701
X9.8641 Y17.8079
X9.8604 Y19.2835
X9.8586 Y22.2348
X9.8584 Y62.8146
Y77.5709
X9.8903 Y77.9384
X9.9949 Y78.2922
X10.1768 Y78.6132
X10.6614 Y79.1696
X11.297 Y79.5441
X11.9957 Y79.7811
X12.7191 Y79.9264
X13.4517 Y80.0139
X14.1876 Y80.0665
X14.9247 Y80.099
X15.6622 Y80.1218
X16.3997 Y80.1433
X17.137 Y80.1714
X17.8736 Y80.2141
X18.6084 Y80.2807
X19.3391 Y80.3824
X19.9014 Y80.5043
X20.2758 Y80.6176
X20.5419 Y80.7221
X20.697 Y80.7979
X20.8677 Y80.9132
X21.0001 Y81.0712
X21.0838 Y81.2594
X21.1125 Y81.4635
Y82.6962
G3 X20.5392 Y82.873 I-0.3173 J-0.0111
G1 X20.4974 Y82.816 Z-1.992
X20.4577 Y82.7619 Z-1.9686
X20.4221 Y82.7134 Z-1.9307
X20.3924 Y82.6728 Z-1.8805
X20.37 Y82.6423 Z-1.8203
X20.3561 Y82.6234 Z-1.7532
X20.3514 Y82.617 Z-1.6825
G0 Z5
X207.4029 Y5.1572
Z-1.365
G1 Z-1.6825 F3500
X207.4069 Y5.164 Z-1.7531
X207.4189 Y5.1842 Z-1.8203
X207.4383 Y5.2167 Z-1.8805
X207.464 Y5.2599 Z-1.9307
X207.4947 Y5.3117 Z-1.9686
X207.529 Y5.3694 Z-1.992
X207.5651 Y5.4301 Z-2
G3 X207.7865 Y6.1837 I-1.3603 J0.8088
G1 Y7.3574
X207.779 Y7.5072
X207.7588 Y7.6558
X207.7234 Y7.8016
X207.6751 Y7.9463
X207.6066 Y8.1072
X207.5137 Y8.2843
X207.3993 Y8.4656
X207.2444 Y8.6721
X207.0668 Y8.873
X206.8277 Y9.1033
X206.5603 Y9.3223
X206.2016 Y9.5708
X205.7945 Y9.8069
X205.2831 Y10.0509
X204.6409 Y10.2962
X203.9328 Y10.5033
X203.2122 Y10.6618
X202.4843 Y10.7827
X201.7522 Y10.8743
X201.0176 Y10.9432
X200.2816 Y10.9946
X199.5448 Y11.0326
X198.8075 Y11.0604
X198.0699 Y11.0806
X197.3323 Y11.095
X196.5945 Y11.1053
X195.8568 Y11.1125
X195.1189 Y11.1175
X194.3811 Y11.121
X192.9055 Y11.1251
X190.6921 Y11.1274
X181.1005 Y11.1284
X158.966
X108.7946
X58.6232
X13.6164
X13.2505 Y11.1746
X12.9037 Y11.3005
X12.5924 Y11.4984
X12.0555 Y12.0045
X11.6971 Y12.6495
X11.4713 Y13.3519
X11.3331 Y14.0766
X11.2499 Y14.8097
X11.2003 Y15.5459
X11.1708 Y16.2831
X11.1534 Y17.0207
X11.1431 Y17.7585
X11.137 Y18.4962
X11.1335 Y19.2341
X11.1301 Y20.7097
X11.1285 Y24.3988
X11.1284 Y65.7164
Y76.0458
X11.1304 Y76.4147
X11.1834 Y76.7798
X11.3154 Y77.1243
X11.5179 Y77.4326
X12.0312 Y77.9626
X12.6794 Y78.3151
X13.383 Y78.537
X14.1082 Y78.6732
X14.8412 Y78.757
X15.577 Y78.8117
X17.0503 Y78.8953
X17.7863 Y78.9473
X18.5205 Y79.0193
X19.251 Y79.1233
X19.8373 Y79.2468
X20.2342 Y79.3643
X20.5186 Y79.4741
X20.693 Y79.558
X20.8652 Y79.6731
X20.9989 Y79.8313
X21.0835 Y80.0204
X21.1125 Y80.2255
Y81.4635
G3 X20.5392 Y81.6402 I-0.3173 J-0.0111
G1 X20.4974 Y81.5833 Z-1.992
X20.4577 Y81.5292 Z-1.9686
X20.4221 Y81.4806 Z-1.9307
X20.3924 Y81.4401 Z-1.8805
X20.37 Y81.4096 Z-1.8203
X20.3561 Y81.3907 Z-1.7532
X20.3514 Y81.3842 Z-1.6825
G0 Z5
X207.4029 Y6.3309
Z-1.365
G1 Z-1.6825 F3500
X207.407 Y6.3378 Z-1.7532
X207.419 Y6.3579 Z-1.8203
X207.4383 Y6.3904 Z-1.8805
X207.464 Y6.4337 Z-1.9307
X207.4948 Y6.4854 Z-1.9686
X207.5291 Y6.5431 Z-1.992
X207.5652 Y6.6038 Z-2
G3 X207.7865 Y7.3574 I-1.3603 J0.8088
G1 Y8.5311
X207.7781 Y8.6988
X207.7586 Y8.8475
X207.724 Y8.9935
X207.6771 Y9.1364
X207.6087 Y9.2995
X207.5173 Y9.4764
X207.4025 Y9.6604
X207.2502 Y9.8657
X207.0716 Y10.07
X206.8339 Y10.3015
X206.5637 Y10.5252
X206.2053 Y10.7764
X205.7917 Y11.0194
X205.2794 Y11.2673
X204.6317 Y11.5187
X203.9247 Y11.7297
X203.2052 Y11.8929
X202.4782 Y12.0188
X201.7467 Y12.1155
X201.0126 Y12.1892
X200.2769 Y12.245
X199.5403 Y12.2869
X198.8031 Y12.318
X198.0657 Y12.3409
X197.3281 Y12.3577
X196.5903 Y12.3697
X195.8526 Y12.3784
X195.1148 Y12.3845
X194.377 Y12.3888
X192.9014 Y12.394
X190.6879 Y12.397
X184.7854 Y12.3983
X158.9619 Y12.3984
X108.7905
X58.619
X15.0879
X14.7193 Y12.4137
X14.36 Y12.4973
X14.0286 Y12.6594
X13.4442 Y13.1098
X13.0462 Y13.731
X12.7918 Y14.4236
X12.6345 Y15.1445
X12.5391 Y15.8761
X12.4819 Y16.6117
X12.4478 Y17.3487
X12.4276 Y18.0862
X12.4156 Y18.824
X12.4085 Y19.5617
X12.4044 Y20.2995
X12.4019 Y21.0373
X12.3996 Y22.513
X12.3984 Y27.6777
Y68.2575
Y74.8979
X12.4108 Y75.2665
X12.4914 Y75.6266
X12.6504 Y75.9594
X13.0957 Y76.5477
X13.7145 Y76.9495
X14.4054 Y77.2084
X15.1247 Y77.3727
X15.8546 Y77.4806
X16.5882 Y77.5594
X17.3227 Y77.6287
X18.0568 Y77.7034
X18.7888 Y77.7956
X19.5156 Y77.9226
X20.0229 Y78.0513
X20.3836 Y78.1744
X20.6247 Y78.2789
X20.72 Y78.3297
X20.882 Y78.4465
X21.0068 Y78.6022
X21.0856 Y78.7857
X21.1125 Y78.9835
Y80.2255
G3 X20.5392 Y80.4023 I-0.3173 J-0.0111
G1 X20.4974 Y80.3453 Z-1.992
X20.4577 Y80.2912 Z-1.9686
X20.4221 Y80.2427 Z-1.9307
X20.3924 Y80.2021 Z-1.8805
X20.37 Y80.1716 Z-1.8203
X20.3561 Y80.1527 Z-1.7532
X20.3514 Y80.1463 Z-1.6825
G0 Z5
X207.4029 Y7.5046
Z-1.365
G1 Z-1.6825 F3500
X207.407 Y7.5115 Z-1.7532
X207.419 Y7.5316 Z-1.8203
X207.4383 Y7.5642 Z-1.8805
X207.464 Y7.6074 Z-1.9307
X207.4948 Y7.6591 Z-1.9686
X207.5291 Y7.7168 Z-1.992
X207.5652 Y7.7775 Z-2
G3 X207.7865 Y8.5311 I-1.3603 J0.8088
G1 Y9.797
X207.779 Y9.9468
X207.7543 Y10.0948
X207.7153 Y10.2404
X207.6627 Y10.3883
X207.5845 Y10.5623
X207.4881 Y10.7378
X207.3585 Y10.9344
X207.1991 Y11.1384
X206.9976 Y11.3576
X206.7509 Y11.586
X206.4429 Y11.8283
X206.0733 Y12.0738
X205.5958 Y12.3384
X205.0546 Y12.5837
X204.3603 Y12.8334
X203.6485 Y13.0277
X202.9264 Y13.1793
X202.1981 Y13.2974
X201.466 Y13.3889
X200.7316 Y13.4595
X199.9958 Y13.5135
X199.2591 Y13.5545
X198.5219 Y13.5853
X197.7845 Y13.6083
X197.0468 Y13.6253
X196.3091 Y13.6377
X195.5714 Y13.6467
X194.8336 Y13.6532
X194.0958 Y13.6578
X192.6201 Y13.6633
X190.4067 Y13.6668
X185.242 Y13.6683
X158.6807 Y13.6684
X108.5092
X58.3378
X16.2823
X15.9145 Y13.6965
X15.5585 Y13.7931
X15.2338 Y13.9683
X14.6681 Y14.4419
X14.2852 Y15.0726
X14.0417 Y15.7691
X13.8918 Y16.4915
X13.8013 Y17.2237
X13.7471 Y17.9596
X13.7149 Y18.6967
X13.6959 Y19.4343
X13.6846 Y20.172
X13.6779 Y20.9098
X13.674 Y21.6476
X13.6703 Y23.1232
X13.6686 Y26.0745
X13.6684 Y71.0812
Y74.0324
X13.7562 Y74.3907
X13.9219 Y74.7203
X14.3782 Y75.3001
X14.9983 Y75.7
X15.6872 Y75.964
X16.4034 Y76.1413
X17.1299 Y76.2704
X17.8596 Y76.3795
X18.5891 Y76.4901
X19.3153 Y76.6204
X19.9212 Y76.7655
X20.3034 Y76.8902
X20.578 Y77.0049
X20.7112 Y77.0736
X20.8765 Y77.1899
X21.0043 Y77.3465
X21.0849 Y77.5318
X21.1125 Y77.7321
Y78.9835
G3 X20.5392 Y79.1603 I-0.3173 J-0.0111
G1 X20.4974 Y79.1033 Z-1.992
X20.4577 Y79.0492 Z-1.9686
X20.4221 Y79.0007 Z-1.9307
X20.3924 Y78.9601 Z-1.8805
X20.37 Y78.9296 Z-1.8203
X20.3561 Y78.9107 Z-1.7531
X20.3514 Y78.9043 Z-1.6825
G0 Z5
X207.4029 Y8.7706
Z-1.365
G1 Z-1.6825 F3500
X207.407 Y8.7774 Z-1.7531
X207.419 Y8.7976 Z-1.8203
X207.4383 Y8.8301 Z-1.8805
X207.464 Y8.8733 Z-1.9307
X207.4948 Y8.925 Z-1.9686
X207.5291 Y8.9827 Z-1.992
X207.5652 Y9.0435 Z-2
G3 X207.7865 Y9.797 I-1.3603 J0.8088
G1 X207.7866 Y10.9707
X207.7791 Y11.1205
X207.7584 Y11.2691
X207.7234 Y11.415
X207.6708 Y11.5727
X207.6037 Y11.7306
X207.5068 Y11.9155
X207.3903 Y12.1001
X207.2343 Y12.3083
X207.0423 Y12.5256
X206.8018 Y12.7573
X206.5134 Y12.9936
X206.1429 Y13.2505
X205.7169 Y13.4977
X205.1672 Y13.7602
X204.4867 Y14.0204
X203.7786 Y14.2277
X203.0589 Y14.3905
X202.3323 Y14.5183
X201.6013 Y14.6183
X200.8676 Y14.6963
X200.1322 Y14.7565
X199.3959 Y14.8028
X198.6589 Y14.8381
X197.9216 Y14.8648
X197.184 Y14.8848
X196.4464 Y14.8996
X195.7086 Y14.9106
X194.9709 Y14.9186
X194.2331 Y14.9244
X193.4953 Y14.9285
X192.0196 Y14.9336
X189.8062 Y14.9368
X184.6415 Y14.9383
X158.818 Y14.9384
X108.6465
X58.4751
X17.1575 Y14.9385
X16.8047 Y15.0465
X16.4842 Y15.2291
X15.9257 Y15.7112
X15.5482 Y16.3451
X15.3079 Y17.0427
X15.1599 Y17.7656
X15.0703 Y18.4979
X15.0166 Y19.2338
X14.9847 Y19.9709
X14.9657 Y20.7085
X14.9545 Y21.4462
X14.9479 Y22.184
X14.944 Y22.9218
X14.9403 Y24.3974
X14.9386 Y27.3487
X14.9384 Y72.3554
X14.9483 Y72.7242
X15.0232 Y73.0854
X15.1766 Y73.4209
X15.6105 Y74.0176
X16.2157 Y74.4397
X16.8937 Y74.7305
X17.6013 Y74.9398
X18.3197 Y75.1077
X19.0405 Y75.2653
X19.7572 Y75.4403
X20.2163 Y75.5864
X20.5319 Y75.7156
X20.7064 Y75.804
X20.8736 Y75.92
X21.0029 Y76.077
X21.0846 Y76.2634
X21.1125 Y76.4649
Y77.7321
G3 X20.5392 Y77.9088 I-0.3173 J-0.0111
G1 X20.4974 Y77.8518 Z-1.992
X20.4577 Y77.7977 Z-1.9686
X20.4221 Y77.7492 Z-1.9307
X20.3924 Y77.7087 Z-1.8805
X20.37 Y77.6782 Z-1.8203
X20.3561 Y77.6592 Z-1.7532
X20.3514 Y77.6528 Z-1.6825
G0 Z5
X207.403 Y9.9443
Z-1.365
G1 Z-1.6825 F3500
X207.407 Y9.9511 Z-1.7532
X207.419 Y9.9713 Z-1.8203
X207.4384 Y10.0038 Z-1.8805
X207.4641 Y10.047 Z-1.9307
X207.4948 Y10.0988 Z-1.9686
X207.5291 Y10.1564 Z-1.992
X207.5652 Y10.2172 Z-2
G3 X207.7866 Y10.9707 I-1.3603 J0.8088
G1 Y12.2199
X207.7791 Y12.3697
X207.755 Y12.5178
X207.7159 Y12.6659
X207.663 Y12.8159
X207.587 Y12.9866
X207.4862 Y13.1715
X207.3601 Y13.3641
X207.1937 Y13.5784
X206.998 Y13.7926
X206.7367 Y14.0361
X206.4389 Y14.2719
X206.0449 Y14.5354
X205.5809 Y14.7943
X205.0175 Y15.0518
X204.324 Y15.3037
X203.6134 Y15.5024
X202.8925 Y15.6596
X202.1653 Y15.784
X201.4341 Y15.8821
X200.7003 Y15.9593
X199.9649 Y16.0195
X199.2286 Y16.0662
X198.4917 Y16.1021
X197.7543 Y16.1296
X197.0168 Y16.1504
X196.2792 Y16.166
X195.5414 Y16.1777
X194.8037 Y16.1863
X194.0659 Y16.1926
X193.3281 Y16.1972
X191.8525 Y16.2028
X189.639 Y16.2065
X185.2121 Y16.2082
X158.6508 Y16.2084
X108.4794
X58.3079
X18.4659
X18.1102 Y16.306
X17.7853 Y16.4807
X17.2171 Y16.9515
X16.8321 Y17.5808
X16.5867 Y18.2766
X16.4353 Y18.9988
X16.3436 Y19.7308
X16.2886 Y20.4666
X16.2559 Y21.2037
X16.2365 Y21.9413
X16.225 Y22.679
X16.2182 Y23.4168
X16.2142 Y24.1546
X16.2104 Y25.6302
X16.2086 Y28.5815
X16.2084 Y71.3747
X16.26 Y71.74
X16.3876 Y72.0862
X16.7734 Y72.7151
X17.3474 Y73.1787
X18.0042 Y73.5147
X18.6954 Y73.7727
X19.3989 Y73.9951
X20.0995 Y74.2267
X20.487 Y74.3881
X20.7396 Y74.518
X20.7623 Y74.5321
X20.9078 Y74.6503
X21.019 Y74.8014
X21.0888 Y74.9755
X21.1125 Y75.1616
Y76.4649
G3 X20.5392 Y76.6416 I-0.3173 J-0.0111
G1 X20.4974 Y76.5847 Z-1.992
X20.4577 Y76.5306 Z-1.9686
X20.4221 Y76.482 Z-1.9307
X20.3924 Y76.4415 Z-1.8805
X20.37 Y76.411 Z-1.8203
X20.3561 Y76.3921 Z-1.7532
X20.3514 Y76.3856 Z-1.6825
G0 Z5
X207.403 Y11.1934
Z-1.365
G1 Z-1.6825 F3500
X207.4071 Y11.2003 Z-1.7531
X207.4191 Y11.2205 Z-1.8203
X207.4384 Y11.253 Z-1.8805
X207.4641 Y11.2962 Z-1.9307
X207.4948 Y11.3479 Z-1.9686
X207.5291 Y11.4056 Z-1.992
X207.5652 Y11.4663 Z-2
G3 X207.7866 Y12.2199 I-1.3603 J0.8088
G1 Y13.3936
X207.779 Y13.5463
X207.7595 Y13.695
X207.7259 Y13.8412
X207.6746 Y13.9991
X207.6091 Y14.1567
X207.5149 Y14.3401
X207.3968 Y14.5307
X207.2447 Y14.7371
X207.0524 Y14.9584
X206.8178 Y15.1881
X206.5243 Y15.4327
X206.1635 Y15.6872
X205.7287 Y15.9443
X205.1747 Y16.2144
X204.4891 Y16.4829
X203.7828 Y16.696
X203.0646 Y16.8653
X202.3392 Y17.0001
X201.6092 Y17.1072
X200.8763 Y17.1919
X200.1415 Y17.2587
X199.4056 Y17.311
X198.6689 Y17.3517
X197.9317 Y17.3832
X197.1943 Y17.4074
X196.4567 Y17.4259
X195.719 Y17.4398
X194.9813 Y17.4502
X194.2435 Y17.458
X193.5057 Y17.4637
X192.7679 Y17.4679
X191.2923 Y17.4731
X189.0789 Y17.4766
X183.9142 Y17.4783
X158.8284 Y17.4784
X108.657
X58.4856
X20.1192
X19.7509 Y17.4986
X19.3933 Y17.5893
X19.066 Y17.7596
X18.4936 Y18.2252
X18.1055 Y18.8526
X17.8584 Y19.5478
X17.7061 Y20.2698
X17.6139 Y21.0018
X17.5588 Y21.7376
X17.526 Y22.4746
X17.5065 Y23.2122
X17.495 Y23.9499
X17.4882 Y24.6877
X17.4842 Y25.4255
X17.4804 Y26.9011
X17.4791 Y28.3768
X17.4784 Y45.3465
Y70.4322
X17.5807 Y70.7867
X17.9187 Y71.4425
X18.4523 Y71.9521
X19.0792 Y72.3411
X19.7446 Y72.6598
X20.4158 Y72.9661
X20.7273 Y73.1373
X20.7795 Y73.1718
X20.9183 Y73.2903
X21.024 Y73.439
X21.09 Y73.6092
X21.1125 Y73.7902
Y75.1616
G3 X20.5392 Y75.3383 I-0.3173 J-0.0111
G1 X20.4974 Y75.2813 Z-1.992
X20.4577 Y75.2272 Z-1.9686
X20.4221 Y75.1787 Z-1.9307
X20.3924 Y75.1382 Z-1.8805
X20.37 Y75.1077 Z-1.8203
X20.3561 Y75.0887 Z-1.7532
X20.3514 Y75.0823 Z-1.6825
G0 Z5
X207.403 Y12.3671
Z-1.365
G1 Z-1.6825 F3500
X207.4071 Y12.374 Z-1.7531
X207.4191 Y12.3942 Z-1.8203
X207.4384 Y12.4267 Z-1.8805
X207.4641 Y12.4699 Z-1.9307
X207.4949 Y12.5216 Z-1.9686
X207.5292 Y12.5793 Z-1.992
X207.5653 Y12.64 Z-2
G3 X207.7866 Y13.3936 I-1.3603 J0.8088
G1 Y14.6595
X207.7791 Y14.8094
X207.7556 Y14.9575
X207.7169 Y15.1066
X207.6648 Y15.2566
X207.5887 Y15.4293
X207.4898 Y15.6125
X207.3632 Y15.8077
X207.1977 Y16.0228
X207.0005 Y16.2405
X206.739 Y16.4862
X206.4378 Y16.7267
X206.0418 Y16.994
X205.5701 Y17.2599
X205.0009 Y17.523
X204.3085 Y17.7778
X203.5991 Y17.9806
X202.8793 Y18.1427
X202.7607 Y18.1639
X202.6761 Y18.1729
X202.5911 Y18.1697
X202.5074 Y18.1543
X202.3398 Y18.1294
X202.1721 Y18.1197
X201.8368 Y18.1139
X201.6692 Y18.1125
X23.6186 Y18.1126
X23.1157 Y18.1153
X22.948 Y18.1317
X22.7803 Y18.1589
X22.6127 Y18.1975
X22.4392 Y18.2561
X22.2676 Y18.322
X21.8772 Y18.437
X21.1549 Y18.5879
X20.797 Y18.6771
X20.4621 Y18.8318
X19.8635 Y19.2631
X19.4474 Y19.8725
X19.1773 Y20.559
X19.0081 Y21.2772
X18.9044 Y22.0077
X18.8416 Y22.7428
X18.8039 Y23.4797
X18.7814 Y24.2171
X18.768 Y24.9548
X18.76 Y25.6926
X18.7552 Y26.4304
X18.7524 Y27.1682
X18.7498 Y28.6438
X18.7484 Y33.0707
Y66.2724
Y69.2237
X18.8311 Y69.5832
X19.1248 Y70.26
X19.615 Y70.8114
X20.2002 Y71.2608
X20.793 Y71.6553
X20.8303 Y71.6847
X20.9822 Y71.8469
X21.0792 Y72.0468
X21.1125 Y72.2665
Y73.7902
G3 X20.5392 Y73.967 I-0.3173 J-0.0111
G1 X20.4974 Y73.91 Z-1.992
X20.4577 Y73.8559 Z-1.9686
X20.4221 Y73.8074 Z-1.9307
X20.3924 Y73.7668 Z-1.8805
X20.37 Y73.7363 Z-1.8203
X20.3561 Y73.7174 Z-1.7532
X20.3514 Y73.711 Z-1.6825
G0 Z5
X23.2226 Y17.4899
Z-1.365
G1 Z-1.6825 F3500
X23.218 Y17.4964 Z-1.7532
X23.2044 Y17.5156 Z-1.8203
X23.1825 Y17.5464 Z-1.8805
X23.1534 Y17.5874 Z-1.9307
X23.1185 Y17.6365 Z-1.9686
X23.0796 Y17.6912 Z-1.992
X23.0387 Y17.7488 Z-2
G3 X22.4392 Y18.2561 I-1.2901 J-0.9166
G1 X22.2774 Y18.3278
X22.1071 Y18.4238
X21.9421 Y18.5375
X21.8715 Y18.5915
X21.7744 Y18.6756
X21.6895 Y18.7592
X21.6068 Y18.8569
X21.5521 Y18.9268
X21.4391 Y19.081
X21.3798 Y19.1783
X20.9979 Y19.8097
X20.6831 Y20.477
X20.4537 Y21.1782
X20.2967 Y21.8991
X20.1934 Y22.6297
X20.1271 Y23.3645
X20.0854 Y24.1011
X20.0594 Y24.8385
X20.0433 Y25.5761
X20.0335 Y26.3139
X20.0275 Y27.0517
X20.0239 Y27.7895
X20.0204 Y29.2651
X20.0186 Y32.2163
X20.0184 Y67.6315
X20.0417 Y68.3689
X20.2741 Y69.0692
X20.6945 Y69.6755
X20.9138 Y69.9109
X21.0218 Y70.0607
X21.0895 Y70.2326
X21.1125 Y70.4158
Y72.2665
G3 X20.5392 Y72.4432 I-0.3173 J-0.0111
G1 X20.4974 Y72.3863 Z-1.992
X20.4577 Y72.3322 Z-1.9686
X20.4221 Y72.2836 Z-1.9307
X20.3924 Y72.2431 Z-1.8805
X20.37 Y72.2126 Z-1.8203
X20.3561 Y72.1937 Z-1.7532
X20.3514 Y72.1872 Z-1.6825
G0 Z5
X21.4629 Y18.0857
Z-1.365
G1 Z-1.6825 F3500
X21.4637 Y18.0936 Z-1.7532
X21.4661 Y18.117 Z-1.8203
X21.47 Y18.1546 Z-1.8805
X21.4752 Y18.2046 Z-1.9307
X21.4813 Y18.2645 Z-1.9686
X21.4882 Y18.3312 Z-1.992
X21.4955 Y18.4015 Z-2
G3 X21.3798 Y19.1783 I-1.5742 J0.1625
G1 X21.3409 Y19.2622
X21.1629 Y19.7442
X21.1585 Y19.7652
X21.1323 Y19.9329
X21.1182 Y20.1005
X21.1125 Y20.2682
Y70.4158
G3 X20.5392 Y70.5926 I-0.3173 J-0.0111
G1 X20.4974 Y70.5356 Z-1.992
X20.4577 Y70.4815 Z-1.9686
X20.4221 Y70.433 Z-1.9307
X20.3924 Y70.3924 Z-1.8805
X20.37 Y70.3619 Z-1.8203
X20.3561 Y70.343 Z-1.7532
X20.3514 Y70.3366 Z-1.6825
G0 Z5
X207.403 Y13.6331
Z-1.365
G1 Z-1.6825 F3500
X207.4071 Y13.6399 Z-1.7532
X207.4191 Y13.6601 Z-1.8203
X207.4384 Y13.6926 Z-1.8805
X207.4641 Y13.7358 Z-1.9307
X207.4949 Y13.7876 Z-1.9686
X207.5292 Y13.8453 Z-1.992
X207.5653 Y13.906 Z-2
G3 X207.7866 Y14.6595 I-1.3603 J0.8088
G1 Y15.9087
X207.7791 Y16.0585
X207.7533 Y16.2063
X207.7132 Y16.353
X207.6553 Y16.513
X207.5788 Y16.6813
X207.4698 Y16.8772
X207.3423 Y17.0685
X207.1649 Y17.2932
X206.9625 Y17.5111
X206.687 Y17.7636
X206.3813 Y18.0016
X205.961 Y18.2776
X205.4908 Y18.535
X204.8825 Y18.807
X204.4163 Y18.972
X204.1998 Y19.0138
X203.9806 Y18.99
X203.7781 Y18.9028
X203.6103 Y18.7598
X203.4298 Y18.5915
X203.3457 Y18.529
X203.1915 Y18.4238
X203.1781 Y18.4158
X203.0104 Y18.3243
X202.8578 Y18.2561
X202.8427 Y18.2505
X202.6751 Y18.1976
X202.5074 Y18.1543
G3 X202.4805 Y17.5547 I0.0901 J-0.3045
G1 X207.1869 Y15.6902
X207.3524 Y15.6246
G3 X207.7866 Y15.9087 I0.1169 J0.2952
G1 X207.7867 Y17.0824
X207.7792 Y17.2322
X207.7593 Y17.3809
X207.7258 Y17.5271
X207.6749 Y17.6842
X207.6071 Y17.8476
X207.5151 Y18.0269
X207.3898 Y18.2293
X207.2415 Y18.4307
X207.04 Y18.6628
X206.8121 Y18.8863
X206.4994 Y19.1471
X206.1512 Y19.3929
X205.8096 Y19.5951
X205.5175 Y19.7377
X205.2969 Y19.8242
X205.064 Y19.8946
X204.8726 Y19.936
X204.841 Y19.9402
X204.6382 Y19.9393
X204.4433 Y19.8834
X204.2708 Y19.7767
X204.1337 Y19.6273
X204.0422 Y19.4463
G3 X204.1598 Y19.0966 I0.3037 J-0.0925
G1 X204.4772 Y18.8669
X207.2031 Y16.8943
X207.2832 Y16.8363
G3 X207.7867 Y17.0824 I0.1861 J0.2572
G1 Y18.3484
X207.7792 Y18.4982
X207.7562 Y18.6464
X207.7178 Y18.7957
X207.6651 Y18.949
X207.59 Y19.1209
X207.4906 Y19.3062
X207.3654 Y19.5005
X207.2112 Y19.7022
X207.0233 Y19.9109
X206.8152 Y20.1075
X206.5879 Y20.2902
X206.3446 Y20.4554
X206.1196 Y20.5832
X205.9001 Y20.6854
X205.6999 Y20.7597
X205.5192 Y20.8108
X205.3258 Y20.8489
X205.1599 Y20.868
X204.9918 Y20.8738
X204.8901 Y20.8691
X204.6738 Y20.8262
X204.4797 Y20.7215
X204.325 Y20.5644
X204.2234 Y20.3686
X204.184 Y20.1516
X204.1812 Y20.1005
X204.1682 Y19.9329
X204.139 Y19.7652
X204.0941 Y19.5975
X204.0422 Y19.4463
G3 X204.2496 Y19.0513 I0.3037 J-0.0925
G1 X204.5267 Y18.9631
X207.1826 Y18.1175
X207.3731 Y18.0569
G3 X207.7867 Y18.3484 I0.0963 J0.3025
G1 Y19.5975
X207.7792 Y19.7473
X207.7533 Y19.8951
X207.7131 Y20.0396
X207.6592 Y20.1856
X207.5861 Y20.3434
X207.493 Y20.5081
X207.3829 Y20.6707
X207.2488 Y20.8382
X207.0939 Y21.0027
X206.9229 Y21.1573
X206.7362 Y21.3006
X206.5348 Y21.4309
X206.3228 Y21.545
X206.1052 Y21.6405
X205.906 Y21.7095
X205.6901 Y21.7653
X205.5054 Y21.7975
X205.3342 Y21.8133
X205.1482 Y21.8155
X204.9881 Y21.8045
X204.8397 Y21.7823
X204.7601 Y21.7637
X204.5748 Y21.6933
X204.4149 Y21.5763
X204.2917 Y21.421
X204.214 Y21.2387
X204.1875 Y21.0423
Y20.2682
X204.184 Y20.1516
G3 X204.4442 Y19.8408 I0.3175 J0.0015
G1 X204.7843 Y19.7784
X207.1759 Y19.3396
X207.4121 Y19.2963
G3 X207.7867 Y19.5975 I0.0573 J0.3123
G1 Y20.6958
X207.7792 Y20.8456
X207.7578 Y20.9941
X207.7204 Y21.1393
X207.6686 Y21.2801
X207.605 Y21.416
X207.5243 Y21.5575
X207.4232 Y21.7055
X207.3075 Y21.8489
X207.1716 Y21.992
X207.0135 Y22.1337
X206.8397 Y22.266
X206.6524 Y22.386
X206.4527 Y22.4925
X206.2406 Y22.5845
X206.0209 Y22.6596
X205.8009 Y22.7155
X205.5996 Y22.7497
X205.3881 Y22.7684
X205.2106 Y22.7698
X205.0313 Y22.7567
X204.8602 Y22.7304
X204.7126 Y22.6953
X204.6998 Y22.6911
X204.4931 Y22.5859
X204.3291 Y22.422
X204.2238 Y22.2154
X204.1875 Y21.9864
Y21.0423
G3 X204.468 Y20.738 I0.3173 J0.0111
G1 X204.8004 Y20.6991
X207.1735 Y20.4218
X207.4326 Y20.3915
G3 X207.7867 Y20.6958 I0.0369 J0.3154
G1 Y21.7773
X207.7792 Y21.9271
X207.7531 Y22.0748
X207.7103 Y22.2185
X207.6534 Y22.3574
X207.5842 Y22.4904
X207.4977 Y22.6276
X207.3978 Y22.761
X207.276 Y22.8989
X207.1337 Y23.0362
X206.9767 Y23.1649
X206.8019 Y23.2862
X206.6074 Y23.3991
X206.4002 Y23.4982
X206.1817 Y23.5818
X205.9545 Y23.6484
X205.7239 Y23.6963
X205.5223 Y23.7215
X205.3207 Y23.7304
X205.1248 Y23.7233
X204.9607 Y23.7041
X204.7957 Y23.6711
X204.7256 Y23.6512
X204.55 Y23.5756
X204.3997 Y23.4576
X204.2845 Y23.3051
X204.2122 Y23.1282
X204.1875 Y22.9386
Y21.9864
G3 X204.4825 Y21.6808 I0.3173 J0.0111
G1 X204.8018 Y21.6583
X207.1724 Y21.491
X207.4471 Y21.4716
G3 X207.7867 Y21.7773 I0.0224 J0.3167
G1 X207.7868 Y22.7833
X207.7793 Y22.9331
X207.7519 Y23.0806
X207.7077 Y23.2239
X207.649 Y23.362
X207.5776 Y23.4939
X207.4938 Y23.6224
X207.3909 Y23.7556
X207.2669 Y23.8918
X207.1287 Y24.0211
X206.9677 Y24.1491
X206.7878 Y24.27
X206.5918 Y24.3799
X206.3829 Y24.4759
X206.1628 Y24.5563
X205.9354 Y24.6193
X205.7087 Y24.6628
X205.5013 Y24.6856
X205.29 Y24.6917
X205.1138 Y24.6827
X204.9293 Y24.6582
X204.765 Y24.6229
X204.7148 Y24.6078
X204.5028 Y24.5048
X204.3338 Y24.3403
X204.225 Y24.1311
X204.1875 Y23.8984
Y22.9386
G3 X204.4882 Y22.6327 I0.3173 J0.0111
G1 X204.8022 Y22.6162
X207.1721 Y22.492
X207.4528 Y22.4773
G3 X207.7868 Y22.7833 I0.0166 J0.3171
G1 Y23.7893
X207.7793 Y23.9392
X207.7479 Y24.0858
X207.7 Y24.228
X207.6381 Y24.3646
X207.5639 Y24.495
X207.4763 Y24.6234
X207.3697 Y24.7554
X207.2415 Y24.8905
X207.0991 Y25.0182
X206.9352 Y25.143
X206.7517 Y25.2607
X206.5508 Y25.3679
X206.3386 Y25.4601
X206.1162 Y25.5361
X205.885 Y25.5949
X205.6594 Y25.6333
X205.461 Y25.6509
X205.2452 Y25.6526
X205.0629 Y25.6394
X204.902 Y25.6146
X204.7249 Y25.5726
X204.7 Y25.5645
X204.4933 Y25.4594
X204.3292 Y25.2954
X204.2238 Y25.0888
X204.1875 Y24.8598
Y23.8984
G3 X204.4932 Y23.5922 I0.3173 J0.0111
G1 X204.8024 Y23.5808
X207.1719 Y23.4937
X207.4578 Y23.4831
G3 X207.7868 Y23.7893 I0.0117 J0.3173
G1 Y24.7199
X207.7793 Y24.8697
X207.7537 Y25.0175
X207.7102 Y25.1611
X207.6516 Y25.2992
X207.5805 Y25.4313
X207.4968 Y25.5591
X207.3928 Y25.6929
X207.2753 Y25.8215
X207.1346 Y25.9524
X206.9729 Y26.0804
X206.797 Y26.198
X206.6058 Y26.3046
X206.3956 Y26.4006
X206.1739 Y26.481
X205.9457 Y26.5436
X205.7095 Y26.5884
X205.5062 Y26.6102
X205.2967 Y26.6158
X205.1022 Y26.6053
X204.9389 Y26.5833
X204.7677 Y26.5461
X204.7132 Y26.5295
X204.5017 Y26.4263
X204.3333 Y26.2619
X204.2249 Y26.053
X204.1875 Y25.8206
Y24.8598
G3 X204.4899 Y24.5537 I0.3173 J0.0111
G1 X204.8022 Y24.539
X207.172 Y24.4272
X207.4545 Y24.4139
G3 X207.7868 Y24.7199 I0.015 J0.3171
G1 Y25.726
X207.7793 Y25.8758
X207.7476 Y26.0224
X207.6993 Y26.1644
X207.637 Y26.3008
X207.5622 Y26.4309
X207.4735 Y26.5594
X207.3673 Y26.6898
X207.2385 Y26.824
X207.0954 Y26.9511
X206.9306 Y27.0752
X206.7469 Y27.1918
X206.5454 Y27.298
X206.3315 Y27.3897
X206.1078 Y27.4649
X205.8771 Y27.5223
X205.6519 Y27.5595
X205.4528 Y27.5761
X205.2367 Y27.5768
X205.055 Y27.5627
X204.8938 Y27.537
X204.7164 Y27.494
X204.6965 Y27.4874
X204.491 Y27.3818
X204.3281 Y27.218
X204.2235 Y27.012
X204.1875 Y26.7838
Y25.8206
G3 X204.4947 Y25.5144 I0.3173 J0.0111
G1 X204.8024 Y25.5045
X207.1719 Y25.4289
X207.4594 Y25.4197
G3 X207.7868 Y25.726 I0.0101 J0.3173
G1 Y26.6398
X207.7793 Y26.7896
X207.755 Y26.9376
X207.7125 Y27.0815
X207.6546 Y27.2199
X207.5842 Y27.3523
X207.5007 Y27.4807
X207.3985 Y27.6132
X207.2819 Y27.7415
X207.1416 Y27.8731
X206.9821 Y28.0001
X206.8082 Y28.1173
X206.617 Y28.2247
X206.4069 Y28.3215
X206.1854 Y28.4027
X205.9573 Y28.4661
X205.7211 Y28.5117
X205.5146 Y28.5346
X205.3081 Y28.5408
X205.1105 Y28.5309
X204.9455 Y28.5092
X204.7765 Y28.473
X204.7156 Y28.4547
X204.5032 Y28.3518
X204.334 Y28.1874
X204.2251 Y27.978
X204.1875 Y27.7451
Y26.7838
G3 X204.4894 Y26.4778 I0.3173 J0.0111
G1 X204.8022 Y26.4626
X207.1721 Y26.3475
X207.4541 Y26.3337
G3 X207.7868 Y26.6398 I0.0154 J0.3171
G1 Y27.6458
X207.7793 Y27.7956
X207.7485 Y27.9424
X207.7009 Y28.0847
X207.6391 Y28.2214
X207.5648 Y28.3517
X207.4764 Y28.4806
X207.3713 Y28.6103
X207.2434 Y28.7445
X207.1008 Y28.8718
X206.9372 Y28.9958
X206.7541 Y29.1128
X206.5534 Y29.2193
X206.3399 Y29.3114
X206.1165 Y29.3873
X205.886 Y29.4454
X205.6606 Y29.4833
X205.4609 Y29.5005
X205.2441 Y29.5018
X205.0616 Y29.4882
X204.9001 Y29.463
X204.7225 Y29.4204
X204.6985 Y29.4126
X204.4923 Y29.3072
X204.3287 Y29.1434
X204.2237 Y28.937
X204.1875 Y28.7083
Y27.7451
G3 X204.4942 Y27.4389 I0.3173 J0.0111
G1 X204.8024 Y27.4285
X207.1719 Y27.3492
X207.4589 Y27.3396
G3 X207.7868 Y27.6458 I0.0106 J0.3173
G1 Y28.5764
X207.7794 Y28.7262
X207.7534 Y28.874
X207.7096 Y29.0174
X207.6507 Y29.1554
X207.5792 Y29.2872
X207.4953 Y29.4146
X207.3909 Y29.5482
X207.2729 Y29.6764
X207.1322 Y29.8068
X206.9701 Y29.9343
X206.7938 Y30.0514
X206.6024 Y30.1575
X206.3919 Y30.2529
X206.1698 Y30.3328
X205.9412 Y30.3948
X205.7046 Y30.439
X205.5014 Y30.4603
X205.2915 Y30.4653
X205.0974 Y30.4543
X204.9342 Y30.4319
X204.7627 Y30.394
X204.7112 Y30.3783
X204.5004 Y30.2747
X204.3327 Y30.1104
X204.2247 Y29.9018
X204.1875 Y29.67
Y28.7083
G3 X204.4907 Y28.4022 I0.3173 J0.0111
G1 X204.8023 Y28.3883
X207.1721 Y28.2829
X207.4554 Y28.2703
G3 X207.7868 Y28.5764 I0.0141 J0.3172
G1 X207.7869 Y29.5825
X207.7794 Y29.7323
X207.747 Y29.8787
X207.6981 Y30.0205
X207.6353 Y30.1567
X207.56 Y30.2865
X207.4708 Y30.415
X207.3639 Y30.5452
X207.2345 Y30.6793
X207.0907 Y30.8061
X206.9252 Y30.9299
X206.7408 Y31.0461
X206.5387 Y31.1517
X206.3242 Y31.2428
X206.1 Y31.3173
X205.869 Y31.374
X205.6441 Y31.4104
X205.445 Y31.4263
X205.2294
X205.0484 Y31.4116
X204.8871 Y31.3854
X204.71 Y31.3418
X204.6941 Y31.3365
X204.4895 Y31.2306
X204.3274 Y31.0669
X204.2233 Y30.8613
X204.1875 Y30.6337
Y29.67
G3 X204.4955 Y29.3637 I0.3173 J0.0111
G1 X204.8024 Y29.3546
X207.1719 Y29.2847
X207.4602 Y29.2762
G3 X207.7869 Y29.5825 I0.0094 J0.3174
G1 Y30.4963
X207.7794 Y30.6461
X207.7543 Y30.794
X207.711 Y30.9376
X207.6526 Y31.0758
X207.5817 Y31.2079
X207.4974 Y31.3366
X207.3946 Y31.4689
X207.2771 Y31.5973
X207.1358 Y31.7288
X206.9756 Y31.8554
X206.8009 Y31.9722
X206.6089 Y32.0792
X206.3982 Y32.1753
X206.1762 Y32.2558
X205.9477 Y32.3184
X205.7111 Y32.3632
X205.5057 Y32.3852
X205.299 Y32.3907
X205.1025 Y32.3801
X204.9382 Y32.3579
X204.7688 Y32.321
X204.713 Y32.304
X204.5016 Y32.2007
X204.3332 Y32.0364
X204.2249 Y31.8275
X204.1875 Y31.5952
Y30.6337
G3 X204.4901 Y30.3276 I0.3173 J0.0111
G1 X204.8022 Y30.3132
X207.1721 Y30.2033
X207.4549 Y30.1902
G3 X207.7869 Y30.4963 I0.0147 J0.3172
G1 Y31.5023
X207.7794 Y31.6521
X207.7478 Y31.7987
X207.6994 Y31.9408
X207.6371 Y32.0772
X207.5623 Y32.2072
X207.4734 Y32.3358
X207.3673 Y32.4658
X207.2386 Y32.5999
X207.0954 Y32.727
X206.9307 Y32.8509
X206.7466 Y32.9675
X206.5453 Y33.0735
X206.3313 Y33.1651
X206.1073 Y33.2402
X205.8766 Y33.2975
X205.6514 Y33.3346
X205.4521 Y33.3511
X205.236 Y33.3517
X205.0543 Y33.3375
X204.8929 Y33.3117
X204.7156 Y33.2686
X204.6961 Y33.2621
X204.4908 Y33.1564
X204.328 Y32.9927
X204.2235 Y32.7868
X204.1875 Y32.5587
Y31.5952
G3 X204.4949 Y31.2889 I0.3173 J0.0111
G1 X204.8024 Y31.2793
X207.172 Y31.2051
X207.4597 Y31.1961
G3 X207.7869 Y31.5023 I0.0099 J0.3173
G1 Y32.4329
X207.7794 Y32.5827
X207.7527 Y32.7303
X207.7081 Y32.8735
X207.6486 Y33.0112
X207.5766 Y33.1428
X207.4917 Y33.2706
X207.3866 Y33.4041
X207.2678 Y33.5324
X207.1259 Y33.6628
X206.9631 Y33.79
X206.786 Y33.9067
X206.5937 Y34.0123
X206.3825 Y34.1071
X206.1599 Y34.1863
X205.9309 Y34.2475
X205.6942 Y34.2908
X205.492 Y34.3112
X205.2822 Y34.3155
X205.0892 Y34.3038
X204.9267 Y34.2809
X204.7549 Y34.2423
X204.7086 Y34.228
X204.4988 Y34.124
X204.3319 Y33.9598
X204.2245 Y33.7517
X204.1875 Y33.5205
Y32.5587
G3 X204.4914 Y32.2525 I0.3173 J0.0111
G1 X204.8023 Y32.2393
X207.1721 Y32.1388
X207.4562 Y32.1268
G3 X207.7869 Y32.4329 I0.0135 J0.3172
G1 Y33.3974
X207.7794 Y33.5472
X207.7521 Y33.6947
X207.7074 Y33.8379
X207.6478 Y33.9756
X207.5754 Y34.107
X207.4924 Y34.232
X207.388 Y34.3646
X207.2663 Y34.496
X207.1278 Y34.6233
X206.9649 Y34.7506
X206.7845 Y34.8694
X206.5902 Y34.9761
X206.3814 Y35.0699
X206.159 Y35.149
X205.93 Y35.2102
X205.6964 Y35.253
X205.4955 Y35.2733
X205.2807 Y35.2776
X205.0906 Y35.2662
X204.9287 Y35.2433
X204.7537 Y35.204
X204.7086 Y35.19
X204.4988 Y35.0861
X204.3319 Y34.9219
X204.2245 Y34.7137
X204.1875 Y34.4825
Y33.5205
G3 X204.4917 Y33.2143 I0.3173 J0.0111
G1 X204.8023 Y33.2014
X207.1721 Y33.1031
X207.4565 Y33.0913
G3 X207.7869 Y33.3974 I0.0132 J0.3172
G1 X207.787 Y34.3528
X207.7794 Y34.5026
X207.753 Y34.6502
X207.7092 Y34.7937
X207.6501 Y34.9316
X207.5784 Y35.0633
X207.4959 Y35.1886
X207.3921 Y35.3215
X207.2719 Y35.4522
X207.1339 Y35.58
X206.9719 Y35.7076
X206.793 Y35.8264
X206.6004 Y35.9331
X206.3917 Y36.0278
X206.1698 Y36.1077
X205.9414 Y36.1697
X205.7067 Y36.2135
X205.5048 Y36.2347
X205.2906 Y36.2398
X205.0988 Y36.229
X204.9363 Y36.2067
X204.762 Y36.1683
X204.7113 Y36.1527
X204.5005 Y36.0492
X204.3327 Y35.8849
X204.2247 Y35.6763
X204.1875 Y35.4444
Y34.4825
G3 X204.491 Y34.1764 I0.3173 J0.0111
G1 X204.8023 Y34.1628
X207.1722 Y34.0591
X207.4558 Y34.0466
G3 X207.787 Y34.3528 I0.0139 J0.3172
G1 Y35.3588
X207.7795 Y35.5086
X207.7468 Y35.655
X207.6977 Y35.7968
X207.6348 Y35.9329
X207.5594 Y36.0626
X207.4698 Y36.1913
X207.3628 Y36.3214
X207.2331 Y36.4555
X207.089 Y36.5824
X206.9237 Y36.7059
X206.7395 Y36.8217
X206.537 Y36.9273
X206.3222 Y37.0182
X206.0981 Y37.0926
X205.867 Y37.1491
X205.6422 Y37.1852
X205.443 Y37.201
X205.2274 Y37.2008
X205.0468 Y37.186
X204.8854 Y37.1596
X204.7083 Y37.1159
X204.6935 Y37.1109
X204.4891 Y37.0049
X204.3272 Y36.8412
X204.2233 Y36.6357
X204.1875 Y36.4083
Y35.4444
G3 X204.4957 Y35.1381 I0.3173 J0.0111
G1 X204.8025 Y35.1293
X207.172 Y35.0608
X207.4605 Y35.0525
G3 X207.787 Y35.3588 I0.0092 J0.3174
G1 Y36.2894
X207.7795 Y36.4392
X207.7518 Y36.5866
X207.7065 Y36.7296
X207.6463 Y36.867
X207.5738 Y36.9983
X207.4879 Y37.1265
X207.382 Y37.26
X207.2623 Y37.3882
X207.1193 Y37.5186
X206.9556 Y37.6454
X206.7777 Y37.7616
X206.5845 Y37.8668
X206.3725 Y37.9609
X206.1494 Y38.0392
X205.92 Y38.0996
X205.6831 Y38.142
X205.482 Y38.1615
X205.2722 Y38.1649
X205.0804 Y38.1526
X204.9185 Y38.129
X204.7633 Y38.0936
X204.5771 Y38.0236
X204.4163 Y37.9067
X204.2923 Y37.7512
X204.2142 Y37.5684
X204.1875 Y37.3714
Y36.4083
G3 X204.4921 Y36.1021 I0.3173 J0.0111
G1 X204.8023 Y36.0897
X207.1721 Y35.9946
X207.457 Y35.9832
G3 X207.787 Y36.2894 I0.0127 J0.3172
G1 Y37.2539
X207.7795 Y37.4037
X207.7513 Y37.551
X207.7059 Y37.694
X207.6456 Y37.8314
X207.5727 Y37.9625
X207.4888 Y38.0877
X207.3833 Y38.2206
X207.2611 Y38.3516
X207.1214 Y38.479
X206.9572 Y38.6062
X206.7762 Y38.7245
X206.5812 Y38.8306
X206.3715 Y38.9238
X206.1485 Y39.0021
X205.9192 Y39.0625
X205.6941 Y39.1027
X205.4677 Y39.1247
X205.2704 Y39.128
X205.09 Y39.1164
X204.9046 Y39.0895
X204.7487 Y39.0538
X204.7059 Y39.0404
X204.4971 Y38.9361
X204.331 Y38.7719
X204.2243 Y38.5643
X204.1875 Y38.3337
Y37.3714
G3 X204.4923 Y37.0652 I0.3173 J0.0111
G1 X204.8023 Y37.0529
X207.1722 Y36.959
X207.4571 Y36.9478
G3 X207.787 Y37.2539 I0.0126 J0.3173
G1 Y38.2092
X207.7795 Y38.3591
X207.7522 Y38.5065
X207.7076 Y38.6497
X207.6479 Y38.7874
X207.5756 Y38.9188
X207.4925 Y39.0439
X207.3877 Y39.1772
X207.2671 Y39.3075
X207.1279 Y39.4355
X206.9657 Y39.5622
X206.7852 Y39.6812
X206.5905 Y39.7882
X206.381 Y39.8823
X206.1602 Y39.9609
X205.9286 Y40.0228
X205.695 Y40.0656
X205.4943 Y40.0859
X205.2806 Y40.0903
X205.0901 Y40.0789
X204.9282 Y40.056
X204.7539 Y40.0169
X204.7088 Y40.0029
X204.4989 Y39.899
X204.3319 Y39.7348
X204.2245 Y39.5266
X204.1875 Y39.2954
Y38.3337
G3 X204.4915 Y38.0276 I0.3173 J0.0111
G1 X204.8023 Y38.0145
X207.1722 Y37.915
X207.4564 Y37.9031
G3 X207.787 Y38.2092 I0.0133 J0.3172
G1 Y39.1398
X207.7795 Y39.2896
X207.7568 Y39.4379
X207.7158 Y39.5822
X207.6592 Y39.7211
X207.5896 Y39.854
X207.5088 Y39.9804
X207.4076 Y40.1136
X207.2923 Y40.2423
X207.156 Y40.372
X206.9964 Y40.501
X206.8222 Y40.6201
X206.6333 Y40.7281
X206.4259 Y40.8255
X206.2052 Y40.9082
X205.9777 Y40.9732
X205.7424 Y41.0203
X205.5355 Y41.0448
X205.3251 Y41.0526
X205.1272 Y41.0441
X204.9618 Y41.0236
X204.7911 Y40.9883
X204.7207 Y40.9677
X204.5465 Y40.8914
X204.3975 Y40.7733
X204.2835 Y40.6212
X204.2119 Y40.4451
X204.1875 Y40.2566
Y39.2954
G3 X204.4882 Y38.9894 I0.3173 J0.0111
G1 X204.8022 Y38.9729
X207.1724 Y38.8486
X207.4531 Y38.8338
G3 X207.787 Y39.1398 I0.0166 J0.3171
G1 Y40.1459
X207.7796 Y40.2957
X207.7503 Y40.4428
X207.704 Y40.5855
X207.6433 Y40.7227
X207.57 Y40.8535
X207.4823 Y40.9833
X207.3792 Y41.1121
X207.2531 Y41.2461
X207.1114 Y41.3743
X206.95 Y41.4982
X206.7689 Y41.6155
X206.5694 Y41.723
X206.3567 Y41.8164
X206.1342 Y41.8935
X205.9043 Y41.953
X205.6782 Y41.9925
X205.4678 Y42.012
X205.2594 Y42.0146
X205.0839 Y42.0026
X204.8985 Y41.9749
X204.7374 Y41.9374
X204.703 Y41.9264
X204.4952 Y41.8216
X204.3301 Y41.6576
X204.2241 Y41.4505
X204.1875 Y41.2207
Y40.2566
G3 X204.493 Y39.9504 I0.3173 J0.0111
G1 X204.8024 Y39.9388
X207.1722 Y39.8503
X207.4579 Y39.8397
G3 X207.787 Y40.1459 I0.0118 J0.3173
G1 X207.7871 Y41.0597
X207.7796 Y41.2095
X207.7576 Y41.3579
X207.717 Y41.5023
X207.6608 Y41.6413
X207.5917 Y41.7745
X207.5108 Y41.9016
X207.4104 Y42.0344
X207.2963 Y42.1625
X207.159 Y42.2938
X207.0014 Y42.4218
X206.8297 Y42.5399
X206.6395 Y42.6492
X206.4315 Y42.7475
X206.2128 Y42.8302
X205.9831 Y42.8964
X205.7482 Y42.9441
X205.5389 Y42.9694
X205.3329 Y42.9776
X205.1322 Y42.9694
X204.9652 Y42.9491
X204.7975 Y42.9149
X204.7225 Y42.8932
X204.5478 Y42.8172
X204.3983 Y42.6991
X204.2839 Y42.5469
X204.212 Y42.3704
X204.1875 Y42.1815
Y41.2207
G3 X204.4876 Y40.9147 I0.3173 J0.0111
G1 X204.8021 Y40.8976
X207.1724 Y40.7689
X207.4525 Y40.7537
G3 X207.7871 Y41.0597 I0.0172 J0.317
G1 Y42.0657
X207.7796 Y42.2155
X207.751 Y42.3628
X207.7051 Y42.5056
X207.645 Y42.643
X207.572 Y42.7741
X207.4846 Y42.904
X207.3824 Y43.0325
X207.2568 Y43.1666
X207.1154 Y43.2951
X206.9548 Y43.4191
X206.7739 Y43.5369
X206.5752 Y43.6446
X206.3628 Y43.7386
X206.1405 Y43.8162
X205.9109 Y43.8763
X205.6847 Y43.9164
X205.4743 Y43.9365
X205.2652 Y43.9395
X205.0894 Y43.928
X204.9037 Y43.9007
X204.7421 Y43.8635
X204.7047 Y43.8517
X204.4963 Y43.7472
X204.3307 Y43.5831
X204.2242 Y43.3756
X204.1875 Y43.1454
Y42.1815
G3 X204.4924 Y41.8754 I0.3173 J0.0111
G1 X204.8024 Y41.8633
X207.1722 Y41.7707
X207.4574 Y41.7595
G3 X207.7871 Y42.0657 I0.0124 J0.3173
G1 Y42.9963
X207.7796 Y43.1461
X207.7559 Y43.2942
X207.7139 Y43.4382
X207.6565 Y43.5768
X207.5863 Y43.7094
X207.5049 Y43.8356
X207.4026 Y43.9692
X207.2867 Y44.0976
X207.1487 Y44.2279
X206.9889 Y44.3561
X206.8144 Y44.4744
X206.6239 Y44.5824
X206.4154 Y44.6793
X206.1961 Y44.7606
X205.9659 Y44.8254
X205.7305 Y44.8717
X205.5247 Y44.8952
X205.3151 Y44.9022
X205.1181 Y44.893
X204.9535 Y44.8719
X204.7828 Y44.836
X204.718 Y44.8168
X204.5048 Y44.7142
X204.3348 Y44.5497
X204.2253 Y44.34
X204.1875 Y44.1064
Y43.1454
G3 X204.4889 Y42.8394 I0.3173 J0.0111
G1 X204.8022 Y42.8236
X207.1724 Y42.7044
X207.4538 Y42.6903
G3 X207.7871 Y42.9963 I0.0159 J0.3171
G1 Y44.0023
X207.7796 Y44.1522
X207.7494 Y44.2991
X207.7023 Y44.4415
X207.6409 Y44.5784
X207.567 Y44.7089
X207.4787 Y44.8384
X207.3747 Y44.9674
X207.2474 Y45.1017
X207.105 Y45.2295
X206.9423 Y45.3534
X206.7601 Y45.4704
X206.5598 Y45.5774
X206.3464 Y45.6702
X206.1234 Y45.7465
X205.8931 Y45.8051
X205.6675 Y45.8437
X205.4675 Y45.8615
X205.2502 Y45.8633
X205.0672 Y45.8501
X204.9055 Y45.8253
X204.7276 Y45.7831
X204.7003 Y45.7743
X204.4934 Y45.6692
X204.3293 Y45.5053
X204.2238 Y45.2986
X204.1875 Y45.0694
Y44.1064
G3 X204.4937 Y43.8002 I0.3173 J0.0111
G1 X204.8024 Y43.7894
X207.1722 Y43.7062
X207.4587 Y43.6961
G3 X207.7871 Y44.0023 I0.0111 J0.3173
G1 Y44.9162
X207.7796 Y45.066
X207.7567 Y45.2142
X207.7153 Y45.3584
X207.6584 Y45.4972
X207.5888 Y45.63
X207.5068 Y45.7577
X207.4057 Y45.8904
X207.2906 Y46.0186
X207.152 Y46.15
X206.9937 Y46.2776
X206.821 Y46.3953
X206.6312 Y46.5034
X206.4223 Y46.6011
X206.2015 Y46.6835
X205.9739 Y46.7481
X205.7381 Y46.7951
X205.5296 Y46.8194
X205.3233 Y46.8268
X205.1237 Y46.8179
X204.9575 Y46.797
X204.7892 Y46.762
X204.7196 Y46.7415
X204.5458 Y46.6651
X204.3971 Y46.547
X204.2833 Y46.395
X204.2119 Y46.219
X204.1875 Y46.0307
Y45.0694
G3 X204.4884 Y44.7634 I0.3173 J0.0111
G1 X204.8022 Y44.7472
X207.1725 Y44.6247
X207.4534 Y44.6102
G3 X207.7871 Y44.9162 I0.0164 J0.3171
G1 Y45.9222
X207.7796 Y46.072
X207.7501 Y46.2191
X207.7036 Y46.3617
X207.6427 Y46.4988
X207.5692 Y46.6295
X207.4813 Y46.7591
X207.3779 Y46.8881
X207.2514 Y47.0221
X207.1096 Y47.1501
X206.9478 Y47.2741
X206.766 Y47.3915
X206.5665 Y47.4987
X206.3536 Y47.5919
X206.1308 Y47.6688
X205.9008 Y47.728
X205.6748 Y47.7672
X205.4646 Y47.7864
X205.2566 Y47.7887
X205.0812 Y47.7765
X204.8959 Y47.7486
X204.735 Y47.7109
X204.7021 Y47.7003
X204.4946 Y47.5955
X204.3298 Y47.4315
X204.224 Y47.2245
X204.1875 Y46.9949
Y46.0307
G3 X204.4932 Y45.7245 I0.3173 J0.0111
G1 X204.8024 Y45.7132
X207.1723 Y45.6265
X207.4582 Y45.616
G3 X207.7871 Y45.9222 I0.0116 J0.3173
G1 X207.7872 Y46.8528
X207.7797 Y47.0026
X207.755 Y47.1506
X207.7123 Y47.2943
X207.6542 Y47.4326
X207.5835 Y47.5649
X207.501 Y47.6916
X207.3978 Y47.8252
X207.2811 Y47.9535
X207.1419 Y48.0838
X206.9811 Y48.2118
X206.8059 Y48.3295
X206.6144 Y48.437
X206.4051 Y48.5333
X206.1852 Y48.6137
X205.9546 Y48.6777
X205.7191 Y48.723
X205.5145 Y48.7455
X205.3048 Y48.7517
X205.1091 Y48.7417
X204.9451 Y48.72
X204.7741 Y48.6833
X204.7151 Y48.6656
X204.5029 Y48.5626
X204.3339 Y48.3982
X204.2251 Y48.1889
X204.1875 Y47.9561
Y46.9949
G3 X204.4896 Y46.6888 I0.3173 J0.0111
G1 X204.8022 Y46.6738
X207.1724 Y46.5603
X207.4547 Y46.5467
G3 X207.7872 Y46.8528 I0.0152 J0.3171
G1 Y47.8588
X207.7797 Y48.0086
X207.7485 Y48.1554
X207.7007 Y48.2975
X207.6387 Y48.4341
X207.5642 Y48.5643
X207.4755 Y48.6933
X207.3703 Y48.8229
X207.242 Y48.9571
X207.099 Y49.0845
X206.9351 Y49.2085
X206.7519 Y49.3252
X206.5508 Y49.4316
X206.337 Y49.5236
X206.1134 Y49.5992
X205.8829 Y49.657
X205.6575 Y49.6947
X205.4579 Y49.7117
X205.2413 Y49.7127
X205.0592 Y49.6989
X204.8977 Y49.6735
X204.7202 Y49.6307
X204.6977 Y49.6234
X204.4918 Y49.5179
X204.3285 Y49.3541
X204.2236 Y49.1479
X204.1875 Y48.9194
Y47.9561
G3 X204.4944 Y47.6498 I0.3173 J0.0111
G1 X204.8024 Y47.6397
X207.1723 Y47.562
X207.4595 Y47.5526
G3 X207.7872 Y47.8588 I0.0104 J0.3173
G1 Y48.7726
X207.7797 Y48.9225
X207.7559 Y49.0706
X207.7137 Y49.2145
X207.6562 Y49.353
X207.586 Y49.4856
X207.503 Y49.6137
X207.4011 Y49.7462
X207.285 Y49.8745
X207.1453 Y50.006
X206.9862 Y50.1333
X206.8126 Y50.2505
X206.6219 Y50.3582
X206.4122 Y50.4553
X206.1909 Y50.5369
X205.9629 Y50.6007
X205.7267 Y50.6467
X205.5196 Y50.67
X205.3131 Y50.6766
X205.1148 Y50.667
X204.9494 Y50.6455
X204.7806 Y50.6097
X204.7168 Y50.5907
X204.504 Y50.488
X204.3344 Y50.3235
X204.2252 Y50.114
X204.1875 Y49.8807
Y48.9194
G3 X204.4891 Y48.6133 I0.3173 J0.0111
G1 X204.8022 Y48.5979
X207.1725 Y48.4806
X207.4542 Y48.4666
G3 X207.7872 Y48.7726 I0.0157 J0.3171
G1 Y49.7787
X207.7797 Y49.9285
X207.7493 Y50.0754
X207.702 Y50.2177
X207.6405 Y50.3546
X207.5665 Y50.485
X207.4782 Y50.6142
X207.3736 Y50.7436
X207.2462 Y50.8777
X207.1038 Y51.0053
X206.9408 Y51.1293
X206.758 Y51.2463
X206.5577 Y51.353
X206.3444 Y51.4455
X206.1211 Y51.5217
X205.8907 Y51.5802
X205.6651 Y51.6185
X205.4652 Y51.636
X205.248 Y51.6377
X205.0651 Y51.6243
X204.9036 Y51.5993
X204.7258 Y51.557
X204.6996 Y51.5485
X204.493 Y51.4433
X204.3291 Y51.2794
X204.2238 Y51.0729
X204.1875 Y50.8439
Y49.8807
G3 X204.4939 Y49.5745 I0.3173 J0.0111
G1 X204.8024 Y49.5639
X207.1723 Y49.4823
X207.459 Y49.4725
G3 X207.7872 Y49.7787 I0.0109 J0.3173
G1 Y50.7093
X207.7797 Y50.8591
X207.7542 Y51.0069
X207.7107 Y51.1505
X207.652 Y51.2885
X207.5808 Y51.4205
X207.4973 Y51.5476
X207.3933 Y51.6812
X207.2757 Y51.8095
X207.1354 Y51.9399
X206.9737 Y52.0675
X206.7978 Y52.1848
X206.6067 Y52.2911
X206.3965 Y52.3868
X206.1746 Y52.4671
X205.9462 Y52.5295
X205.7097 Y52.574
X205.5058 Y52.5957
X205.296 Y52.6011
X205.1012 Y52.5904
X204.9378 Y52.5682
X204.7664 Y52.5307
X204.7124 Y52.5142
X204.5012 Y52.4109
X204.333 Y52.2465
X204.2248 Y52.0377
X204.1875 Y51.8056
Y50.8439
G3 X204.4904 Y50.5378 I0.3173 J0.0111
G1 X204.8023 Y50.5236
X207.1725 Y50.416
X207.4555 Y50.4032
G3 X207.7872 Y50.7093 I0.0144 J0.3172
G1 Y51.7153
X207.7797 Y51.8651
X207.7478 Y52.0117
X207.6992 Y52.1536
X207.6366 Y52.2899
X207.5616 Y52.4198
X207.4725 Y52.5484
X207.3661 Y52.6785
X207.237 Y52.8126
X207.0935 Y52.9395
X206.9285 Y53.0634
X206.7445 Y53.1797
X206.5427 Y53.2856
X206.3283 Y53.3769
X206.1043 Y53.4518
X205.8734 Y53.5088
X205.6483 Y53.5456
X205.4491 Y53.5618
X205.2331 Y53.5621
X205.0517 Y53.5477
X204.8903 Y53.5217
X204.7131 Y53.4784
X204.6952 Y53.4724
X204.4902 Y53.3666
X204.3277 Y53.2029
X204.2234 Y52.9971
X204.1875 Y52.7692
Y51.8056
G3 X204.4952 Y51.4993 I0.3173 J0.0111
G1 X204.8024 Y51.4899
X207.1723 Y51.4178
X207.4603 Y51.409
G3 X207.7872 Y51.7153 I0.0097 J0.3174
G1 X207.7873 Y52.6291
X207.7798 Y52.7789
X207.7551 Y52.9269
X207.7121 Y53.0706
X207.654 Y53.2089
X207.5833 Y53.3412
X207.4993 Y53.4697
X207.3968 Y53.602
X207.2797 Y53.7304
X207.1389 Y53.8619
X206.979 Y53.9887
X206.8046 Y54.1056
X206.613 Y54.2128
X206.4026 Y54.3093
X206.1808 Y54.3901
X205.9524 Y54.453
X205.7159 Y54.4982
X205.5099 Y54.5206
X205.3033 Y54.5264
X205.1062 Y54.5161
X204.9416 Y54.4941
X204.7723 Y54.4575
X204.7141 Y54.4399
X204.5023 Y54.3368
X204.3336 Y54.1724
X204.225 Y53.9633
X204.1875 Y53.7307
Y52.7692
G3 X204.4898 Y52.4632 I0.3173 J0.0111
G1 X204.8022 Y52.4484
X207.1725 Y52.3364
X207.455 Y52.3231
G3 X207.7873 Y52.6291 I0.015 J0.3171
G1 Y53.6352
X207.7798 Y53.785
X207.7485 Y53.9317
X207.7005 Y54.0738
X207.6384 Y54.2103
X207.5638 Y54.3405
X207.4751 Y54.4692
X207.3694 Y54.5991
X207.2411 Y54.7332
X207.0981 Y54.8604
X206.9339 Y54.9844
X206.7502 Y55.1011
X206.5492 Y55.2073
X206.3353 Y55.2992
X206.1116 Y55.3746
X205.8809 Y55.4323
X205.6556 Y55.4697
X205.4561 Y55.4866
X205.2396 Y55.4874
X205.0575 Y55.4735
X204.8961 Y55.4479
X204.7186 Y55.405
X204.6971 Y55.398
X204.4914 Y55.2924
X204.3283 Y55.1286
X204.2236 Y54.9225
X204.1875 Y54.6942
Y53.7307
G3 X204.4946 Y53.4245 I0.3173 J0.0111
G1 X204.8024 Y53.4145
X207.1724 Y53.3382
X207.4597 Y53.3289
G3 X207.7873 Y53.6352 I0.0102 J0.3173
G1 Y54.5658
X207.7798 Y54.7156
X207.7534 Y54.8632
X207.7092 Y55.0066
X207.6499 Y55.1443
X207.5781 Y55.2761
X207.4936 Y55.4036
X207.3888 Y55.5372
X207.2704 Y55.6655
X207.129 Y55.7959
X206.9664 Y55.9232
X206.7897 Y56.0401
X206.5978 Y56.1459
X206.3868 Y56.241
X206.1644 Y56.3205
X205.9356 Y56.3821
X205.6989 Y56.4258
X205.4962 Y56.4465
X205.2864 Y56.4511
X205.0928 Y56.4398
X204.93 Y56.417
X204.7583 Y56.3788
X204.7097 Y56.3638
X204.4995 Y56.26
X204.3322 Y56.0958
X204.2246 Y55.8874
X204.1875 Y55.6559
Y54.6942
G3 X204.4911 Y54.388 I0.3173 J0.0111
G1 X204.8023 Y54.3746
X207.1725 Y54.2719
X207.4563 Y54.2596
G3 X207.7873 Y54.5658 I0.0137 J0.3172
G1 Y55.5303
X207.7798 Y55.6801
X207.7528 Y55.8277
X207.7085 Y55.9709
X207.6491 Y56.1087
X207.5769 Y56.2402
X207.4941 Y56.3653
X207.3902 Y56.4977
X207.2687 Y56.6293
X207.1307 Y56.7566
X206.9681 Y56.8839
X206.7881 Y57.0029
X206.594 Y57.1099
X206.3855 Y57.2039
X206.1633 Y57.2833
X205.9344 Y57.3448
X205.7007 Y57.388
X205.4995 Y57.4086
X205.2845 Y57.4132
X205.094 Y57.4021
X204.9319 Y57.3794
X204.7568 Y57.3404
X204.7097 Y57.3258
X204.4995 Y57.222
X204.3322 Y57.0578
X204.2246 Y56.8495
X204.1875 Y56.618
Y55.6559
G3 X204.4914 Y55.3498 I0.3173 J0.0111
G1 X204.8023 Y55.3366
X207.1725 Y55.2362
X207.4566 Y55.2242
G3 X207.7873 Y55.5303 I0.0134 J0.3172
G1 Y56.4856
X207.7798 Y56.6354
X207.7538 Y56.7831
X207.7102 Y56.9267
X207.6514 Y57.0647
X207.5799 Y57.1965
X207.4976 Y57.3219
X207.3942 Y57.4547
X207.2742 Y57.5856
X207.1366 Y57.7134
X206.975 Y57.841
X206.7964 Y57.96
X206.604 Y58.067
X206.3956 Y58.1619
X206.1739 Y58.242
X205.9456 Y58.3043
X205.7109 Y58.3485
X205.5086 Y58.37
X205.2943 Y58.3754
X205.102 Y58.3649
X204.9393 Y58.3427
X204.765 Y58.3046
X204.7123 Y58.2885
X204.5011 Y58.1851
X204.333 Y58.0208
X204.2248 Y57.812
X204.1875 Y57.5799
Y56.618
G3 X204.4907 Y56.3119 I0.3173 J0.0111
G1 X204.8023 Y56.298
X207.1725 Y56.1922
X207.4559 Y56.1795
G3 X207.7873 Y56.4856 I0.0142 J0.3172
G1 Y57.4916
X207.7798 Y57.6415
X207.7476 Y57.7879
X207.6987 Y57.9298
X207.636 Y58.066
X207.5608 Y58.1958
X207.4715 Y58.3246
X207.3649 Y58.4547
X207.2356 Y58.5888
X207.0917 Y58.7158
X206.9268 Y58.8393
X206.743 Y58.9552
X206.5407 Y59.0611
X206.3261 Y59.1523
X206.1022 Y59.2269
X205.8712 Y59.2838
X205.6462 Y59.3203
X205.4469 Y59.3364
X205.2309
X205.0499 Y59.3219
X204.8885 Y59.2957
X204.7112 Y59.2522
X204.6945 Y59.2467
X204.4898 Y59.1408
X204.3275 Y58.977
X204.2234 Y58.7714
X204.1875 Y58.5437
Y57.5799
G3 X204.4954 Y57.2736 I0.3173 J0.0111
G1 X204.8024 Y57.2645
X207.1724 Y57.194
X207.4606 Y57.1854
G3 X207.7873 Y57.4916 I0.0094 J0.3174
G1 X207.7874 Y58.4222
X207.7799 Y58.572
X207.7525 Y58.7195
X207.7076 Y58.8626
X207.6476 Y59.0001
X207.5753 Y59.1315
X207.4898 Y59.2596
X207.3842 Y59.3931
X207.2648 Y59.5213
X207.1223 Y59.6517
X206.9588 Y59.7787
X206.7813 Y59.8951
X206.5884 Y60.0004
X206.3766 Y60.0948
X206.1537 Y60.1735
X205.9245 Y60.2342
X205.6876 Y60.2769
X205.486 Y60.2967
X205.2762 Y60.3005
X205.0839 Y60.2884
X204.9217 Y60.2651
X204.7497 Y60.2261
X204.7069 Y60.2126
X204.4977 Y60.1085
X204.3313 Y59.9443
X204.2244 Y59.7365
X204.1875 Y59.5057
Y58.5437
G3 X204.4918 Y58.2375 I0.3173 J0.0111
G1 X204.8023 Y58.2248
X207.1725 Y58.1277
X207.4571 Y58.1161
G3 X207.7874 Y58.4222 I0.013 J0.3172
G1 Y59.3868
X207.7799 Y59.5366
X207.752 Y59.684
X207.7068 Y59.827
X207.6468 Y59.9645
X207.5741 Y60.0957
X207.4905 Y60.2208
X207.3855 Y60.3536
X207.2634 Y60.4848
X207.1242 Y60.6121
X206.9605 Y60.7394
X206.7797 Y60.8579
X206.585 Y60.9643
X206.3756 Y61.0577
X206.1528 Y61.1363
X205.9235 Y61.197
X205.6898 Y61.2392
X205.4895 Y61.2589
X205.2749 Y61.2628
X205.0854 Y61.2509
X204.9238 Y61.2277
X204.7487 Y61.1879
X204.707 Y61.1749
X204.4977 Y61.0707
X204.3313 Y60.9065
X204.2244 Y60.6987
X204.1875 Y60.4679
Y59.5057
G3 X204.4921 Y59.1995 I0.3173 J0.0111
G1 X204.8023 Y59.1871
X207.1725 Y59.092
X207.4574 Y59.0806
G3 X207.7874 Y59.3868 I0.0127 J0.3172
G1 Y60.3421
X207.7799 Y60.4919
X207.7529 Y60.6395
X207.7086 Y60.7828
X207.6492 Y60.9205
X207.5771 Y61.052
X207.4943 Y61.1771
X207.3898 Y61.3103
X207.2695 Y61.4407
X207.1307 Y61.5686
X206.9679 Y61.6962
X206.7887 Y61.8147
X206.5958 Y61.9211
X206.3865 Y62.0155
X206.1643 Y62.0949
X205.9356 Y62.1565
X205.7008 Y62.1998
X205.4993 Y62.2205
X205.2854 Y62.2252
X205.0941 Y62.214
X204.9319 Y62.1913
X204.7575 Y62.1525
X204.7098 Y62.1378
X204.4995 Y62.034
X204.3322 Y61.8698
X204.2246 Y61.6614
X204.1875 Y61.4299
Y60.4679
G3 X204.4914 Y60.1618 I0.3173 J0.0111
G1 X204.8023 Y60.1486
X207.1726 Y60.048
X207.4566 Y60.036
G3 X207.7874 Y60.3421 I0.0135 J0.3172
G1 Y61.2727
X207.7799 Y61.4225
X207.7576 Y61.5708
X207.7169 Y61.7152
X207.6605 Y61.8542
X207.5911 Y61.9872
X207.5105 Y62.1137
X207.4095 Y62.2469
X207.2944 Y62.3758
X207.1587 Y62.5051
X206.9996 Y62.6341
X206.8255 Y62.7534
X206.637 Y62.8614
X206.4298 Y62.959
X206.2093 Y63.0419
X205.9819 Y63.1072
X205.7467 Y63.1546
X205.5391 Y63.1794
X205.3286 Y63.1875
X205.1302 Y63.1791
X204.9646 Y63.1588
X204.7938 Y63.1237
X204.7215 Y63.1026
X204.5471 Y63.0265
X204.3979 Y62.9084
X204.2837 Y62.7562
X204.212 Y62.58
X204.1875 Y62.3913
Y61.4299
G3 X204.488 Y61.1239 I0.3173 J0.0111
G1 X204.8022 Y61.1073
X207.1727 Y60.9816
X207.4533 Y60.9667
G3 X207.7874 Y61.2727 I0.0168 J0.3171
G1 Y62.2787
X207.7799 Y62.4285
X207.751 Y62.5757
X207.7049 Y62.7185
X207.6445 Y62.8558
X207.5713 Y62.9867
X207.4837 Y63.1166
X207.3811 Y63.2452
X207.2553 Y63.3791
X207.1138 Y63.5074
X206.9529 Y63.6313
X206.7721 Y63.7487
X206.5728 Y63.8563
X206.3602 Y63.95
X206.1378 Y64.0274
X205.9081 Y64.0871
X205.6817 Y64.1269
X205.4712 Y64.1467
X205.2624 Y64.1495
X205.0866 Y64.1377
X204.9011 Y64.1102
X204.7397 Y64.0728
X204.7038 Y64.0614
X204.4957 Y63.9567
X204.3304 Y63.7927
X204.2241 Y63.5854
X204.1875 Y63.3554
Y62.3913
G3 X204.4928 Y62.0851 I0.3173 J0.0111
G1 X204.8024 Y62.0733
X207.1726 Y61.9834
X207.4581 Y61.9725
G3 X207.7874 Y62.2787 I0.0121 J0.3173
G1 Y63.1925
X207.7799 Y63.3424
X207.7583 Y63.4908
X207.7179 Y63.6352
X207.6619 Y63.7744
X207.593 Y63.9076
X207.5124 Y64.0345
X207.4122 Y64.1674
X207.2984 Y64.2955
X207.1614 Y64.4267
X207.0042 Y64.5549
X206.8327 Y64.673
X206.6428 Y64.7825
X206.435 Y64.881
X206.2163 Y64.9639
X205.9868 Y65.0304
X205.7519 Y65.0784
X205.5422 Y65.104
X205.3361 Y65.1124
X205.135 Y65.1045
X204.9678 Y65.0843
X204.8002 Y65.0503
X204.7233 Y65.0282
X204.5484 Y64.9523
X204.3987 Y64.8343
X204.284 Y64.6819
X204.2121 Y64.5054
X204.1875 Y64.3163
Y63.3554
G3 X204.4874 Y63.0494 I0.3173 J0.0111
G1 X204.8021 Y63.0322
X207.1728 Y62.902
X207.4527 Y62.8866
G3 X207.7874 Y63.1925 I0.0174 J0.317
G1 X207.7875 Y64.1986
X207.78 Y64.3484
X207.7516 Y64.4957
X207.706 Y64.6386
X207.646 Y64.7761
X207.5732 Y64.9072
X207.4859 Y65.0373
X207.384 Y65.1656
X207.2587 Y65.2997
X207.1175 Y65.4283
X206.9572 Y65.5524
X206.7766 Y65.6702
X206.5781 Y65.7781
X206.3659 Y65.8723
X206.1437 Y65.9502
X205.9142 Y66.0105
X205.6878 Y66.0508
X205.4772 Y66.0711
X205.2678 Y66.0744
X205.0918 Y66.0631
X204.9061 Y66.036
X204.7442 Y65.9989
X204.7055 Y65.9867
X204.4968 Y65.8823
X204.3309 Y65.7182
X204.2243 Y65.5106
X204.1875 Y65.2802
Y64.3163
G3 X204.4922 Y64.0102 I0.3173 J0.0111
G1 X204.8023 Y63.9978
X207.1726 Y63.9037
X207.4576 Y63.8924
G3 X207.7875 Y64.1986 I0.0126 J0.3173
G1 Y65.1292
X207.78 Y65.279
X207.7565 Y65.4271
X207.7148 Y65.5712
X207.6576 Y65.7099
X207.5875 Y65.8425
X207.5063 Y65.9686
X207.4043 Y66.1022
X207.2886 Y66.2307
X207.151 Y66.3609
X206.9913 Y66.4893
X206.8171 Y66.6077
X206.6268 Y66.7158
X206.4185 Y66.813
X206.1993 Y66.8944
X205.9693 Y66.9595
X205.7339 Y67.006
X205.5277 Y67.0298
X205.3181 Y67.0371
X205.1207 Y67.028
X204.9558 Y67.0071
X204.7853 Y66.9714
X204.7188 Y66.9518
X204.5452 Y66.8753
X204.3967 Y66.7571
X204.2831 Y66.6052
X204.2118 Y66.4294
X204.1875 Y66.2412
Y65.2802
G3 X204.4887 Y64.9742 I0.3173 J0.0111
G1 X204.8022 Y64.9582
X207.1728 Y64.8375
X207.454 Y64.8232
G3 X207.7875 Y65.1292 I0.0162 J0.3171
G1 Y66.1352
X207.78 Y66.285
X207.75 Y66.432
X207.7031 Y66.5745
X207.642 Y66.7114
X207.5682 Y66.842
X207.4801 Y66.9716
X207.3763 Y67.1006
X207.2493 Y67.2348
X207.1071 Y67.3627
X206.9447 Y67.4867
X206.7627 Y67.6038
X206.5626 Y67.7109
X206.3494 Y67.8039
X206.1265 Y67.8805
X205.8963 Y67.9393
X205.6705 Y67.9781
X205.4603 Y67.9971
X205.2529 Y67.999
X205.0777 Y67.9866
X204.8925 Y67.9584
X204.7321 Y67.9205
X204.701 Y67.9105
X204.4939 Y67.8055
X204.3295 Y67.6415
X204.2239 Y67.4348
X204.1875 Y67.2054
Y66.2412
G3 X204.4935 Y65.935 I0.3173 J0.0111
G1 X204.8024 Y65.924
X207.1726 Y65.8392
X207.4588 Y65.829
G3 X207.7875 Y66.1352 I0.0114 J0.3173
G1 Y67.049
X207.78 Y67.1988
X207.7574 Y67.3471
X207.7162 Y67.4913
X207.6595 Y67.6302
X207.59 Y67.7632
X207.5083 Y67.8907
X207.4074 Y68.0234
X207.2925 Y68.1516
X207.1542 Y68.283
X206.9961 Y68.4108
X206.8237 Y68.5285
X206.6328 Y68.6376
X206.4242 Y68.7354
X206.205 Y68.8175
X205.9751 Y68.8831
X205.74 Y68.9302
X205.5316 Y68.9547
X205.3254 Y68.9623
X205.1256 Y68.9536
X204.9593 Y68.9329
X204.7912 Y68.8981
X204.7204 Y68.8774
X204.5464 Y68.8011
X204.3974 Y68.683
X204.2834 Y68.5309
X204.2119 Y68.3549
X204.1875 Y68.1664
Y67.2054
G3 X204.4881 Y66.8994 I0.3173 J0.0111
G1 X204.8022 Y66.8829
X207.1728 Y66.7579
X207.4535 Y66.743
G3 X207.7875 Y67.049 I0.0167 J0.3171
G1 Y68.0551
X207.7801 Y68.2049
X207.7508 Y68.352
X207.7045 Y68.4946
X207.6438 Y68.6318
X207.5704 Y68.7627
X207.4828 Y68.8924
X207.3797 Y69.0212
X207.2534 Y69.1554
X207.1117 Y69.2835
X206.9501 Y69.4077
X206.7685 Y69.5252
X206.5692 Y69.6327
X206.3565 Y69.7261
X206.1338 Y69.8033
X205.9039 Y69.8628
X205.6779 Y69.9022
X205.4676 Y69.9217
X205.2593 Y69.9243
X205.0838 Y69.9123
X204.8984 Y69.8846
X204.7373 Y69.8471
X204.703 Y69.8361
X204.4951 Y69.7314
X204.3301 Y69.5673
X204.2241 Y69.3602
X204.1875 Y69.1304
Y68.1664
G3 X204.4929 Y67.8602 I0.3173 J0.0111
G1 X204.8024 Y67.8486
X207.1725 Y67.7598
X207.4583 Y67.749
G3 X207.7875 Y68.0551 I0.0119 J0.3173
G1 X207.7878 Y68.153
X207.7988 Y68.1724
X207.812 Y68.1918
X207.83 Y68.2112
X207.8724 Y68.212
X207.9099 Y68.214
X208.0002 Y68.3338
X208.0573 Y68.4725
X208.0879 Y68.6193
X208.0964 Y68.7691
X208.0862 Y68.9187
X208.0598 Y69.0664
X208.0188 Y69.2107
X207.9648 Y69.351
X207.8979 Y69.4905
X207.8115 Y69.6387
X207.7061 Y69.7902
X207.585 Y69.9374
X207.4404 Y70.0868
X207.2731 Y70.2341
X207.0894 Y70.3713
X206.8879 Y70.4979
X206.669 Y70.6121
X206.435 Y70.7111
X206.1936 Y70.7911
X205.9444 Y70.852
X205.695 Y70.8921
X205.4854 Y70.9086
X205.2633 Y70.9083
X205.0699 Y70.8925
X204.905 Y70.8655
X204.7257 Y70.8212
X204.6934 Y70.8104
X204.4891 Y70.7044
X204.3271 Y70.5407
X204.2233 Y70.3353
X204.1875 Y70.1078
Y69.1304
G3 X204.4482 Y68.8291 I0.3173 J0.0111
G1 X204.7972 Y68.7658
X207.0992 Y68.3486
X207.8259 Y68.2169
X207.8724 Y68.212
X208.1323 Y68.2125
X208.1697 Y68.2144
X208.3007 Y68.2876
X208.4114 Y68.3888
X208.5019 Y68.5084
X208.5732 Y68.6404
X208.6263 Y68.7806
X208.6627 Y68.9262
X208.6834 Y69.0747
X208.6897 Y69.2246
X208.683 Y69.3744
X208.6634 Y69.5277
X208.6284 Y69.6945
X208.5775 Y69.8667
X208.51 Y70.0419
X208.4213 Y70.2264
X208.3113 Y70.4148
X208.1833 Y70.5984
X208.0316 Y70.7826
X207.8542 Y70.9657
X207.6528 Y71.1426
X207.4318 Y71.3074
X207.1923 Y71.4577
X206.9332 Y71.5925
X206.664 Y71.7062
X206.4557 Y71.7751
X206.3797 Y71.7958
X206.3019 Y71.8083
X206.2232 Y71.8125
X205.1899
X205.0401 Y71.805
X204.8895 Y71.7845
X204.7235 Y71.7481
X204.7123 Y71.7447
X204.5011 Y71.6413
X204.333 Y71.477
X204.2248 Y71.2682
X204.1875 Y71.0361
G3 X204.6806 Y70.7828 I0.3173 J0.0111
G1 X204.7734 Y70.8445
X205.3546 Y71.2308
G3 X205.1899 Y71.8125 I-0.1758 J0.2644
G1 X204.5193
X204.4774 Y71.8102
X204.4355 Y71.8022
X204.3936 Y71.7881
X204.3517 Y71.7669
X204.3185 Y71.7439
X204.2966 Y71.7249
X204.2748 Y71.702
X204.2435 Y71.66
X204.2192 Y71.6181
X204.2025 Y71.5762
X204.1922 Y71.5343
X204.1878 Y71.4924
X204.1875 Y70.1078
G3 X204.3777 Y69.8279 I0.3173 J0.0111
G1 X204.7704 Y69.6565
X207.4062 Y68.5053
X208.0163 Y68.2388
G3 X208.1323 Y68.2125 I0.1271 J0.291
G1 X208.5091
X208.6589 Y68.22
X208.7959 Y68.2812
X208.9199 Y68.3656
X209.0299 Y68.4675
X209.1258 Y68.5829
X209.2076 Y68.7086
X209.2757 Y68.8422
X209.3308 Y68.9817
X209.3737 Y69.1255
X209.4056 Y69.2784
X209.427 Y69.4474
X209.435 Y69.6227
X209.4284 Y69.8109
X209.4049 Y70.0136
X209.3635 Y70.2229
X209.3031 Y70.436
X209.2195 Y70.6607
X209.1106 Y70.8941
X208.9788 Y71.1259
X208.8235 Y71.3542
X208.677 Y71.5361
X208.5154 Y71.685
X208.3172 Y71.7799
X208.0999 Y71.8125
X206.2232
G3 X205.9828 Y71.3014 I0.0111 J-0.3173
G1 X206.0373 Y71.2307
X207.9596 Y68.7369
X208.2687 Y68.336
G3 X208.5091 Y68.2125 I0.2515 J0.1938
G1 X209.046
X209.1958 Y68.22
X209.3404 Y68.26
X209.4762 Y68.3237
X209.6016 Y68.406
X209.7159 Y68.5031
X209.8189 Y68.6122
X209.9107 Y68.7308
X209.9914 Y68.8573
X210.0646 Y68.997
X210.129 Y69.1484
X210.1842 Y69.314
X210.23 Y69.4997
X210.2622 Y69.6977
X210.2791 Y69.9066
X210.2792 Y70.1362
X210.2596 Y70.381
X210.2195 Y70.6295
X210.1557 Y70.8899
X210.0709 Y71.1449
X209.9721 Y71.3777
X209.9528 Y71.4148
X209.8363 Y71.5787
X209.68 Y71.7053
X209.4955 Y71.7852
X209.2962 Y71.8125
X208.0999
G3 X207.8085 Y71.3987 I0.0111 J-0.3173
G1 X207.8692 Y71.2084
X208.6343 Y68.8104
X208.7546 Y68.4333
G3 X209.046 Y68.2125 I0.3025 J0.0965
G1 X209.7166
X209.8664 Y68.22
X210.0133 Y68.2507
X210.1535 Y68.3039
X210.2856 Y68.375
X210.4086 Y68.4608
X210.5224 Y68.5586
X210.6266 Y68.6665
X210.725 Y68.7878
X210.8174 Y68.9225
X210.9046 Y69.0747
X210.9875 Y69.2505
X211.0581 Y69.4379
X211.1176 Y69.6452
X211.1644 Y69.8767
X211.1937 Y70.1217
X211.2036 Y70.3771
X211.1926 Y70.6414
X211.1654 Y70.8635
X211.1198 Y71.086
X211.0681 Y71.264
X211.0412 Y71.3347
X210.9317 Y71.5288
X210.7694 Y71.6815
X210.569 Y71.779
X210.3487 Y71.8125
X209.2962
G3 X208.9929 Y71.4506 I0.0111 J-0.3173
G1 X209.0284 Y71.2001
X209.3653 Y68.8243
X209.4134 Y68.4852
G3 X209.7166 Y68.2125 I0.3144 J0.0446
G1 X210.521
X210.6708 Y68.22
X210.8173 Y68.2522
X210.9579 Y68.3043
X211.0915 Y68.3725
X211.2174 Y68.4541
X211.3349 Y68.5473
X211.4491 Y68.655
X211.5578 Y68.7754
X211.669 Y68.9205
X211.7732 Y69.0817
X211.8699 Y69.2616
X211.9604 Y69.4681
X212.0369 Y69.6897
X212.0969 Y69.9223
X212.1396 Y70.1682
X212.1623 Y70.4155
X212.1647 Y70.6293
X212.1491 Y70.8548
X212.1208 Y71.0425
X212.0815 Y71.2106
X212.0536 Y71.2977
X211.9488 Y71.5053
X211.7848 Y71.6701
X211.5778 Y71.776
X211.3481 Y71.8125
X210.3487
G3 X210.0428 Y71.4768 I0.0111 J-0.3173
G1 X210.059 Y71.1979
X210.1967 Y68.827
X210.2151 Y68.5114
G3 X210.521 Y68.2125 I0.317 J0.0184
G1 X211.3932
X211.543 Y68.22
X211.6892 Y68.2535
X211.83 Y68.3052
X211.9642 Y68.3722
X212.0916 Y68.4515
X212.212 Y68.5423
X212.3362 Y68.6526
X212.4551 Y68.7768
X212.5767 Y68.926
X212.6922 Y69.0936
X212.7982 Y69.2774
X212.8944 Y69.4804
X212.9786 Y69.7023
X213.046 Y69.9351
X213.0948 Y70.1738
X213.1227 Y70.4027
X213.1313 Y70.6116
X213.1227 Y70.8293
X213.1013 Y71.0073
X213.0672 Y71.1753
X213.0381 Y71.2767
X212.9622 Y71.4516
X212.8441 Y71.6013
X212.6918 Y71.716
X212.5152 Y71.788
X212.3262 Y71.8125
X211.3481
G3 X211.0417 Y71.4904 I0.0111 J-0.3173
G1 X211.0462 Y71.1975
X211.0822 Y68.8275
X211.0868 Y68.525
G3 X211.3932 Y68.2125 I0.3175 J0.0048
G1 X212.2315
X212.3813 Y68.22
X212.5295 Y68.2431
X212.6734 Y68.2854
X212.8118 Y68.3433
X212.9437 Y68.4147
X213.0703 Y68.499
X213.1934 Y68.5959
X213.3214 Y68.7146
X213.4488 Y68.8534
X213.5687 Y69.0071
X213.6848 Y69.1836
X213.7919 Y69.3788
X213.8863 Y69.5894
X213.9651 Y69.8115
X214.0266 Y70.0421
X214.069 Y70.2745
X214.0904 Y70.4886
X214.0947 Y70.7067
X214.0838 Y70.8871
X214.0571 Y71.0748
X214.0196 Y71.2412
X214.0039 Y71.2918
X213.8999 Y71.5015
X213.7357 Y71.6683
X213.5276 Y71.7755
X213.2965 Y71.8125
X212.3262
G3 X212.0199 Y71.5053 I0.0111 J-0.3173
G1 X212.0101 Y71.1976
X211.9344 Y68.8274
X211.9252 Y68.5399
G3 X212.2315 Y68.2125 I0.3173 J-0.0101
G1 X213.2374
X213.3872 Y68.22
X213.5335 Y68.2533
X213.6749 Y68.3033
X213.8106 Y68.3673
X213.9396 Y68.4437
X214.069 Y68.5355
X214.1962 Y68.6421
X214.3284 Y68.7723
X214.4548 Y68.9187
X214.5753 Y69.0833
X214.6893 Y69.2685
X214.7935 Y69.4729
X214.8825 Y69.6885
X214.9551 Y69.9145
X215.01 Y70.1486
X215.044 Y70.3733
X215.058 Y70.5738
X215.0557 Y70.7893
X215.0393 Y70.9687
X215.0113 Y71.131
X214.964 Y71.3131
X214.8571 Y71.5151
X214.6937 Y71.6749
X214.4894 Y71.7773
X214.2636 Y71.8125
X213.2965
G3 X212.9902 Y71.5015 I0.0111 J-0.3173
G1 X212.9841 Y71.1975
X212.9369 Y68.8275
X212.931 Y68.5361
G3 X213.2374 Y68.2125 I0.3174 J-0.0063
G1 X214.1679
X214.3177 Y68.22
X214.4648 Y68.2497
X214.6072 Y68.2967
X214.7438 Y68.3586
X214.8743 Y68.4325
X215.0022 Y68.5203
X215.1351 Y68.6281
X215.2626 Y68.7497
X215.3923 Y68.8951
X215.5179 Y69.061
X215.6327 Y69.2409
X215.7363 Y69.4363
X215.8286 Y69.6502
X215.9047 Y69.8748
X215.9628 Y70.1056
X216.0026 Y70.3432
X216.0197 Y70.5425
X216.0209 Y70.7524
X216.0067 Y70.9417
X215.9815 Y71.1025
X215.9401 Y71.2751
X215.9313 Y71.3018
X215.8259 Y71.5079
X215.6621 Y71.6714
X215.4558 Y71.7763
X215.2272 Y71.8125
X214.2636
G3 X213.9574 Y71.5054 I0.0111 J-0.3173
G1 X213.9474 Y71.1976
X213.8709 Y68.8274
X213.8616 Y68.54
G3 X214.1679 Y68.2125 I0.3173 J-0.0102
G1 X215.0816
X215.2314 Y68.22
X215.3796 Y68.2434
X215.5236 Y68.2853
X215.6623 Y68.3426
X215.7949 Y68.4127
X215.9217 Y68.4947
X216.054 Y68.5963
X216.1817 Y68.7117
X216.3124 Y68.8506
X216.44 Y69.0099
X216.5576 Y69.1839
X216.6657 Y69.3751
X216.7627 Y69.5844
X216.8446 Y69.8063
X216.9087 Y70.0347
X216.9547 Y70.2705
X216.9782 Y70.4782
X216.9849 Y70.6848
X216.9754 Y70.8835
X216.954 Y71.0492
X216.9182 Y71.218
X216.8989 Y71.2828
X216.7963 Y71.4958
X216.6318 Y71.6655
X216.4222 Y71.7748
X216.1888 Y71.8125
X215.2272
G3 X214.9211 Y71.5108 I0.0111 J-0.3173
G1 X214.9058 Y71.1978
X214.7894 Y68.8272
X214.7756 Y68.5454
G3 X215.0816 Y68.2125 I0.3171 J-0.0156
G1 X216.0876
X216.2374 Y68.22
X216.3843 Y68.2504
X216.5266 Y68.2977
X216.6634 Y68.3591
X216.7939 Y68.4332
X216.9233 Y68.5217
X217.0525 Y68.6261
X217.1865 Y68.7536
X217.3142 Y68.8961
X217.438 Y69.059
X217.5549 Y69.2417
X217.6616 Y69.4421
X217.7541 Y69.6556
X217.8303 Y69.8789
X217.8887 Y70.1094
X217.9269 Y70.3349
X217.9444 Y70.535
X217.946 Y70.7523
X217.9326 Y70.9351
X217.9076 Y71.0967
X217.8652 Y71.2746
X217.8568 Y71.3006
X217.7515 Y71.5071
X217.5876 Y71.671
X217.3811 Y71.7762
X217.1522 Y71.8125
X216.1888
G3 X215.8826 Y71.506 I0.0111 J-0.3173
G1 X215.8721 Y71.1976
X215.7911 Y68.8274
X215.7813 Y68.5406
G3 X216.0876 Y68.2125 I0.3173 J-0.0108
G1 X217.0181
X217.1679 Y68.22
X217.3157 Y68.2456
X217.4592 Y68.289
X217.5973 Y68.3478
X217.7292 Y68.419
X217.8564 Y68.5025
X217.9899 Y68.6066
X218.1182 Y68.7242
X218.2485 Y68.8645
X218.3762 Y69.0262
X218.4934 Y69.2021
X218.5997 Y69.3932
X218.6954 Y69.6035
X218.7756 Y69.8255
X218.838 Y70.054
X218.8825 Y70.2905
X218.9041 Y70.4944
X218.9095 Y70.7042
X218.8988 Y70.899
X218.8765 Y71.0625
X218.839 Y71.2339
X218.8226 Y71.2877
X218.7192 Y71.4989
X218.5548 Y71.667
X218.3461 Y71.7752
X218.1139 Y71.8125
X217.1522
G3 X216.8461 Y71.5095 I0.0111 J-0.3173
G1 X216.832 Y71.1978
X216.7248 Y68.8273
X216.712 Y68.5442
G3 X217.0181 Y68.2125 I0.3172 J-0.0143
G1 X218.024
X218.1738 Y68.22
X218.3203 Y68.252
X218.4622 Y68.3006
X218.5986 Y68.3632
X218.7284 Y68.4383
X218.8571 Y68.5273
X218.9871 Y68.6338
X219.1212 Y68.7629
X219.2481 Y68.9064
X219.3719 Y69.0714
X219.4883 Y69.2555
X219.5941 Y69.4574
X219.6855 Y69.6717
X219.7603 Y69.8958
X219.8173 Y70.1267
X219.854 Y70.3519
X219.8703 Y70.5511
X219.8705 Y70.7672
X219.8561 Y70.9485
X219.8301 Y71.1099
X219.7867 Y71.2872
X219.7808 Y71.305
X219.675 Y71.5099
X219.5113 Y71.6724
X219.3055 Y71.7766
X219.0777 Y71.8125
X218.1139
G3 X217.8077 Y71.5048 I0.0111 J-0.3173
G1 X217.7983 Y71.1976
X217.7264 Y68.8274
X217.7177 Y68.5394
G3 X218.024 Y68.2125 I0.3174 J-0.0096
G1 X218.9377
X219.0875 Y68.22
X219.2355 Y68.2447
X219.3792 Y68.2877
X219.5175 Y68.3458
X219.6497 Y68.4166
X219.7782 Y68.5005
X219.9106 Y68.6031
X220.039 Y68.7201
X220.1705 Y68.861
X220.2973 Y69.0209
X220.4142 Y69.1953
X220.5214 Y69.387
X220.6178 Y69.5975
X220.6986 Y69.8193
X220.7616 Y70.0477
X220.8067 Y70.2842
X220.8291 Y70.4902
X220.8349 Y70.6969
X220.8245 Y70.894
X220.8025 Y71.0586
X220.7659 Y71.2278
X220.7484 Y71.286
X220.6452 Y71.4978
X220.4808 Y71.6665
X220.2718 Y71.775
X220.0392 Y71.8125
X219.0777
G3 X218.7716 Y71.5102 I0.0111 J-0.3173
G1 X218.7569 Y71.1978
X218.645 Y68.8272
X218.6316 Y68.5448
G3 X218.9377 Y68.2125 I0.3172 J-0.015
G1 X219.9436
X220.0935 Y68.22
X220.2402 Y68.2513
X220.3823 Y68.2993
X220.5188 Y68.3614
X220.6489 Y68.436
X220.7777 Y68.5246
X220.9076 Y68.6303
X221.0417 Y68.7587
X221.1689 Y68.9017
X221.2928 Y69.0659
X221.4096 Y69.2496
X221.5158 Y69.4507
X221.6077 Y69.6645
X221.6831 Y69.8883
X221.7408 Y70.119
X221.7782 Y70.3444
X221.7951 Y70.5439
X221.7959 Y70.7604
X221.782 Y70.9425
X221.7564 Y71.1039
X221.7135 Y71.2814
X221.7065 Y71.3029
X221.6009 Y71.5086
X221.4371 Y71.6717
X221.231 Y71.7764
X221.0027 Y71.8125
X220.0392
G3 X219.7329 Y71.5054 I0.0111 J-0.3173
G1 X219.723 Y71.1976
X219.6467 Y68.8274
X219.6374 Y68.54
G3 X219.9436 Y68.2125 I0.3173 J-0.0102
G1 X220.8741
X221.0239 Y68.22
X221.1716 Y68.2464
X221.3149 Y68.2906
X221.4527 Y68.3499
X221.5845 Y68.4217
X221.712 Y68.5061
X221.8456 Y68.6109
X221.9739 Y68.7293
X222.1043 Y68.8707
X222.2316 Y69.0333
X222.3485 Y69.21
X222.4544 Y69.4019
X222.5495 Y69.6129
X222.629 Y69.8353
X222.6906 Y70.0642
X222.7343 Y70.3009
X222.7551 Y70.5036
X222.7597 Y70.7134
X222.7483 Y70.9071
X222.7256 Y71.0699
X222.6873 Y71.2416
X222.6723 Y71.2902
X222.5686 Y71.5005
X222.4043 Y71.6678
X222.196 Y71.7754
X221.9645 Y71.8125
X221.0027
G3 X220.6965 Y71.5089 I0.0111 J-0.3173
G1 X220.683 Y71.1977
X220.5803 Y68.8273
X220.568 Y68.5436
G3 X220.8741 Y68.2125 I0.3172 J-0.0137
G1 X221.8386
X221.9884 Y68.22
X222.1359 Y68.247
X222.2792 Y68.2913
X222.417 Y68.3506
X222.5485 Y68.4228
X222.6736 Y68.5056
X222.806 Y68.6094
X222.9377 Y68.731
X223.0649 Y68.869
X223.1922 Y69.0315
X223.3113 Y69.2115
X223.4183 Y69.4055
X223.5123 Y69.6141
X223.5917 Y69.8363
X223.6533 Y70.0652
X223.6965 Y70.2989
X223.7171 Y70.5001
X223.7218 Y70.7151
X223.7106 Y70.9057
X223.688 Y71.0678
X223.649 Y71.2429
X223.6344 Y71.2903
X223.5306 Y71.5005
X223.3663 Y71.6678
X223.158 Y71.7754
X222.9265 Y71.8125
X221.9645
G3 X221.6583 Y71.5087 I0.0111 J-0.3173
G1 X221.6451 Y71.1977
X221.5445 Y68.8273
X221.5324 Y68.5433
G3 X221.8386 Y68.2125 I0.3172 J-0.0135
G1 X222.7938
X222.9436 Y68.22
X223.0913 Y68.246
X223.2349 Y68.2896
X223.3729 Y68.3483
X223.5047 Y68.4198
X223.6302 Y68.5021
X223.7629 Y68.6054
X223.8939 Y68.7254
X224.0216 Y68.8629
X224.1492 Y69.0245
X224.2683 Y69.2031
X224.3753 Y69.3954
X224.4702 Y69.6039
X224.5504 Y69.8255
X224.6127 Y70.0539
X224.657 Y70.2886
X224.6785 Y70.4909
X224.684 Y70.7052
X224.6735 Y70.8976
X224.6514 Y71.0603
X224.6132 Y71.2346
X224.5971 Y71.2876
X224.4937 Y71.4988
X224.3294 Y71.667
X224.1206 Y71.7752
X223.8884 Y71.8125
X222.9265
G3 X222.6204 Y71.5094 I0.0111 J-0.3173
G1 X222.6065 Y71.1977
X222.5004 Y68.8273
X222.4877 Y68.544
G3 X222.7938 Y68.2125 I0.3172 J-0.0142
G1 X223.7997
X223.9495 Y68.22
X224.096 Y68.2522
X224.2379 Y68.301
X224.3742 Y68.3637
X224.504 Y68.4388
X224.6328 Y68.5281
X224.7628 Y68.6347
X224.8969 Y68.7639
X225.0239 Y68.9077
X225.1475 Y69.0726
X225.2635 Y69.2563
X225.3694 Y69.4585
X225.4606 Y69.6731
X225.5353 Y69.897
X225.5922 Y70.128
X225.6288 Y70.3531
X225.6449 Y70.5524
X225.645 Y70.7684
X225.6305 Y70.9495
X225.6044 Y71.111
X225.5609 Y71.2883
X225.5553 Y71.3053
X225.4494 Y71.5101
X225.2857 Y71.6725
X225.08 Y71.7766
X224.8522 Y71.8125
X223.8884
G3 X223.5822 Y71.5047 I0.0111 J-0.3173
G1 X223.573 Y71.1976
X223.5021 Y68.8274
X223.4935 Y68.5393
G3 X223.7997 Y68.2125 I0.3174 J-0.0095
G1 X224.7302
X224.88 Y68.22
X225.0275 Y68.2472
X225.1707 Y68.2922
X225.3082 Y68.3521
X225.4396 Y68.4243
X225.5676 Y68.5098
X225.7011 Y68.6153
X225.8293 Y68.7346
X225.9597 Y68.877
X226.0867 Y69.0404
X226.2032 Y69.2179
X226.3086 Y69.4107
X226.403 Y69.6224
X226.4818 Y69.8453
X226.5425 Y70.0746
X226.5854 Y70.3114
X226.6053 Y70.5131
X226.6091 Y70.7229
X226.5971 Y70.9154
X226.5738 Y71.0776
X226.5348 Y71.2495
X226.5213 Y71.2929
X226.4171 Y71.5022
X226.2529 Y71.6686
X226.0451 Y71.7756
X225.8142 Y71.8125
X224.8522
G3 X224.5461 Y71.5082 I0.0111 J-0.3173
G1 X224.5333 Y71.1977
X224.4358 Y68.8273
X224.4241 Y68.5429
G3 X224.7302 Y68.2125 I0.3172 J-0.0131
G1 X225.6947
X225.8445 Y68.22
X225.9919 Y68.2478
X226.1349 Y68.2929
X226.2724 Y68.3528
X226.4037 Y68.4255
X226.5288 Y68.509
X226.6616 Y68.6139
X226.7928 Y68.7359
X226.9201 Y68.875
X227.0474 Y69.0386
X227.166 Y69.2194
X227.2724 Y69.414
X227.3658 Y69.6233
X227.4445 Y69.8461
X227.5054 Y70.0753
X227.5476 Y70.309
X227.5675 Y70.5095
X227.5714 Y70.7241
X227.5596 Y70.9137
X227.5364 Y71.0754
X227.4967 Y71.2505
X227.4835 Y71.2928
X227.3794 Y71.5021
X227.2152 Y71.6686
X227.0073 Y71.7756
X226.7764 Y71.8125
X225.8142
G3 X225.5081 Y71.508 I0.0111 J-0.3173
G1 X225.4956 Y71.1977
X225.4 Y68.8273
X225.3885 Y68.5426
G3 X225.6947 Y68.2125 I0.3172 J-0.0128
G1 X226.6499
X226.7997 Y68.22
X226.9473 Y68.2469
X227.0906 Y68.2911
X227.2283 Y68.3505
X227.3599 Y68.4225
X227.485 Y68.5052
X227.6182 Y68.6096
X227.7486 Y68.7299
X227.8766 Y68.8685
X228.0041 Y69.0312
X228.1227 Y69.2103
X228.2292 Y69.4032
X228.3236 Y69.6124
X228.4031 Y69.8345
X228.4648 Y70.0632
X228.5082 Y70.298
X228.529 Y70.4996
X228.5338 Y70.7136
X228.5227 Y70.905
X228.5001 Y71.0673
X228.4613 Y71.2416
X228.4464 Y71.2899
X228.3427 Y71.5003
X228.1784 Y71.6677
X227.97 Y71.7754
X227.7385 Y71.8125
X226.7764
G3 X226.4703 Y71.5087 I0.0111 J-0.3173
G1 X226.457 Y71.1977
X226.3559 Y68.8273
X226.3438 Y68.5433
G3 X226.6499 Y68.2125 I0.3172 J-0.0135
G1 X227.5804
X227.7302 Y68.22
X227.8785 Y68.2422
X228.0229 Y68.2828
X228.162 Y68.3391
X228.295 Y68.4085
X228.4215 Y68.489
X228.5547 Y68.5898
X228.6836 Y68.7049
X228.813 Y68.8404
X228.942 Y68.9995
X229.0613 Y69.1734
X229.1694 Y69.3618
X229.267 Y69.5689
X229.3501 Y69.7894
X229.4154 Y70.0168
X229.463 Y70.252
X229.4879 Y70.4597
X229.496 Y70.6701
X229.4878 Y70.8688
X229.4675 Y71.0345
X229.4325 Y71.2052
X229.4113 Y71.2782
X229.3352 Y71.4527
X229.2171 Y71.602
X229.0649 Y71.7163
X228.8886 Y71.788
X228.6998 Y71.8125
X227.7385
G3 X227.4325 Y71.5121 I0.0111 J-0.3173
G1 X227.4157 Y71.1979
X227.2894 Y68.8272
X227.2744 Y68.5467
G3 X227.5804 Y68.2125 I0.317 J-0.0169
G1 X228.5863
X228.7361 Y68.22
X228.8833 Y68.2488
X229.0261 Y68.2948
X229.1634 Y68.3551
X229.2944 Y68.4282
X229.4243 Y68.5157
X229.5529 Y68.6182
X229.6868 Y68.7438
X229.8152 Y68.8852
X229.9391 Y69.046
X230.0565 Y69.2267
X230.1642 Y69.4258
X230.258 Y69.6383
X230.3355 Y69.8607
X230.3954 Y70.0904
X230.4353 Y70.3168
X230.4552 Y70.5273
X230.4581 Y70.7364
X230.4464 Y70.9122
X230.419 Y71.0978
X230.3816 Y71.2593
X230.37 Y71.2959
X230.2655 Y71.5041
X230.1014 Y71.6696
X229.894 Y71.7759
X229.6639 Y71.8125
X228.6998
G3 X228.3936 Y71.5073 I0.0111 J-0.3173
G1 X228.3818 Y71.1977
X228.291 Y68.8273
X228.2801 Y68.542
G3 X228.5863 Y68.2125 I0.3173 J-0.0121
G1 X229.5507
X229.7006 Y68.22
X229.8477 Y68.2489
X229.9905 Y68.2949
X230.1277 Y68.3557
X230.2586 Y68.4289
X230.3843 Y68.5135
X230.5178 Y68.62
X230.6485 Y68.7425
X230.7763 Y68.8833
X230.9028 Y69.0473
X231.021 Y69.2291
X231.1268 Y69.4246
X231.2198 Y69.6352
X231.2969 Y69.8563
X231.3573 Y70.0881
X231.3985 Y70.3216
X231.4174 Y70.521
X231.4204 Y70.7351
X231.4079 Y70.9234
X231.3842 Y71.0845
X231.3437 Y71.2595
X231.3322 Y71.2957
X231.2277 Y71.504
X231.0636 Y71.6695
X230.8562 Y71.7758
X230.6261 Y71.8125
X229.6639
G3 X229.3577 Y71.5073 I0.0111 J-0.3173
G1 X229.3459 Y71.1977
X229.2554 Y68.8273
X229.2446 Y68.5419
G3 X229.5507 Y68.2125 I0.3173 J-0.0121
G1 X230.506
X230.6558 Y68.22
X230.8032 Y68.2478
X230.9462 Y68.2929
X231.0837 Y68.3529
X231.215 Y68.4255
X231.3404 Y68.5091
X231.4737 Y68.6145
X231.6037 Y68.7353
X231.7319 Y68.8753
X231.8595 Y69.0393
X231.9775 Y69.2192
X232.0834 Y69.4127
X232.1772 Y69.6228
X232.256 Y69.8456
X232.3168 Y70.0747
X232.3593 Y70.3095
X232.3792 Y70.5101
X232.3831 Y70.7237
X232.3713 Y70.9139
X232.3481 Y71.0757
X232.3086 Y71.25
X232.2953 Y71.2927
X232.1912 Y71.5021
X232.027 Y71.6686
X231.8191 Y71.7756
X231.5882 Y71.8125
X230.6261
G3 X230.32 Y71.508 I0.0111 J-0.3173
G1 X230.3074 Y71.1977
X230.2113 Y68.8273
X230.1998 Y68.5427
G3 X230.506 Y68.2125 I0.3172 J-0.0129
G1 X231.4364
X231.5863 Y68.22
X231.7345 Y68.2431
X231.8786 Y68.2846
X232.0174 Y68.3415
X232.1501 Y68.4114
X232.2764 Y68.4924
X232.4097 Y68.5941
X232.5384 Y68.7097
X232.6679 Y68.8465
X232.7968 Y69.0064
X232.9156 Y69.1809
X233.0233 Y69.3702
X233.1205 Y69.5781
X233.2028 Y69.7991
X233.2674 Y70.0268
X233.3142 Y70.2622
X233.3382 Y70.4689
X233.3456 Y70.6792
X233.3367 Y70.8767
X233.3159 Y71.0418
X233.2803 Y71.2127
X233.2603 Y71.2807
X233.1839 Y71.4544
X233.0658 Y71.6031
X232.9138 Y71.7168
X232.7379 Y71.7882
X232.5496 Y71.8125
X231.5882
G3 X231.2822 Y71.5114 I0.0111 J-0.3173
G1 X231.2661 Y71.1978
X231.1448 Y68.8272
X231.1304 Y68.546
G3 X231.4364 Y68.2125 I0.3171 J-0.0162
G1 X232.4424
X232.5922 Y68.22
X232.7392 Y68.2497
X232.8818 Y68.2964
X233.0188 Y68.3574
X233.1495 Y68.431
X233.2792 Y68.519
X233.4081 Y68.6226
X233.5422 Y68.7492
X233.6701 Y68.8912
X233.794 Y69.0531
X233.9111 Y69.2348
X234.0184 Y69.4347
X234.1115 Y69.6477
X234.1882 Y69.8705
X234.2473 Y70.1006
X234.2863 Y70.3266
X234.3055 Y70.5369
X234.3076 Y70.7448
X234.2953 Y70.9202
X234.2673 Y71.1054
X234.2295 Y71.2661
X234.2191 Y71.2984
X234.1142 Y71.5057
X233.9502 Y71.6703
X233.7433 Y71.7761
X233.5139 Y71.8125
X232.5496
G3 X232.2434 Y71.5067 I0.0111 J-0.3173
G1 X232.2322 Y71.1976
X232.1465 Y68.8274
X232.1362 Y68.5413
G3 X232.4424 Y68.2125 I0.3173 J-0.0115
G1 X233.3561
X233.5059 Y68.22
X233.6543 Y68.2424
X233.7985 Y68.2834
X233.9375 Y68.3399
X234.0705 Y68.4092
X234.1978 Y68.4907
X234.3306 Y68.5914
X234.4587 Y68.706
X234.5901 Y68.8439
X234.7179 Y69.0018
X234.8357 Y69.174
X234.9449 Y69.3647
X235.0429 Y69.5731
X235.1252 Y69.7922
X235.191 Y70.022
X235.2382 Y70.2571
X235.263 Y70.4659
X235.2708 Y70.672
X235.2623 Y70.8721
X235.2418 Y71.0387
X235.2071 Y71.2067
X235.1861 Y71.2789
X235.1099 Y71.4532
X234.9918 Y71.6023
X234.8397 Y71.7164
X234.6635 Y71.7881
X234.4748 Y71.8125
X233.5139
G3 X233.2079 Y71.5121 I0.0111 J-0.3173
G1 X233.1912 Y71.1979
X233.0651 Y68.8272
X233.0501 Y68.5467
G3 X233.3561 Y68.2125 I0.317 J-0.0169
G1 X234.362
X234.5119 Y68.22
X234.659 Y68.249
X234.8017 Y68.2952
X234.939 Y68.3557
X235.0699 Y68.4289
X235.1997 Y68.5165
X235.3284 Y68.6193
X235.4626 Y68.7453
X235.5908 Y68.8869
X235.7149 Y69.0482
X235.8325 Y69.2295
X235.94 Y69.4286
X236.0337 Y69.6412
X236.111 Y69.8638
X236.1707 Y70.0936
X236.2104 Y70.3197
X236.2301 Y70.53
X236.2328 Y70.7387
X236.221 Y70.9143
X236.1934 Y71.0998
X236.156 Y71.261
X236.1447 Y71.2965
X236.0401 Y71.5045
X235.876 Y71.6697
X235.6688 Y71.7759
X235.4388 Y71.8125
X234.4748
G3 X234.1686 Y71.5073 I0.0111 J-0.3173
G1 X234.1569 Y71.1977
X234.0667 Y68.8273
X234.0559 Y68.5419
G3 X234.362 Y68.2125 I0.3173 J-0.0121
G1 X235.2925
X235.4424 Y68.22
X235.5904 Y68.2441
X235.7343 Y68.2864
X235.8728 Y68.3441
X236.0052 Y68.4145
X236.1317 Y68.4964
X236.2653 Y68.5991
X236.3937 Y68.7154
X236.524 Y68.8539
X236.6521 Y69.0142
X236.7702 Y69.1889
X236.878 Y69.3799
X236.9747 Y69.5888
X237.0556 Y69.8084
X237.12 Y70.0387
X237.1659 Y70.2742
X237.189 Y70.4796
X237.1957 Y70.6892
X237.1861 Y70.8857
X237.1648 Y71.05
X237.1285 Y71.2208
X237.1099 Y71.2832
X237.0072 Y71.496
X236.8427 Y71.6656
X236.6332 Y71.7748
X236.3999 Y71.8125
X235.4388
G3 X235.1328 Y71.5108 I0.0111 J-0.3173
G1 X235.1173 Y71.1978
X235.0004 Y68.8272
X234.9865 Y68.5454
G3 X235.2925 Y68.2125 I0.3171 J-0.0156
G1 X236.2985
X236.4483 Y68.22
X236.5951 Y68.2506
X236.7374 Y68.298
X236.8742 Y68.3596
X237.0046 Y68.4338
X237.1339 Y68.5221
X237.2632 Y68.6267
X237.3974 Y68.7544
X237.525 Y68.897
X237.649 Y69.0602
X237.7659 Y69.2429
X237.8727 Y69.4435
X237.9652 Y69.657
X238.0412 Y69.8803
X238.0996 Y70.1107
X238.1378 Y70.3363
X238.1553 Y70.5361
X238.1568 Y70.7532
X238.1433 Y70.9359
X238.1183 Y71.0975
X238.0759 Y71.2753
X238.0676 Y71.3008
X237.9624 Y71.5072
X237.7985 Y71.6711
X237.592 Y71.7763
X237.3631 Y71.8125
X236.3999
G3 X236.0937 Y71.5061 I0.0111 J-0.3173
G1 X236.0832 Y71.1976
X236.002 Y68.8274
X235.9922 Y68.5407
G3 X236.2985 Y68.2125 I0.3173 J-0.0109
G1 X237.2122
X237.362 Y68.22
X237.5102 Y68.2432
X237.6543 Y68.285
X237.793 Y68.3421
X237.9257 Y68.4119
X238.0536 Y68.4943
X238.1862 Y68.5957
X238.3145 Y68.7112
X238.4459 Y68.8502
X238.5734 Y69.0088
X238.6909 Y69.1818
X238.7989 Y69.372
X238.8964 Y69.5813
X238.9785 Y69.8023
X239.0428 Y70.03
X239.0894 Y70.266
X239.1134 Y70.4741
X239.1205 Y70.6804
X239.1113 Y70.8796
X239.0902 Y71.0455
X239.0549 Y71.214
X239.035 Y71.2814
X238.9584 Y71.455
X238.8403 Y71.6034
X238.6884 Y71.717
X238.5126 Y71.7882
X238.3244 Y71.8125
X237.3631
G3 X237.0571 Y71.5113 I0.0111 J-0.3173
G1 X237.0412 Y71.1978
X236.9205 Y68.8272
X236.9062 Y68.5459
G3 X237.2122 Y68.2125 I0.3171 J-0.0161
G1 X238.2181
X238.368 Y68.22
X238.515 Y68.2498
X238.6575 Y68.2967
X238.7945 Y68.3577
X238.9251 Y68.4314
X239.0545 Y68.5194
X239.1837 Y68.6233
X239.3178 Y68.7501
X239.4456 Y68.8921
X239.5696 Y69.0544
X239.6869 Y69.2365
X239.7939 Y69.4364
X239.8869 Y69.6494
X239.9635 Y69.8724
X240.0225 Y70.1025
X240.0614 Y70.3284
X240.0804 Y70.5385
X240.0824 Y70.7463
X240.07 Y70.9215
X240.0418 Y71.1067
X240.004 Y71.2673
X239.9939 Y71.2988
X239.8889 Y71.506
X239.7249 Y71.6705
X239.5181 Y71.7761
X239.2887 Y71.8125
X238.3244
G3 X238.0182 Y71.5066 I0.0111 J-0.3173
G1 X238.0072 Y71.1976
X237.9222 Y68.8274
X237.9119 Y68.5412
G3 X238.2181 Y68.2125 I0.3173 J-0.0114
G1 X239.1486
X239.2984 Y68.22
X239.4464 Y68.2449
X239.5901 Y68.2879
X239.7283 Y68.3462
X239.8605 Y68.4171
X239.9873 Y68.4999
X240.1209 Y68.6034
X240.2492 Y68.7204
X240.3795 Y68.8599
X240.5074 Y69.021
X240.6251 Y69.1965
X240.7324 Y69.3884
X240.8285 Y69.5979
X240.9087 Y69.818
X240.9723 Y70.0488
X241.0174 Y70.2844
X241.0396 Y70.4886
X241.0455 Y70.6983
X241.0353 Y70.8937
X241.0135 Y71.0574
X240.9765 Y71.2286
X240.9592 Y71.2858
X240.8561 Y71.4977
X240.6917 Y71.6664
X240.4826 Y71.775
X240.25 Y71.8125
X239.2887
G3 X238.9827 Y71.5102 I0.0111 J-0.3173
G1 X238.9679 Y71.1978
X238.8559 Y68.8272
X238.8426 Y68.5448
G3 X239.1486 Y68.2125 I0.3171 J-0.015
G1 X240.1546
X240.3044 Y68.22
X240.451 Y68.2514
X240.5931 Y68.2995
X240.7296 Y68.3616
X240.8597 Y68.4363
X240.9886 Y68.525
X241.1183 Y68.6307
X241.2526 Y68.7592
X241.3798 Y68.9023
X241.5038 Y69.0666
X241.6205 Y69.2501
X241.7267 Y69.4515
X241.8186 Y69.6654
X241.894 Y69.8891
X241.9516 Y70.1198
X241.989 Y70.3451
X242.0058 Y70.5446
X242.0066 Y70.761
X241.9926 Y70.943
X241.9671 Y71.1044
X241.9241 Y71.2819
X241.9172 Y71.3031
X241.8116 Y71.5087
X241.6478 Y71.6718
X241.4417 Y71.7764
X241.2134 Y71.8125
X240.25
G3 X239.9437 Y71.5054 I0.0111 J-0.3173
G1 X239.9338 Y71.1976
X239.8575 Y68.8274
X239.8483 Y68.54
G3 X240.1546 Y68.2125 I0.3173 J-0.0102
G1 X241.0683
X241.2181 Y68.22
X241.3661 Y68.2441
X241.51 Y68.2865
X241.6485 Y68.3442
X241.781 Y68.4145
X241.9092 Y68.4977
X242.0417 Y68.5998
X242.1701 Y68.7161
X242.3016 Y68.8562
X242.4287 Y69.0155
X242.5459 Y69.1893
X242.6534 Y69.3803
X242.7504 Y69.5902
X242.8318 Y69.8117
X242.8954 Y70.0398
X242.9412 Y70.2761
X242.9643 Y70.4829
X242.9706 Y70.6895
X242.9608 Y70.8875
X242.9392 Y71.0527
X242.9032 Y71.2216
X242.8846 Y71.2839
X242.7818 Y71.4964
X242.6173 Y71.6658
X242.4079 Y71.7749
X242.1748 Y71.8125
X241.2134
G3 X240.9073 Y71.5107 I0.0111 J-0.3173
G1 X240.892 Y71.1978
X240.776 Y68.8272
X240.7622 Y68.5453
G3 X241.0683 Y68.2125 I0.3171 J-0.0155
G1 X242.0742
X242.224 Y68.22
X242.3709 Y68.2506
X242.5132 Y68.2981
X242.6499 Y68.3597
X242.7803 Y68.4339
X242.9093 Y68.5222
X243.0389 Y68.6271
X243.173 Y68.7548
X243.3005 Y68.8973
X243.4245 Y69.0606
X243.5415 Y69.2436
X243.6481 Y69.4441
X243.7405 Y69.6576
X243.8165 Y69.881
X243.8748 Y70.1114
X243.9129 Y70.3371
X243.9303 Y70.5369
X243.9317 Y70.7539
X243.9182 Y70.9366
X243.8931 Y71.0981
X243.8507 Y71.2759
X243.8425 Y71.301
X243.7372 Y71.5074
X243.5733 Y71.6711
X243.3669 Y71.7763
X243.138 Y71.8125
X242.1748
G3 X241.8685 Y71.506 I0.0111 J-0.3173
G1 X241.8581 Y71.1976
X241.7777 Y68.8274
X241.768 Y68.5406
G3 X242.0742 Y68.2125 I0.3173 J-0.0108
G1 X243.0047
X243.1545 Y68.22
X243.3023 Y68.2457
X243.4458 Y68.2894
X243.5838 Y68.3482
X243.7157 Y68.4196
X243.843 Y68.5033
X243.9766 Y68.6074
X244.1049 Y68.7252
X244.2352 Y68.8657
X244.3629 Y69.0276
X244.4801 Y69.2038
X244.5862 Y69.395
X244.6819 Y69.6054
X244.7619 Y69.8275
X244.8242 Y70.056
X244.8685 Y70.2926
X244.89 Y70.4962
X244.8952 Y70.706
X244.8844 Y70.9006
X244.8621 Y71.0639
X244.8244 Y71.2353
X244.8082 Y71.2882
X244.7048 Y71.4992
X244.5405 Y71.6672
X244.3318 Y71.7752
X244.0998 Y71.8125
X243.138
G3 X242.8319 Y71.5095 I0.0111 J-0.3173
G1 X242.8179 Y71.1977
X242.7113 Y68.8273
X242.6986 Y68.5441
G3 X243.0047 Y68.2125 I0.3172 J-0.0143
G1 X244.0106
X244.1605 Y68.22
X244.307 Y68.2522
X244.4488 Y68.3009
X244.5851 Y68.3635
X244.7149 Y68.4387
X244.8435 Y68.5278
X244.9736 Y68.6345
X245.1077 Y68.7636
X245.2346 Y68.9073
X245.3585 Y69.0725
X245.4747 Y69.2568
X245.5805 Y69.4587
X245.6718 Y69.6731
X245.7465 Y69.8972
X245.8034 Y70.1282
X245.84 Y70.3533
X245.8561 Y70.5525
X245.8562 Y70.7684
X245.8418 Y70.9496
X245.8157 Y71.111
X245.7722 Y71.2882
X245.7665 Y71.3053
X245.6607 Y71.5101
X245.4969 Y71.6725
X245.2913 Y71.7766
X245.0635 Y71.8125
X244.0998
G3 X243.7935 Y71.5047 I0.0111 J-0.3173
G1 X243.7843 Y71.1976
X243.713 Y68.8274
X243.7044 Y68.5393
G3 X244.0106 Y68.2125 I0.3174 J-0.0095
G1 X244.9244
X245.0742 Y68.22
X245.2221 Y68.2449
X245.3658 Y68.2879
X245.504 Y68.3462
X245.6363 Y68.417
X245.7648 Y68.5011
X245.8972 Y68.6037
X246.0256 Y68.7209
X246.1571 Y68.862
X246.2838 Y69.0219
X246.4007 Y69.1965
X246.5078 Y69.3883
X246.6042 Y69.5989
X246.6849 Y69.8208
X246.7477 Y70.0492
X246.7927 Y70.2858
X246.815 Y70.4916
X246.8207 Y70.6983
X246.8102 Y70.8952
X246.7882 Y71.0597
X246.7514 Y71.229
X246.7341 Y71.2863
X246.6309 Y71.498
X246.4665 Y71.6666
X246.2575 Y71.7751
X246.025 Y71.8125
X245.0635
G3 X244.7574 Y71.5101 I0.0111 J-0.3173
G1 X244.7428 Y71.1978
X244.6316 Y68.8272
X244.6183 Y68.5447
G3 X244.9244 Y68.2125 I0.3171 J-0.0149
G1 X245.9303
X246.0801 Y68.22
X246.2268 Y68.2514
X246.3689 Y68.2995
X246.5054 Y68.3617
X246.6355 Y68.4364
X246.7641 Y68.5251
X246.8941 Y68.6309
X247.0282 Y68.7594
X247.1553 Y68.9024
X247.2793 Y69.0669
X247.3961 Y69.2507
X247.5022 Y69.4518
X247.594 Y69.6657
X247.6693 Y69.8896
X247.7269 Y70.1203
X247.7642 Y70.3456
X247.781 Y70.5451
X247.7817 Y70.7615
X247.7677 Y70.9435
X247.7421 Y71.1049
X247.6991 Y71.2823
X247.6922 Y71.3033
X247.5866 Y71.5088
X247.4228 Y71.6718
X247.2168 Y71.7765
X246.9885 Y71.8125
X246.025
G3 X245.7188 Y71.5053 I0.0111 J-0.3173
G1 X245.7089 Y71.1976
X245.6332 Y68.8274
X245.624 Y68.5399
G3 X245.9303 Y68.2125 I0.3173 J-0.0101
G1 X246.8608
X247.0106 Y68.22
X247.1582 Y68.2465
X247.3015 Y68.2908
X247.4393 Y68.3502
X247.571 Y68.422
X247.6986 Y68.5066
X247.8322 Y68.6115
X247.9605 Y68.73
X248.0909 Y68.8716
X248.2182 Y69.0342
X248.335 Y69.2111
X248.4408 Y69.4031
X248.5359 Y69.6142
X248.6152 Y69.8366
X248.6767 Y70.0656
X248.7203 Y70.3023
X248.741 Y70.5049
X248.7455 Y70.7147
X248.7341 Y70.9082
X248.7113 Y71.0709
X248.6729 Y71.2426
X248.6581 Y71.2906
X248.5543 Y71.5007
X248.39 Y71.6679
X248.1818 Y71.7754
X247.9503 Y71.8125
X246.9885
G3 X246.6824 Y71.5089 I0.0111 J-0.3173
G1 X246.669 Y71.1977
X246.5669 Y68.8273
X246.5547 Y68.5435
G3 X246.8608 Y68.2125 I0.3172 J-0.0137
G1 X247.8252
X247.9751 Y68.22
X248.1226 Y68.2471
X248.2659 Y68.2915
X248.4036 Y68.3509
X248.5351 Y68.4231
X248.6601 Y68.506
X248.7926 Y68.61
