%
(Made in : Autodesk CAM Post Processor)
(G Code optimized for OpenBuilds OX CNC 1000 x 750 with GRBL V0.9j controller)

(Program Name : 1001)
(2 Operations :)
(1 : Contour2)
(  Tool : Flat End Mill 2 Flutes, Diam = 1.9mm, Len = 12.7mm)
(  Spindle : RPM = 30000, set router dial to 6)
(  Machining time : 4 min 24 sec)
(2 : Horizontal1)
(  Tool : Flat End Mill 2 Flutes, Diam = 1.9mm, Len = 12.7mm)
(  Spindle : RPM = 30000, set router dial to 6)
(  Machining time : 2 min 28 sec)

G90 G94
G17
G21

(Operation 1 of 2 : Contour2)

G53 G0 Z5
G54
S30000 M3
G4 P1.0
X21.0641 Y18.7931
Z6
Z1.1898
G1 Z-0.81 F3200
X21.0697 Y18.7963 Z-0.8592
X21.0861 Y18.8058 Z-0.905
X21.1123 Y18.8209 Z-0.9443
X21.1464 Y18.8405 Z-0.9745
X21.1861 Y18.8634 Z-0.9935
X21.2288 Y18.8879 Z-1
X22.2893 Y19.4984
X22.3287 Y19.5286
X22.3589 Y19.5679
X22.3779 Y19.6137
X22.3845 Y19.6628
X22.3781 Y19.712
X22.3591 Y19.7579
X22.3361 Y19.8049
X22.313 Y19.8599
X22.2938 Y19.9149
X22.2783 Y19.9699
X22.2663 Y20.0249
X22.2576 Y20.08
X22.2522 Y20.135
X22.25 Y20.245
Y89.9991
X22.2515 Y90.0541
X22.2563 Y90.1091
X22.2643 Y90.1641
X22.2756 Y90.2191
X22.2904 Y90.2742
X22.3089 Y90.3292
X22.3312 Y90.3842
X22.3576 Y90.4392
X22.3591 Y90.4421
X22.3896 Y90.4957
X22.4248 Y90.5492
X22.4693 Y90.6071
X22.516 Y90.6592
X22.5477 Y90.6906
X22.5794 Y90.7193
X22.6426 Y90.7693
X22.6895 Y90.8012
X22.7446 Y90.8337
X22.7996 Y90.8615
X22.8403 Y90.8793
X22.9097 Y90.9046
X22.9648 Y90.9204
X23.0199 Y90.9328
X23.0749 Y90.9417
X23.13 Y90.9474
X23.2401 Y90.95
X322.7599
X322.87 Y90.9474
X322.9251 Y90.9417
X322.9801 Y90.9328
X323.0352 Y90.9204
X323.0903 Y90.9046
X323.1597 Y90.8793
X323.2004 Y90.8615
X323.2554 Y90.8337
X323.3105 Y90.8012
X323.3574 Y90.7693
X323.4206 Y90.7193
X323.4523 Y90.6906
X323.484 Y90.6592
X323.5307 Y90.6071
X323.5751 Y90.5492
X323.6104 Y90.4957
X323.6408 Y90.4421
X323.6424 Y90.4392
X323.6689 Y90.3842
X323.6911 Y90.3292
X323.7096 Y90.2742
X323.7244 Y90.2191
X323.7357 Y90.1641
X323.7437 Y90.1091
X323.7484 Y90.0541
X323.75 Y89.9991
Y20.245
X323.7478 Y20.135
X323.7424 Y20.08
X323.7337 Y20.0249
X323.7217 Y19.9699
X323.7062 Y19.9149
X323.687 Y19.8599
X323.6639 Y19.8049
X323.6408 Y19.7579
X323.6046 Y19.6949
X323.5702 Y19.6439
X323.5307 Y19.5929
X323.5239 Y19.5849
X323.4763 Y19.5328
X323.4206 Y19.4807
X323.4137 Y19.4748
X323.3621 Y19.4341
X323.3105 Y19.3988
X323.2527 Y19.3648
X323.2004 Y19.3385
X323.1453 Y19.315
X323.0903 Y19.2954
X323.0352 Y19.2796
X322.9801 Y19.2672
X322.9377 Y19.26
X322.8953 Y19.2548
X322.87 Y19.2526
X322.7599 Y19.25
X318.5754
X318.4653 Y19.2506
X318.4047 Y19.2548
X318.3552 Y19.2611
X318.3001 Y19.2713
X318.2451 Y19.2848
X318.19 Y19.302
X318.135 Y19.3229
X318.0911 Y19.3425
X318.0473 Y19.3648
X318.0248 Y19.3774
X317.9698 Y19.4117
X317.9147 Y19.4517
X317.8863 Y19.4748
X317.8455 Y19.5115
X317.8046 Y19.5527
X317.7761 Y19.5849
X317.7327 Y19.6399
X317.6954 Y19.6949
X317.6945 Y19.6963
X317.663 Y19.7506
X317.636 Y19.8049
X317.6129 Y19.8599
X317.5938 Y19.9149
X317.5844 Y19.9467
X317.5663 Y20.0249
X317.5576 Y20.08
X317.5522 Y20.135
X317.55 Y20.245
Y72.9478
X317.5476 Y72.95
X203.0515
X203.05 Y72.9478
Y20.245
X203.0478 Y20.135
X203.0424 Y20.08
X203.0338 Y20.0249
X203.0217 Y19.9699
X203.0062 Y19.9149
X202.9871 Y19.8599
X202.964 Y19.8049
X202.952 Y19.7797
X202.9297 Y19.7373
X202.9046 Y19.6949
X202.8751 Y19.6507
X202.8419 Y19.6066
X202.824 Y19.5849
X202.7811 Y19.5377
X202.7318 Y19.4905
X202.7137 Y19.4748
X202.6677 Y19.4382
X202.6216 Y19.406
X202.5527 Y19.3648
X202.5115 Y19.3437
X202.4565 Y19.3194
X202.4014 Y19.2991
X202.3463 Y19.2825
X202.2913 Y19.2694
X202.2433 Y19.2609
X202.1953 Y19.2548
X202.1812 Y19.2535
X202.071 Y19.25
X23.2401
X23.13 Y19.2526
X23.1047 Y19.2548
X23.0623 Y19.26
X23.0199 Y19.2672
X22.9648 Y19.2796
X22.9097 Y19.2954
X22.8547 Y19.315
X22.7996 Y19.3385
X22.7473 Y19.3648
X22.6895 Y19.3988
X22.6379 Y19.4341
X22.5863 Y19.4748
X22.5794 Y19.4807
X22.5237 Y19.5328
X22.4761 Y19.5849
X22.4693 Y19.5929
X22.4298 Y19.6439
X22.3954 Y19.6949
X22.3591 Y19.7579
X22.3377 Y19.8013
X22.3185 Y19.8457
X22.3016 Y19.8911 Z-1.0001
X22.2871 Y19.9372
X22.2749 Y19.984
X22.2651 Y20.0314 Z-1.0002
X22.2577 Y20.0793 Z-1.0003
X22.2528 Y20.1274 Z-1.0004
X22.25 Y20.2242 Z-1.0006
Y20.3209 Z-1.0008
Y20.5145 Z-1.0015
Y20.7081 Z-1.0023
Y20.9017 Z-1.0033
Y21.0952 Z-1.0045
Y21.2888 Z-1.0058
Y21.4824 Z-1.0073
Y21.676 Z-1.009
Y21.8695 Z-1.0109
Y22.0631 Z-1.0129
Y22.2567 Z-1.0151
Y22.4503 Z-1.0174
Y22.6438 Z-1.0199
Y22.8374 Z-1.0225
Y23.031 Z-1.0253
Y23.2246 Z-1.0283
Y23.4181 Z-1.0314
Y23.6117 Z-1.0347
Y23.8053 Z-1.0381
Y23.9989 Z-1.0416
Y24.1924 Z-1.0453
Y24.386 Z-1.0491
Y24.5796 Z-1.0531
Y24.7732 Z-1.0572
Y24.9667 Z-1.0614
Y25.1603 Z-1.0658
Y25.3539 Z-1.0702
Y25.5475 Z-1.0749
Y25.741 Z-1.0796
Y25.9346 Z-1.0845
Y26.1282 Z-1.0894
Y26.225 Z-1.092
Y26.3218 Z-1.0945
Y26.4185 Z-1.0971
Y26.5153 Z-1.0997
Y26.6121 Z-1.1024
Y26.7089 Z-1.1051
Y26.8057 Z-1.1078
Y26.9025 Z-1.1105
Y26.9993 Z-1.1133
Y27.0961 Z-1.1161
Y27.1928 Z-1.1189
Y27.2896 Z-1.1217
Y27.3864 Z-1.1246
Y27.4832 Z-1.1275
Y27.58 Z-1.1304
Y27.6768 Z-1.1334
Y27.7736 Z-1.1363
Y27.8704 Z-1.1393
Y27.9671 Z-1.1423
Y28.0639 Z-1.1454
Y28.1607 Z-1.1485
Y28.2575 Z-1.1516
Y28.3543 Z-1.1547
Y28.4511 Z-1.1578
Y28.5479 Z-1.161
Y28.6447 Z-1.1642
Y28.7414 Z-1.1674
Y28.8382 Z-1.1706
Y28.935 Z-1.1739
Y29.0318 Z-1.1772
Y29.1286 Z-1.1805
Y29.2254 Z-1.1838
Y29.3222 Z-1.1871
Y29.5157 Z-1.1939
Y29.6125 Z-1.1972
Y29.7093 Z-1.2006
Y29.8061 Z-1.204
Y29.9029 Z-1.2074
Y29.9997 Z-1.2108
Y30.0965 Z-1.2141
Y30.1932 Z-1.2175
Y30.29 Z-1.2209
Y30.3868 Z-1.2243
Y30.4836 Z-1.2277
Y30.5804 Z-1.231
Y30.6772 Z-1.2344
Y30.8708 Z-1.2412
Y31.1611 Z-1.2513
Y31.4515 Z-1.2614
Y31.7418 Z-1.2716
Y32.0322 Z-1.2817
Y32.3226 Z-1.2919
Y32.6129 Z-1.302
Y32.9033 Z-1.3121
Y33.1937 Z-1.3223
Y33.484 Z-1.3324
Y33.7744 Z-1.3426
Y34.2583 Z-1.3595
Y34.7423 Z-1.3764
Y35.2262 Z-1.3933
Y35.9037 Z-1.4169
Y36.7748 Z-1.4473
Y38.2266 Z-1.498
Y45.1953 Z-1.7413
Y45.4856 Z-1.7515
Y45.776 Z-1.7616
Y45.8728 Z-1.765
Y45.9696 Z-1.7684
Y46.0664 Z-1.7717
Y46.1632 Z-1.7751
Y46.2599 Z-1.7785
Y46.3567 Z-1.7819
Y46.4535 Z-1.7853
Y46.5503 Z-1.7886
Y46.6471 Z-1.792
Y46.7439 Z-1.7954
Y46.8407 Z-1.7988
Y46.9375 Z-1.8022
Y47.0342 Z-1.8055
Y47.131 Z-1.8089
Y47.2278 Z-1.8123
Y47.3246 Z-1.8156
Y47.4214 Z-1.819
Y47.5182 Z-1.8223
Y47.615 Z-1.8255
Y47.7118 Z-1.8288
Y47.8085 Z-1.832
Y47.9053 Z-1.8353
Y48.0021 Z-1.8385
Y48.0989 Z-1.8416
Y48.1957 Z-1.8448
Y48.2925 Z-1.8479
Y48.3893 Z-1.851
Y48.4861 Z-1.8541
Y48.5828 Z-1.8571
Y48.6796 Z-1.8601
Y48.7764 Z-1.8631
Y48.8732 Z-1.8661
Y48.97 Z-1.8691
Y49.0668 Z-1.872
Y49.1636 Z-1.8749
Y49.2604 Z-1.8778
Y49.3571 Z-1.8806
Y49.4539 Z-1.8834
Y49.5507 Z-1.8862
Y49.6475 Z-1.889
Y49.7443 Z-1.8917
Y49.8411 Z-1.8945
Y49.9379 Z-1.8971
Y50.0347 Z-1.8998
Y50.1314 Z-1.9024
Y50.2282 Z-1.905
Y50.325 Z-1.9076
Y50.4218 Z-1.9101
Y50.5186 Z-1.9126
Y50.7122 Z-1.9176
Y50.9057 Z-1.9224
Y51.0993 Z-1.9271
Y51.2929 Z-1.9316
Y51.4865 Z-1.9361
Y51.68 Z-1.9404
Y51.8736 Z-1.9445
Y52.0672 Z-1.9486
Y52.2608 Z-1.9525
Y52.4543 Z-1.9562
Y52.6479 Z-1.9599
Y52.8415 Z-1.9634
Y53.0351 Z-1.9667
Y53.2286 Z-1.9699
Y53.4222 Z-1.9729
Y53.6158 Z-1.9758
Y53.8094 Z-1.9786
Y54.0029 Z-1.9812
Y54.1965 Z-1.9836
Y54.3901 Z-1.9859
Y54.5837 Z-1.988
Y54.7772 Z-1.9899
Y54.9708 Z-1.9917
Y55.1644 Z-1.9933
Y55.358 Z-1.9948
Y55.5515 Z-1.996
Y55.7451 Z-1.9971
Y55.9387 Z-1.9981
Y56.1323 Z-1.9988
Y56.3258 Z-1.9994
Y56.5194 Z-1.9998
Y56.713 Z-2
Y56.8268
Y89.9991
X22.2515 Y90.0541
X22.2563 Y90.1091
X22.2643 Y90.1641
X22.2756 Y90.2191
X22.2904 Y90.2742
X22.3089 Y90.3292
X22.3312 Y90.3842
X22.3576 Y90.4392
X22.3591 Y90.4421
X22.3896 Y90.4957
X22.4248 Y90.5492
X22.4693 Y90.6071
X22.516 Y90.6592
X22.5477 Y90.6906
X22.5794 Y90.7193
X22.6426 Y90.7693
X22.6895 Y90.8012
X22.7446 Y90.8337
X22.7996 Y90.8615
X22.8403 Y90.8793
X22.9097 Y90.9046
X22.9648 Y90.9204
X23.0199 Y90.9328
X23.0749 Y90.9417
X23.13 Y90.9474
X23.2401 Y90.95
X322.7599
X322.87 Y90.9474
X322.9251 Y90.9417
X322.9801 Y90.9328
X323.0352 Y90.9204
X323.0903 Y90.9046
X323.1597 Y90.8793
X323.2004 Y90.8615
X323.2554 Y90.8337
X323.3105 Y90.8012
X323.3574 Y90.7693
X323.4206 Y90.7193
X323.4523 Y90.6906
X323.484 Y90.6592
X323.5307 Y90.6071
X323.5751 Y90.5492
X323.6104 Y90.4957
X323.6408 Y90.4421
X323.6424 Y90.4392
X323.6689 Y90.3842
X323.6911 Y90.3292
X323.7096 Y90.2742
X323.7244 Y90.2191
X323.7357 Y90.1641
X323.7437 Y90.1091
X323.7484 Y90.0541
X323.75 Y89.9991
Y20.245
X323.7478 Y20.135
X323.7424 Y20.08
X323.7337 Y20.0249
X323.7217 Y19.9699
X323.7062 Y19.9149
X323.687 Y19.8599
X323.6639 Y19.8049
X323.6408 Y19.7579
X323.6046 Y19.6949
X323.5702 Y19.6439
X323.5307 Y19.5929
X323.5239 Y19.5849
X323.4763 Y19.5328
X323.4206 Y19.4807
X323.4137 Y19.4748
X323.3621 Y19.4341
X323.3105 Y19.3988
X323.2527 Y19.3648
X323.2004 Y19.3385
X323.1453 Y19.315
X323.0903 Y19.2954
X323.0352 Y19.2796
X322.9801 Y19.2672
X322.9377 Y19.26
X322.8953 Y19.2548
X322.87 Y19.2526
X322.7599 Y19.25
X318.5754
X318.4653 Y19.2506
X318.4047 Y19.2548
X318.3552 Y19.2611
X318.3001 Y19.2713
X318.2451 Y19.2848
X318.19 Y19.302
X318.135 Y19.3229
X318.0911 Y19.3425
X318.0473 Y19.3648
X318.0248 Y19.3774
X317.9698 Y19.4117
X317.9147 Y19.4517
X317.8863 Y19.4748
X317.8455 Y19.5115
X317.8046 Y19.5527
X317.7761 Y19.5849
X317.7327 Y19.6399
X317.6954 Y19.6949
X317.6945 Y19.6963
X317.663 Y19.7506
X317.636 Y19.8049
X317.6129 Y19.8599
X317.5938 Y19.9149
X317.5844 Y19.9467
X317.5663 Y20.0249
X317.5576 Y20.08
X317.5522 Y20.135
X317.55 Y20.245
Y72.9478
X317.5476 Y72.95
X203.0515
X203.05 Y72.9478
Y20.245
X203.0478 Y20.135
X203.0424 Y20.08
X203.0338 Y20.0249
X203.0217 Y19.9699
X203.0062 Y19.9149
X202.9871 Y19.8599
X202.964 Y19.8049
X202.952 Y19.7797
X202.9297 Y19.7373
X202.9046 Y19.6949
X202.8751 Y19.6507
X202.8419 Y19.6066
X202.824 Y19.5849
X202.7811 Y19.5377
X202.7318 Y19.4905
X202.7137 Y19.4748
X202.6677 Y19.4382
X202.6216 Y19.406
X202.5527 Y19.3648
X202.5115 Y19.3437
X202.4565 Y19.3194
X202.4014 Y19.2991
X202.3463 Y19.2825
X202.2913 Y19.2694
X202.2433 Y19.2609
X202.1953 Y19.2548
X202.1812 Y19.2535
X202.071 Y19.25
X23.2401
X23.13 Y19.2526
X23.1047 Y19.2548
X23.0623 Y19.26
X23.0199 Y19.2672
X22.9648 Y19.2796
X22.9097 Y19.2954
X22.8547 Y19.315
X22.7996 Y19.3385
X22.7473 Y19.3648
X22.6895 Y19.3988
X22.6379 Y19.4341
X22.5863 Y19.4748
X22.5794 Y19.4807
X22.5237 Y19.5328
X22.4761 Y19.5849
X22.4693 Y19.5929
X22.4298 Y19.6439
X22.3954 Y19.6949
X22.3591 Y19.7579
X22.3361 Y19.8049
X22.313 Y19.8599
X22.2938 Y19.9149
X22.2783 Y19.9699
X22.2663 Y20.0249
X22.2576 Y20.08
X22.2522 Y20.135
X22.25 Y20.245
Y56.8268
Y57.0204 Z-2.0001
Y57.2139 Z-2.0004
Y57.4075 Z-2.0008
Y57.6011 Z-2.0015
Y57.7947 Z-2.0023
Y57.9882 Z-2.0033
Y58.1818 Z-2.0045
Y58.3754 Z-2.0058
Y58.569 Z-2.0073
Y58.7625 Z-2.009
Y58.9561 Z-2.0109
Y59.1497 Z-2.0129
Y59.3433 Z-2.0151
Y59.5368 Z-2.0174
Y59.7304 Z-2.0199
Y59.924 Z-2.0225
Y60.1175 Z-2.0253
Y60.3111 Z-2.0283
Y60.5047 Z-2.0314
Y60.6983 Z-2.0347
Y60.8918 Z-2.0381
Y61.0854 Z-2.0416
Y61.279 Z-2.0453
Y61.4726 Z-2.0491
Y61.6661 Z-2.0531
Y61.8597 Z-2.0572
Y62.0533 Z-2.0614
Y62.2469 Z-2.0658
Y62.4404 Z-2.0702
Y62.634 Z-2.0749
Y62.8276 Z-2.0796
Y63.0212 Z-2.0845
Y63.2147 Z-2.0894
Y63.3115 Z-2.092
Y63.4083 Z-2.0945
Y63.5051 Z-2.0971
Y63.6019 Z-2.0997
Y63.6987 Z-2.1024
Y63.7955 Z-2.1051
Y63.8923 Z-2.1078
Y63.989 Z-2.1105
Y64.0858 Z-2.1133
Y64.1826 Z-2.1161
Y64.2794 Z-2.1189
Y64.3762 Z-2.1217
Y64.473 Z-2.1246
Y64.5698 Z-2.1275
Y64.6666 Z-2.1304
Y64.7633 Z-2.1334
Y64.8601 Z-2.1363
Y64.9569 Z-2.1393
Y65.0537 Z-2.1423
Y65.1505 Z-2.1454
Y65.2473 Z-2.1485
Y65.3441 Z-2.1516
Y65.4409 Z-2.1547
Y65.5376 Z-2.1578
Y65.6344 Z-2.161
Y65.7312 Z-2.1642
Y65.828 Z-2.1674
Y65.9248 Z-2.1706
Y66.0216 Z-2.1739
Y66.1184 Z-2.1772
Y66.2151 Z-2.1805
Y66.3119 Z-2.1838
Y66.4087 Z-2.1871
Y66.6023 Z-2.1939
Y66.6991 Z-2.1972
Y66.7959 Z-2.2006
Y66.8927 Z-2.204
Y66.9894 Z-2.2074
Y67.0862 Z-2.2108
Y67.183 Z-2.2141
Y67.2798 Z-2.2175
Y67.3766 Z-2.2209
Y67.4734 Z-2.2243
Y67.5702 Z-2.2277
Y67.667 Z-2.231
Y67.7637 Z-2.2344
Y67.9573 Z-2.2412
Y68.2477 Z-2.2513
Y68.538 Z-2.2614
Y68.8284 Z-2.2716
Y69.1188 Z-2.2817
Y69.4091 Z-2.2919
Y69.6995 Z-2.302
Y69.9899 Z-2.3121
Y70.2802 Z-2.3223
Y70.5706 Z-2.3324
Y70.8609 Z-2.3426
Y71.3449 Z-2.3595
Y71.8288 Z-2.3764
Y72.3128 Z-2.3933
Y72.9903 Z-2.4169
Y73.8614 Z-2.4473
Y75.3132 Z-2.498
Y82.2819 Z-2.7413
Y82.5722 Z-2.7515
Y82.8626 Z-2.7616
Y82.9594 Z-2.765
Y83.0562 Z-2.7684
Y83.1529 Z-2.7717
Y83.2497 Z-2.7751
Y83.3465 Z-2.7785
Y83.4433 Z-2.7819
Y83.5401 Z-2.7853
Y83.6369 Z-2.7886
Y83.7337 Z-2.792
Y83.8304 Z-2.7954
Y83.9272 Z-2.7988
Y84.024 Z-2.8022
Y84.1208 Z-2.8055
Y84.2176 Z-2.8089
Y84.3144 Z-2.8123
Y84.4112 Z-2.8156
Y84.508 Z-2.819
Y84.6047 Z-2.8223
Y84.7015 Z-2.8255
Y84.7983 Z-2.8288
Y84.8951 Z-2.832
Y84.9919 Z-2.8353
Y85.0887 Z-2.8385
Y85.1855 Z-2.8416
Y85.2823 Z-2.8448
Y85.379 Z-2.8479
Y85.4758 Z-2.851
Y85.5726 Z-2.8541
Y85.6694 Z-2.8571
Y85.7662 Z-2.8601
Y85.863 Z-2.8631
Y85.9598 Z-2.8661
Y86.0566 Z-2.8691
Y86.1533 Z-2.872
Y86.2501 Z-2.8749
Y86.3469 Z-2.8778
Y86.4437 Z-2.8806
Y86.5405 Z-2.8834
Y86.6373 Z-2.8862
Y86.7341 Z-2.889
Y86.8309 Z-2.8917
Y86.9276 Z-2.8945
Y87.0244 Z-2.8971
Y87.1212 Z-2.8998
Y87.218 Z-2.9024
Y87.3148 Z-2.905
Y87.4116 Z-2.9076
Y87.5084 Z-2.9101
Y87.6052 Z-2.9126
Y87.7987 Z-2.9176
Y87.9923 Z-2.9224
Y88.1859 Z-2.9271
Y88.3795 Z-2.9316
Y88.573 Z-2.9361
Y88.7666 Z-2.9404
Y88.9602 Z-2.9445
Y89.1537 Z-2.9486
Y89.3473 Z-2.9525
Y89.5409 Z-2.9562
Y89.7345 Z-2.9599
Y89.928 Z-2.9634
X22.2503 Y90.0248 Z-2.965
X22.2528 Y90.0732 Z-2.9659
X22.2578 Y90.1213 Z-2.9667
X22.2652 Y90.1691 Z-2.9675
X22.275 Y90.2165 Z-2.9683
X22.2872 Y90.2634 Z-2.9691
X22.3018 Y90.3095 Z-2.9699
X22.3188 Y90.3548 Z-2.9707
X22.338 Y90.3992 Z-2.9714
X22.3594 Y90.4426 Z-2.9722
X22.3831 Y90.4849 Z-2.9729
X22.4088 Y90.5258 Z-2.9737
X22.4366 Y90.5655 Z-2.9744
X22.4664 Y90.6036 Z-2.9751
X22.4981 Y90.6402 Z-2.9758
X22.5316 Y90.6751 Z-2.9765
X22.5669 Y90.7083 Z-2.9772
X22.6038 Y90.7396 Z-2.9779
X22.6422 Y90.769 Z-2.9786
X22.6821 Y90.7964 Z-2.9792
X22.7233 Y90.8217 Z-2.9799
X22.7658 Y90.845 Z-2.9805
X22.8094 Y90.866 Z-2.9812
X22.854 Y90.8847 Z-2.9818
X22.8995 Y90.9012 Z-2.9824
X22.9458 Y90.9154 Z-2.983
X22.9927 Y90.9271 Z-2.9836
X23.0402 Y90.9365 Z-2.9842
X23.0881 Y90.9434 Z-2.9847
X23.1363 Y90.9479 Z-2.9853
X23.1847 Y90.9499 Z-2.9859
X23.3782 Y90.95 Z-2.988
X23.5718 Z-2.9899
X23.7654 Z-2.9917
X23.959 Z-2.9933
X24.1525 Z-2.9948
X24.3461 Z-2.996
X24.5397 Z-2.9971
X24.7333 Z-2.9981
X24.9268 Z-2.9988
X25.1204 Z-2.9994
X25.314 Z-2.9998
X25.5076 Z-3
X25.6214
X322.7599
X322.87 Y90.9474
X322.9251 Y90.9417
X322.9801 Y90.9328
X323.0352 Y90.9204
X323.0903 Y90.9046
X323.1597 Y90.8793
X323.2004 Y90.8615
X323.2554 Y90.8337
X323.3105 Y90.8012
X323.3574 Y90.7693
X323.4206 Y90.7193
X323.4523 Y90.6906
X323.484 Y90.6592
X323.5307 Y90.6071
X323.5751 Y90.5492
X323.6104 Y90.4957
X323.6408 Y90.4421
X323.6424 Y90.4392
X323.6689 Y90.3842
X323.6911 Y90.3292
X323.7096 Y90.2742
X323.7244 Y90.2191
X323.7357 Y90.1641
X323.7437 Y90.1091
X323.7484 Y90.0541
X323.75 Y89.9991
Y20.245
X323.7478 Y20.135
X323.7424 Y20.08
X323.7337 Y20.0249
X323.7217 Y19.9699
X323.7062 Y19.9149
X323.687 Y19.8599
X323.6639 Y19.8049
X323.6408 Y19.7579
X323.6046 Y19.6949
X323.5702 Y19.6439
X323.5307 Y19.5929
X323.5239 Y19.5849
X323.4763 Y19.5328
X323.4206 Y19.4807
X323.4137 Y19.4748
X323.3621 Y19.4341
X323.3105 Y19.3988
X323.2527 Y19.3648
X323.2004 Y19.3385
X323.1453 Y19.315
X323.0903 Y19.2954
X323.0352 Y19.2796
X322.9801 Y19.2672
X322.9377 Y19.26
X322.8953 Y19.2548
X322.87 Y19.2526
X322.7599 Y19.25
X318.5754
X318.4653 Y19.2506
X318.4047 Y19.2548
X318.3552 Y19.2611
X318.3001 Y19.2713
X318.2451 Y19.2848
X318.19 Y19.302
X318.135 Y19.3229
X318.0911 Y19.3425
X318.0473 Y19.3648
X318.0248 Y19.3774
X317.9698 Y19.4117
X317.9147 Y19.4517
X317.8863 Y19.4748
X317.8455 Y19.5115
X317.8046 Y19.5527
X317.7761 Y19.5849
X317.7327 Y19.6399
X317.6954 Y19.6949
X317.6945 Y19.6963
X317.663 Y19.7506
X317.636 Y19.8049
X317.6129 Y19.8599
X317.5938 Y19.9149
X317.5844 Y19.9467
X317.5663 Y20.0249
X317.5576 Y20.08
X317.5522 Y20.135
X317.55 Y20.245
Y72.9478
X317.5476 Y72.95
X203.0515
X203.05 Y72.9478
Y20.245
X203.0478 Y20.135
X203.0424 Y20.08
X203.0338 Y20.0249
X203.0217 Y19.9699
X203.0062 Y19.9149
X202.9871 Y19.8599
X202.964 Y19.8049
X202.952 Y19.7797
X202.9297 Y19.7373
X202.9046 Y19.6949
X202.8751 Y19.6507
X202.8419 Y19.6066
X202.824 Y19.5849
X202.7811 Y19.5377
X202.7318 Y19.4905
X202.7137 Y19.4748
X202.6677 Y19.4382
X202.6216 Y19.406
X202.5527 Y19.3648
X202.5115 Y19.3437
X202.4565 Y19.3194
X202.4014 Y19.2991
X202.3463 Y19.2825
X202.2913 Y19.2694
X202.2433 Y19.2609
X202.1953 Y19.2548
X202.1812 Y19.2535
X202.071 Y19.25
X23.2401
X23.13 Y19.2526
X23.1047 Y19.2548
X23.0623 Y19.26
X23.0199 Y19.2672
X22.9648 Y19.2796
X22.9097 Y19.2954
X22.8547 Y19.315
X22.7996 Y19.3385
X22.7473 Y19.3648
X22.6895 Y19.3988
X22.6379 Y19.4341
X22.5863 Y19.4748
X22.5794 Y19.4807
X22.5237 Y19.5328
X22.4761 Y19.5849
X22.4693 Y19.5929
X22.4298 Y19.6439
X22.3954 Y19.6949
X22.3591 Y19.7579
X22.3361 Y19.8049
X22.313 Y19.8599
X22.2938 Y19.9149
X22.2783 Y19.9699
X22.2663 Y20.0249
X22.2576 Y20.08
X22.2522 Y20.135
X22.25 Y20.245
Y56.8268
Y89.9991
X22.2515 Y90.0541
X22.2563 Y90.1091
X22.2643 Y90.1641
X22.2756 Y90.2191
X22.2904 Y90.2742
X22.3089 Y90.3292
X22.3312 Y90.3842
X22.3576 Y90.4392
X22.3591 Y90.4421
X22.3896 Y90.4957
X22.4248 Y90.5492
X22.4693 Y90.6071
X22.516 Y90.6592
X22.5477 Y90.6906
X22.5794 Y90.7193
X22.6426 Y90.7693
X22.6895 Y90.8012
X22.7446 Y90.8337
X22.7996 Y90.8615
X22.8403 Y90.8793
X22.9097 Y90.9046
X22.9648 Y90.9204
X23.0199 Y90.9328
X23.0749 Y90.9417
X23.13 Y90.9474
X23.2401 Y90.95
X25.6214
X25.8149 Z-3.0001
X26.0085 Z-3.0004
X26.2021 Z-3.0008
X26.3957 Z-3.0015
X26.5892 Z-3.0023
X26.7828 Z-3.0033
X26.9764 Z-3.0045
X27.17 Z-3.0058
X27.3635 Z-3.0073
X27.5571 Z-3.009
X27.7507 Z-3.0109
X27.9443 Z-3.0129
X28.1378 Z-3.0151
X28.3314 Z-3.0174
X28.525 Z-3.0199
X28.7186 Z-3.0225
X28.9121 Z-3.0253
X29.1057 Z-3.0283
X29.2993 Z-3.0314
X29.4929 Z-3.0347
X29.6864 Z-3.0381
X29.88 Z-3.0416
X30.0736 Z-3.0453
X30.2672 Z-3.0491
X30.4607 Z-3.0531
X30.6543 Z-3.0572
X30.8479 Z-3.0614
X31.0415 Z-3.0658
X31.235 Z-3.0702
X31.4286 Z-3.0749
X31.6222 Z-3.0796
X31.8158 Z-3.0845
X32.0093 Z-3.0894
X32.1061 Z-3.092
X32.2029 Z-3.0945
X32.2997 Z-3.0971
X32.3965 Z-3.0997
X32.4933 Z-3.1024
X32.5901 Z-3.1051
X32.6868 Z-3.1078
X32.7836 Z-3.1105
X32.8804 Z-3.1133
X32.9772 Z-3.1161
X33.074 Z-3.1189
X33.1708 Z-3.1217
X33.2676 Z-3.1246
X33.3644 Z-3.1275
X33.4611 Z-3.1304
X33.5579 Z-3.1334
X33.6547 Z-3.1363
X33.7515 Z-3.1393
X33.8483 Z-3.1423
X33.9451 Z-3.1454
X34.0419 Z-3.1485
X34.1387 Z-3.1516
X34.2354 Z-3.1547
X34.3322 Z-3.1578
X34.429 Z-3.161
X34.5258 Z-3.1642
X34.6226 Z-3.1674
X34.7194 Z-3.1706
X34.8162 Z-3.1739
X34.913 Z-3.1772
X35.0097 Z-3.1805
X35.1065 Z-3.1838
X35.2033 Z-3.1871
X35.3969 Z-3.1939
X35.4937 Z-3.1972
X35.5905 Z-3.2006
X35.6873 Z-3.204
X35.784 Z-3.2074
X35.8808 Z-3.2108
X35.9776 Z-3.2141
X36.0744 Z-3.2175
X36.1712 Z-3.2209
X36.268 Z-3.2243
X36.3648 Z-3.2277
X36.4616 Z-3.231
X36.5583 Z-3.2344
X36.7519 Z-3.2412
X37.0423 Z-3.2513
X37.3326 Z-3.2614
X37.623 Z-3.2716
X37.9134 Z-3.2817
X38.2037 Z-3.2919
X38.4941 Z-3.302
X38.7844 Z-3.3121
X39.0748 Z-3.3223
X39.3652 Z-3.3324
X39.6555 Z-3.3426
X40.1395 Z-3.3595
X40.6234 Z-3.3764
X41.1073 Z-3.3933
X41.7849 Z-3.4169
X42.6559 Z-3.4473
X44.1077 Z-3.498
X51.0764 Z-3.7413
X51.3668 Z-3.7515
X51.6572 Z-3.7616
X51.7539 Z-3.765
X51.8507 Z-3.7684
X51.9475 Z-3.7717
X52.0443 Z-3.7751
X52.1411 Z-3.7785
X52.2379 Z-3.7819
X52.3347 Z-3.7853
X52.4315 Z-3.7886
X52.5282 Z-3.792
X52.625 Z-3.7954
X52.7218 Z-3.7988
X52.8186 Z-3.8022
X52.9154 Z-3.8055
X53.0122 Z-3.8089
X53.109 Z-3.8123
X53.2058 Z-3.8156
X53.3025 Z-3.819
X53.3993 Z-3.8223
X53.4961 Z-3.8255
X53.5929 Z-3.8288
X53.6897 Z-3.832
X53.7865 Z-3.8353
X53.8833 Z-3.8385
X53.9801 Z-3.8416
X54.0768 Z-3.8448
X54.1736 Z-3.8479
X54.2704 Z-3.851
X54.3672 Z-3.8541
X54.464 Z-3.8571
X54.5608 Z-3.8601
X54.6576 Z-3.8631
X54.7544 Z-3.8661
X54.8511 Z-3.8691
X54.9479 Z-3.872
X55.0447 Z-3.8749
X55.1415 Z-3.8778
X55.2383 Z-3.8806
X55.3351 Z-3.8834
X55.4319 Z-3.8862
X55.5287 Z-3.889
X55.6254 Z-3.8917
X55.7222 Z-3.8945
X55.819 Z-3.8971
X55.9158 Z-3.8998
X56.0126 Z-3.9024
X56.1094 Z-3.905
X56.2062 Z-3.9076
X56.303 Z-3.9101
X56.3997 Z-3.9126
X56.5933 Z-3.9176
X56.7869 Z-3.9224
X56.9805 Z-3.9271
X57.174 Z-3.9316
X57.3676 Z-3.9361
X57.5612 Z-3.9404
X57.7548 Z-3.9445
X57.9483 Z-3.9486
X58.1419 Z-3.9525
X58.3355 Z-3.9562
X58.5291 Z-3.9599
X58.7226 Z-3.9634
X58.9162 Z-3.9667
X59.1098 Z-3.9699
X59.3034 Z-3.9729
X59.4969 Z-3.9758
X59.6905 Z-3.9786
X59.8841 Z-3.9812
X60.0777 Z-3.9836
X60.2712 Z-3.9859
X60.4648 Z-3.988
X60.6584 Z-3.9899
X60.852 Z-3.9917
X61.0455 Z-3.9933
X61.2391 Z-3.9948
X61.4327 Z-3.996
X61.6263 Z-3.9971
X61.8198 Z-3.9981
X62.0134 Z-3.9988
X62.207 Z-3.9994
X62.4006 Z-3.9998
X62.5941 Z-4
X62.7079
X322.7599
X322.87 Y90.9474
X322.9251 Y90.9417
X322.9801 Y90.9328
X323.0352 Y90.9204
X323.0903 Y90.9046
X323.1597 Y90.8793
X323.2004 Y90.8615
X323.2554 Y90.8337
X323.3105 Y90.8012
X323.3574 Y90.7693
X323.4206 Y90.7193
X323.4523 Y90.6906
X323.484 Y90.6592
X323.5307 Y90.6071
X323.5751 Y90.5492
X323.6104 Y90.4957
X323.6408 Y90.4421
X323.6424 Y90.4392
X323.6689 Y90.3842
X323.6911 Y90.3292
X323.7096 Y90.2742
X323.7244 Y90.2191
X323.7357 Y90.1641
X323.7437 Y90.1091
X323.7484 Y90.0541
X323.75 Y89.9991
Y20.245
X323.7478 Y20.135
X323.7424 Y20.08
X323.7337 Y20.0249
X323.7217 Y19.9699
X323.7062 Y19.9149
X323.687 Y19.8599
X323.6639 Y19.8049
X323.6408 Y19.7579
X323.6046 Y19.6949
X323.5702 Y19.6439
X323.5307 Y19.5929
X323.5239 Y19.5849
X323.4763 Y19.5328
X323.4206 Y19.4807
X323.4137 Y19.4748
X323.3621 Y19.4341
X323.3105 Y19.3988
X323.2527 Y19.3648
X323.2004 Y19.3385
X323.1453 Y19.315
X323.0903 Y19.2954
X323.0352 Y19.2796
X322.9801 Y19.2672
X322.9377 Y19.26
X322.8953 Y19.2548
X322.87 Y19.2526
X322.7599 Y19.25
X318.5754
X318.4653 Y19.2506
X318.4047 Y19.2548
X318.3552 Y19.2611
X318.3001 Y19.2713
X318.2451 Y19.2848
X318.19 Y19.302
X318.135 Y19.3229
X318.0911 Y19.3425
X318.0473 Y19.3648
X318.0248 Y19.3774
X317.9698 Y19.4117
X317.9147 Y19.4517
X317.8863 Y19.4748
X317.8455 Y19.5115
X317.8046 Y19.5527
X317.7761 Y19.5849
X317.7327 Y19.6399
X317.6954 Y19.6949
X317.6945 Y19.6963
X317.663 Y19.7506
X317.636 Y19.8049
X317.6129 Y19.8599
X317.5938 Y19.9149
X317.5844 Y19.9467
X317.5663 Y20.0249
X317.5576 Y20.08
X317.5522 Y20.135
X317.55 Y20.245
Y72.9478
X317.5476 Y72.95
X203.0515
X203.05 Y72.9478
Y20.245
X203.0478 Y20.135
X203.0424 Y20.08
X203.0338 Y20.0249
X203.0217 Y19.9699
X203.0062 Y19.9149
X202.9871 Y19.8599
X202.964 Y19.8049
X202.952 Y19.7797
X202.9297 Y19.7373
X202.9046 Y19.6949
X202.8751 Y19.6507
X202.8419 Y19.6066
X202.824 Y19.5849
X202.7811 Y19.5377
X202.7318 Y19.4905
X202.7137 Y19.4748
X202.6677 Y19.4382
X202.6216 Y19.406
X202.5527 Y19.3648
X202.5115 Y19.3437
X202.4565 Y19.3194
X202.4014 Y19.2991
X202.3463 Y19.2825
X202.2913 Y19.2694
X202.2433 Y19.2609
X202.1953 Y19.2548
X202.1812 Y19.2535
X202.071 Y19.25
X23.2401
X23.13 Y19.2526
X23.1047 Y19.2548
X23.0623 Y19.26
X23.0199 Y19.2672
X22.9648 Y19.2796
X22.9097 Y19.2954
X22.8547 Y19.315
X22.7996 Y19.3385
X22.7473 Y19.3648
X22.6895 Y19.3988
X22.6379 Y19.4341
X22.5863 Y19.4748
X22.5794 Y19.4807
X22.5237 Y19.5328
X22.4761 Y19.5849
X22.4693 Y19.5929
X22.4298 Y19.6439
X22.3954 Y19.6949
X22.3591 Y19.7579
X22.3361 Y19.8049
X22.313 Y19.8599
X22.2938 Y19.9149
X22.2783 Y19.9699
X22.2663 Y20.0249
X22.2576 Y20.08
X22.2522 Y20.135
X22.25 Y20.245
Y89.9991
X22.2515 Y90.0541
X22.2563 Y90.1091
X22.2643 Y90.1641
X22.2756 Y90.2191
X22.2904 Y90.2742
X22.3089 Y90.3292
X22.3312 Y90.3842
X22.3576 Y90.4392
X22.3591 Y90.4421
X22.3896 Y90.4957
X22.4248 Y90.5492
X22.4693 Y90.6071
X22.516 Y90.6592
X22.5477 Y90.6906
X22.5794 Y90.7193
X22.6426 Y90.7693
X22.6895 Y90.8012
X22.7446 Y90.8337
X22.7996 Y90.8615
X22.8403 Y90.8793
X22.9097 Y90.9046
X22.9648 Y90.9204
X23.0199 Y90.9328
X23.0749 Y90.9417
X23.13 Y90.9474
X23.2401 Y90.95
X62.7079
X62.9015 Z-4.0001
X63.0951 Z-4.0004
X63.2887 Z-4.0008
X63.4822 Z-4.0015
X63.6758 Z-4.0023
X63.8694 Z-4.0033
X64.063 Z-4.0045
X64.2565 Z-4.0058
X64.4501 Z-4.0073
X64.6437 Z-4.009
X64.8373 Z-4.0109
X65.0308 Z-4.0129
X65.2244 Z-4.0151
X65.418 Z-4.0174
X65.6116 Z-4.0199
X65.8051 Z-4.0225
X65.9987 Z-4.0253
X66.1923 Z-4.0283
X66.3858 Z-4.0314
X66.5794 Z-4.0347
X66.773 Z-4.0381
X66.9666 Z-4.0416
X67.1601 Z-4.0453
X67.3537 Z-4.0491
X67.5473 Z-4.0531
X67.7409 Z-4.0572
X67.9344 Z-4.0614
X68.128 Z-4.0658
X68.3216 Z-4.0702
X68.5152 Z-4.0749
X68.7087 Z-4.0796
X68.9023 Z-4.0845
X69.0959 Z-4.0894
X69.1927 Z-4.092
X69.2895 Z-4.0945
X69.3863 Z-4.0971
X69.483 Z-4.0997
X69.5798 Z-4.1024
X69.6766 Z-4.1051
X69.7734 Z-4.1078
X69.8702 Z-4.1105
X69.967 Z-4.1133
X70.0638 Z-4.1161
X70.1606 Z-4.1189
X70.2573 Z-4.1217
X70.3541 Z-4.1246
X70.4509 Z-4.1275
X70.5477 Z-4.1304
X70.6445 Z-4.1334
X70.7413 Z-4.1363
X70.8381 Z-4.1393
X70.9349 Z-4.1423
X71.0316 Z-4.1454
X71.1284 Z-4.1485
X71.2252 Z-4.1516
X71.322 Z-4.1547
X71.4188 Z-4.1578
X71.5156 Z-4.161
X71.6124 Z-4.1642
X71.7092 Z-4.1674
X71.8059 Z-4.1706
X71.9027 Z-4.1739
X71.9995 Z-4.1772
X72.0963 Z-4.1805
X72.1931 Z-4.1838
X72.2899 Z-4.1871
X72.4835 Z-4.1939
X72.5802 Z-4.1972
X72.677 Z-4.2006
X72.7738 Z-4.204
X72.8706 Z-4.2074
X72.9674 Z-4.2108
X73.0642 Z-4.2141
X73.161 Z-4.2175
X73.2578 Z-4.2209
X73.3545 Z-4.2243
X73.4513 Z-4.2277
X73.5481 Z-4.231
X73.6449 Z-4.2344
X73.8385 Z-4.2412
X74.1288 Z-4.2513
X74.4192 Z-4.2614
X74.7096 Z-4.2716
X74.9999 Z-4.2817
X75.2903 Z-4.2919
X75.5807 Z-4.302
X75.871 Z-4.3121
X76.1614 Z-4.3223
X76.4517 Z-4.3324
X76.7421 Z-4.3426
X77.226 Z-4.3595
X77.71 Z-4.3764
X78.1939 Z-4.3933
X78.8714 Z-4.4169
X79.7425 Z-4.4473
X81.1943 Z-4.498
X88.163 Z-4.7413
X88.4534 Z-4.7515
X88.7437 Z-4.7616
X88.8405 Z-4.765
X88.9373 Z-4.7684
X89.0341 Z-4.7717
X89.1309 Z-4.7751
X89.2277 Z-4.7785
X89.3244 Z-4.7819
X89.4212 Z-4.7853
X89.518 Z-4.7886
X89.6148 Z-4.792
X89.7116 Z-4.7954
X89.8084 Z-4.7988
X89.9052 Z-4.8022
X90.002 Z-4.8055
X90.0987 Z-4.8089
X90.1955 Z-4.8123
X90.2923 Z-4.8156
X90.3891 Z-4.819
X90.4859 Z-4.8223
X90.5827 Z-4.8255
X90.6795 Z-4.8288
X90.7763 Z-4.832
X90.873 Z-4.8353
X90.9698 Z-4.8385
X91.0666 Z-4.8416
X91.1634 Z-4.8448
X91.2602 Z-4.8479
X91.357 Z-4.851
X91.4538 Z-4.8541
X91.5506 Z-4.8571
X91.6473 Z-4.8601
X91.7441 Z-4.8631
X91.8409 Z-4.8661
X91.9377 Z-4.8691
X92.0345 Z-4.872
X92.1313 Z-4.8749
X92.2281 Z-4.8778
X92.3249 Z-4.8806
X92.4216 Z-4.8834
X92.5184 Z-4.8862
X92.6152 Z-4.889
X92.712 Z-4.8917
X92.8088 Z-4.8945
X92.9056 Z-4.8971
X93.0024 Z-4.8998
X93.0992 Z-4.9024
X93.1959 Z-4.905
X93.2927 Z-4.9076
X93.3895 Z-4.9101
X93.4863 Z-4.9126
X93.6799 Z-4.9176
X93.8735 Z-4.9224
X94.067 Z-4.9271
X94.2606 Z-4.9316
X94.4542 Z-4.9361
X94.6478 Z-4.9404
X94.8413 Z-4.9445
X95.0349 Z-4.9486
X95.2285 Z-4.9525
X95.4221 Z-4.9562
X95.6156 Z-4.9599
X95.8092 Z-4.9634
X96.0028 Z-4.9667
X96.1964 Z-4.9699
X96.3899 Z-4.9729
X96.5835 Z-4.9758
X96.7771 Z-4.9786
X96.9706 Z-4.9812
X97.1642 Z-4.9836
X97.3578 Z-4.9859
X97.5514 Z-4.988
X97.7449 Z-4.9899
X97.9385 Z-4.9917
X98.1321 Z-4.9933
X98.3257 Z-4.9948
X98.5192 Z-4.996
X98.7128 Z-4.9971
X98.9064 Z-4.9981
X99.1 Z-4.9988
X99.2935 Z-4.9994
X99.4871 Z-4.9998
X99.6807 Z-5
X99.7945
X322.7599
X322.87 Y90.9474
X322.9251 Y90.9417
X322.9801 Y90.9328
X323.0352 Y90.9204
X323.0903 Y90.9046
X323.1597 Y90.8793
X323.2004 Y90.8615
X323.2554 Y90.8337
X323.3105 Y90.8012
X323.3574 Y90.7693
X323.4206 Y90.7193
X323.4523 Y90.6906
X323.484 Y90.6592
X323.5307 Y90.6071
X323.5751 Y90.5492
X323.6104 Y90.4957
X323.6408 Y90.4421
X323.6424 Y90.4392
X323.6689 Y90.3842
X323.6911 Y90.3292
X323.7096 Y90.2742
X323.7244 Y90.2191
X323.7357 Y90.1641
X323.7437 Y90.1091
X323.7484 Y90.0541
X323.75 Y89.9991
Y20.245
X323.7478 Y20.135
X323.7424 Y20.08
X323.7337 Y20.0249
X323.7217 Y19.9699
X323.7062 Y19.9149
X323.687 Y19.8599
X323.6639 Y19.8049
X323.6408 Y19.7579
X323.6046 Y19.6949
X323.5702 Y19.6439
X323.5307 Y19.5929
X323.5239 Y19.5849
X323.4763 Y19.5328
X323.4206 Y19.4807
X323.4137 Y19.4748
X323.3621 Y19.4341
X323.3105 Y19.3988
X323.2527 Y19.3648
X323.2004 Y19.3385
X323.1453 Y19.315
X323.0903 Y19.2954
X323.0352 Y19.2796
X322.9801 Y19.2672
X322.9377 Y19.26
X322.8953 Y19.2548
X322.87 Y19.2526
X322.7599 Y19.25
X318.5754
X318.4653 Y19.2506
X318.4047 Y19.2548
X318.3552 Y19.2611
X318.3001 Y19.2713
X318.2451 Y19.2848
X318.19 Y19.302
X318.135 Y19.3229
X318.0911 Y19.3425
X318.0473 Y19.3648
X318.0248 Y19.3774
X317.9698 Y19.4117
X317.9147 Y19.4517
X317.8863 Y19.4748
X317.8455 Y19.5115
X317.8046 Y19.5527
X317.7761 Y19.5849
X317.7327 Y19.6399
X317.6954 Y19.6949
X317.6945 Y19.6963
X317.663 Y19.7506
X317.636 Y19.8049
X317.6129 Y19.8599
X317.5938 Y19.9149
X317.5844 Y19.9467
X317.5663 Y20.0249
X317.5576 Y20.08
X317.5522 Y20.135
X317.55 Y20.245
Y72.9478
X317.5476 Y72.95
X203.0515
X203.05 Y72.9478
Y20.245
X203.0478 Y20.135
X203.0424 Y20.08
X203.0338 Y20.0249
X203.0217 Y19.9699
X203.0062 Y19.9149
X202.9871 Y19.8599
X202.964 Y19.8049
X202.952 Y19.7797
X202.9297 Y19.7373
X202.9046 Y19.6949
X202.8751 Y19.6507
X202.8419 Y19.6066
X202.824 Y19.5849
X202.7811 Y19.5377
X202.7318 Y19.4905
X202.7137 Y19.4748
X202.6677 Y19.4382
X202.6216 Y19.406
X202.5527 Y19.3648
X202.5115 Y19.3437
X202.4565 Y19.3194
X202.4014 Y19.2991
X202.3463 Y19.2825
X202.2913 Y19.2694
X202.2433 Y19.2609
X202.1953 Y19.2548
X202.1812 Y19.2535
X202.071 Y19.25
X23.2401
X23.13 Y19.2526
X23.1047 Y19.2548
X23.0623 Y19.26
X23.0199 Y19.2672
X22.9648 Y19.2796
X22.9097 Y19.2954
X22.8547 Y19.315
X22.7996 Y19.3385
X22.7473 Y19.3648
X22.6895 Y19.3988
X22.6379 Y19.4341
X22.5863 Y19.4748
X22.5794 Y19.4807
X22.5237 Y19.5328
X22.4761 Y19.5849
X22.4693 Y19.5929
X22.4298 Y19.6439
X22.3954 Y19.6949
X22.3591 Y19.7579
X22.3361 Y19.8049
X22.313 Y19.8599
X22.2938 Y19.9149
X22.2783 Y19.9699
X22.2663 Y20.0249
X22.2576 Y20.08
X22.2522 Y20.135
X22.25 Y20.245
Y89.9991
X22.2515 Y90.0541
X22.2563 Y90.1091
X22.2643 Y90.1641
X22.2756 Y90.2191
X22.2904 Y90.2742
X22.3089 Y90.3292
X22.3312 Y90.3842
X22.3576 Y90.4392
X22.3591 Y90.4421
X22.3896 Y90.4957
X22.4248 Y90.5492
X22.4693 Y90.6071
X22.516 Y90.6592
X22.5477 Y90.6906
X22.5794 Y90.7193
X22.6426 Y90.7693
X22.6895 Y90.8012
X22.7446 Y90.8337
X22.7996 Y90.8615
X22.8403 Y90.8793
X22.9097 Y90.9046
X22.9648 Y90.9204
X23.0199 Y90.9328
X23.0749 Y90.9417
X23.13 Y90.9474
X23.2401 Y90.95
X62.7079
X99.7945
X99.9881 Z-5.0001
X100.1816 Z-5.0004
X100.3752 Z-5.0008
X100.5688 Z-5.0015
X100.7624 Z-5.0023
X100.9559 Z-5.0033
X101.1495 Z-5.0045
X101.3431 Z-5.0058
X101.5367 Z-5.0073
X101.7302 Z-5.009
X101.9238 Z-5.0109
X102.1174 Z-5.0129
X102.311 Z-5.0151
X102.5045 Z-5.0174
X102.6981 Z-5.0199
X102.8917 Z-5.0225
X103.0853 Z-5.0253
X103.2788 Z-5.0283
X103.4724 Z-5.0314
X103.666 Z-5.0347
X103.8596 Z-5.0381
X104.0531 Z-5.0416
X104.2467 Z-5.0453
X104.4403 Z-5.0491
X104.6339 Z-5.0531
X104.8274 Z-5.0572
X105.021 Z-5.0614
X105.2146 Z-5.0658
X105.4082 Z-5.0702
X105.6017 Z-5.0749
X105.7953 Z-5.0796
X105.9889 Z-5.0845
X106.1825 Z-5.0894
X106.2793 Z-5.092
X106.376 Z-5.0945
X106.4728 Z-5.0971
X106.5696 Z-5.0997
X106.6664 Z-5.1024
X106.7632 Z-5.1051
X106.86 Z-5.1078
X106.9568 Z-5.1105
X107.0536 Z-5.1133
X107.1503 Z-5.1161
X107.2471 Z-5.1189
X107.3439 Z-5.1217
X107.4407 Z-5.1246
X107.5375 Z-5.1275
X107.6343 Z-5.1304
X107.7311 Z-5.1334
X107.8278 Z-5.1363
X107.9246 Z-5.1393
X108.0214 Z-5.1423
X108.1182 Z-5.1454
X108.215 Z-5.1485
X108.3118 Z-5.1516
X108.4086 Z-5.1547
X108.5054 Z-5.1578
X108.6021 Z-5.161
X108.6989 Z-5.1642
X108.7957 Z-5.1674
X108.8925 Z-5.1706
X108.9893 Z-5.1739
X109.0861 Z-5.1772
X109.1829 Z-5.1805
X109.2797 Z-5.1838
X109.3764 Z-5.1871
X109.57 Z-5.1939
X109.6668 Z-5.1972
X109.7636 Z-5.2006
X109.8604 Z-5.204
X109.9572 Z-5.2074
X110.054 Z-5.2108
X110.1507 Z-5.2141
X110.2475 Z-5.2175
X110.3443 Z-5.2209
X110.4411 Z-5.2243
X110.5379 Z-5.2277
X110.6347 Z-5.231
X110.7315 Z-5.2344
X110.925 Z-5.2412
X111.2154 Z-5.2513
X111.5058 Z-5.2614
X111.7961 Z-5.2716
X112.0865 Z-5.2817
X112.3769 Z-5.2919
X112.6672 Z-5.302
X112.9576 Z-5.3121
X113.2479 Z-5.3223
X113.5383 Z-5.3324
X113.8287 Z-5.3426
X114.3126 Z-5.3595
X114.7965 Z-5.3764
X115.2805 Z-5.3933
X115.958 Z-5.4169
X116.8291 Z-5.4473
X118.2809 Z-5.498
X125.2496 Z-5.7413
X125.5399 Z-5.7515
X125.8303 Z-5.7616
X125.9271 Z-5.765
X126.0239 Z-5.7684
X126.1207 Z-5.7717
X126.2174 Z-5.7751
X126.3142 Z-5.7785
X126.411 Z-5.7819
X126.5078 Z-5.7853
X126.6046 Z-5.7886
X126.7014 Z-5.792
X126.7982 Z-5.7954
X126.895 Z-5.7988
X126.9917 Z-5.8022
X127.0885 Z-5.8055
X127.1853 Z-5.8089
X127.2821 Z-5.8123
X127.3789 Z-5.8156
X127.4757 Z-5.819
X127.5725 Z-5.8223
X127.6693 Z-5.8255
X127.766 Z-5.8288
X127.8628 Z-5.832
X127.9596 Z-5.8353
X128.0564 Z-5.8385
X128.1532 Z-5.8416
X128.25 Z-5.8448
X128.3468 Z-5.8479
X128.4435 Z-5.851
X128.5403 Z-5.8541
X128.6371 Z-5.8571
X128.7339 Z-5.8601
X128.8307 Z-5.8631
X128.9275 Z-5.8661
X129.0243 Z-5.8691
X129.1211 Z-5.872
X129.2178 Z-5.8749
X129.3146 Z-5.8778
X129.4114 Z-5.8806
X129.5082 Z-5.8834
X129.605 Z-5.8862
X129.7018 Z-5.889
X129.7986 Z-5.8917
X129.8954 Z-5.8945
X129.9921 Z-5.8971
X130.0889 Z-5.8998
X130.1857 Z-5.9024
X130.2825 Z-5.905
X130.3793 Z-5.9076
X130.4761 Z-5.9101
X130.5729 Z-5.9126
X130.7664 Z-5.9176
X130.96 Z-5.9224
X131.1536 Z-5.9271
X131.3472 Z-5.9316
X131.5407 Z-5.9361
X131.7343 Z-5.9404
X131.9279 Z-5.9445
X132.1215 Z-5.9486
X132.315 Z-5.9525
X132.5086 Z-5.9562
X132.7022 Z-5.9599
X132.8958 Z-5.9634
X133.0893 Z-5.9667
X133.2829 Z-5.9699
X133.4765 Z-5.9729
X133.6701 Z-5.9758
X133.8636 Z-5.9786
X134.0572 Z-5.9812
X134.2508 Z-5.9836
X134.4444 Z-5.9859
X134.6379 Z-5.988
X134.8315 Z-5.9899
X135.0251 Z-5.9917
X135.2187 Z-5.9933
X135.4122 Z-5.9948
X135.6058 Z-5.996
X135.7994 Z-5.9971
X135.993 Z-5.9981
X136.1865 Z-5.9988
X136.3801 Z-5.9994
X136.5737 Z-5.9998
X136.7673 Z-6
X136.8811
X322.7599
X322.87 Y90.9474
X322.9251 Y90.9417
X322.9801 Y90.9328
X323.0352 Y90.9204
X323.0903 Y90.9046
X323.1597 Y90.8793
X323.2004 Y90.8615
X323.2554 Y90.8337
X323.3105 Y90.8012
X323.3574 Y90.7693
X323.4206 Y90.7193
X323.4523 Y90.6906
X323.484 Y90.6592
X323.5307 Y90.6071
X323.5751 Y90.5492
X323.6104 Y90.4957
X323.6408 Y90.4421
X323.6424 Y90.4392
X323.6689 Y90.3842
X323.6911 Y90.3292
X323.7096 Y90.2742
X323.7244 Y90.2191
X323.7357 Y90.1641
X323.7437 Y90.1091
X323.7484 Y90.0541
X323.75 Y89.9991
Y20.245
X323.7478 Y20.135
X323.7424 Y20.08
X323.7337 Y20.0249
X323.7217 Y19.9699
X323.7062 Y19.9149
X323.687 Y19.8599
X323.6639 Y19.8049
X323.6408 Y19.7579
X323.6046 Y19.6949
X323.5702 Y19.6439
X323.5307 Y19.5929
X323.5239 Y19.5849
X323.4763 Y19.5328
X323.4206 Y19.4807
X323.4137 Y19.4748
X323.3621 Y19.4341
X323.3105 Y19.3988
X323.2527 Y19.3648
X323.2004 Y19.3385
X323.1453 Y19.315
X323.0903 Y19.2954
X323.0352 Y19.2796
X322.9801 Y19.2672
X322.9377 Y19.26
X322.8953 Y19.2548
X322.87 Y19.2526
X322.7599 Y19.25
X318.5754
X318.4653 Y19.2506
X318.4047 Y19.2548
X318.3552 Y19.2611
X318.3001 Y19.2713
X318.2451 Y19.2848
X318.19 Y19.302
X318.135 Y19.3229
X318.0911 Y19.3425
X318.0473 Y19.3648
X318.0248 Y19.3774
X317.9698 Y19.4117
X317.9147 Y19.4517
X317.8863 Y19.4748
X317.8455 Y19.5115
X317.8046 Y19.5527
X317.7761 Y19.5849
X317.7327 Y19.6399
X317.6954 Y19.6949
X317.6945 Y19.6963
X317.663 Y19.7506
X317.636 Y19.8049
X317.6129 Y19.8599
X317.5938 Y19.9149
X317.5844 Y19.9467
X317.5663 Y20.0249
X317.5576 Y20.08
X317.5522 Y20.135
X317.55 Y20.245
Y72.9478
X317.5476 Y72.95
X203.0515
X203.05 Y72.9478
Y20.245
X203.0478 Y20.135
X203.0424 Y20.08
X203.0338 Y20.0249
X203.0217 Y19.9699
X203.0062 Y19.9149
X202.9871 Y19.8599
X202.964 Y19.8049
X202.952 Y19.7797
X202.9297 Y19.7373
X202.9046 Y19.6949
X202.8751 Y19.6507
X202.8419 Y19.6066
X202.824 Y19.5849
X202.7811 Y19.5377
X202.7318 Y19.4905
X202.7137 Y19.4748
X202.6677 Y19.4382
X202.6216 Y19.406
X202.5527 Y19.3648
X202.5115 Y19.3437
X202.4565 Y19.3194
X202.4014 Y19.2991
X202.3463 Y19.2825
X202.2913 Y19.2694
X202.2433 Y19.2609
X202.1953 Y19.2548
X202.1812 Y19.2535
X202.071 Y19.25
X23.2401
X23.13 Y19.2526
X23.1047 Y19.2548
X23.0623 Y19.26
X23.0199 Y19.2672
X22.9648 Y19.2796
X22.9097 Y19.2954
X22.8547 Y19.315
X22.7996 Y19.3385
X22.7473 Y19.3648
X22.6895 Y19.3988
X22.6379 Y19.4341
X22.5863 Y19.4748
X22.5794 Y19.4807
X22.5237 Y19.5328
X22.4761 Y19.5849
X22.4693 Y19.5929
X22.4298 Y19.6439
X22.3954 Y19.6949
X22.3591 Y19.7579
X22.3361 Y19.8049
X22.313 Y19.8599
X22.2938 Y19.9149
X22.2783 Y19.9699
X22.2663 Y20.0249
X22.2576 Y20.08
X22.2522 Y20.135
X22.25 Y20.245
Y89.9991
X22.2515 Y90.0541
X22.2563 Y90.1091
X22.2643 Y90.1641
X22.2756 Y90.2191
X22.2904 Y90.2742
X22.3089 Y90.3292
X22.3312 Y90.3842
X22.3576 Y90.4392
X22.3591 Y90.4421
X22.3896 Y90.4957
X22.4248 Y90.5492
X22.4693 Y90.6071
X22.516 Y90.6592
X22.5477 Y90.6906
X22.5794 Y90.7193
X22.6426 Y90.7693
X22.6895 Y90.8012
X22.7446 Y90.8337
X22.7996 Y90.8615
X22.8403 Y90.8793
X22.9097 Y90.9046
X22.9648 Y90.9204
X23.0199 Y90.9328
X23.0749 Y90.9417
X23.13 Y90.9474
X23.2401 Y90.95
X99.7945
X136.8811
X137.0746 Z-6.0001
X137.2682 Z-6.0004
X137.4618 Z-6.0008
X137.6554 Z-6.0015
X137.8489 Z-6.0023
X138.0425 Z-6.0033
X138.2361 Z-6.0045
X138.4297 Z-6.0058
X138.6232 Z-6.0073
X138.8168 Z-6.009
X139.0104 Z-6.0109
X139.204 Z-6.0129
X139.3975 Z-6.0151
X139.5911 Z-6.0174
X139.7847 Z-6.0199
X139.9783 Z-6.0225
X140.1718 Z-6.0253
X140.3654 Z-6.0283
X140.559 Z-6.0314
X140.7525 Z-6.0347
X140.9461 Z-6.0381
X141.1397 Z-6.0416
X141.3333 Z-6.0453
X141.5269 Z-6.0491
X141.7204 Z-6.0531
X141.914 Z-6.0572
X142.1076 Z-6.0614
X142.3011 Z-6.0658
X142.4947 Z-6.0702
X142.6883 Z-6.0749
X142.8819 Z-6.0796
X143.0755 Z-6.0845
X143.269 Z-6.0894
X143.3658 Z-6.092
X143.4626 Z-6.0945
X143.5594 Z-6.0971
X143.6562 Z-6.0997
X143.753 Z-6.1024
X143.8497 Z-6.1051
X143.9465 Z-6.1078
X144.0433 Z-6.1105
X144.1401 Z-6.1133
X144.2369 Z-6.1161
X144.3337 Z-6.1189
X144.4305 Z-6.1217
X144.5273 Z-6.1246
X144.6241 Z-6.1275
X144.7208 Z-6.1304
X144.8176 Z-6.1334
X144.9144 Z-6.1363
X145.0112 Z-6.1393
X145.108 Z-6.1423
X145.2048 Z-6.1454
X145.3016 Z-6.1485
X145.3983 Z-6.1516
X145.4951 Z-6.1547
X145.5919 Z-6.1578
X145.6887 Z-6.161
X145.7855 Z-6.1642
X145.8823 Z-6.1674
X145.9791 Z-6.1706
X146.0759 Z-6.1739
X146.1727 Z-6.1772
X146.2694 Z-6.1805
X146.3662 Z-6.1838
X146.463 Z-6.1871
X146.6566 Z-6.1939
X146.7534 Z-6.1972
X146.8502 Z-6.2006
X146.9469 Z-6.204
X147.0437 Z-6.2074
X147.1405 Z-6.2108
X147.2373 Z-6.2141
X147.3341 Z-6.2175
X147.4309 Z-6.2209
X147.5277 Z-6.2243
X147.6245 Z-6.2277
X147.7212 Z-6.231
X147.818 Z-6.2344
X148.0116 Z-6.2412
X148.302 Z-6.2513
X148.5923 Z-6.2614
X148.8827 Z-6.2716
X149.173 Z-6.2817
X149.4634 Z-6.2919
X149.7538 Z-6.302
X150.0441 Z-6.3121
X150.3345 Z-6.3223
X150.6249 Z-6.3324
X150.9152 Z-6.3426
X151.3992 Z-6.3595
X151.8831 Z-6.3764
X152.367 Z-6.3933
X153.0445 Z-6.4169
X153.9156 Z-6.4473
X155.3674 Z-6.498
X162.3361 Z-6.7413
X162.6265 Z-6.7515
X162.9169 Z-6.7616
X163.0136 Z-6.765
X163.1104 Z-6.7684
X163.2072 Z-6.7717
X163.304 Z-6.7751
X163.4008 Z-6.7785
X163.4976 Z-6.7819
X163.5944 Z-6.7853
X163.6911 Z-6.7886
X163.7879 Z-6.792
X163.8847 Z-6.7954
X163.9815 Z-6.7988
X164.0783 Z-6.8022
X164.1751 Z-6.8055
X164.2719 Z-6.8089
X164.3687 Z-6.8123
X164.4655 Z-6.8156
X164.5622 Z-6.819
X164.659 Z-6.8223
X164.7558 Z-6.8255
X164.8526 Z-6.8288
X164.9494 Z-6.832
X165.0462 Z-6.8353
X165.143 Z-6.8385
X165.2397 Z-6.8416
X165.3365 Z-6.8448
X165.4333 Z-6.8479
X165.5301 Z-6.851
X165.6269 Z-6.8541
X165.7237 Z-6.8571
X165.8205 Z-6.8601
X165.9173 Z-6.8631
X166.0141 Z-6.8661
X166.1108 Z-6.8691
X166.2076 Z-6.872
X166.3044 Z-6.8749
X166.4012 Z-6.8778
X166.498 Z-6.8806
X166.5948 Z-6.8834
X166.6916 Z-6.8862
X166.7883 Z-6.889
X166.8851 Z-6.8917
X166.9819 Z-6.8945
X167.0787 Z-6.8971
X167.1755 Z-6.8998
X167.2723 Z-6.9024
X167.3691 Z-6.905
X167.4659 Z-6.9076
X167.5627 Z-6.9101
X167.6594 Z-6.9126
X167.853 Z-6.9176
X168.0466 Z-6.9224
X168.2402 Z-6.9271
X168.4337 Z-6.9316
X168.6273 Z-6.9361
X168.8209 Z-6.9404
X169.0145 Z-6.9445
X169.208 Z-6.9486
X169.4016 Z-6.9525
X169.5952 Z-6.9562
X169.7888 Z-6.9599
X169.9823 Z-6.9634
X170.1759 Z-6.9667
X170.3695 Z-6.9699
X170.563 Z-6.9729
X170.7566 Z-6.9758
X170.9502 Z-6.9786
X171.1438 Z-6.9812
X171.3374 Z-6.9836
X171.5309 Z-6.9859
X171.7245 Z-6.988
X171.9181 Z-6.9899
X172.1116 Z-6.9917
X172.3052 Z-6.9933
X172.4988 Z-6.9948
X172.6924 Z-6.996
X172.886 Z-6.9971
X173.0795 Z-6.9981
X173.2731 Z-6.9988
X173.4667 Z-6.9994
X173.6602 Z-6.9998
X173.8538 Z-7
X173.9676
X322.7599
X322.87 Y90.9474
X322.9251 Y90.9417
X322.9801 Y90.9328
X323.0352 Y90.9204
X323.0903 Y90.9046
X323.1597 Y90.8793
X323.2004 Y90.8615
X323.2554 Y90.8337
X323.3105 Y90.8012
X323.3574 Y90.7693
X323.4206 Y90.7193
X323.4523 Y90.6906
X323.484 Y90.6592
X323.5307 Y90.6071
X323.5751 Y90.5492
X323.6104 Y90.4957
X323.6408 Y90.4421
X323.6424 Y90.4392
X323.6689 Y90.3842
X323.6911 Y90.3292
X323.7096 Y90.2742
X323.7244 Y90.2191
X323.7357 Y90.1641
X323.7437 Y90.1091
X323.7484 Y90.0541
X323.75 Y89.9991
Y20.245
X323.7478 Y20.135
X323.7424 Y20.08
X323.7337 Y20.0249
X323.7217 Y19.9699
X323.7062 Y19.9149
X323.687 Y19.8599
X323.6639 Y19.8049
X323.6408 Y19.7579
X323.6046 Y19.6949
X323.5702 Y19.6439
X323.5307 Y19.5929
X323.5239 Y19.5849
X323.4763 Y19.5328
X323.4206 Y19.4807
X323.4137 Y19.4748
X323.3621 Y19.4341
X323.3105 Y19.3988
X323.2527 Y19.3648
X323.2004 Y19.3385
X323.1453 Y19.315
X323.0903 Y19.2954
X323.0352 Y19.2796
X322.9801 Y19.2672
X322.9377 Y19.26
X322.8953 Y19.2548
X322.87 Y19.2526
X322.7599 Y19.25
X318.5754
X318.4653 Y19.2506
X318.4047 Y19.2548
X318.3552 Y19.2611
X318.3001 Y19.2713
X318.2451 Y19.2848
X318.19 Y19.302
X318.135 Y19.3229
X318.0911 Y19.3425
X318.0473 Y19.3648
X318.0248 Y19.3774
X317.9698 Y19.4117
X317.9147 Y19.4517
X317.8863 Y19.4748
X317.8455 Y19.5115
X317.8046 Y19.5527
X317.7761 Y19.5849
X317.7327 Y19.6399
X317.6954 Y19.6949
X317.6945 Y19.6963
X317.663 Y19.7506
X317.636 Y19.8049
X317.6129 Y19.8599
X317.5938 Y19.9149
X317.5844 Y19.9467
X317.5663 Y20.0249
X317.5576 Y20.08
X317.5522 Y20.135
X317.55 Y20.245
Y72.9478
X317.5476 Y72.95
X203.0515
X203.05 Y72.9478
Y20.245
X203.0478 Y20.135
X203.0424 Y20.08
X203.0338 Y20.0249
X203.0217 Y19.9699
X203.0062 Y19.9149
X202.9871 Y19.8599
X202.964 Y19.8049
X202.952 Y19.7797
X202.9297 Y19.7373
X202.9046 Y19.6949
X202.8751 Y19.6507
X202.8419 Y19.6066
X202.824 Y19.5849
X202.7811 Y19.5377
X202.7318 Y19.4905
X202.7137 Y19.4748
X202.6677 Y19.4382
X202.6216 Y19.406
X202.5527 Y19.3648
X202.5115 Y19.3437
X202.4565 Y19.3194
X202.4014 Y19.2991
X202.3463 Y19.2825
X202.2913 Y19.2694
X202.2433 Y19.2609
X202.1953 Y19.2548
X202.1812 Y19.2535
X202.071 Y19.25
X23.2401
X23.13 Y19.2526
X23.1047 Y19.2548
X23.0623 Y19.26
X23.0199 Y19.2672
X22.9648 Y19.2796
X22.9097 Y19.2954
X22.8547 Y19.315
X22.7996 Y19.3385
X22.7473 Y19.3648
X22.6895 Y19.3988
X22.6379 Y19.4341
X22.5863 Y19.4748
X22.5794 Y19.4807
X22.5237 Y19.5328
X22.4761 Y19.5849
X22.4693 Y19.5929
X22.4298 Y19.6439
X22.3954 Y19.6949
X22.3591 Y19.7579
X22.3361 Y19.8049
X22.313 Y19.8599
X22.2938 Y19.9149
X22.2783 Y19.9699
X22.2663 Y20.0249
X22.2576 Y20.08
X22.2522 Y20.135
X22.25 Y20.245
Y89.9991
X22.2515 Y90.0541
X22.2563 Y90.1091
X22.2643 Y90.1641
X22.2756 Y90.2191
X22.2904 Y90.2742
X22.3089 Y90.3292
X22.3312 Y90.3842
X22.3576 Y90.4392
X22.3591 Y90.4421
X22.3896 Y90.4957
X22.4248 Y90.5492
X22.4693 Y90.6071
X22.516 Y90.6592
X22.5477 Y90.6906
X22.5794 Y90.7193
X22.6426 Y90.7693
X22.6895 Y90.8012
X22.7446 Y90.8337
X22.7996 Y90.8615
X22.8403 Y90.8793
X22.9097 Y90.9046
X22.9648 Y90.9204
X23.0199 Y90.9328
X23.0749 Y90.9417
X23.13 Y90.9474
X23.2401 Y90.95
X136.8811
X173.9676
X174.1612 Z-7.0001
X174.3548 Z-7.0004
X174.5484 Z-7.0008
X174.7419 Z-7.0015
X174.9355 Z-7.0023
X175.1291 Z-7.0033
X175.3226 Z-7.0045
X175.5162 Z-7.0058
X175.7098 Z-7.0073
X175.9034 Z-7.009
X176.097 Z-7.0109
X176.2905 Z-7.0129
X176.4841 Z-7.0151
X176.6777 Z-7.0174
X176.8712 Z-7.0199
X177.0648 Z-7.0225
X177.2584 Z-7.0253
X177.452 Z-7.0283
X177.6455 Z-7.0314
X177.8391 Z-7.0347
X178.0327 Z-7.0381
X178.2263 Z-7.0416
X178.4198 Z-7.0453
X178.6134 Z-7.0491
X178.807 Z-7.0531
X179.0006 Z-7.0572
X179.1941 Z-7.0614
X179.3877 Z-7.0658
X179.5813 Z-7.0702
X179.7749 Z-7.0749
X179.9684 Z-7.0796
X180.162 Z-7.0845
X180.3556 Z-7.0894
X180.4524 Z-7.092
X180.5492 Z-7.0945
X180.646 Z-7.0971
X180.7427 Z-7.0997
X180.8395 Z-7.1024
X180.9363 Z-7.1051
X181.0331 Z-7.1078
X181.1299 Z-7.1105
X181.2267 Z-7.1133
X181.3235 Z-7.1161
X181.4203 Z-7.1189
X181.517 Z-7.1217
X181.6138 Z-7.1246
X181.7106 Z-7.1275
X181.8074 Z-7.1304
X181.9042 Z-7.1334
X182.001 Z-7.1363
X182.0978 Z-7.1393
X182.1945 Z-7.1423
X182.2913 Z-7.1454
X182.3881 Z-7.1485
X182.4849 Z-7.1516
X182.5817 Z-7.1547
X182.6785 Z-7.1578
X182.7753 Z-7.161
X182.8721 Z-7.1642
X182.9688 Z-7.1674
X183.0656 Z-7.1706
X183.1624 Z-7.1739
X183.2592 Z-7.1772
X183.356 Z-7.1805
X183.4528 Z-7.1838
X183.5496 Z-7.1871
X183.7431 Z-7.1939
X183.8399 Z-7.1972
X183.9367 Z-7.2006
X184.0335 Z-7.204
X184.1303 Z-7.2074
X184.2271 Z-7.2108
X184.3239 Z-7.2141
X184.4207 Z-7.2175
X184.5174 Z-7.2209
X184.6142 Z-7.2243
X184.711 Z-7.2277
X184.8078 Z-7.231
X184.9046 Z-7.2344
X185.0982 Z-7.2412
X185.3885 Z-7.2513
X185.6789 Z-7.2614
X185.9693 Z-7.2716
X186.2596 Z-7.2817
X186.55 Z-7.2919
X186.8403 Z-7.302
X187.1307 Z-7.3121
X187.4211 Z-7.3223
X187.7114 Z-7.3324
X188.0018 Z-7.3426
X188.4857 Z-7.3595
X188.9697 Z-7.3764
X189.4536 Z-7.3933
X190.1311 Z-7.4169
X191.0022 Z-7.4473
X192.454 Z-7.498
X199.4227 Z-7.7413
X199.7131 Z-7.7515
X200.0034 Z-7.7616
X200.1002 Z-7.765
X200.197 Z-7.7684
X200.2938 Z-7.7717
X200.3906 Z-7.7751
X200.4874 Z-7.7785
X200.5841 Z-7.7819
X200.6809 Z-7.7853
X200.7777 Z-7.7886
X200.8745 Z-7.792
X200.9713 Z-7.7954
X201.0681 Z-7.7988
X201.1649 Z-7.8022
X201.2617 Z-7.8055
X201.3584 Z-7.8089
X201.4552 Z-7.8123
X201.552 Z-7.8156
X201.6488 Z-7.819
X201.7456 Z-7.8223
X201.8424 Z-7.8255
X201.9392 Z-7.8288
X202.0359 Z-7.832
X202.1327 Z-7.8353
X202.2295 Z-7.8385
X202.3263 Z-7.8416
X202.4231 Z-7.8448
X202.5199 Z-7.8479
X202.6167 Z-7.851
X202.7135 Z-7.8541
X202.8103 Z-7.8571
X202.907 Z-7.8601
X203.0038 Z-7.8631
X203.1006 Z-7.8661
X203.1974 Z-7.8691
X203.2942 Z-7.872
X203.391 Z-7.8749
X203.4878 Z-7.8778
X203.5845 Z-7.8806
X203.6813 Z-7.8834
X203.7781 Z-7.8862
X203.8749 Z-7.889
X203.9717 Z-7.8917
X204.0685 Z-7.8945
X204.1653 Z-7.8971
X204.2621 Z-7.8998
X204.3589 Z-7.9024
X204.4556 Z-7.905
X204.5524 Z-7.9076
X204.6492 Z-7.9101
X204.746 Z-7.9126
X204.9396 Z-7.9176
X205.1331 Z-7.9224
X205.3267 Z-7.9271
X205.5203 Z-7.9316
X205.7139 Z-7.9361
X205.9074 Z-7.9404
X206.101 Z-7.9445
X206.2946 Z-7.9486
X206.4882 Z-7.9525
X206.6817 Z-7.9562
X206.8753 Z-7.9599
X207.0689 Z-7.9634
X207.2625 Z-7.9667
X207.456 Z-7.9699
X207.6496 Z-7.9729
X207.8432 Z-7.9758
X208.0368 Z-7.9786
X208.2303 Z-7.9812
X208.4239 Z-7.9836
X208.6175 Z-7.9859
X208.8111 Z-7.988
X209.0046 Z-7.9899
X209.1982 Z-7.9917
X209.3918 Z-7.9933
X209.5854 Z-7.9948
X209.7789 Z-7.996
X209.9725 Z-7.9971
X210.1661 Z-7.9981
X210.3597 Z-7.9988
X210.5532 Z-7.9994
X210.7468 Z-7.9998
X210.9404 Z-8
X211.0542
X322.7599
X322.87 Y90.9474
X322.9251 Y90.9417
X322.9801 Y90.9328
X323.0352 Y90.9204
X323.0903 Y90.9046
X323.1597 Y90.8793
X323.2004 Y90.8615
X323.2554 Y90.8337
X323.3105 Y90.8012
X323.3574 Y90.7693
X323.4206 Y90.7193
X323.4523 Y90.6906
X323.484 Y90.6592
X323.5307 Y90.6071
X323.5751 Y90.5492
X323.6104 Y90.4957
X323.6408 Y90.4421
X323.6424 Y90.4392
X323.6689 Y90.3842
X323.6911 Y90.3292
X323.7096 Y90.2742
X323.7244 Y90.2191
X323.7357 Y90.1641
X323.7437 Y90.1091
X323.7484 Y90.0541
X323.75 Y89.9991
Y20.245
X323.7478 Y20.135
X323.7424 Y20.08
X323.7337 Y20.0249
X323.7217 Y19.9699
X323.7062 Y19.9149
X323.687 Y19.8599
X323.6639 Y19.8049
X323.6408 Y19.7579
X323.6046 Y19.6949
X323.5702 Y19.6439
X323.5307 Y19.5929
X323.5239 Y19.5849
X323.4763 Y19.5328
X323.4206 Y19.4807
X323.4137 Y19.4748
X323.3621 Y19.4341
X323.3105 Y19.3988
X323.2527 Y19.3648
X323.2004 Y19.3385
X323.1453 Y19.315
X323.0903 Y19.2954
X323.0352 Y19.2796
X322.9801 Y19.2672
X322.9377 Y19.26
X322.8953 Y19.2548
X322.87 Y19.2526
X322.7599 Y19.25
X318.5754
X318.4653 Y19.2506
X318.4047 Y19.2548
X318.3552 Y19.2611
X318.3001 Y19.2713
X318.2451 Y19.2848
X318.19 Y19.302
X318.135 Y19.3229
X318.0911 Y19.3425
X318.0473 Y19.3648
X318.0248 Y19.3774
X317.9698 Y19.4117
X317.9147 Y19.4517
X317.8863 Y19.4748
X317.8455 Y19.5115
X317.8046 Y19.5527
X317.7761 Y19.5849
X317.7327 Y19.6399
X317.6954 Y19.6949
X317.6945 Y19.6963
X317.663 Y19.7506
X317.636 Y19.8049
X317.6129 Y19.8599
X317.5938 Y19.9149
X317.5844 Y19.9467
X317.5663 Y20.0249
X317.5576 Y20.08
X317.5522 Y20.135
X317.55 Y20.245
Y72.9478
X317.5476 Y72.95
X203.0515
X203.05 Y72.9478
Y20.245
X203.0478 Y20.135
X203.0424 Y20.08
X203.0338 Y20.0249
X203.0217 Y19.9699
X203.0062 Y19.9149
X202.9871 Y19.8599
X202.964 Y19.8049
X202.952 Y19.7797
X202.9297 Y19.7373
X202.9046 Y19.6949
X202.8751 Y19.6507
X202.8419 Y19.6066
X202.824 Y19.5849
X202.7811 Y19.5377
X202.7318 Y19.4905
X202.7137 Y19.4748
X202.6677 Y19.4382
X202.6216 Y19.406
X202.5527 Y19.3648
X202.5115 Y19.3437
X202.4565 Y19.3194
X202.4014 Y19.2991
X202.3463 Y19.2825
X202.2913 Y19.2694
X202.2433 Y19.2609
X202.1953 Y19.2548
X202.1812 Y19.2535
X202.071 Y19.25
X23.2401
X23.13 Y19.2526
X23.1047 Y19.2548
X23.0623 Y19.26
X23.0199 Y19.2672
X22.9648 Y19.2796
X22.9097 Y19.2954
X22.8547 Y19.315
X22.7996 Y19.3385
X22.7473 Y19.3648
X22.6895 Y19.3988
X22.6379 Y19.4341
X22.5863 Y19.4748
X22.5794 Y19.4807
X22.5237 Y19.5328
X22.4761 Y19.5849
X22.4693 Y19.5929
X22.4298 Y19.6439
X22.3954 Y19.6949
X22.3591 Y19.7579
X22.3361 Y19.8049
X22.313 Y19.8599
X22.2938 Y19.9149
X22.2783 Y19.9699
X22.2663 Y20.0249
X22.2576 Y20.08
X22.2522 Y20.135
X22.25 Y20.245
Y89.9991
X22.2515 Y90.0541
X22.2563 Y90.1091
X22.2643 Y90.1641
X22.2756 Y90.2191
X22.2904 Y90.2742
X22.3089 Y90.3292
X22.3312 Y90.3842
X22.3576 Y90.4392
X22.3591 Y90.4421
X22.3896 Y90.4957
X22.4248 Y90.5492
X22.4693 Y90.6071
X22.516 Y90.6592
X22.5477 Y90.6906
X22.5794 Y90.7193
X22.6426 Y90.7693
X22.6895 Y90.8012
X22.7446 Y90.8337
X22.7996 Y90.8615
X22.8403 Y90.8793
X22.9097 Y90.9046
X22.9648 Y90.9204
X23.0199 Y90.9328
X23.0749 Y90.9417
X23.13 Y90.9474
X23.2401 Y90.95
X173.9676
X211.0542
X211.2478 Z-8.0001
X211.4413 Z-8.0004
X211.6349 Z-8.0008
X211.8285 Z-8.0015
X212.0221 Z-8.0023
X212.2156 Z-8.0033
X212.4092 Z-8.0045
X212.6028 Z-8.0058
X212.7964 Z-8.0073
X212.9899 Z-8.009
X213.1835 Z-8.0109
X213.3771 Z-8.0129
X213.5707 Z-8.0151
X213.7642 Z-8.0174
X213.9578 Z-8.0199
X214.1514 Z-8.0225
X214.345 Z-8.0253
X214.5385 Z-8.0283
X214.7321 Z-8.0314
X214.9257 Z-8.0347
X215.1193 Z-8.0381
X215.3128 Z-8.0416
X215.5064 Z-8.0453
X215.7 Z-8.0491
X215.8936 Z-8.0531
X216.0871 Z-8.0572
X216.2807 Z-8.0614
X216.4743 Z-8.0658
X216.6679 Z-8.0702
X216.8614 Z-8.0749
X217.055 Z-8.0796
X217.2486 Z-8.0845
X217.4422 Z-8.0894
X217.5389 Z-8.092
X217.6357 Z-8.0945
X217.7325 Z-8.0971
X217.8293 Z-8.0997
X217.9261 Z-8.1024
X218.0229 Z-8.1051
X218.1197 Z-8.1078
X218.2164 Z-8.1105
X218.3132 Z-8.1133
X218.41 Z-8.1161
X218.5068 Z-8.1189
X218.6036 Z-8.1217
X218.7004 Z-8.1246
X218.7972 Z-8.1275
X218.894 Z-8.1304
X218.9908 Z-8.1334
X219.0875 Z-8.1363
X219.1843 Z-8.1393
X219.2811 Z-8.1424
X219.3779 Z-8.1454
X219.4747 Z-8.1485
X219.5715 Z-8.1516
X219.6683 Z-8.1547
X219.765 Z-8.1578
X219.8618 Z-8.161
X219.9586 Z-8.1642
X220.0554 Z-8.1674
X220.1522 Z-8.1706
X220.249 Z-8.1739
X220.3458 Z-8.1772
X220.4426 Z-8.1805
X220.5394 Z-8.1838
X220.6361 Z-8.1871
X220.8297 Z-8.1939
X220.9265 Z-8.1972
X221.0233 Z-8.2006
X221.1201 Z-8.204
X221.2169 Z-8.2074
X221.3136 Z-8.2108
X221.4104 Z-8.2141
X221.5072 Z-8.2175
X221.604 Z-8.2209
X221.7008 Z-8.2243
X221.7976 Z-8.2277
X221.8944 Z-8.231
X221.9912 Z-8.2344
X222.1847 Z-8.2412
X222.4751 Z-8.2513
X222.7655 Z-8.2614
X223.0558 Z-8.2716
X223.3462 Z-8.2817
X223.6366 Z-8.2919
X223.9269 Z-8.302
X224.2173 Z-8.3121
X224.5076 Z-8.3223
X224.798 Z-8.3324
X225.0883 Z-8.3426
X225.5723 Z-8.3595
X226.0562 Z-8.3764
X226.5402 Z-8.3933
X227.2177 Z-8.4169
X228.0888 Z-8.4473
X229.5406 Z-8.498
X236.5093 Z-8.7413
X236.7996 Z-8.7515
X237.09 Z-8.7616
X237.1868 Z-8.765
X237.2836 Z-8.7684
X237.3803 Z-8.7717
X237.4771 Z-8.7751
X237.5739 Z-8.7785
X237.6707 Z-8.7819
X237.7675 Z-8.7853
X237.8643 Z-8.7886
X237.9611 Z-8.792
X238.0579 Z-8.7954
X238.1546 Z-8.7988
X238.2514 Z-8.8022
X238.3482 Z-8.8055
X238.445 Z-8.8089
X238.5418 Z-8.8123
X238.6386 Z-8.8156
X238.7354 Z-8.819
X238.8322 Z-8.8223
X238.9289 Z-8.8255
X239.0257 Z-8.8288
X239.1225 Z-8.832
X239.2193 Z-8.8353
X239.3161 Z-8.8385
X239.4129 Z-8.8416
X239.5097 Z-8.8448
X239.6065 Z-8.8479
X239.7032 Z-8.851
X239.8 Z-8.8541
X239.8968 Z-8.8571
X239.9936 Z-8.8601
X240.0904 Z-8.8631
X240.1872 Z-8.8661
X240.284 Z-8.8691
X240.3808 Z-8.872
X240.4775 Z-8.8749
X240.5743 Z-8.8778
X240.6711 Z-8.8806
X240.7679 Z-8.8834
X240.8647 Z-8.8862
X240.9615 Z-8.889
X241.0583 Z-8.8917
X241.155 Z-8.8945
X241.2518 Z-8.8971
X241.3486 Z-8.8998
X241.4454 Z-8.9024
X241.5422 Z-8.905
X241.639 Z-8.9076
X241.7358 Z-8.9101
X241.8326 Z-8.9126
X242.0261 Z-8.9176
X242.2197 Z-8.9224
X242.4133 Z-8.9271
X242.6069 Z-8.9316
X242.8004 Z-8.9361
X242.994 Z-8.9404
X243.1876 Z-8.9445
X243.3812 Z-8.9486
X243.5747 Z-8.9525
X243.7683 Z-8.9562
X243.9619 Z-8.9599
X244.1555 Z-8.9634
X244.349 Z-8.9667
X244.5426 Z-8.9699
X244.7362 Z-8.9729
X244.9298 Z-8.9758
X245.1233 Z-8.9786
X245.3169 Z-8.9812
X245.5105 Z-8.9836
X245.7041 Z-8.9859
X245.8976 Z-8.988
X246.0912 Z-8.9899
X246.2848 Z-8.9917
X246.4784 Z-8.9933
X246.6719 Z-8.9948
X246.8655 Z-8.996
X247.0591 Z-8.9971
X247.2527 Z-8.9981
X247.4462 Z-8.9988
X247.6398 Z-8.9994
X247.8334 Z-8.9998
X248.0269 Z-9
X248.1407
X322.7599
X322.87 Y90.9474
X322.9251 Y90.9417
X322.9801 Y90.9328
X323.0352 Y90.9204
X323.0903 Y90.9046
X323.1597 Y90.8793
X323.2004 Y90.8615
X323.2554 Y90.8337
X323.3105 Y90.8012
X323.3574 Y90.7693
X323.4206 Y90.7193
X323.4523 Y90.6906
X323.484 Y90.6592
X323.5307 Y90.6071
X323.5751 Y90.5492
X323.6104 Y90.4957
X323.6408 Y90.4421
X323.6424 Y90.4392
X323.6689 Y90.3842
X323.6911 Y90.3292
X323.7096 Y90.2742
X323.7244 Y90.2191
X323.7357 Y90.1641
X323.7437 Y90.1091
X323.7484 Y90.0541
X323.75 Y89.9991
Y20.245
X323.7478 Y20.135
X323.7424 Y20.08
X323.7337 Y20.0249
X323.7217 Y19.9699
X323.7062 Y19.9149
X323.687 Y19.8599
X323.6639 Y19.8049
X323.6408 Y19.7579
X323.6046 Y19.6949
X323.5702 Y19.6439
X323.5307 Y19.5929
X323.5239 Y19.5849
X323.4763 Y19.5328
X323.4206 Y19.4807
X323.4137 Y19.4748
X323.3621 Y19.4341
X323.3105 Y19.3988
X323.2527 Y19.3648
X323.2004 Y19.3385
X323.1453 Y19.315
X323.0903 Y19.2954
X323.0352 Y19.2796
X322.9801 Y19.2672
X322.9377 Y19.26
X322.8953 Y19.2548
X322.87 Y19.2526
X322.7599 Y19.25
X318.5754
X318.4653 Y19.2506
X318.4047 Y19.2548
X318.3552 Y19.2611
X318.3001 Y19.2713
X318.2451 Y19.2848
X318.19 Y19.302
X318.135 Y19.3229
X318.0911 Y19.3425
X318.0473 Y19.3648
X318.0248 Y19.3774
X317.9698 Y19.4117
X317.9147 Y19.4517
X317.8863 Y19.4748
X317.8455 Y19.5115
X317.8046 Y19.5527
X317.7761 Y19.5849
X317.7327 Y19.6399
X317.6954 Y19.6949
X317.6945 Y19.6963
X317.663 Y19.7506
X317.636 Y19.8049
X317.6129 Y19.8599
X317.5938 Y19.9149
X317.5844 Y19.9467
X317.5663 Y20.0249
X317.5576 Y20.08
X317.5522 Y20.135
X317.55 Y20.245
Y72.9478
X317.5476 Y72.95
X203.0515
X203.05 Y72.9478
Y20.245
X203.0478 Y20.135
X203.0424 Y20.08
X203.0338 Y20.0249
X203.0217 Y19.9699
X203.0062 Y19.9149
X202.9871 Y19.8599
X202.964 Y19.8049
X202.952 Y19.7797
X202.9297 Y19.7373
X202.9046 Y19.6949
X202.8751 Y19.6507
X202.8419 Y19.6066
X202.824 Y19.5849
X202.7811 Y19.5377
X202.7318 Y19.4905
X202.7137 Y19.4748
X202.6677 Y19.4382
X202.6216 Y19.406
X202.5527 Y19.3648
X202.5115 Y19.3437
X202.4565 Y19.3194
X202.4014 Y19.2991
X202.3463 Y19.2825
X202.2913 Y19.2694
X202.2433 Y19.2609
X202.1953 Y19.2548
X202.1812 Y19.2535
X202.071 Y19.25
X23.2401
X23.13 Y19.2526
X23.1047 Y19.2548
X23.0623 Y19.26
X23.0199 Y19.2672
X22.9648 Y19.2796
X22.9097 Y19.2954
X22.8547 Y19.315
X22.7996 Y19.3385
X22.7473 Y19.3648
X22.6895 Y19.3988
X22.6379 Y19.4341
X22.5863 Y19.4748
X22.5794 Y19.4807
X22.5237 Y19.5328
X22.4761 Y19.5849
X22.4693 Y19.5929
X22.4298 Y19.6439
X22.3954 Y19.6949
X22.3591 Y19.7579
X22.3361 Y19.8049
X22.313 Y19.8599
X22.2938 Y19.9149
X22.2783 Y19.9699
X22.2663 Y20.0249
X22.2576 Y20.08
X22.2522 Y20.135
X22.25 Y20.245
Y89.9991
X22.2515 Y90.0541
X22.2563 Y90.1091
X22.2643 Y90.1641
X22.2756 Y90.2191
X22.2904 Y90.2742
X22.3089 Y90.3292
X22.3312 Y90.3842
X22.3576 Y90.4392
X22.3591 Y90.4421
X22.3896 Y90.4957
X22.4248 Y90.5492
X22.4693 Y90.6071
X22.516 Y90.6592
X22.5477 Y90.6906
X22.5794 Y90.7193
X22.6426 Y90.7693
X22.6895 Y90.8012
X22.7446 Y90.8337
X22.7996 Y90.8615
X22.8403 Y90.8793
X22.9097 Y90.9046
X22.9648 Y90.9204
X23.0199 Y90.9328
X23.0749 Y90.9417
X23.13 Y90.9474
X23.2401 Y90.95
X211.0542
X248.1407
X248.3343 Z-9.0001
X248.5279 Z-9.0004
X248.7215 Z-9.0008
X248.9151 Z-9.0015
X249.1086 Z-9.0023
X249.3022 Z-9.0033
X249.4958 Z-9.0045
X249.6893 Z-9.0058
X249.8829 Z-9.0073
X250.0765 Z-9.009
X250.2701 Z-9.0109
X250.4637 Z-9.0129
X250.6572 Z-9.0151
X250.8508 Z-9.0174
X251.0444 Z-9.0199
X251.2379 Z-9.0225
X251.4315 Z-9.0253
X251.6251 Z-9.0283
X251.8187 Z-9.0314
X252.0123 Z-9.0347
X252.2058 Z-9.0381
X252.3994 Z-9.0416
X252.593 Z-9.0453
X252.7865 Z-9.0491
X252.9801 Z-9.0531
X253.1737 Z-9.0572
X253.3673 Z-9.0614
X253.5609 Z-9.0658
X253.7544 Z-9.0702
X253.948 Z-9.0749
X254.1416 Z-9.0796
X254.3351 Z-9.0845
X254.5287 Z-9.0894
X254.6255 Z-9.092
X254.7223 Z-9.0945
X254.8191 Z-9.0971
X254.9159 Z-9.0997
X255.0126 Z-9.1024
X255.1094 Z-9.1051
X255.2062 Z-9.1078
X255.303 Z-9.1105
X255.3998 Z-9.1133
X255.4966 Z-9.1161
X255.5934 Z-9.1189
X255.6902 Z-9.1217
X255.787 Z-9.1246
X255.8837 Z-9.1275
X255.9805 Z-9.1304
X256.0773 Z-9.1334
X256.1741 Z-9.1363
X256.2709 Z-9.1393
X256.3677 Z-9.1424
X256.4645 Z-9.1454
X256.5612 Z-9.1485
X256.6581 Z-9.1516
X256.7548 Z-9.1547
X256.8516 Z-9.1578
X256.9484 Z-9.161
X257.0452 Z-9.1642
X257.142 Z-9.1674
X257.2388 Z-9.1706
X257.3355 Z-9.1739
X257.4323 Z-9.1772
X257.5291 Z-9.1805
X257.6259 Z-9.1838
X257.7227 Z-9.1871
X257.9163 Z-9.1939
X258.0131 Z-9.1972
X258.1099 Z-9.2006
X258.2066 Z-9.204
X258.3034 Z-9.2074
X258.4002 Z-9.2108
X258.497 Z-9.2141
X258.5938 Z-9.2175
X258.6906 Z-9.2209
X258.7874 Z-9.2243
X258.8842 Z-9.2277
X258.9809 Z-9.231
X259.0777 Z-9.2344
X259.2713 Z-9.2412
X259.5616 Z-9.2513
X259.852 Z-9.2614
X260.1424 Z-9.2716
X260.4327 Z-9.2817
X260.7231 Z-9.2919
X261.0135 Z-9.302
X261.3038 Z-9.3121
X261.5942 Z-9.3223
X261.8846 Z-9.3324
X262.1749 Z-9.3426
X262.6588 Z-9.3595
X263.1428 Z-9.3764
X263.6267 Z-9.3933
X264.3042 Z-9.4169
X265.1753 Z-9.4473
X266.6271 Z-9.498
X273.5958 Z-9.7413
X273.8862 Z-9.7515
X274.1765 Z-9.7616
X274.2733 Z-9.765
X274.3701 Z-9.7684
X274.4669 Z-9.7717
X274.5637 Z-9.7751
X274.6605 Z-9.7785
X274.7573 Z-9.7819
X274.8541 Z-9.7853
X274.9508 Z-9.7886
X275.0476 Z-9.792
X275.1444 Z-9.7954
X275.2412 Z-9.7988
X275.338 Z-9.8022
X275.4348 Z-9.8055
X275.5316 Z-9.8089
X275.6284 Z-9.8123
X275.7252 Z-9.8156
X275.8219 Z-9.819
X275.9187 Z-9.8223
X276.0155 Z-9.8255
X276.1123 Z-9.8288
X276.2091 Z-9.832
X276.3059 Z-9.8353
X276.4026 Z-9.8385
X276.4995 Z-9.8416
X276.5962 Z-9.8448
X276.693 Z-9.8479
X276.7898 Z-9.851
X276.8866 Z-9.8541
X276.9834 Z-9.8571
X277.0802 Z-9.8601
X277.1769 Z-9.8631
X277.2737 Z-9.8661
X277.3705 Z-9.8691
X277.4673 Z-9.872
X277.5641 Z-9.8749
X277.6609 Z-9.8778
X277.7577 Z-9.8806
X277.8545 Z-9.8834
X277.9513 Z-9.8862
X278.048 Z-9.889
X278.1448 Z-9.8917
X278.2416 Z-9.8945
X278.3384 Z-9.8971
X278.4352 Z-9.8998
X278.532 Z-9.9024
X278.6288 Z-9.905
X278.7256 Z-9.9076
X278.8223 Z-9.9101
X278.9191 Z-9.9126
X279.1127 Z-9.9176
X279.3063 Z-9.9224
X279.4998 Z-9.9271
X279.6934 Z-9.9316
X279.887 Z-9.9361
X280.0806 Z-9.9404
X280.2741 Z-9.9445
X280.4677 Z-9.9486
X280.6613 Z-9.9525
X280.8549 Z-9.9562
X281.0485 Z-9.9599
X281.242 Z-9.9634
X281.4356 Z-9.9667
X281.6292 Z-9.9699
X281.8228 Z-9.9729
X282.0163 Z-9.9758
X282.2099 Z-9.9786
X282.4035 Z-9.9812
X282.597 Z-9.9836
X282.7906 Z-9.9859
X282.9842 Z-9.988
X283.1778 Z-9.9899
X283.3713 Z-9.9917
X283.5649 Z-9.9933
X283.7585 Z-9.9948
X283.9521 Z-9.996
X284.1456 Z-9.9971
X284.3392 Z-9.9981
X284.5328 Z-9.9988
X284.7264 Z-9.9994
X284.92 Z-9.9998
X285.1135 Z-10
X285.2273
X345.9947
X346.0498 Y90.9487
X346.1048 Y90.9442
X346.1599 Y90.9364
X346.215 Y90.9254
X346.27 Y90.9108
X346.3251 Y90.8927
X346.3597 Y90.8793
X346.3974 Y90.8629
X346.4352 Y90.8445
X346.4902 Y90.8137
X346.5453 Y90.7779
X346.5574 Y90.7693
X346.6064 Y90.7313
X346.6554 Y90.6877
X346.6841 Y90.6592
X346.7275 Y90.6109
X346.7655 Y90.5625
X346.7751 Y90.5492
X346.8113 Y90.4942
X346.8424 Y90.4392
X346.8757 Y90.3684
X346.8911 Y90.3292
X346.9096 Y90.2742
X346.9244 Y90.2191
X346.9357 Y90.1641
X346.9437 Y90.1091
X346.9485 Y90.0541
X346.95 Y89.9991
Y0.0009
X346.9485 Y-0.0541
X346.9437 Y-0.1091
X346.9357 Y-0.1641
X346.9244 Y-0.2191
X346.9096 Y-0.2742
X346.8911 Y-0.3292
X346.8757 Y-0.3684
X346.8424 Y-0.4392
X346.8113 Y-0.4942
X346.7751 Y-0.5492
X346.7655 Y-0.5625
X346.7275 Y-0.6109
X346.6841 Y-0.6592
X346.6554 Y-0.6877
X346.6064 Y-0.7313
X346.5574 Y-0.7693
X346.5453 Y-0.7779
X346.4902 Y-0.8137
X346.4352 Y-0.8445
X346.3974 Y-0.8629
X346.3597 Y-0.8793
X346.3251 Y-0.8927
X346.27 Y-0.9108
X346.215 Y-0.9254
X346.1599 Y-0.9364
X346.1048 Y-0.9442
X346.0498 Y-0.9487
X345.9947 Y-0.95
X318.5754
X318.4653 Y-0.9494
X318.4103 Y-0.9458
X318.3552 Y-0.9389
X318.3001 Y-0.9287
X318.2451 Y-0.9152
X318.1927 Y-0.8989
X318.1403 Y-0.8793
X318.135 Y-0.8771
X318.0799 Y-0.8521
X318.0248 Y-0.8226
X317.9837 Y-0.7975
X317.9426 Y-0.7693
X317.9147 Y-0.7483
X317.8654 Y-0.7069
X317.8159 Y-0.6592
X317.8046 Y-0.6473
X317.762 Y-0.5982
X317.7249 Y-0.5492
X317.6945 Y-0.5037
X317.6576 Y-0.4392
X317.6311 Y-0.3842
X317.6089 Y-0.3292
X317.5844 Y-0.2533
X317.5756 Y-0.2191
X317.5643 Y-0.1641
X317.5563 Y-0.1091
X317.5515 Y-0.0541
X317.55 Y0.0009
Y72.9478
X317.5476 Y72.95
X203.0515
X203.05 Y72.9478
Y0.0009
X203.0485 Y-0.0541
X203.0437 Y-0.1091
X203.0357 Y-0.1641
X203.0244 Y-0.2191
X203.0096 Y-0.2742
X202.9912 Y-0.3292
X202.973 Y-0.3747
X202.952 Y-0.4203
X202.9424 Y-0.4392
X202.9114 Y-0.4942
X202.8752 Y-0.5492
X202.8419 Y-0.5934
X202.8143 Y-0.6263
X202.7841 Y-0.6592
X202.7318 Y-0.7095
X202.6946 Y-0.7409
X202.6575 Y-0.7693
X202.6216 Y-0.794
X202.5666 Y-0.8275
X202.5115 Y-0.8563
X202.4597 Y-0.8793
X202.4014 Y-0.9009
X202.3463 Y-0.9175
X202.2913 Y-0.9305
X202.2362 Y-0.9402
X202.1812 Y-0.9465
X202.071 Y-0.95
X22.3591
X0.0053
X-0.0498 Y-0.9487
X-0.1048 Y-0.9442
X-0.1599 Y-0.9364
X-0.215 Y-0.9254
X-0.27 Y-0.9108
X-0.3251 Y-0.8927
X-0.3597 Y-0.8793
X-0.3974 Y-0.8629
X-0.4352 Y-0.8445
X-0.4902 Y-0.8137
X-0.5453 Y-0.7779
X-0.5574 Y-0.7693
X-0.6064 Y-0.7313
X-0.6554 Y-0.6877
X-0.684 Y-0.6592
X-0.7275 Y-0.6109
X-0.7655 Y-0.5625
X-0.7752 Y-0.5492
X-0.8113 Y-0.4942
X-0.8424 Y-0.4392
X-0.8757 Y-0.3684
X-0.8911 Y-0.3292
X-0.9096 Y-0.2742
X-0.9244 Y-0.2191
X-0.9357 Y-0.1641
X-0.9437 Y-0.1091
X-0.9485 Y-0.0541
X-0.95 Y0.0009
Y89.9991
X-0.9485 Y90.0541
X-0.9437 Y90.1091
X-0.9357 Y90.1641
X-0.9244 Y90.2191
X-0.9096 Y90.2742
X-0.8911 Y90.3292
X-0.8757 Y90.3684
X-0.8424 Y90.4392
X-0.8113 Y90.4942
X-0.7752 Y90.5492
X-0.7655 Y90.5625
X-0.7275 Y90.6109
X-0.684 Y90.6592
X-0.6554 Y90.6877
X-0.6064 Y90.7313
X-0.5574 Y90.7693
X-0.5453 Y90.7779
X-0.4902 Y90.8137
X-0.4352 Y90.8445
X-0.3974 Y90.8629
X-0.3597 Y90.8793
X-0.3251 Y90.8927
X-0.27 Y90.9108
X-0.215 Y90.9254
X-0.1599 Y90.9364
X-0.1048 Y90.9442
X-0.0498 Y90.9487
X0.0053 Y90.95
X248.1407
X285.2273
X285.4209 Z-10.0001
X285.6145 Z-10.0004
X285.808 Z-10.0008
X286.0016 Z-10.0015
X286.1952 Z-10.0023
X286.3888 Z-10.0033
X286.5823 Z-10.0045
X286.7759 Z-10.0058
X286.9695 Z-10.0073
X287.1631 Z-10.009
X287.3566 Z-10.0109
X287.5502 Z-10.0129
X287.7438 Z-10.0151
X287.9374 Z-10.0174
X288.131 Z-10.0199
X288.3245 Z-10.0225
X288.5181 Z-10.0253
X288.7117 Z-10.0283
X288.9052 Z-10.0314
X289.0988 Z-10.0347
X289.2924 Z-10.0381
X289.486 Z-10.0416
X289.6795 Z-10.0453
X289.8731 Z-10.0491
X290.0667 Z-10.0531
X290.2603 Z-10.0572
X290.4538 Z-10.0614
X290.6474 Z-10.0658
X290.841 Z-10.0702
X291.0345 Z-10.0749
X291.2281 Z-10.0796
X291.4217 Z-10.0845
X291.6153 Z-10.0894
X291.7121 Z-10.092
X291.8089 Z-10.0945
X291.9056 Z-10.0971
X292.0024 Z-10.0997
X292.0992 Z-10.1024
X292.196 Z-10.1051
X292.2928 Z-10.1078
X292.3896 Z-10.1105
X292.4864 Z-10.1133
X292.5832 Z-10.1161
X292.6799 Z-10.1189
X292.7767 Z-10.1217
X292.8735 Z-10.1246
X292.9703 Z-10.1275
X293.0671 Z-10.1304
X293.1639 Z-10.1334
X293.2607 Z-10.1363
X293.3575 Z-10.1393
X293.4543 Z-10.1424
X293.551 Z-10.1454
X293.6478 Z-10.1485
X293.7446 Z-10.1516
X293.8414 Z-10.1547
X293.9382 Z-10.1578
X294.035 Z-10.161
X294.1317 Z-10.1642
X294.2285 Z-10.1674
X294.3253 Z-10.1706
X294.4221 Z-10.1739
X294.5189 Z-10.1772
X294.6157 Z-10.1805
X294.7125 Z-10.1838
X294.8093 Z-10.1871
X295.0028 Z-10.1939
X295.0996 Z-10.1972
X295.1964 Z-10.2006
X295.2932 Z-10.204
X295.39 Z-10.2074
X295.4868 Z-10.2108
X295.5836 Z-10.2141
X295.6804 Z-10.2175
X295.7771 Z-10.2209
X295.8739 Z-10.2243
X295.9707 Z-10.2277
X296.0675 Z-10.231
X296.1643 Z-10.2344
X296.3578 Z-10.2412
X296.6482 Z-10.2513
X296.9386 Z-10.2614
X297.2289 Z-10.2716
X297.5193 Z-10.2817
X297.8097 Z-10.2919
X298.1 Z-10.302
X298.3904 Z-10.3121
X298.6808 Z-10.3223
X298.9711 Z-10.3324
X299.2615 Z-10.3426
X299.7454 Z-10.3595
X300.2294 Z-10.3764
X300.7133 Z-10.3933
X301.3908 Z-10.4169
X302.2619 Z-10.4473
X303.7137 Z-10.498
X310.6824 Z-10.7413
X310.9727 Z-10.7515
X311.2631 Z-10.7616
X311.3599 Z-10.765
X311.4567 Z-10.7684
X311.5535 Z-10.7717
X311.6503 Z-10.7751
X311.747 Z-10.7785
X311.8438 Z-10.7819
X311.9406 Z-10.7853
X312.0374 Z-10.7886
X312.1342 Z-10.792
X312.231 Z-10.7954
X312.3278 Z-10.7988
X312.4246 Z-10.8022
X312.5214 Z-10.8055
X312.6181 Z-10.8089
X312.7149 Z-10.8123
X312.8117 Z-10.8156
X312.9085 Z-10.819
X313.0053 Z-10.8223
X313.1021 Z-10.8255
X313.1989 Z-10.8288
X313.2957 Z-10.832
X313.3924 Z-10.8353
X313.4892 Z-10.8385
X313.586 Z-10.8416
X313.6828 Z-10.8448
X313.7796 Z-10.8479
X313.8764 Z-10.851
X313.9731 Z-10.8541
X314.0699 Z-10.8571
X314.1667 Z-10.8601
X314.2635 Z-10.8631
X314.3603 Z-10.8661
X314.4571 Z-10.8691
X314.5539 Z-10.872
X314.6507 Z-10.8749
X314.7475 Z-10.8778
X314.8442 Z-10.8806
X314.941 Z-10.8834
X315.0378 Z-10.8862
X315.1346 Z-10.889
X315.2314 Z-10.8917
X315.3282 Z-10.8945
X315.425 Z-10.8971
X315.5218 Z-10.8998
X315.6185 Z-10.9024
X315.7153 Z-10.905
X315.8121 Z-10.9076
X315.9089 Z-10.9101
X316.0057 Z-10.9126
X316.1993 Z-10.9176
X316.3929 Z-10.9224
X316.5864 Z-10.9271
X316.78 Z-10.9316
X316.9736 Z-10.9361
X317.1671 Z-10.9404
X317.3607 Z-10.9445
X317.5543 Z-10.9486
X317.7479 Z-10.9525
X317.9414 Z-10.9562
X318.135 Z-10.9599
X318.3286 Z-10.9634
X318.5222 Z-10.9667
X318.7157 Z-10.9699
X318.9093 Z-10.9729
X319.1029 Z-10.9758
X319.2964 Z-10.9786
X319.4901 Z-10.9812
X319.6836 Z-10.9836
X319.8772 Z-10.9859
X320.0708 Z-10.988
X320.2643 Z-10.9899
X320.4579 Z-10.9917
X320.6515 Z-10.9933
X320.8451 Z-10.9948
X321.0386 Z-10.996
X321.2322 Z-10.9971
X321.4258 Z-10.9981
X321.6194 Z-10.9988
X321.8129 Z-10.9994
X322.0065 Z-10.9998
X322.2001 Z-11
X322.3139
X345.9947
X346.0498 Y90.9487
X346.1048 Y90.9442
X346.1599 Y90.9364
X346.215 Y90.9254
X346.27 Y90.9108
X346.3251 Y90.8927
X346.3597 Y90.8793
X346.3974 Y90.8629
X346.4352 Y90.8445
X346.4902 Y90.8137
X346.5453 Y90.7779
X346.5574 Y90.7693
X346.6064 Y90.7313
X346.6554 Y90.6877
X346.6841 Y90.6592
X346.7275 Y90.6109
X346.7655 Y90.5625
X346.7751 Y90.5492
X346.8113 Y90.4942
X346.8424 Y90.4392
X346.8757 Y90.3684
X346.8911 Y90.3292
X346.9096 Y90.2742
X346.9244 Y90.2191
X346.9357 Y90.1641
X346.9437 Y90.1091
X346.9485 Y90.0541
X346.95 Y89.9991
Y0.0009
X346.9485 Y-0.0541
X346.9437 Y-0.1091
X346.9357 Y-0.1641
X346.9244 Y-0.2191
X346.9096 Y-0.2742
X346.8911 Y-0.3292
X346.8757 Y-0.3684
X346.8424 Y-0.4392
X346.8113 Y-0.4942
X346.7751 Y-0.5492
X346.7655 Y-0.5625
X346.7275 Y-0.6109
X346.6841 Y-0.6592
X346.6554 Y-0.6877
X346.6064 Y-0.7313
X346.5574 Y-0.7693
X346.5453 Y-0.7779
X346.4902 Y-0.8137
X346.4352 Y-0.8445
X346.3974 Y-0.8629
X346.3597 Y-0.8793
X346.3251 Y-0.8927
X346.27 Y-0.9108
X346.215 Y-0.9254
X346.1599 Y-0.9364
X346.1048 Y-0.9442
X346.0498 Y-0.9487
X345.9947 Y-0.95
X318.5754
X318.4653 Y-0.9494
X318.4103 Y-0.9458
X318.3552 Y-0.9389
X318.3001 Y-0.9287
X318.2451 Y-0.9152
X318.1927 Y-0.8989
X318.1403 Y-0.8793
X318.135 Y-0.8771
X318.0799 Y-0.8521
X318.0248 Y-0.8226
X317.9837 Y-0.7975
X317.9426 Y-0.7693
X317.9147 Y-0.7483
X317.8654 Y-0.7069
X317.8159 Y-0.6592
X317.8046 Y-0.6473
X317.762 Y-0.5982
X317.7249 Y-0.5492
X317.6945 Y-0.5037
X317.6576 Y-0.4392
X317.6311 Y-0.3842
X317.6089 Y-0.3292
X317.5844 Y-0.2533
X317.5756 Y-0.2191
X317.5643 Y-0.1641
X317.5563 Y-0.1091
X317.5515 Y-0.0541
X317.55 Y0.0009
Y72.9478
X317.5476 Y72.95
X203.0515
X203.05 Y72.9478
Y0.0009
X203.0485 Y-0.0541
X203.0437 Y-0.1091
X203.0357 Y-0.1641
X203.0244 Y-0.2191
X203.0096 Y-0.2742
X202.9912 Y-0.3292
X202.973 Y-0.3747
X202.952 Y-0.4203
X202.9424 Y-0.4392
X202.9114 Y-0.4942
X202.8752 Y-0.5492
X202.8419 Y-0.5934
X202.8143 Y-0.6263
X202.7841 Y-0.6592
X202.7318 Y-0.7095
X202.6946 Y-0.7409
X202.6575 Y-0.7693
X202.6216 Y-0.794
X202.5666 Y-0.8275
X202.5115 Y-0.8563
X202.4597 Y-0.8793
X202.4014 Y-0.9009
X202.3463 Y-0.9175
X202.2913 Y-0.9305
X202.2362 Y-0.9402
X202.1812 Y-0.9465
X202.071 Y-0.95
X22.3591
X0.0053
X-0.0498 Y-0.9487
X-0.1048 Y-0.9442
X-0.1599 Y-0.9364
X-0.215 Y-0.9254
X-0.27 Y-0.9108
X-0.3251 Y-0.8927
X-0.3597 Y-0.8793
X-0.3974 Y-0.8629
X-0.4352 Y-0.8445
X-0.4902 Y-0.8137
X-0.5453 Y-0.7779
X-0.5574 Y-0.7693
X-0.6064 Y-0.7313
X-0.6554 Y-0.6877
X-0.684 Y-0.6592
X-0.7275 Y-0.6109
X-0.7655 Y-0.5625
X-0.7752 Y-0.5492
X-0.8113 Y-0.4942
X-0.8424 Y-0.4392
X-0.8757 Y-0.3684
X-0.8911 Y-0.3292
X-0.9096 Y-0.2742
X-0.9244 Y-0.2191
X-0.9357 Y-0.1641
X-0.9437 Y-0.1091
X-0.9485 Y-0.0541
X-0.95 Y0.0009
Y89.9991
X-0.9485 Y90.0541
X-0.9437 Y90.1091
X-0.9357 Y90.1641
X-0.9244 Y90.2191
X-0.9096 Y90.2742
X-0.8911 Y90.3292
X-0.8757 Y90.3684
X-0.8424 Y90.4392
X-0.8113 Y90.4942
X-0.7752 Y90.5492
X-0.7655 Y90.5625
X-0.7275 Y90.6109
X-0.684 Y90.6592
X-0.6554 Y90.6877
X-0.6064 Y90.7313
X-0.5574 Y90.7693
X-0.5453 Y90.7779
X-0.4902 Y90.8137
X-0.4352 Y90.8445
X-0.3974 Y90.8629
X-0.3597 Y90.8793
X-0.3251 Y90.8927
X-0.27 Y90.9108
X-0.215 Y90.9254
X-0.1599 Y90.9364
X-0.1048 Y90.9442
X-0.0498 Y90.9487
X0.0053 Y90.95
X285.2273
X322.3139
X322.5074 Z-11.0001
X322.701 Z-11.0004
X322.8946 Z-11.0008
X323.0882 Z-11.0015
X323.2818 Z-11.0023
X323.4753 Z-11.0033
X323.6689 Z-11.0045
X323.8625 Z-11.0058
X324.0561 Z-11.0073
X324.2496 Z-11.009
X324.4432 Z-11.0109
X324.6368 Z-11.0129
X324.8304 Z-11.0151
X325.0239 Z-11.0174
X325.2175 Z-11.0199
X325.4111 Z-11.0225
X325.6046 Z-11.0253
X325.7982 Z-11.0283
X325.9918 Z-11.0314
X326.1854 Z-11.0347
X326.3789 Z-11.0381
X326.5725 Z-11.0416
X326.7661 Z-11.0453
X326.9597 Z-11.0491
X327.1533 Z-11.0531
X327.3468 Z-11.0572
X327.5404 Z-11.0614
X327.734 Z-11.0658
X327.9276 Z-11.0702
X328.1211 Z-11.0749
X328.3147 Z-11.0796
X328.5083 Z-11.0845
X328.7018 Z-11.0894
X328.7986 Z-11.092
X328.8954 Z-11.0945
X328.9922 Z-11.0971
X329.089 Z-11.0997
X329.1858 Z-11.1024
X329.2826 Z-11.1051
X329.3794 Z-11.1078
X329.4761 Z-11.1105
X329.5729 Z-11.1133
X329.6697 Z-11.1161
X329.7665 Z-11.1189
X329.8633 Z-11.1217
X329.9601 Z-11.1246
X330.0569 Z-11.1275
X330.1537 Z-11.1304
X330.2505 Z-11.1334
X330.3472 Z-11.1363
X330.444 Z-11.1393
X330.5408 Z-11.1424
X330.6376 Z-11.1454
X330.7344 Z-11.1485
X330.8312 Z-11.1516
X330.9279 Z-11.1547
X331.0247 Z-11.1578
X331.1215 Z-11.161
X331.2183 Z-11.1642
X331.3151 Z-11.1674
X331.4119 Z-11.1706
X331.5087 Z-11.1739
X331.6055 Z-11.1772
X331.7022 Z-11.1805
X331.799 Z-11.1838
X331.8958 Z-11.1871
X332.0894 Z-11.1939
X332.1862 Z-11.1972
X332.283 Z-11.2006
X332.3798 Z-11.204
X332.4766 Z-11.2074
X332.5733 Z-11.2108
X332.6701 Z-11.2141
X332.7669 Z-11.2175
X332.8637 Z-11.2209
X332.9605 Z-11.2243
X333.0573 Z-11.2277
X333.1541 Z-11.231
X333.2509 Z-11.2344
X333.4444 Z-11.2412
X333.7348 Z-11.2513
X334.0251 Z-11.2614
X334.3155 Z-11.2716
X334.6059 Z-11.2817
X334.8962 Z-11.2919
X335.1866 Z-11.302
X335.477 Z-11.3121
X335.7673 Z-11.3223
X336.0577 Z-11.3324
X336.3481 Z-11.3426
X336.832 Z-11.3595
X337.3159 Z-11.3764
X337.7999 Z-11.3933
X338.4774 Z-11.4169
X339.3484 Z-11.4473
X340.8003 Z-11.498
X345.93 Z-11.6771
X346.0268 Y90.9496 Z-11.6805
X346.0751 Y90.947 Z-11.6822
X346.1232 Y90.942 Z-11.6839
X346.1711 Y90.9345 Z-11.6856
X346.2184 Y90.9246 Z-11.6873
X346.2652 Y90.9122 Z-11.6889
X346.3113 Y90.8975 Z-11.6906
X346.3566 Y90.8805 Z-11.6923
X346.401 Y90.8612 Z-11.694
X346.4443 Y90.8397 Z-11.6957
X346.4865 Y90.816 Z-11.6974
X346.5275 Y90.7901 Z-11.6991
X346.567 Y90.7622 Z-11.7007
X346.6051 Y90.7324 Z-11.7024
X346.6416 Y90.7006 Z-11.7041
X346.6765 Y90.667 Z-11.7058
X346.7095 Y90.6317 Z-11.7075
X346.7408 Y90.5947 Z-11.7092
X346.7701 Y90.5563 Z-11.7109
X346.7975 Y90.5163 Z-11.7126
X346.8227 Y90.475 Z-11.7142
X346.8458 Y90.4325 Z-11.7159
X346.8668 Y90.3889 Z-11.7176
X346.8854 Y90.3442 Z-11.7193
X346.9018 Y90.2987 Z-11.721
X346.9159 Y90.2524 Z-11.7227
X346.9275 Y90.2054 Z-11.7244
X346.9368 Y90.1579 Z-11.7261
X346.9436 Y90.11 Z-11.7277
X346.948 Y90.0618 Z-11.7294
X346.9499 Y90.0134 Z-11.7311
X346.95 Y89.9166 Z-11.7345
Y89.6263 Z-11.7446
Y89.3359 Z-11.7548
Y89.0456 Z-11.7649
Y88.9488 Z-11.7683
Y88.852 Z-11.7717
Y88.7552 Z-11.775
Y88.6584 Z-11.7784
Y88.5616 Z-11.7818
Y88.4648 Z-11.7852
Y88.368 Z-11.7886
Y88.2713 Z-11.7919
Y88.1745 Z-11.7953
Y88.0777 Z-11.7987
Y87.9809 Z-11.8021
Y87.8841 Z-11.8055
Y87.7873 Z-11.8088
Y87.6905 Z-11.8122
Y87.5938 Z-11.8156
Y87.497 Z-11.8189
Y87.4002 Z-11.8222
Y87.3034 Z-11.8255
Y87.2066 Z-11.8287
Y87.1098 Z-11.832
Y87.013 Z-11.8352
Y86.9162 Z-11.8384
Y86.8195 Z-11.8415
Y86.7227 Z-11.8447
Y86.6259 Z-11.8478
Y86.5291 Z-11.8509
Y86.4323 Z-11.854
Y86.3355 Z-11.857
Y86.2387 Z-11.8601
Y86.1419 Z-11.8631
Y86.0452 Z-11.8661
Y85.9484 Z-11.869
Y85.8516 Z-11.8719
Y85.7548 Z-11.8748
Y85.658 Z-11.8777
Y85.5612 Z-11.8806
Y85.4644 Z-11.8834
Y85.3676 Z-11.8862
Y85.2709 Z-11.8889
Y85.1741 Z-11.8917
Y85.0773 Z-11.8944
Y84.9805 Z-11.8971
Y84.8837 Z-11.8997
Y84.7869 Z-11.9024
Y84.6901 Z-11.905
Y84.5933 Z-11.9075
Y84.4966 Z-11.9101
Y84.3998 Z-11.9126
Y84.2062 Z-11.9175
Y84.0126 Z-11.9223
Y83.819 Z-11.927
Y83.6255 Z-11.9316
Y83.4319 Z-11.936
Y83.2383 Z-11.9403
Y83.0447 Z-11.9445
Y82.8512 Z-11.9485
Y82.6576 Z-11.9524
Y82.464 Z-11.9562
Y82.2704 Z-11.9598
Y82.0769 Z-11.9633
Y81.8833 Z-11.9667
Y81.6897 Z-11.9699
Y81.4961 Z-11.9729
Y81.3026 Z-11.9758
Y81.109 Z-11.9785
Y80.9154 Z-11.9811
Y80.7218 Z-11.9836
Y80.5283 Z-11.9858
Y80.3347 Z-11.9879
Y80.1411 Z-11.9899
Y79.9475 Z-11.9917
Y79.754 Z-11.9933
Y79.5604 Z-11.9947
Y79.3668 Z-11.996
Y79.1732 Z-11.9971
Y78.9797 Z-11.9981
Y78.7861 Z-11.9988
Y78.5925 Z-11.9994
Y78.399 Z-11.9998
Y78.2054 Z-12
Y78.0893
Y0.0009
X346.9485 Y-0.0541
X346.9437 Y-0.1091
X346.9357 Y-0.1641
X346.9244 Y-0.2191
X346.9096 Y-0.2742
X346.8911 Y-0.3292
X346.8757 Y-0.3684
X346.8424 Y-0.4392
X346.8113 Y-0.4942
X346.7751 Y-0.5492
X346.7655 Y-0.5625
X346.7275 Y-0.6109
X346.6841 Y-0.6592
X346.6554 Y-0.6877
X346.6064 Y-0.7313
X346.5574 Y-0.7693
X346.5453 Y-0.7779
X346.4902 Y-0.8137
X346.4352 Y-0.8445
X346.3974 Y-0.8629
X346.3597 Y-0.8793
X346.3251 Y-0.8927
X346.27 Y-0.9108
X346.215 Y-0.9254
X346.1599 Y-0.9364
X346.1048 Y-0.9442
X346.0498 Y-0.9487
X345.9947 Y-0.95
X318.5754
X318.4653 Y-0.9494
X318.4103 Y-0.9458
X318.3552 Y-0.9389
X318.3001 Y-0.9287
X318.2451 Y-0.9152
X318.1927 Y-0.8989
X318.1403 Y-0.8793
X318.135 Y-0.8771
X318.0799 Y-0.8521
X318.0248 Y-0.8226
X317.9837 Y-0.7975
X317.9426 Y-0.7693
X317.9147 Y-0.7483
X317.8654 Y-0.7069
X317.8159 Y-0.6592
X317.8046 Y-0.6473
X317.762 Y-0.5982
X317.7249 Y-0.5492
X317.6945 Y-0.5037
X317.6576 Y-0.4392
X317.6311 Y-0.3842
X317.6089 Y-0.3292
X317.5844 Y-0.2533
X317.5756 Y-0.2191
X317.5643 Y-0.1641
X317.5563 Y-0.1091
X317.5515 Y-0.0541
X317.55 Y0.0009
Y72.9478
X317.5476 Y72.95
X203.0515
X203.05 Y72.9478
Y0.0009
X203.0485 Y-0.0541
X203.0437 Y-0.1091
X203.0357 Y-0.1641
X203.0244 Y-0.2191
X203.0096 Y-0.2742
X202.9912 Y-0.3292
X202.973 Y-0.3747
X202.952 Y-0.4203
X202.9424 Y-0.4392
X202.9114 Y-0.4942
X202.8752 Y-0.5492
X202.8419 Y-0.5934
X202.8143 Y-0.6263
X202.7841 Y-0.6592
X202.7318 Y-0.7095
X202.6946 Y-0.7409
X202.6575 Y-0.7693
X202.6216 Y-0.794
X202.5666 Y-0.8275
X202.5115 Y-0.8563
X202.4597 Y-0.8793
X202.4014 Y-0.9009
X202.3463 Y-0.9175
X202.2913 Y-0.9305
X202.2362 Y-0.9402
X202.1812 Y-0.9465
X202.071 Y-0.95
X22.3591
X0.0053
X-0.0498 Y-0.9487
X-0.1048 Y-0.9442
X-0.1599 Y-0.9364
X-0.215 Y-0.9254
X-0.27 Y-0.9108
X-0.3251 Y-0.8927
X-0.3597 Y-0.8793
X-0.3974 Y-0.8629
X-0.4352 Y-0.8445
X-0.4902 Y-0.8137
X-0.5453 Y-0.7779
X-0.5574 Y-0.7693
X-0.6064 Y-0.7313
X-0.6554 Y-0.6877
X-0.684 Y-0.6592
X-0.7275 Y-0.6109
X-0.7655 Y-0.5625
X-0.7752 Y-0.5492
X-0.8113 Y-0.4942
X-0.8424 Y-0.4392
X-0.8757 Y-0.3684
X-0.8911 Y-0.3292
X-0.9096 Y-0.2742
X-0.9244 Y-0.2191
X-0.9357 Y-0.1641
X-0.9437 Y-0.1091
X-0.9485 Y-0.0541
X-0.95 Y0.0009
Y89.9991
X-0.9485 Y90.0541
X-0.9437 Y90.1091
X-0.9357 Y90.1641
X-0.9244 Y90.2191
X-0.9096 Y90.2742
X-0.8911 Y90.3292
X-0.8757 Y90.3684
X-0.8424 Y90.4392
X-0.8113 Y90.4942
X-0.7752 Y90.5492
X-0.7655 Y90.5625
X-0.7275 Y90.6109
X-0.684 Y90.6592
X-0.6554 Y90.6877
X-0.6064 Y90.7313
X-0.5574 Y90.7693
X-0.5453 Y90.7779
X-0.4902 Y90.8137
X-0.4352 Y90.8445
X-0.3974 Y90.8629
X-0.3597 Y90.8793
X-0.3251 Y90.8927
X-0.27 Y90.9108
X-0.215 Y90.9254
X-0.1599 Y90.9364
X-0.1048 Y90.9442
X-0.0498 Y90.9487
X0.0053 Y90.95
X322.3139
X345.9947
X346.0498 Y90.9487
X346.1048 Y90.9442
X346.1599 Y90.9364
X346.215 Y90.9254
X346.27 Y90.9108
X346.3251 Y90.8927
X346.3597 Y90.8793
X346.3974 Y90.8629
X346.4352 Y90.8445
X346.4902 Y90.8137
X346.5453 Y90.7779
X346.5574 Y90.7693
X346.6064 Y90.7313
X346.6554 Y90.6877
X346.6841 Y90.6592
X346.7275 Y90.6109
X346.7655 Y90.5625
X346.7751 Y90.5492
X346.8113 Y90.4942
X346.8424 Y90.4392
X346.8757 Y90.3684
X346.8911 Y90.3292
X346.9096 Y90.2742
X346.9244 Y90.2191
X346.9357 Y90.1641
X346.9437 Y90.1091
X346.9485 Y90.0541
X346.95 Y89.9991
Y78.0893
Y77.8957 Z-12.0001
Y77.7021 Z-12.0004
Y77.5086 Z-12.0008
Y77.315 Z-12.0015
Y77.1214 Z-12.0023
Y76.9278 Z-12.0033
Y76.7343 Z-12.0045
Y76.5407 Z-12.0058
Y76.3471 Z-12.0073
Y76.1535 Z-12.009
Y75.96 Z-12.0109
Y75.7664 Z-12.0129
Y75.5728 Z-12.0151
Y75.3792 Z-12.0174
Y75.1857 Z-12.0199
Y74.9921 Z-12.0225
Y74.7985 Z-12.0253
Y74.6049 Z-12.0283
Y74.4114 Z-12.0314
Y74.2178 Z-12.0347
Y74.0242 Z-12.0381
Y73.8307 Z-12.0416
Y73.6371 Z-12.0453
Y73.4435 Z-12.0491
Y73.2499 Z-12.0531
Y73.0564 Z-12.0572
Y72.8628 Z-12.0614
Y72.6692 Z-12.0658
Y72.4756 Z-12.0702
Y72.2821 Z-12.0749
Y72.0885 Z-12.0796
Y71.8949 Z-12.0845
Y71.7013 Z-12.0894
Y71.6045 Z-12.092
Y71.5078 Z-12.0945
Y71.411 Z-12.0971
Y71.3142 Z-12.0997
Y71.2174 Z-12.1024
Y71.1206 Z-12.1051
Y71.0238 Z-12.1078
Y70.927 Z-12.1105
Y70.8302 Z-12.1133
Y70.7335 Z-12.1161
Y70.6367 Z-12.1189
Y70.5399 Z-12.1217
Y70.4431 Z-12.1246
Y70.3463 Z-12.1275
Y70.2495 Z-12.1304
Y70.1527 Z-12.1334
Y70.0559 Z-12.1363
Y69.9592 Z-12.1393
Y69.8624 Z-12.1424
Y69.7656 Z-12.1454
Y69.6688 Z-12.1485
Y69.572 Z-12.1516
Y69.4752 Z-12.1547
Y69.3784 Z-12.1578
Y69.2816 Z-12.161
Y69.1849 Z-12.1642
Y69.0881 Z-12.1674
Y68.9913 Z-12.1706
Y68.8945 Z-12.1739
Y68.7977 Z-12.1772
Y68.7009 Z-12.1805
Y68.6041 Z-12.1838
Y68.5073 Z-12.1871
Y68.3138 Z-12.1939
Y68.217 Z-12.1972
Y68.1202 Z-12.2006
Y68.0234 Z-12.204
Y67.9266 Z-12.2074
Y67.8298 Z-12.2108
Y67.733 Z-12.2141
Y67.6363 Z-12.2175
Y67.5395 Z-12.2209
Y67.4427 Z-12.2243
Y67.3459 Z-12.2277
Y67.2491 Z-12.231
Y67.1523 Z-12.2344
Y66.9587 Z-12.2412
Y66.6684 Z-12.2513
Y66.378 Z-12.2614
Y66.0877 Z-12.2716
Y65.7973 Z-12.2817
Y65.5069 Z-12.2919
Y65.2166 Z-12.302
Y64.9262 Z-12.3121
Y64.6358 Z-12.3223
Y64.3455 Z-12.3324
Y64.0551 Z-12.3426
Y63.5712 Z-12.3595
Y63.0873 Z-12.3764
Y62.6033 Z-12.3933
Y61.9258 Z-12.4169
Y61.0547 Z-12.4473
Y59.6029 Z-12.498
Y52.6342 Z-12.7413
Y52.3439 Z-12.7515
Y52.0535 Z-12.7616
Y51.9567 Z-12.765
Y51.8599 Z-12.7684
Y51.7631 Z-12.7717
Y51.6663 Z-12.7751
Y51.5696 Z-12.7785
Y51.4728 Z-12.7819
Y51.376 Z-12.7853
Y51.2792 Z-12.7886
Y51.1824 Z-12.792
Y51.0856 Z-12.7954
Y50.9888 Z-12.7988
Y50.8921 Z-12.8022
Y50.7953 Z-12.8055
Y50.6985 Z-12.8089
Y50.6017 Z-12.8123
Y50.5049 Z-12.8156
Y50.4081 Z-12.819
Y50.3113 Z-12.8223
Y50.2145 Z-12.8255
Y50.1178 Z-12.8288
Y50.021 Z-12.832
Y49.9242 Z-12.8353
Y49.8274 Z-12.8385
Y49.7306 Z-12.8416
Y49.6338 Z-12.8448
Y49.537 Z-12.8479
Y49.4402 Z-12.851
Y49.3435 Z-12.8541
Y49.2467 Z-12.8571
Y49.1499 Z-12.8601
Y49.0531 Z-12.8631
Y48.9563 Z-12.8661
Y48.8595 Z-12.8691
Y48.7627 Z-12.872
Y48.6659 Z-12.8749
Y48.5692 Z-12.8778
Y48.4724 Z-12.8806
Y48.3756 Z-12.8834
Y48.2788 Z-12.8862
Y48.182 Z-12.889
Y48.0852 Z-12.8917
Y47.9884 Z-12.8945
Y47.8916 Z-12.8971
Y47.7949 Z-12.8998
Y47.6981 Z-12.9024
Y47.6013 Z-12.905
Y47.5045 Z-12.9076
Y47.4077 Z-12.9101
Y47.3109 Z-12.9126
Y47.1173 Z-12.9176
Y46.9238 Z-12.9224
Y46.7302 Z-12.9271
Y46.5366 Z-12.9316
Y46.343 Z-12.9361
Y46.1495 Z-12.9404
Y45.9559 Z-12.9445
Y45.7623 Z-12.9486
Y45.5687 Z-12.9525
Y45.3752 Z-12.9562
Y45.1816 Z-12.9599
Y44.988 Z-12.9634
Y44.7944 Z-12.9667
Y44.6009 Z-12.9699
Y44.4073 Z-12.9729
Y44.2137 Z-12.9758
Y44.0201 Z-12.9786
Y43.8266 Z-12.9812
Y43.633 Z-12.9836
Y43.4394 Z-12.9859
Y43.2458 Z-12.988
Y43.0523 Z-12.9899
Y42.8587 Z-12.9917
Y42.6651 Z-12.9933
Y42.4715 Z-12.9948
Y42.278 Z-12.996
Y42.0844 Z-12.9971
Y41.8908 Z-12.9981
Y41.6973 Z-12.9988
Y41.5037 Z-12.9994
Y41.3101 Z-12.9998
Y41.1165 Z-13
Y41.0027
Y0.0009
X346.9485 Y-0.0541
X346.9437 Y-0.1091
X346.9357 Y-0.1641
X346.9244 Y-0.2191
X346.9096 Y-0.2742
X346.8911 Y-0.3292
X346.8757 Y-0.3684
X346.8424 Y-0.4392
X346.8113 Y-0.4942
X346.7751 Y-0.5492
X346.7655 Y-0.5625
X346.7275 Y-0.6109
X346.6841 Y-0.6592
X346.6554 Y-0.6877
X346.6064 Y-0.7313
X346.5574 Y-0.7693
X346.5453 Y-0.7779
X346.4902 Y-0.8137
X346.4352 Y-0.8445
X346.3974 Y-0.8629
X346.3597 Y-0.8793
X346.3251 Y-0.8927
X346.27 Y-0.9108
X346.215 Y-0.9254
X346.1599 Y-0.9364
X346.1048 Y-0.9442
X346.0498 Y-0.9487
X345.9947 Y-0.95
X318.5754
X318.4653 Y-0.9494
X318.4103 Y-0.9458
X318.3552 Y-0.9389
X318.3001 Y-0.9287
X318.2451 Y-0.9152
X318.1927 Y-0.8989
X318.1403 Y-0.8793
X318.135 Y-0.8771
X318.0799 Y-0.8521
X318.0248 Y-0.8226
X317.9837 Y-0.7975
X317.9426 Y-0.7693
X317.9147 Y-0.7483
X317.8654 Y-0.7069
X317.8159 Y-0.6592
X317.8046 Y-0.6473
X317.762 Y-0.5982
X317.7249 Y-0.5492
X317.6945 Y-0.5037
X317.6576 Y-0.4392
X317.6311 Y-0.3842
X317.6089 Y-0.3292
X317.5844 Y-0.2533
X317.5756 Y-0.2191
X317.5643 Y-0.1641
X317.5563 Y-0.1091
X317.5515 Y-0.0541
X317.55 Y0.0009
Y72.9478
X317.5476 Y72.95
X203.0515
X203.05 Y72.9478
Y0.0009
X203.0485 Y-0.0541
X203.0437 Y-0.1091
X203.0357 Y-0.1641
X203.0244 Y-0.2191
X203.0096 Y-0.2742
X202.9912 Y-0.3292
X202.973 Y-0.3747
X202.952 Y-0.4203
X202.9424 Y-0.4392
X202.9114 Y-0.4942
X202.8752 Y-0.5492
X202.8419 Y-0.5934
X202.8143 Y-0.6263
X202.7841 Y-0.6592
X202.7318 Y-0.7095
X202.6946 Y-0.7409
X202.6575 Y-0.7693
X202.6216 Y-0.794
X202.5666 Y-0.8275
X202.5115 Y-0.8563
X202.4597 Y-0.8793
X202.4014 Y-0.9009
X202.3463 Y-0.9175
X202.2913 Y-0.9305
X202.2362 Y-0.9402
X202.1812 Y-0.9465
X202.071 Y-0.95
X22.3591
X0.0053
X-0.0498 Y-0.9487
X-0.1048 Y-0.9442
X-0.1599 Y-0.9364
X-0.215 Y-0.9254
X-0.27 Y-0.9108
X-0.3251 Y-0.8927
X-0.3597 Y-0.8793
X-0.3974 Y-0.8629
X-0.4352 Y-0.8445
X-0.4902 Y-0.8137
X-0.5453 Y-0.7779
X-0.5574 Y-0.7693
X-0.6064 Y-0.7313
X-0.6554 Y-0.6877
X-0.684 Y-0.6592
X-0.7275 Y-0.6109
X-0.7655 Y-0.5625
X-0.7752 Y-0.5492
X-0.8113 Y-0.4942
X-0.8424 Y-0.4392
X-0.8757 Y-0.3684
X-0.8911 Y-0.3292
X-0.9096 Y-0.2742
X-0.9244 Y-0.2191
X-0.9357 Y-0.1641
X-0.9437 Y-0.1091
X-0.9485 Y-0.0541
X-0.95 Y0.0009
Y89.9991
X-0.9485 Y90.0541
X-0.9437 Y90.1091
X-0.9357 Y90.1641
X-0.9244 Y90.2191
X-0.9096 Y90.2742
X-0.8911 Y90.3292
X-0.8757 Y90.3684
X-0.8424 Y90.4392
X-0.8113 Y90.4942
X-0.7752 Y90.5492
X-0.7655 Y90.5625
X-0.7275 Y90.6109
X-0.684 Y90.6592
X-0.6554 Y90.6877
X-0.6064 Y90.7313
X-0.5574 Y90.7693
X-0.5453 Y90.7779
X-0.4902 Y90.8137
X-0.4352 Y90.8445
X-0.3974 Y90.8629
X-0.3597 Y90.8793
X-0.3251 Y90.8927
X-0.27 Y90.9108
X-0.215 Y90.9254
X-0.1599 Y90.9364
X-0.1048 Y90.9442
X-0.0498 Y90.9487
X0.0053 Y90.95
X345.9947
X346.0498 Y90.9487
X346.1048 Y90.9442
X346.1599 Y90.9364
X346.215 Y90.9254
X346.27 Y90.9108
X346.3251 Y90.8927
X346.3597 Y90.8793
X346.3974 Y90.8629
X346.4352 Y90.8445
X346.4902 Y90.8137
X346.5453 Y90.7779
X346.5574 Y90.7693
X346.6064 Y90.7313
X346.6554 Y90.6877
X346.6841 Y90.6592
X346.7275 Y90.6109
X346.7655 Y90.5625
X346.7751 Y90.5492
X346.8113 Y90.4942
X346.8424 Y90.4392
X346.8757 Y90.3684
X346.8911 Y90.3292
X346.9096 Y90.2742
X346.9244 Y90.2191
X346.9357 Y90.1641
X346.9437 Y90.1091
X346.9485 Y90.0541
X346.95 Y89.9991
Y41.0027
Y40.809 Z-13.0001
Y40.6153 Z-13.0004
Y40.4216 Z-13.0009
Y40.2279 Z-13.0016
Y40.0343 Z-13.0026
Y39.8406 Z-13.0037
Y39.6469 Z-13.005
Y39.4532 Z-13.0064
Y39.2595 Z-13.0081
Y39.0658 Z-13.01
Y38.8721 Z-13.012
Y38.6784 Z-13.0143
Y38.4847 Z-13.0167
Y38.291 Z-13.0192
Y38.0973 Z-13.022
Y37.9036 Z-13.0249
Y37.7099 Z-13.028
Y37.5162 Z-13.0312
Y37.3225 Z-13.0346
Y37.1288 Z-13.0382
Y36.9351 Z-13.0419
Y36.7414 Z-13.0458
Y36.5477 Z-13.0499
Y36.354 Z-13.054
Y36.1604 Z-13.0584
Y35.9667 Z-13.0628
Y35.773 Z-13.0674
Y35.5793 Z-13.0722
Y35.3856 Z-13.0771
Y35.2887 Z-13.0796
Y35.1919 Z-13.0821
Y35.095 Z-13.0847
Y34.9982 Z-13.0873
Y34.9013 Z-13.0899
Y34.8045 Z-13.0925
Y34.7076 Z-13.0952
Y34.6108 Z-13.0979
Y34.5139 Z-13.1007
Y34.4171 Z-13.1035
Y34.3203 Z-13.1063
Y34.2234 Z-13.1091
Y34.1266 Z-13.112
Y34.0297 Z-13.1149
Y33.9329 Z-13.1178
Y33.836 Z-13.1208
Y33.7392 Z-13.1237
Y33.6423 Z-13.1267
Y33.5455 Z-13.1298
Y33.4486 Z-13.1328
Y33.3518 Z-13.1359
Y33.2549 Z-13.1391
Y33.1581 Z-13.1422
Y33.0612 Z-13.1454
Y32.9644 Z-13.1486
Y32.8675 Z-13.1518
Y32.7707 Z-13.155
Y32.6738 Z-13.1583
Y32.577 Z-13.1616
Y32.4802 Z-13.1649
Y32.3833 Z-13.1683
Y32.1896 Z-13.175
Y32.0928 Z-13.1784
Y31.9959 Z-13.1818
Y31.8991 Z-13.1852
Y31.8022 Z-13.1885
Y31.7054 Z-13.1919
Y31.6085 Z-13.1953
Y31.5117 Z-13.1987
Y31.4148 Z-13.2021
Y31.318 Z-13.2054
Y31.2211 Z-13.2088
Y31.1243 Z-13.2122
Y31.0274 Z-13.2156
Y30.9306 Z-13.219
Y30.8337 Z-13.2223
Y30.7369 Z-13.2257
Y30.5432 Z-13.2325
Y30.2527 Z-13.2426
Y29.9621 Z-13.2528
Y29.6716 Z-13.2629
Y29.381 Z-13.2731
Y29.0905 Z-13.2832
Y28.7999 Z-13.2934
Y28.5094 Z-13.3035
Y28.2189 Z-13.3137
Y27.8315 Z-13.3272
Y27.3472 Z-13.3441
Y26.863 Z-13.361
Y26.1851 Z-13.3847
Y25.3134 Z-13.4151
Y23.3765 Z-13.4827
Y21.9238 Z-13.5335
Y21.2458 Z-13.5571
Y20.7616 Z-13.574
Y20.2774 Z-13.5909
Y19.9868 Z-13.6011
Y19.6963 Z-13.6112
Y19.4057 Z-13.6214
Y19.1152 Z-13.6315
Y18.8247 Z-13.6417
Y18.5341 Z-13.6518
Y18.2436 Z-13.6619
Y17.953 Z-13.6721
Y17.8562 Z-13.6755
Y17.7593 Z-13.6788
Y17.6625 Z-13.6822
Y17.5656 Z-13.6856
Y17.4688 Z-13.689
Y17.3719 Z-13.6924
Y17.2751 Z-13.6958
Y17.1783 Z-13.6991
Y17.0814 Z-13.7025
Y16.9846 Z-13.7059
Y16.8877 Z-13.7093
Y16.7909 Z-13.7127
Y16.694 Z-13.7161
Y16.5972 Z-13.7194
Y16.5003 Z-13.7228
Y16.2098 Z-13.7329
Y16.1129 Z-13.7363
Y16.0161 Z-13.7396
Y15.9192 Z-13.7429
Y15.8224 Z-13.7461
Y15.7255 Z-13.7494
Y15.6287 Z-13.7526
Y15.5318 Z-13.7558
Y15.435 Z-13.7589
Y15.3382 Z-13.7621
Y15.2413 Z-13.7652
Y15.1445 Z-13.7682
Y15.0476 Z-13.7713
Y14.9508 Z-13.7743
Y14.8539 Z-13.7773
Y14.7571 Z-13.7803
Y14.6602 Z-13.7832
Y14.5634 Z-13.7862
Y14.4665 Z-13.789
Y14.3697 Z-13.7919
Y14.2728 Z-13.7947
Y14.176 Z-13.7975
Y14.0791 Z-13.8003
Y13.9823 Z-13.803
Y13.8854 Z-13.8057
Y13.7886 Z-13.8084
Y13.6917 Z-13.8111
Y13.5949 Z-13.8137
Y13.4981 Z-13.8162
Y13.4012 Z-13.8188
Y13.3044 Z-13.8213
Y13.1107 Z-13.8262
Y12.917 Z-13.831
Y12.7233 Z-13.8357
Y12.5296 Z-13.8402
Y12.3359 Z-13.8446
Y12.1422 Z-13.8488
Y11.9485 Z-13.8529
Y11.7548 Z-13.8568
Y11.5611 Z-13.8606
Y11.3674 Z-13.8642
Y11.1737 Z-13.8677
Y10.98 Z-13.871
Y10.7863 Z-13.8741
Y10.5926 Z-13.8771
Y10.3989 Z-13.8799
Y10.2052 Z-13.8825
Y10.0115 Z-13.885
Y9.8178 Z-13.8873
Y9.6242 Z-13.8894
Y9.4305 Z-13.8913
Y9.2368 Z-13.893
Y9.0431 Z-13.8946
Y8.8494 Z-13.8959
Y8.6557 Z-13.8971
Y8.462 Z-13.8981
Y8.2683 Z-13.8989
Y8.0746 Z-13.8994
Y7.8809 Z-13.8998
Y7.6872 Z-13.9
Y7.6247
Y0.0009
X346.9485 Y-0.0541
X346.9437 Y-0.1091
X346.9357 Y-0.1641
X346.9244 Y-0.2191
X346.9096 Y-0.2742
X346.8911 Y-0.3292
X346.8757 Y-0.3684
X346.8424 Y-0.4392
X346.8113 Y-0.4942
X346.7751 Y-0.5492
X346.7655 Y-0.5625
X346.7275 Y-0.6109
X346.6841 Y-0.6592
X346.6554 Y-0.6877
X346.6064 Y-0.7313
X346.5574 Y-0.7693
X346.5453 Y-0.7779
X346.4902 Y-0.8137
X346.4352 Y-0.8445
X346.3974 Y-0.8629
X346.3597 Y-0.8793
X346.3251 Y-0.8927
X346.27 Y-0.9108
X346.215 Y-0.9254
X346.1599 Y-0.9364
X346.1048 Y-0.9442
X346.0498 Y-0.9487
X345.9947 Y-0.95
X318.5754
X318.4653 Y-0.9494
X318.4103 Y-0.9458
X318.3552 Y-0.9389
X318.3001 Y-0.9287
X318.2451 Y-0.9152
X318.1927 Y-0.8989
X318.1403 Y-0.8793
X318.135 Y-0.8771
X318.0799 Y-0.8521
X318.0248 Y-0.8226
X317.9837 Y-0.7975
X317.9426 Y-0.7693
X317.9147 Y-0.7483
X317.8654 Y-0.7069
X317.8159 Y-0.6592
X317.8046 Y-0.6473
X317.762 Y-0.5982
X317.7249 Y-0.5492
X317.6945 Y-0.5037
X317.6576 Y-0.4392
X317.6311 Y-0.3842
X317.6089 Y-0.3292
X317.5844 Y-0.2533
X317.5756 Y-0.2191
X317.5643 Y-0.1641
X317.5563 Y-0.1091
X317.5515 Y-0.0541
X317.55 Y0.0009
Y72.9478
X317.5476 Y72.95
X203.0515
X203.05 Y72.9478
Y0.0009
X203.0485 Y-0.0541
X203.0437 Y-0.1091
X203.0357 Y-0.1641
X203.0244 Y-0.2191
X203.0096 Y-0.2742
X202.9912 Y-0.3292
X202.973 Y-0.3747
X202.952 Y-0.4203
X202.9424 Y-0.4392
X202.9114 Y-0.4942
X202.8752 Y-0.5492
X202.8419 Y-0.5934
X202.8143 Y-0.6263
X202.7841 Y-0.6592
X202.7318 Y-0.7095
X202.6946 Y-0.7409
X202.6575 Y-0.7693
X202.6216 Y-0.794
X202.5666 Y-0.8275
X202.5115 Y-0.8563
X202.4597 Y-0.8793
X202.4014 Y-0.9009
X202.3463 Y-0.9175
X202.2913 Y-0.9305
X202.2362 Y-0.9402
X202.1812 Y-0.9465
X202.071 Y-0.95
X22.3591
X0.0053
X-0.0498 Y-0.9487
X-0.1048 Y-0.9442
X-0.1599 Y-0.9364
X-0.215 Y-0.9254
X-0.27 Y-0.9108
X-0.3251 Y-0.8927
X-0.3597 Y-0.8793
X-0.3974 Y-0.8629
X-0.4352 Y-0.8445
X-0.4902 Y-0.8137
X-0.5453 Y-0.7779
X-0.5574 Y-0.7693
X-0.6064 Y-0.7313
X-0.6554 Y-0.6877
X-0.684 Y-0.6592
X-0.7275 Y-0.6109
X-0.7655 Y-0.5625
X-0.7752 Y-0.5492
X-0.8113 Y-0.4942
X-0.8424 Y-0.4392
X-0.8757 Y-0.3684
X-0.8911 Y-0.3292
X-0.9096 Y-0.2742
X-0.9244 Y-0.2191
X-0.9357 Y-0.1641
X-0.9437 Y-0.1091
X-0.9485 Y-0.0541
X-0.95 Y0.0009
Y89.9991
X-0.9485 Y90.0541
X-0.9437 Y90.1091
X-0.9357 Y90.1641
X-0.9244 Y90.2191
X-0.9096 Y90.2742
X-0.8911 Y90.3292
X-0.8757 Y90.3684
X-0.8424 Y90.4392
X-0.8113 Y90.4942
X-0.7752 Y90.5492
X-0.7655 Y90.5625
X-0.7275 Y90.6109
X-0.684 Y90.6592
X-0.6554 Y90.6877
X-0.6064 Y90.7313
X-0.5574 Y90.7693
X-0.5453 Y90.7779
X-0.4902 Y90.8137
X-0.4352 Y90.8445
X-0.3974 Y90.8629
X-0.3597 Y90.8793
X-0.3251 Y90.8927
X-0.27 Y90.9108
X-0.215 Y90.9254
X-0.1599 Y90.9364
X-0.1048 Y90.9442
X-0.0498 Y90.9487
X0.0053 Y90.95
X345.9947
X346.0498 Y90.9487
X346.1048 Y90.9442
X346.1599 Y90.9364
X346.215 Y90.9254
X346.27 Y90.9108
X346.3251 Y90.8927
X346.3597 Y90.8793
X346.3974 Y90.8629
X346.4352 Y90.8445
X346.4902 Y90.8137
X346.5453 Y90.7779
X346.5574 Y90.7693
X346.6064 Y90.7313
X346.6554 Y90.6877
X346.6841 Y90.6592
X346.7275 Y90.6109
X346.7655 Y90.5625
X346.7751 Y90.5492
X346.8113 Y90.4942
X346.8424 Y90.4392
X346.8757 Y90.3684
X346.8911 Y90.3292
X346.9096 Y90.2742
X346.9244 Y90.2191
X346.9357 Y90.1641
X346.9437 Y90.1091
X346.9485 Y90.0541
X346.95 Y89.9991
Y41.0027
Y7.6247
X346.9574 Y7.5723
X346.9789 Y7.524
X347.0129 Y7.4834
X347.0568 Y7.4539
X347.1071 Y7.4375
X347.1599 Y7.4357
X348.7637 Y7.6049
X348.8126 Y7.61 Z-13.8935
X348.8582 Y7.6148 Z-13.8745
X348.8973 Y7.619 Z-13.8444
X348.9273 Y7.6221 Z-13.805
X348.9462 Y7.6241 Z-13.7592
X348.9527 Y7.6248 Z-13.71
G0 Z5
X34.5827 Y9.8322
Z-7.9165
G1 Z-10 F3200
X34.6354 Y9.8177
X34.69 Y9.8187
X34.7421 Y9.8353
X34.7873 Y9.866
X34.8219 Y9.9082
X34.843 Y9.9586
X34.8489 Y10.0129
X34.845 Y10.1229
X34.8338 Y10.233
X34.8162 Y10.343
X34.8024 Y10.4115
X34.7918 Y10.453
X34.7605 Y10.563
X34.7217 Y10.6731
X34.6923 Y10.7441
X34.6749 Y10.7831
X34.6192 Y10.8931
X34.5822 Y10.9554
X34.5535 Y11.0031
X34.4766 Y11.1131
X34.4721 Y11.1188
X34.3864 Y11.2232
X34.362 Y11.2495
X34.2804 Y11.3332
X34.2519 Y11.3597
X34.1546 Y11.4432
X34.1417 Y11.4536
X34.0316 Y11.5338
X34.0036 Y11.5532
X33.9215 Y11.6023
X33.8114 Y11.6607
X33.8063 Y11.6633
X33.7013 Y11.7101
X33.5911 Y11.7512
X33.5248 Y11.7733
X33.481 Y11.7847
X33.3709 Y11.8111
X33.2608 Y11.8308
X33.1507 Y11.8427
X33.0406 Y11.848
X32.9304 Y11.8469
X32.8203 Y11.8396
X32.7102 Y11.8258
X32.6001 Y11.8054
X32.49 Y11.7773
X32.4752 Y11.7733
X32.3798 Y11.7415
X32.2697 Y11.698
X32.1937 Y11.6633
X32.1596 Y11.6462
X32.0495 Y11.5851
X31.9964 Y11.5532
X31.9394 Y11.5136
X31.8454 Y11.4432
X31.8293 Y11.4302
X31.7196 Y11.3332
X31.7191 Y11.3327
X31.6136 Y11.2232
X31.609 Y11.2183
X31.5234 Y11.1131
X31.4989 Y11.0787
X31.4465 Y11.0031
X31.3888 Y10.9065
X31.3808 Y10.8931
X31.3251 Y10.7831
X31.2787 Y10.6741
X31.2783 Y10.6731
X31.2395 Y10.563
X31.2082 Y10.453
X31.1838 Y10.343
X31.1686 Y10.2552
X31.1662 Y10.233
X31.155 Y10.1229
X31.1511 Y10.0129
X31.1541 Y9.9029
X31.1634 Y9.7929
X31.1686 Y9.7448
X31.1792 Y9.6829
X31.2016 Y9.5728
X31.2309 Y9.4628
X31.2675 Y9.3528
X31.3131 Y9.2428
X31.3673 Y9.1327
X31.3888 Y9.0935
X31.4308 Y9.0227
X31.4989 Y8.9213
X31.5049 Y8.9127
X31.5912 Y8.8027
X31.609 Y8.7817
X31.6919 Y8.6927
X31.7191 Y8.6673
X31.8133 Y8.5826
X31.8293 Y8.5698
X31.9394 Y8.4864
X31.9592 Y8.4726
X32.0495 Y8.4149
X32.1421 Y8.3626
X32.1596 Y8.3538
X32.2697 Y8.3019
X32.3798 Y8.2585
X32.3976 Y8.2526
X32.49 Y8.2227
X32.6001 Y8.1946
X32.7102 Y8.1742
X32.8203 Y8.1604
X32.9304 Y8.1531
X33.0406 Y8.152
X33.1507 Y8.1573
X33.2608 Y8.1692
X33.3709 Y8.1889
X33.481 Y8.2153
X33.5911 Y8.2488
X33.6024 Y8.2526
X33.7013 Y8.2899
X33.8114 Y8.3393
X33.8579 Y8.3626
X33.9215 Y8.3977
X34.0316 Y8.4662
X34.0408 Y8.4726
X34.1417 Y8.5464
X34.1867 Y8.5826
X34.2519 Y8.6403
X34.3081 Y8.6927
X34.362 Y8.7505
X34.4088 Y8.8027
X34.4721 Y8.8812
X34.4951 Y8.9127
X34.5692 Y9.0227
X34.5822 Y9.0446
X34.6327 Y9.1327
X34.6869 Y9.2428
X34.7325 Y9.3528
X34.7691 Y9.4628
X34.7984 Y9.5728
X34.8024 Y9.5885
X34.8208 Y9.6829
X34.8366 Y9.7929
X34.846 Y9.9029
X34.8489 Y10.0129
X34.8367 Y10.206 Z-10.0001
X34.8236 Y10.3019 Z-10.0002
X34.8061 Y10.3971 Z-10.0004
X34.7822 Y10.4909 Z-10.0006
X34.7537 Y10.5834 Z-10.0008
X34.7211 Y10.6745 Z-10.0011
X34.6841 Y10.764 Z-10.0015
X34.6411 Y10.8506 Z-10.0019
X34.5941 Y10.9353 Z-10.0023
X34.5434 Y11.0177 Z-10.0028
X34.4883 Y11.0972 Z-10.0033
X34.4283 Y11.1731 Z-10.0039
X34.3649 Y11.2462 Z-10.0045
X34.2274 Y11.3824 Z-10.0058
X34.1531 Y11.4444 Z-10.0065
X34.076 Y11.5029 Z-10.0073
X33.9131 Y11.6073 Z-10.009
X33.8276 Y11.6526 Z-10.0099
X33.7401 Y11.694 Z-10.0109
X33.5589 Y11.7619 Z-10.0129
X33.4658 Y11.7886 Z-10.0139
X33.3717 Y11.811 Z-10.0151
X33.1804 Y11.8395 Z-10.0174
X33.0838 Y11.8464 Z-10.0186
X32.9871 Y11.8489 Z-10.0199
X32.8904 Y11.8455 Z-10.0212
X32.7939 Y11.8367 Z-10.0225
X32.6981 Y11.8236 Z-10.0239
X32.6029 Y11.8061 Z-10.0253
X32.5091 Y11.7822 Z-10.0268
X32.4166 Y11.7538 Z-10.0283
X32.3255 Y11.7211 Z-10.0298
X32.2361 Y11.6841 Z-10.0314
X32.1494 Y11.6411 Z-10.033
X32.0647 Y11.5941 Z-10.0347
X31.9823 Y11.5434 Z-10.0363
X31.9028 Y11.4882 Z-10.0381
X31.8268 Y11.4282 Z-10.0398
X31.7537 Y11.3649 Z-10.0416
X31.6175 Y11.2274 Z-10.0453
X31.5555 Y11.153 Z-10.0472
X31.497 Y11.076 Z-10.0491
X31.3927 Y10.9131 Z-10.0531
X31.3474 Y10.8276 Z-10.0551
X31.306 Y10.7401 Z-10.0572
X31.2381 Y10.5589 Z-10.0614
X31.2114 Y10.4659 Z-10.0635
X31.189 Y10.3717 Z-10.0657
X31.1605 Y10.1803 Z-10.0702
X31.1536 Y10.0838 Z-10.0725
X31.1511 Y9.9871 Z-10.0748
X31.1545 Y9.8904 Z-10.0772
X31.1633 Y9.794 Z-10.0796
X31.1764 Y9.6981 Z-10.082
X31.1939 Y9.6029 Z-10.0844
X31.2178 Y9.5091 Z-10.0869
X31.2462 Y9.4166 Z-10.0894
X31.2788 Y9.3255 Z-10.092
X31.3159 Y9.2361 Z-10.0945
X31.3589 Y9.1494 Z-10.0971
X31.4058 Y9.0648 Z-10.0997
X31.4565 Y8.9824 Z-10.1024
X31.5117 Y8.9028 Z-10.1051
X31.5717 Y8.8269 Z-10.1078
X31.635 Y8.7538 Z-10.1105
X31.7017 Y8.6836 Z-10.1133
X31.7725 Y8.6176 Z-10.1161
X31.8468 Y8.5556 Z-10.1189
X31.9239 Y8.4971 Z-10.1217
X32.0036 Y8.4421 Z-10.1246
X32.0869 Y8.3927 Z-10.1275
X32.1724 Y8.3474 Z-10.1304
X32.2599 Y8.306 Z-10.1333
