%
(Made in : Autodesk CAM Post Processor)
(G Code optimized for OpenBuilds OX CNC 1000 x 750 with GRBL V0.9j controller)

(Program Name : 1001)
(1 Operation :)
(1 : 2D Contour2)
(  Tool : Tapered Mill 1 Flutes, Diam = 0.1mm, Len = 7mm)
(  Spindle : RPM = 30000, set router dial to 6)
(  Machining time : 1 min 44 sec)

G90 G94
G17
G21

(Operation 1 of 1 : 2D Contour2)

G53 G0 Z5
G54
S30000 M3
G4 P1.0
X45.4764 Y15.1921
Z15
Z5
G1 Z1 F150
Z-0.39
X45.4791 Y15.1911 Z-0.3971
X45.4857 Y15.1887 Z-0.4
X45.4951 Y15.1852 F200
X45.5028 Y15.1855
X45.508 Y15.1912
X46.3801 Y17.5678
X45.7774
X45.1832 Y15.7614
X45.1699 Y15.7405
X45.1482 Y15.7286
X45.1235 Y15.7285
X45.1018 Y15.7403
X45.0883 Y15.761
X44.4797 Y17.5678
X43.858
X44.8187 Y15.0354
X44.822 Y15.0191
X44.8196 Y15.0025
X44.8094 Y14.9705
X44.8043 Y14.9545
X44.799 Y14.9384
X44.7934 Y14.9219
X44.7878 Y14.9058
X44.7819 Y14.8895
X44.7757 Y14.8733
X44.7692 Y14.857
X44.7625 Y14.841
X44.7621 Y14.84
X44.7554 Y14.8249
X44.7549 Y14.8238
X44.7478 Y14.8088
X44.7473 Y14.8078
X44.7399 Y14.793
X44.7393 Y14.7918
X44.7315 Y14.7772
X44.7309 Y14.7762
X44.7227 Y14.7617
X44.7139 Y14.7467
X44.7134 Y14.7457
X44.7047 Y14.7316
X44.6952 Y14.7169
X44.6857 Y14.7024
X44.6761 Y14.6882
X44.6663 Y14.6739
X44.6564 Y14.6599
X44.6468 Y14.6462
X44.637 Y14.6323
X44.6294 Y14.6238
X44.6169 Y14.6127
X44.6042 Y14.6015
X44.5914 Y14.5903
X44.578 Y14.5791
X44.5772 Y14.5784
X44.5643 Y14.568
X44.5634 Y14.5673
X44.5504 Y14.5573
X44.5491 Y14.5563
X44.5359 Y14.5468
X44.5344 Y14.5458
X44.5209 Y14.5368
X44.5193 Y14.5358
X44.5056 Y14.5274
X44.5036 Y14.5262
X44.4896 Y14.5185
X44.4872 Y14.5173
X44.4729 Y14.5104
X44.4704 Y14.5092
X44.4557 Y14.5031
X44.4529 Y14.5021
X44.4379 Y14.4969
X44.4359 Y14.4962
X44.4206 Y14.4916
X44.4183 Y14.491
X44.4027 Y14.4871
X44.4005 Y14.4866
X44.3846 Y14.4834
X44.3833 Y14.4831
X44.3672 Y14.4803
X44.3656 Y14.4801
X44.3494 Y14.4778
X44.3481 Y14.4776
X44.3316 Y14.4757
X44.3304 Y14.4756
X44.3138 Y14.4741
X44.2966 Y14.4728
X44.2792 Y14.4716
X44.262 Y14.4706
X44.2449 Y14.4697
X44.2402 Y14.4696
X44.2282 Y14.4701
X44.2162 Y14.4705
X44.2036 Y14.471
X44.1792 Y14.472
X44.1661 Y14.4728
X44.154 Y14.4735
X44.1414 Y14.4743
X44.1289 Y14.4752
X44.1163 Y14.4763
X44.1038 Y14.4774
X44.0909 Y14.4788
X44.0784 Y14.4802
X44.0654 Y14.4819
X44.0533 Y14.4835
X44.0405 Y14.4855
X44.028 Y14.4874
X44.016 Y14.4893
X44.0089 Y14.4905
X44.0582 Y14.0566
X44.0698 Y14.0544
X44.0856 Y14.0515
X44.1015 Y14.0488
X44.1174 Y14.046
X44.133 Y14.0434
X44.1486 Y14.0409
X44.1642 Y14.0386
X44.1798 Y14.0365
X44.1953 Y14.0346
X44.2111 Y14.0328
X44.2267 Y14.0312
X44.2421 Y14.0298
X44.2578 Y14.0287
X44.2736 Y14.0276
X44.2894 Y14.0267
X44.3054 Y14.0259
X44.3215 Y14.0253
X44.3374 Y14.0246
X44.3534 Y14.0241
X44.3697 Y14.0236
X44.3858 Y14.0232
X44.401 Y14.0228
X44.4291 Y14.0234
X44.4582 Y14.0242
X44.4724 Y14.0247
X44.5012 Y14.026
X44.5153 Y14.0268
X44.5294 Y14.0278
X44.5433 Y14.0289
X44.5573 Y14.0303
X44.5712 Y14.0317
X44.5848 Y14.0334
X44.5986 Y14.0354
X44.6125 Y14.0375
X44.6263 Y14.0398
X44.6401 Y14.0423
X44.654 Y14.0449
X44.6682 Y14.0478
X44.6823 Y14.0507
X44.7106 Y14.0567
X44.7247 Y14.0599
X44.7375 Y14.0627
X44.7473 Y14.0656
X44.7588 Y14.069
X44.7699 Y14.0724
X44.7812 Y14.0759
X44.7924 Y14.0794
X44.8033 Y14.083
X44.814 Y14.0866
X44.8247 Y14.0904
X44.8353 Y14.0942
X44.8456 Y14.0982
X44.8556 Y14.1023
X44.8657 Y14.1067
X44.8757 Y14.1112
X44.8854 Y14.1159
X44.8953 Y14.1209
X44.9049 Y14.126
X44.9149 Y14.1315
X44.9246 Y14.1371
X44.9344 Y14.1428
X44.9445 Y14.1489
X44.9544 Y14.1549
X44.9642 Y14.1611
X44.9746 Y14.1674
X44.9826 Y14.1725
X44.9896 Y14.1779
X44.9985 Y14.1848
X45.0073 Y14.1916
X45.016 Y14.1984
X45.0245 Y14.2052
X45.0329 Y14.212
X45.0409 Y14.2187
X45.0487 Y14.2255
X45.0566 Y14.2325
X45.0641 Y14.2394
X45.0715 Y14.2466
X45.0786 Y14.2537
X45.0855 Y14.261
X45.0923 Y14.2685
X45.0992 Y14.2764
X45.106 Y14.2844
X45.1126 Y14.2925
X45.1191 Y14.3007
X45.1325 Y14.3182
X45.139 Y14.3268
X45.1455 Y14.3355
X45.1521 Y14.3446
X45.1577 Y14.3523
X45.165 Y14.3641
X45.1733 Y14.3779
X45.1817 Y14.3916
X45.1899 Y14.4053
X45.198 Y14.4189
X45.2059 Y14.4326
X45.2138 Y14.4463
X45.2215 Y14.46
X45.229 Y14.4737
X45.2363 Y14.4873
X45.2434 Y14.5011
X45.2504 Y14.5151
X45.2572 Y14.529
X45.2638 Y14.5431
X45.2703 Y14.5573
X45.2768 Y14.5717
X45.2832 Y14.5863
X45.2896 Y14.6009
X45.2957 Y14.6154
X45.3018 Y14.6302
X45.3079 Y14.645
X45.314 Y14.6598
X45.3202 Y14.675
X45.3259 Y14.6889
X45.4891 Y15.1397
X45.508 Y15.1912
X45.5077 Y15.1988
X45.502 Y15.204
X45.4926 Y15.2075
X45.486 Y15.2099 Z-0.3971
X45.4832 Y15.2109 Z-0.39
G0 Z5
X42.6859 Y16.3355
G1 Z1 F150
Z-0.39
X42.6883 Y16.3372 Z-0.3971
X42.6941 Y16.3413 Z-0.4
X42.7023 Y16.347 F200
X42.7064 Y16.3535
X42.7047 Y16.3609
X42.6966 Y16.3797
X42.6967 Y16.4001
X42.7049 Y16.4188
X43.5272 Y17.5678
X42.8453
X42.3768 Y16.8768
X42.3586 Y16.8606
X42.3348 Y16.8549
X42.3112 Y16.8612
X42.2934 Y16.8778
X41.8492 Y17.5678
X41.1361
X41.9758 Y16.3894
X41.984 Y16.3708
X41.9841 Y16.3504
X41.9761 Y16.3317
X41.0961 Y15.075
X41.7763
X42.2937 Y15.8558
X42.3118 Y15.8723
X42.3355 Y15.8782
X42.3592 Y15.8722
X42.3772 Y15.8556
X42.8898 Y15.075
X43.6088
X42.7047 Y16.3609
X42.6982 Y16.365
X42.6908 Y16.3634
X42.6826 Y16.3576
X42.6768 Y16.3536 Z-0.3971
X42.6744 Y16.3519 Z-0.39
G0 Z5
X40.4488 Y16.3121
G1 Z1 F150
Z-0.39
X40.4518 Z-0.3971
X40.4588 Y16.3119 Z-0.4
X40.4688 Y16.3117 F200
X40.476 Y16.3145
X40.479 Y16.3215
X40.4792 Y16.3281
X40.4769 Y16.3707
X40.4744 Y16.415
X40.4715 Y16.4589
X40.4683 Y16.5025
X40.4644 Y16.5458
X40.4598 Y16.5885
X40.4543 Y16.6307
X40.4477 Y16.6722
X40.44 Y16.7132
X40.4309 Y16.7534
X40.4204 Y16.7928
X40.4084 Y16.8315
X40.3945 Y16.8693
X40.3789 Y16.9066
X40.3615 Y16.9434
X40.3423 Y16.9799
X40.3217 Y17.0161
X40.2998 Y17.0521
X40.2767 Y17.0879
X40.2526 Y17.1235
X40.2277 Y17.159
X40.202 Y17.1946
X40.1759 Y17.2303
X40.1532 Y17.2611
X40.1263 Y17.2833
X40.0948 Y17.3093
X40.0633 Y17.3347
X40.0319 Y17.3596
X40.0003 Y17.3836
X39.9685 Y17.4067
X39.9365 Y17.4287
X39.9044 Y17.4495
X39.8719 Y17.4688
X39.8391 Y17.4867
X39.8059 Y17.5029
X39.772 Y17.5173
X39.7375 Y17.5301
X39.7021 Y17.5412
X39.6659 Y17.551
X39.6288 Y17.5594
X39.591 Y17.5667
X39.5526 Y17.573
X39.5135 Y17.5784
X39.474 Y17.5831
X39.434 Y17.5871
X39.3936 Y17.5908
X39.3529 Y17.5942
X39.3157 Y17.5971
X39.2451 Y17.5919
X39.2084 Y17.5889
X39.172 Y17.5855
X39.1359 Y17.5816
X39.1002 Y17.5772
X39.065 Y17.572
X39.0304 Y17.566
X38.9962 Y17.5591
X38.9627 Y17.551
X38.9297 Y17.5418
X38.8975 Y17.5314
X38.8658 Y17.5196
X38.8346 Y17.5063
X38.8034 Y17.4915
X38.7726 Y17.4757
X38.742 Y17.4586
X38.7114 Y17.4406
X38.681 Y17.4217
X38.6506 Y17.402
X38.6204 Y17.3817
X38.5901 Y17.3609
X38.5596 Y17.3396
X38.5345 Y17.322
X38.5071 Y17.2889
X38.4755 Y17.2506
X38.4447 Y17.2125
X38.4146 Y17.1741
X38.3857 Y17.1357
X38.358 Y17.0971
X38.3317 Y17.0581
X38.3071 Y17.0187
X38.2844 Y16.9789
X38.2638 Y16.9387
X38.2454 Y16.8976
X38.2292 Y16.8558
X38.2152 Y16.813
X38.203 Y16.7691
X38.1926 Y16.7243
X38.1838 Y16.6785
X38.1764 Y16.632
X38.1703 Y16.5847
X38.1652 Y16.5367
X38.1611 Y16.4882
X38.1576 Y16.4392
X38.1547 Y16.3898
X38.1522 Y16.34
X38.1501 Y16.2921
X38.152 Y16.2483
X38.154 Y16.2026
X38.1565 Y16.157
X38.1594 Y16.112
X38.1629 Y16.0672
X38.1672 Y16.0229
X38.1724 Y15.9791
X38.1786 Y15.936
X38.186 Y15.8934
X38.1948 Y15.8514
X38.2049 Y15.8103
X38.2167 Y15.7699
X38.2302 Y15.7304
X38.2457 Y15.6915
X38.263 Y15.6529
X38.282 Y15.6148
X38.3026 Y15.5769
X38.3245 Y15.5392
X38.3477 Y15.5018
X38.3717 Y15.4644
X38.3968 Y15.4273
X38.4225 Y15.39
X38.4488 Y15.3527
X38.4713 Y15.3208
X38.498 Y15.2988
X38.5299 Y15.2729
X38.5617 Y15.2474
X38.5934 Y15.2226
X38.6253 Y15.1986
X38.6574 Y15.1756
X38.6896 Y15.1535
X38.7221 Y15.1328
X38.7549 Y15.1135
X38.788 Y15.0958
X38.8216 Y15.0797
X38.8557 Y15.0654
X38.8906 Y15.0528
X38.9263 Y15.0418
X38.9629 Y15.0322
X39.0002 Y15.0239
X39.0383 Y15.0168
X39.0771 Y15.0106
X39.1163 Y15.0053
X39.1562 Y15.0008
X39.1965 Y14.9969
X39.2372 Y14.9933
X39.2781 Y14.9902
X39.3162 Y14.9874
X39.3402 Y14.9887
X39.3672 Y14.9904
X39.3942 Y14.9922
X39.421 Y14.9941
X39.4476 Y14.9964
X39.4739 Y14.9989
X39.5 Y15.0018
X39.5259 Y15.0053
X39.5514 Y15.0091
X39.5766 Y15.0137
X39.6018 Y15.0188
X39.6264 Y15.0246
X39.6508 Y15.0312
X39.6752 Y15.0386
X39.6996 Y15.0467
X39.7239 Y15.0554
X39.7481 Y15.0647
X39.7726 Y15.0746
X39.7968 Y15.0849
X39.8212 Y15.0957
X39.8457 Y15.1067
X39.8702 Y15.118
X39.8947 Y15.1296
X39.9165 Y15.1397
X39.936 Y15.1524
X39.9582 Y15.1667
X39.9801 Y15.1811
X40.0018 Y15.1956
X40.023 Y15.2101
X40.0438 Y15.2249
X40.0642 Y15.2399
X40.0839 Y15.2552
X40.1033 Y15.2709
X40.122 Y15.2869
X40.14 Y15.3034
X40.1572 Y15.3202
X40.1738 Y15.3378
X40.1901 Y15.356
X40.2057 Y15.3749
X40.2211 Y15.3944
X40.236 Y15.4145
X40.2507 Y15.4352
X40.2651 Y15.4562
X40.2793 Y15.4776
X40.2933 Y15.4994
X40.3074 Y15.5217
X40.3213 Y15.544
X40.3329 Y15.5627
X40.3557 Y15.6215
X40.3677 Y15.6528
X40.3793 Y15.6841
X40.3905 Y15.7153
X40.4013 Y15.7465
X40.4115 Y15.7777
X40.421 Y15.8088
X40.4297 Y15.84
X40.4377 Y15.8712
X40.4447 Y15.9024
X40.4508 Y15.9339
X40.4561 Y15.9656
X40.4606 Y15.9977
X40.4645 Y16.0299
X40.4677 Y16.0625
X40.4704 Y16.0953
X40.4726 Y16.1283
X40.4744 Y16.1615
X40.4757 Y16.1948
X40.4768 Y16.2284
X40.4777 Y16.2621
X40.4785 Y16.2959
X40.479 Y16.3215
X40.4763 Y16.3286
X40.4692 Y16.3317
X40.4592 Y16.3319
X40.4522 Y16.3321 Z-0.3971
X40.4492 Z-0.39
G0 Z5
X40.1568 Y16.3302
G1 Z1 F150
Z-0.39
X40.1538 Y16.3301 Z-0.3971
X40.1468 Y16.3299 Z-0.4
X40.1368 Y16.3296 F200
X40.1298 Y16.3264
X40.1271 Y16.3192
X40.1275 Y16.3086
Y16.3056
X40.1266 Y16.2714
X40.1256 Y16.2371
X40.1244 Y16.2027
X40.1227 Y16.1682
X40.1208 Y16.1339
X40.1183 Y16.0994
X40.1151 Y16.065
X40.115 Y16.0638
X40.1111 Y16.0306
X40.1109 Y16.0294
X40.1062 Y15.9964
X40.106 Y15.9948
X40.1003 Y15.9621
X40.1 Y15.9606
X40.0933 Y15.9282
X40.0928 Y15.9263
X40.0849 Y15.8943
X40.0844 Y15.8925
X40.0753 Y15.8609
X40.0747 Y15.8588
X40.0642 Y15.8276
X40.0634 Y15.8254
X40.0515 Y15.7947
X40.0509 Y15.7931
X40.0379 Y15.7627
X40.0372 Y15.7612
X40.0231 Y15.7311
X40.0224 Y15.7297
X40.0073 Y15.6999
X40.0068 Y15.6989
X39.991 Y15.6694
X39.9904 Y15.6684
X39.9738 Y15.6391
X39.9565 Y15.6093
X39.9386 Y15.5797
X39.9208 Y15.5505
X39.9027 Y15.5213
X39.8945 Y15.5112
X39.8753 Y15.4931
X39.856 Y15.475
X39.8363 Y15.457
X39.8166 Y15.4392
X39.8158 Y15.4384
X39.7961 Y15.4214
X39.7754 Y15.4043
X39.7743 Y15.4034
X39.7541 Y15.3876
X39.753 Y15.3867
X39.7325 Y15.3716
X39.7309 Y15.3705
X39.71 Y15.3563
X39.7083 Y15.3552
X39.6869 Y15.3419
X39.6848 Y15.3407
X39.6629 Y15.3285
X39.6607 Y15.3274
X39.6384 Y15.3164
X39.6359 Y15.3152
X39.6129 Y15.3054
X39.6103 Y15.3044
X39.5868 Y15.2959
X39.5847 Y15.2952
X39.5607 Y15.2877
X39.5588 Y15.2871
X39.5343 Y15.2805
X39.5323 Y15.28
X39.5075 Y15.2744
X39.506 Y15.2741
X39.4808 Y15.2692
X39.4796 Y15.269
X39.4542 Y15.2647
X39.453 Y15.2645
X39.4272 Y15.2608
X39.4005 Y15.2574
X39.3739 Y15.2543
X39.3473 Y15.2515
X39.3207 Y15.2488
X39.3109
X39.2846 Y15.2514
X39.2584 Y15.254
X39.2317 Y15.257
X39.2049 Y15.2604
X39.1785 Y15.2641
X39.1773 Y15.2643
X39.1518 Y15.2685
X39.1505 Y15.2687
X39.1253 Y15.2735
X39.1237 Y15.2738
X39.0988 Y15.2794
X39.0972 Y15.2798
X39.0726 Y15.2862
X39.0705 Y15.2868
X39.0465 Y15.2942
X39.0443 Y15.295
X39.0207 Y15.3035
X39.0184 Y15.3043
X38.9953 Y15.3139
X38.9927 Y15.3151
X38.9702 Y15.326
X38.9679 Y15.3272
X38.9459 Y15.3393
X38.944 Y15.3404
X38.9225 Y15.3535
X38.9205 Y15.3548
X38.8995 Y15.369
X38.8983 Y15.3698
X38.8776 Y15.3847
X38.8761 Y15.3858
X38.8558 Y15.4016
X38.8349 Y15.4186
X38.8339 Y15.4194
X38.8141 Y15.4363
X38.7938 Y15.4543
X38.774 Y15.4723
X38.7543 Y15.4905
X38.7348 Y15.5086
X38.7265 Y15.5188
X38.6911 Y15.5756
X38.6734 Y15.6047
X38.6562 Y15.6337
X38.6394 Y15.6633
X38.6389 Y15.6641
X38.6231 Y15.6932
X38.6225 Y15.6943
X38.6075 Y15.7235
X38.6068 Y15.7249
X38.5928 Y15.7545
X38.5921 Y15.756
X38.5791 Y15.7859
X38.5785 Y15.7875
X38.5666 Y15.8177
X38.5658 Y15.8198
X38.5553 Y15.8505
X38.5547 Y15.8525
X38.5455 Y15.8836
X38.5449 Y15.8856
X38.537 Y15.9171
X38.5366 Y15.9188
X38.5298 Y15.9506
X38.5295 Y15.9524
X38.5238 Y15.9846
X38.5235 Y15.9861
X38.5188 Y16.0186
X38.5187 Y16.0199
X38.5148 Y16.0526
X38.5146 Y16.0537
X38.5114 Y16.0867
X38.5088 Y16.1207
X38.5067 Y16.1549
X38.5051 Y16.189
X38.5037 Y16.2231
X38.5026 Y16.257
X38.5016 Y16.2907
Y16.2937
X38.5026 Y16.3273
X38.5036 Y16.3608
X38.5049 Y16.3947
X38.5066 Y16.4286
X38.5086 Y16.4624
X38.5113 Y16.4964
X38.5144 Y16.5301
X38.5146 Y16.5313
X38.5185 Y16.5639
X38.5186 Y16.5653
X38.5234 Y16.5977
X38.5237 Y16.5991
X38.5294 Y16.6312
X38.5297 Y16.6328
X38.5364 Y16.6645
X38.5368 Y16.6664
X38.5447 Y16.6978
X38.5453 Y16.6998
X38.5545 Y16.7308
X38.5551 Y16.7328
X38.5656 Y16.7634
X38.5664 Y16.7656
X38.5783 Y16.7957
X38.579 Y16.7973
X38.592 Y16.8271
X38.5927 Y16.8287
X38.6068 Y16.8581
X38.6074 Y16.8593
X38.6224 Y16.8885
X38.623 Y16.8897
X38.6388 Y16.9186
X38.6557 Y16.9481
X38.6732 Y16.9774
X38.6909 Y17.0063
X38.7086 Y17.0349
X38.7266 Y17.0635
X38.7349 Y17.0736
X38.7542 Y17.0915
X38.7737 Y17.1094
X38.7933 Y17.1273
X38.8135 Y17.1452
X38.8339 Y17.1626
X38.8348 Y17.1633
X38.8549 Y17.1797
X38.8559 Y17.1806
X38.8762 Y17.1963
X38.8775 Y17.1972
X38.8982 Y17.2122
X38.8996 Y17.2132
X38.9206 Y17.2273
X38.9225 Y17.2285
X38.944 Y17.2416
X38.9459 Y17.2427
X38.9679 Y17.2548
X38.9702 Y17.256
X38.9927 Y17.2669
X38.9953 Y17.2681
X39.0184 Y17.2777
X39.0207 Y17.2785
X39.0443 Y17.287
X39.0465 Y17.2878
X39.0705 Y17.2952
X39.0726 Y17.2958
X39.0972 Y17.3022
X39.0988 Y17.3026
X39.1237 Y17.3082
X39.1253 Y17.3085
X39.1505 Y17.3133
X39.1518 Y17.3135
X39.1773 Y17.3177
X39.1783 Y17.3179
X39.2041 Y17.3216
X39.2311 Y17.3249
X39.2578 Y17.3279
X39.2844 Y17.3306
X39.3111 Y17.3332
X39.3208
X39.3469 Y17.3306
X39.3733 Y17.3277
X39.3996 Y17.3247
X39.426 Y17.3213
X39.427 Y17.3212
X39.4526 Y17.3174
X39.4536 Y17.3172
X39.479 Y17.3129
X39.4803 Y17.3127
X39.5054 Y17.3078
X39.507 Y17.3074
X39.5317 Y17.3017
X39.5336 Y17.3013
X39.558 Y17.2947
X39.5599 Y17.2941
X39.5837 Y17.2866
X39.5859 Y17.2858
X39.6093 Y17.2772
X39.6116 Y17.2763
X39.6345 Y17.2666
X39.6373 Y17.2654
X39.6596 Y17.2543
X39.6618 Y17.2531
X39.6835 Y17.2409
X39.6853 Y17.2398
X39.7066 Y17.2266
X39.7085 Y17.2254
X39.7293 Y17.2112
X39.7308 Y17.2102
X39.7513 Y17.1951
X39.7525 Y17.1941
X39.7726 Y17.1783
X39.7737 Y17.1774
X39.7935 Y17.1609
X39.7944 Y17.1602
X39.8139 Y17.1432
X39.8338 Y17.1253
X39.8535 Y17.1072
X39.8729 Y17.089
X39.8922 Y17.0707
X39.8998 Y17.0616
X39.9176 Y17.0341
X39.9354 Y17.0062
X39.9529 Y16.9784
X39.9703 Y16.95
X39.9872 Y16.9213
X39.9877 Y16.9204
X40.0035 Y16.8923
X40.004 Y16.8913
X40.0191 Y16.8629
X40.0199 Y16.8614
X40.034 Y16.8327
X40.0346 Y16.8314
X40.0478 Y16.8023
X40.0486 Y16.8004
X40.0605 Y16.771
X40.0613 Y16.7691
X40.072 Y16.7393
X40.0727 Y16.7371
X40.082 Y16.7068
X40.0826 Y16.7047
X40.0906 Y16.6741
X40.091 Y16.6723
X40.0979 Y16.6412
X40.0982 Y16.6396
X40.1041 Y16.6082
X40.1044 Y16.6066
X40.1093 Y16.5749
X40.1095 Y16.5735
X40.1135 Y16.5416
X40.1136 Y16.5405
X40.1169 Y16.5083
X40.1197 Y16.475
X40.122 Y16.4416
X40.1237 Y16.4081
X40.1252 Y16.3748
X40.1264 Y16.3416
X40.1271 Y16.3192
X40.1303 Y16.3123
X40.1374 Y16.3096
X40.1474 Y16.3099
X40.1545 Y16.3102 Z-0.3971
X40.1574 Y16.3103 Z-0.39
G0 Z5
X37.5317 Y16.6191
G1 Z1 F150
Z-0.39
X37.5346 Z-0.3971
X37.5417 Z-0.4
X37.5517 F200
X37.5588 Y16.622
X37.5617 Y16.6291
Y16.7748
X37.5597 Y16.8338
X37.5586 Y16.8632
X37.557 Y16.8923
X37.5551 Y16.9212
X37.5527 Y16.9497
X37.5498 Y16.9779
X37.5463 Y17.0056
X37.5419 Y17.0328
X37.5369 Y17.0596
X37.5308 Y17.0857
X37.5238 Y17.1115
X37.5157 Y17.1366
X37.5065 Y17.1613
X37.496 Y17.1859
X37.4844 Y17.2102
X37.4719 Y17.2343
X37.4582 Y17.2585
X37.4437 Y17.2827
X37.4286 Y17.3068
X37.4128 Y17.3309
X37.3965 Y17.3551
X37.3798 Y17.3795
X37.3674 Y17.3976
X37.3519 Y17.4096
X37.3304 Y17.4261
X37.309 Y17.4423
X37.2876 Y17.4579
X37.2662 Y17.4731
X37.2448 Y17.4875
X37.2234 Y17.5011
X37.2019 Y17.5138
X37.1803 Y17.5256
X37.1586 Y17.5363
X37.1367 Y17.5457
X37.1145 Y17.5542
X37.0917 Y17.5614
X37.0681 Y17.5678
X37.0441 Y17.5734
X37.0196 Y17.5781
X36.9946 Y17.5821
X36.9691 Y17.5854
X36.943 Y17.5882
X36.9167 Y17.5907
X36.8901 Y17.5926
X36.863 Y17.5943
X36.8358 Y17.5959
X36.813 Y17.597
X36.7769 Y17.5922
X36.7366 Y17.5865
X36.6967 Y17.5805
X36.6574 Y17.5741
X36.6187 Y17.5668
X36.5809 Y17.5588
X36.544 Y17.5497
X36.5081 Y17.5393
X36.4733 Y17.5277
X36.4397 Y17.5145
X36.4074 Y17.4998
X36.3764 Y17.4832
X36.3463 Y17.4646
X36.3171 Y17.444
X36.2884 Y17.4215
X36.2604 Y17.3973
X36.2329 Y17.3716
X36.206 Y17.3445
X36.1793 Y17.3161
X36.153 Y17.2865
X36.1268 Y17.2562
X36.1008 Y17.2251
X36.0749 Y17.1936
X36.0489 Y17.1616
X36.0285 Y17.1466
X36.0034 Y17.1436
X35.98 Y17.1532
X35.9643 Y17.1731
X35.957 Y17.1897
X35.9498 Y17.2061
X35.9424 Y17.2223
X35.935 Y17.2383
X35.9276 Y17.2539
X35.9199 Y17.2692
X35.9121 Y17.2841
X35.9039 Y17.2987
X35.8955 Y17.3129
X35.8869 Y17.3265
X35.8781 Y17.3394
X35.8687 Y17.3519
X35.8588 Y17.3641
X35.8483 Y17.3759
X35.8372 Y17.3877
X35.8256 Y17.3992
X35.8135 Y17.4105
X35.801 Y17.4218
X35.7881 Y17.4328
X35.7746 Y17.4438
X35.7609 Y17.4549
X35.7471 Y17.4658
X35.7329 Y17.4767
X35.722 Y17.4852
X35.7078 Y17.4924
X35.6895 Y17.5016
X35.6713 Y17.5106
X35.6534 Y17.5193
X35.6354 Y17.5277
X35.6174 Y17.5358
X35.5996 Y17.5435
X35.5818 Y17.5505
X35.5639 Y17.5572
X35.5462 Y17.5632
X35.5284 Y17.5685
X35.5106 Y17.5732
X35.4924 Y17.5773
X35.4738 Y17.5809
X35.4551 Y17.584
X35.4362 Y17.5866
X35.4169 Y17.5888
X35.3972 Y17.5907
X35.3775 Y17.5922
X35.3575 Y17.5936
X35.3374 Y17.5947
X35.317 Y17.5956
X35.2965 Y17.5964
X35.2781 Y17.5971
X35.2401 Y17.5951
X35.2203 Y17.5939
X35.2007 Y17.5925
X35.1811 Y17.591
X35.1619 Y17.5892
X35.1429 Y17.5871
X35.124 Y17.5848
X35.1054 Y17.5819
X35.087 Y17.5787
X35.069 Y17.5751
X35.0512 Y17.571
X35.0337 Y17.5662
X35.016 Y17.5609
X34.9985 Y17.5551
X34.9808 Y17.5487
X34.9631 Y17.5418
X34.9455 Y17.5346
X34.9278 Y17.527
X34.91 Y17.519
X34.8921 Y17.5108
X34.8741 Y17.5023
X34.8562 Y17.4937
X34.8408 Y17.4863
X34.8118 Y17.4677
X34.781 Y17.4473
X34.7658 Y17.437
X34.7509 Y17.4267
X34.7365 Y17.4163
X34.7224 Y17.4057
X34.7084 Y17.3948
X34.6949 Y17.3838
X34.6818 Y17.3726
X34.6693 Y17.3611
X34.657 Y17.3492
X34.6449 Y17.3368
X34.6331 Y17.3241
X34.6215 Y17.311
X34.61 Y17.2974
X34.5986 Y17.2836
X34.5874 Y17.2695
X34.5764 Y17.2551
X34.5651 Y17.2403
X34.554 Y17.2255
X34.5431 Y17.2106
X34.5321 Y17.1954
X34.5129 Y17.1796
X34.4885 Y17.1749
X34.4648 Y17.1826
X34.4478 Y17.2007
X34.4416 Y17.2248
Y17.5386
X34.1485
Y15.0458
X34.4879
Y16.3411
X34.4881 Y16.3644
X34.4884 Y16.3877
X34.4887 Y16.4107
X34.4891 Y16.4338
X34.4896 Y16.4569
X34.4904 Y16.4804
X34.4913 Y16.5036
X34.4926 Y16.527
X34.4941 Y16.5505
X34.4958 Y16.5737
X34.4959 Y16.5748
X34.4981 Y16.5975
X34.5007 Y16.6208
X34.5037 Y16.6443
X34.5039 Y16.6454
X34.5073 Y16.6679
X34.5074 Y16.6689
X34.5113 Y16.6914
X34.5158 Y16.7147
X34.5207 Y16.7379
X34.5257 Y16.7606
X34.5312 Y16.7838
X34.5368 Y16.8064
X34.5426 Y16.829
X34.5484 Y16.8514
X34.5545 Y16.8738
X34.5604 Y16.8959
X34.5632 Y16.9039
X34.5697 Y16.9181
X34.5764 Y16.9326
X34.5831 Y16.9469
X34.5899 Y16.9614
X34.5972 Y16.976
X34.6046 Y16.9905
X34.6123 Y17.0048
X34.613 Y17.0061
X34.6207 Y17.0195
X34.6213 Y17.0204
X34.6292 Y17.0335
X34.63 Y17.0349
X34.6383 Y17.0477
X34.6394 Y17.0493
X34.6482 Y17.0618
X34.6493 Y17.0633
X34.6585 Y17.0754
X34.6595 Y17.0767
X34.6691 Y17.0885
X34.6706 Y17.0902
X34.6807 Y17.1015
X34.6818 Y17.1027
X34.6924 Y17.1138
X34.6936 Y17.115
X34.7045 Y17.1257
X34.7056 Y17.1268
X34.7169 Y17.1372
X34.7178 Y17.1379
X34.7294 Y17.1481
X34.7302 Y17.1489
X34.7421 Y17.1589
X34.7547 Y17.1691
X34.7674 Y17.1792
X34.7803 Y17.1892
X34.7929 Y17.1989
X34.8055 Y17.2085
X34.8125 Y17.213
X34.826 Y17.2201
X34.8395 Y17.2272
X34.8535 Y17.2343
X34.867 Y17.2412
X34.8815 Y17.2483
X34.8955 Y17.255
X34.8965 Y17.2555
X34.9102 Y17.2617
X34.9113 Y17.2621
X34.9252 Y17.268
X34.9399 Y17.274
X34.9412 Y17.2745
X34.9552 Y17.2797
X34.9565 Y17.2801
X34.9706 Y17.2849
X34.9723 Y17.2855
X34.9866 Y17.2898
X34.9882 Y17.2902
X35.0026 Y17.294
X35.0041 Y17.2944
X35.0187 Y17.2978
X35.0203 Y17.2981
X35.0349 Y17.301
X35.0359 Y17.3012
X35.0507 Y17.3038
X35.0521 Y17.3041
X35.067 Y17.3063
X35.0829 Y17.3083
X35.0987 Y17.3101
X35.1147 Y17.3116
X35.1302 Y17.3129
X35.1456 Y17.3141
X35.1614 Y17.3152
X35.1764 Y17.3163
X35.1826
X35.1996 Y17.3154
X35.2166 Y17.3145
X35.234 Y17.3134
X35.2515 Y17.3121
X35.2688 Y17.3105
X35.27 Y17.3104
X35.2865 Y17.3085
X35.2881 Y17.3083
X35.3044 Y17.3059
X35.3215 Y17.303
X35.3237 Y17.3026
X35.3396 Y17.2992
X35.3415 Y17.2987
X35.3571 Y17.2947
X35.3592 Y17.2942
X35.3744 Y17.2896
X35.3771 Y17.2886
X35.3921 Y17.2831
X35.3944 Y17.2822
X35.409 Y17.276
X35.4121 Y17.2746
X35.4263 Y17.2674
X35.4285 Y17.2662
X35.4423 Y17.2583
X35.4446 Y17.2569
X35.4581 Y17.2482
X35.46 Y17.2469
X35.4732 Y17.2375
X35.4745 Y17.2366
X35.4875 Y17.2267
X35.4889 Y17.2256
X35.5016 Y17.2152
X35.5024 Y17.2145
X35.515 Y17.2037
X35.516 Y17.2028
X35.5284 Y17.1916
X35.5412 Y17.1798
X35.5539 Y17.1677
X35.5661 Y17.1561
X35.576 Y17.1429
X35.5849 Y17.1257
X35.5938 Y17.1087
X35.6027 Y17.091
X35.6114 Y17.0734
X35.62 Y17.0551
X35.6282 Y17.0371
X35.6287 Y17.0361
X35.6362 Y17.0186
X35.6367 Y17.0174
X35.6437 Y16.9998
X35.6442 Y16.9985
X35.6507 Y16.9806
X35.6512 Y16.9792
X35.6571 Y16.9613
X35.6577 Y16.9592
X35.6628 Y16.9411
X35.6633 Y16.9394
X35.6678 Y16.921
X35.6681 Y16.9195
X35.672 Y16.9011
X35.6723 Y16.8994
X35.6756 Y16.8808
X35.6759 Y16.8795
X35.6787 Y16.8607
X35.6788 Y16.8593
X35.6811 Y16.8404
X35.6813 Y16.8391
X35.6831 Y16.8201
X35.6846 Y16.8002
X35.6859 Y16.7802
X35.6868 Y16.7602
X35.6876 Y16.7403
X35.6882 Y16.7208
X35.6886 Y16.7008
X35.689 Y16.6814
Y16.6804
Y15.0458
X36.0285
Y16.5022
Y16.5035
X36.0292 Y16.53
X36.0299 Y16.5565
X36.0309 Y16.5835
X36.0322 Y16.6103
X36.0338 Y16.6372
X36.0358 Y16.6641
X36.0384 Y16.691
X36.0386 Y16.6924
X36.0418 Y16.7181
X36.042 Y16.7195
X36.0459 Y16.7449
X36.0461 Y16.7463
X36.0507 Y16.7715
X36.0511 Y16.7735
X36.0567 Y16.7984
X36.0572 Y16.8002
X36.0637 Y16.8247
X36.0643 Y16.8269
X36.0719 Y16.8511
X36.0726 Y16.8533
X36.0813 Y16.8771
X36.0823 Y16.8794
X36.0922 Y16.9028
X36.0929 Y16.9045
X36.1037 Y16.9276
X36.1046 Y16.9294
X36.1164 Y16.9522
X36.1172 Y16.9536
X36.1298 Y16.9761
X36.1304 Y16.9772
X36.1436 Y16.9995
X36.1443 Y17.0006
X36.1582 Y17.0227
X36.1727 Y17.0452
X36.1878 Y17.0676
X36.203 Y17.0898
X36.2179 Y17.1115
X36.2273 Y17.1218
X36.2438 Y17.1354
X36.2607 Y17.1491
X36.2775 Y17.1626
X36.2946 Y17.176
X36.3121 Y17.1893
X36.313 Y17.1899
X36.33 Y17.2022
X36.331 Y17.2029
X36.3483 Y17.2148
X36.3495 Y17.2156
X36.3669 Y17.2268
X36.3685 Y17.2278
X36.3862 Y17.2383
X36.3879 Y17.2393
X36.406 Y17.2491
X36.4077 Y17.25
X36.426 Y17.259
X36.4283 Y17.26
X36.4471 Y17.2681
X36.4497 Y17.2691
X36.4688 Y17.2761
X36.4706 Y17.2768
X36.4901 Y17.2831
X36.4926 Y17.2838
X36.5125 Y17.2891
X36.514 Y17.2895
X36.5341 Y17.2942
X36.5359 Y17.2946
X36.5563 Y17.2986
X36.5575 Y17.2988
X36.5781 Y17.3023
X36.5794 Y17.3025
X36.6002 Y17.3055
X36.6014 Y17.3056
X36.6224 Y17.3081
X36.644 Y17.3105
X36.6659 Y17.3126
X36.6877 Y17.3144
X36.709 Y17.3162
X36.7162 Y17.3163
X36.7277 Y17.3156
X36.7391 Y17.315
X36.7511 Y17.3143
X36.7631 Y17.3135
X36.7755 Y17.3124
X36.787 Y17.3114
X36.7884 Y17.3113
X36.7998 Y17.31
X36.812 Y17.3084
X36.8134 Y17.3082
X36.8247 Y17.3064
X36.8368 Y17.3042
X36.8387 Y17.3039
X36.8498 Y17.3015
X36.851 Y17.3012
X36.8621 Y17.2985
X36.864 Y17.298
X36.8749 Y17.2949
X36.8765 Y17.2944
X36.8874 Y17.2909
X36.8888 Y17.2904
X36.8995 Y17.2866
X36.9007 Y17.2862
X36.9114 Y17.2821
X36.9127 Y17.2816
X36.9233 Y17.2772
X36.9347 Y17.2722
X36.9459 Y17.2671
X36.9572 Y17.2617
X36.9683 Y17.2561
X36.9787 Y17.2508
X36.9893 Y17.2454
X36.9998 Y17.2401
X37.0066 Y17.2358
X37.0149 Y17.2297
X37.0233 Y17.2236
X37.0323 Y17.2167
X37.0406 Y17.2104
X37.0495 Y17.2034
X37.0503 Y17.2028
X37.0583 Y17.1962
X37.0665 Y17.1894
X37.0677 Y17.1883
X37.0753 Y17.1815
X37.0761 Y17.1808
X37.0836 Y17.1738
X37.0851 Y17.1723
X37.0923 Y17.165
X37.0933 Y17.164
X37.1002 Y17.1566
X37.1018 Y17.1548
X37.1083 Y17.1471
X37.1092 Y17.146
X37.1155 Y17.1381
X37.1168 Y17.1364
X37.1228 Y17.1282
X37.1242 Y17.1262
X37.1298 Y17.1177
X37.1303 Y17.1168
X37.1357 Y17.1082
X37.1366 Y17.1068
X37.1418 Y17.0979
X37.1423 Y17.097
X37.1473 Y17.088
X37.148 Y17.0866
X37.1527 Y17.0775
X37.1576 Y17.0679
X37.1625 Y17.0578
X37.1672 Y17.0479
X37.1717 Y17.0383
X37.1763 Y17.0282
X37.1792 Y17.0198
X37.187 Y16.9888
X37.1909 Y16.973
X37.1946 Y16.957
X37.1983 Y16.9413
X37.2019 Y16.925
X37.2052 Y16.909
X37.2054 Y16.908
X37.2083 Y16.8923
X37.2111 Y16.8761
X37.2136 Y16.8595
X37.2159 Y16.8428
X37.2178 Y16.8261
X37.2194 Y16.8093
X37.2207 Y16.7928
X37.2218 Y16.7761
X37.2226 Y16.7595
X37.2234 Y16.7432
X37.2238 Y16.7264
X37.2242 Y16.7104
X37.2244 Y16.6937
X37.2246 Y16.6778
Y16.6614
X37.2247 Y16.6455
Y16.6291
Y15.0458
X37.5617
Y16.6291
X37.5588 Y16.6362
X37.5517 Y16.6391
X37.5417
X37.5346 Z-0.3971
X37.5317 Z-0.39
G0 Z5
X33.1469 Y17.2368
G1 Z1 F150
Z-0.39
X33.1498 Z-0.3971
X33.1569 Z-0.4
X33.1669 F200
X33.174 Y17.2397
X33.1769 Y17.2468
X33.1836 Y17.2718
X33.2019 Y17.2901
X33.2269 Y17.2968
X33.6188
Y17.5386
X33.2269
X33.2019 Y17.5453
X33.1836 Y17.5636
X33.1769 Y17.5886
Y18.4058
X32.8399 Y18.2025
Y17.5886
X32.8332 Y17.5636
X32.8149 Y17.5453
X32.7899 Y17.5386
X32.5176
Y17.2968
X32.7899
X32.8149 Y17.2901
X32.8332 Y17.2718
X32.8399 Y17.2468
Y15.7551
X32.8397 Y15.7326
X32.8395 Y15.7109
X32.8394 Y15.689
X32.8393 Y15.6673
X32.8394 Y15.6456
X32.8396 Y15.6241
X32.84 Y15.6026
X32.8406 Y15.5813
X32.8414 Y15.5601
X32.8425 Y15.5389
X32.8439 Y15.5179
X32.8456 Y15.497
X32.8476 Y15.4761
X32.85 Y15.4554
X32.8528 Y15.4347
X32.8559 Y15.4142
X32.8596 Y15.3937
X32.8635 Y15.3729
X32.8678 Y15.3521
X32.8723 Y15.3312
X32.8771 Y15.3103
X32.882 Y15.2892
X32.8871 Y15.268
X32.8906 Y15.2536
X32.8928 Y15.2496
X32.8985 Y15.2395
X32.9041 Y15.2299
X32.9096 Y15.2203
X32.9151 Y15.2112
X32.9208 Y15.2022
X32.9265 Y15.1935
X32.9322 Y15.1852
X32.9381 Y15.1773
X32.944 Y15.1696
X32.9501 Y15.1625
X32.9564 Y15.1555
X32.9629 Y15.1489
X32.97 Y15.1423
X32.9774 Y15.1357
X32.9851 Y15.1293
X32.993 Y15.123
X33.0015 Y15.1167
X33.01 Y15.1104
X33.0188 Y15.1043
X33.0375 Y15.0917
X33.0468 Y15.0855
X33.0528 Y15.0816
X33.0631 Y15.0772
X33.0777 Y15.0712
X33.0925 Y15.0652
X33.1067 Y15.0594
X33.1209 Y15.054
X33.1351 Y15.0487
X33.1493 Y15.0438
X33.1633 Y15.0392
X33.1773 Y15.035
X33.1909 Y15.0313
X33.2049 Y15.028
X33.219 Y15.0251
X33.2332 Y15.0226
X33.2475 Y15.0204
X33.2622 Y15.0186
X33.2769 Y15.0171
X33.292 Y15.0157
X33.307 Y15.0147
X33.3223 Y15.0139
X33.3379 Y15.0133
X33.3536 Y15.0128
X33.3693 Y15.0123
X33.3851 Y15.012
X33.3999 Y15.0117
X33.4122 Y15.0122
X33.4261 Y15.0128
X33.44 Y15.0133
X33.4536 Y15.0139
X33.4673 Y15.0146
X33.481 Y15.0154
X33.4947 Y15.0162
X33.508 Y15.0172
X33.5214 Y15.0182
X33.5346 Y15.0195
X33.548 Y15.0208
X33.5613 Y15.0223
X33.5747 Y15.024
X33.5877 Y15.0258
X33.6012 Y15.0278
X33.6145 Y15.0299
X33.6278 Y15.0321
X33.6411 Y15.0344
X33.6548 Y15.0369
X33.6683 Y15.0394
X33.6751 Y15.0407
X33.6273 Y15.3329
X33.619 Y15.3319
X33.6108 Y15.3309
X33.6023 Y15.3299
X33.5943 Y15.329
X33.5857 Y15.3281
X33.5775 Y15.3273
X33.569 Y15.3266
X33.5603 Y15.3259
X33.5522 Y15.3253
X33.5436 Y15.3248
X33.5355 Y15.3243
X33.5268 Y15.3239
X33.5188 Y15.3235
X33.5107 Y15.3231
X33.5021 Y15.3227
X33.4939 Y15.3224
X33.4777 Y15.3218
X33.4744
X33.4683 Y15.322
X33.462 Y15.3221
X33.4547 Y15.3223
X33.4482 Y15.3225
X33.4408 Y15.3229
X33.4335 Y15.3233
X33.427 Y15.3237
X33.4255 Y15.3238
X33.419 Y15.3244
X33.4118 Y15.3252
X33.4046 Y15.3261
X33.4031 Y15.3263
X33.3967 Y15.3273
X33.3895 Y15.3285
X33.3872 Y15.329
X33.3809 Y15.3304
X33.3737 Y15.3321
X33.3723 Y15.3325
X33.3661 Y15.3342
X33.3647 Y15.3346
X33.3584 Y15.3365
X33.3571 Y15.3369
X33.3509 Y15.339
X33.3438 Y15.3416
X33.3371 Y15.3441
X33.3301 Y15.3469
X33.3236 Y15.3495
X33.3167 Y15.3525
X33.3047 Y15.3577
X33.2959 Y15.3626
X33.2919 Y15.3654
X33.2908 Y15.3663
X33.2874 Y15.3687
X33.284 Y15.3711
X33.2829 Y15.372
X33.279 Y15.3749
X33.2778 Y15.3758
X33.274 Y15.3788
X33.2702 Y15.3818
X33.266 Y15.3852
X33.2648 Y15.3862
X33.2611 Y15.3894
X33.2601 Y15.3903
X33.2566 Y15.3935
X33.2525 Y15.3973
X33.2514 Y15.3983
X33.2481 Y15.4016
X33.2471 Y15.4027
X33.2438 Y15.4062
X33.2419 Y15.4084
X33.2388 Y15.4121
X33.2377 Y15.4134
X33.2348 Y15.4171
X33.2316 Y15.4214
X33.2302 Y15.4232
X33.2275 Y15.4271
X33.2245 Y15.4316
X33.2237 Y15.4328
X33.2211 Y15.4369
X33.2181 Y15.4418
X33.2174 Y15.443
X33.2126 Y15.4514
X33.2101 Y15.4559
X33.2078 Y15.4599
X33.2071 Y15.4611
X33.2048 Y15.4654
X33.2001 Y15.4782
X33.1979 Y15.4881
X33.1957 Y15.4986
X33.1936 Y15.5084
X33.1915 Y15.5189
X33.1895 Y15.5288
X33.1893 Y15.5298
X33.1875 Y15.5398
X33.1857 Y15.5503
X33.1841 Y15.5613
X33.1826 Y15.5718
X33.1813 Y15.5827
X33.1811 Y15.5838
X33.1801 Y15.5939
X33.1792 Y15.6045
X33.1784 Y15.6155
X33.1779 Y15.6266
X33.1774 Y15.6367
X33.177 Y15.6478
X33.1768 Y15.6585
X33.1766 Y15.6686
Y15.6798
Y15.7002
X33.1767 Y15.7108
X33.1768 Y15.721
X33.1769 Y15.7309
Y17.2468
X33.174 Y17.2539
X33.1669 Y17.2568
X33.1569
X33.1498 Z-0.3971
X33.1469 Z-0.39
G0 Z5
X31.4429 Y17.9062
G1 Z1 F150
Z-0.39
X31.4453 Y17.9078 Z-0.3971
X31.4512 Y17.9117 Z-0.4
X31.4595 Y17.9173 F200
X31.4637 Y17.9237
X31.4622 Y17.9312
X31.4532 Y17.9447
X31.4328 Y17.9732
X31.411 Y18.0014
X31.3884 Y18.0294
X31.3648 Y18.0573
X31.3405 Y18.085
X31.3156 Y18.1127
X31.2902 Y18.1405
X31.2691 Y18.1632
X31.2363 Y18.1838
X31.198 Y18.2075
X31.1598 Y18.2308
X31.1215 Y18.2535
X31.0832 Y18.2753
X31.0448 Y18.2962
X31.0063 Y18.316
X30.9677 Y18.3344
X30.9287 Y18.3514
X30.8895 Y18.3668
X30.85 Y18.3804
X30.8099 Y18.3923
X30.7691 Y18.4025
X30.7276 Y18.4113
X30.6855 Y18.4188
X30.6428 Y18.4251
X30.5997 Y18.4304
X30.5561 Y18.4346
X30.5119 Y18.438
X30.4674 Y18.4408
X30.4226 Y18.4429
X30.3775 Y18.4447
X30.3321 Y18.4462
X30.2881 Y18.4476
X30.2294 Y18.4458
X30.1995 Y18.4447
X30.1696 Y18.4435
X30.14 Y18.4422
X30.1105 Y18.4404
X30.081 Y18.4384
X30.052 Y18.436
X30.0229 Y18.4331
X29.9942 Y18.4298
X29.9656 Y18.4258
X29.9372 Y18.4214
X29.9091 Y18.4162
X29.8809 Y18.4104
X29.8529 Y18.4039
X29.8248 Y18.3967
X29.7966 Y18.3891
X29.7686 Y18.3811
X29.7404 Y18.3724
X29.7121 Y18.3636
X29.6839 Y18.3544
X29.6556 Y18.345
X29.6272 Y18.3354
X29.6018 Y18.3267
X29.5611 Y18.3064
X29.5395 Y18.2954
X29.5183 Y18.2843
X29.4973 Y18.273
X29.4768 Y18.2616
X29.4565 Y18.2498
X29.4366 Y18.2378
X29.4175 Y18.2255
X29.3988 Y18.2127
X29.3805 Y18.1995
X29.3631 Y18.1859
X29.346 Y18.1716
X29.3294 Y18.1566
X29.3131 Y18.1409
X29.2971 Y18.1247
X29.2814 Y18.1079
X29.2659 Y18.0906
X29.2507 Y18.0727
X29.2354 Y18.0544
X29.2204 Y18.0359
X29.2053 Y18.017
X29.1902 Y17.9978
X29.1775 Y17.9815
X29.1683 Y17.9651
X29.1574 Y17.9455
X29.1467 Y17.9258
X29.1362 Y17.9063
X29.126 Y17.8868
X29.1163 Y17.8674
X29.1069 Y17.848
X29.0981 Y17.8287
X29.0899 Y17.8093
X29.0822 Y17.79
X29.0752 Y17.7704
X29.0689 Y17.751
X29.0634 Y17.7314
X29.0584 Y17.7112
X29.054 Y17.6909
X29.0502 Y17.6703
X29.0469 Y17.6493
X29.0439 Y17.6281
X29.0414 Y17.6065
X29.0391 Y17.5845
X29.037 Y17.5627
X29.0352 Y17.5404
X29.0335 Y17.5179
X29.0321 Y17.4998
X29.0353 Y17.4698
X29.0391 Y17.4356
X29.0431 Y17.4017
X29.0475 Y17.3682
X29.0524 Y17.3353
X29.058 Y17.3029
X29.0644 Y17.2711
X29.0716 Y17.2398
X29.0798 Y17.2094
X29.0891 Y17.1799
X29.0998 Y17.1512
X29.1117 Y17.1232
X29.1252 Y17.0959
X29.1401 Y17.0691
X29.1565 Y17.0427
X29.1742 Y17.0166
X29.193 Y16.9907
X29.2131 Y16.965
X29.2339 Y16.9395
X29.2557 Y16.9142
X29.2781 Y16.8889
X29.3011 Y16.8636
X29.3245 Y16.8383
X29.3441 Y16.8171
X29.3704 Y16.7996
X29.4015 Y16.7789
X29.4326 Y16.7586
X29.4636 Y16.7386
X29.4947 Y16.719
X29.5259 Y16.7
X29.5572 Y16.6817
X29.5888 Y16.664
X29.6204 Y16.6472
X29.6524 Y16.6313
X29.6847 Y16.6163
X29.7175 Y16.6022
X29.7509 Y16.5887
X29.7846 Y16.576
X29.8188 Y16.5639
X29.8532 Y16.5524
X29.8881 Y16.5414
X29.9232 Y16.5309
X29.9587 Y16.5207
X29.9945 Y16.5109
X30.0305 Y16.5012
X30.0665 Y16.4918
X30.1392 Y16.4733
X30.1631 Y16.4674
X30.1873 Y16.4615
X30.2117 Y16.4554
X30.236 Y16.4494
X30.2602 Y16.4434
X30.2847 Y16.4373
X30.3089 Y16.4312
X30.3331 Y16.4251
X30.3575 Y16.4188
X30.3819 Y16.4125
X30.406 Y16.4062
X30.4304 Y16.3997
X30.4547 Y16.3932
X30.4788 Y16.3867
X30.5032 Y16.3799
X30.5273 Y16.3732
X30.5517 Y16.3662
X30.5757 Y16.3593
X30.5999 Y16.3522
X30.624 Y16.345
X30.648 Y16.3379
X30.6719 Y16.3308
X30.6959 Y16.3236
X30.7198 Y16.3165
X30.7232 Y16.3154
X30.7351 Y16.3109
X30.7471 Y16.3065
X30.7596 Y16.3017
X30.7716 Y16.297
X30.7842 Y16.292
X30.7965 Y16.2869
X30.8086 Y16.2817
X30.8096 Y16.2813
X30.8212 Y16.2761
X30.8221 Y16.2757
X30.8335 Y16.2703
X30.8346 Y16.2697
X30.8459 Y16.264
X30.8579 Y16.2577
X30.8591 Y16.2571
X30.8702 Y16.2509
X30.8714 Y16.2501
X30.8822 Y16.2436
X30.8836 Y16.2428
X30.8941 Y16.236
X30.8954 Y16.2351
X30.9058 Y16.2279
X30.9071 Y16.2269
X30.9172 Y16.2194
X30.9182 Y16.2187
X30.9282 Y16.2109
X30.9387 Y16.2024
X30.9396 Y16.2017
X30.9493 Y16.1935
X30.9595 Y16.1845
X30.9694 Y16.1757
X30.9794 Y16.1666
X30.989 Y16.1577
X30.9984 Y16.149
X31.0055 Y16.1407
X31.011 Y16.1328
X31.0166 Y16.1249
X31.0223 Y16.1165
X31.023 Y16.1156
X31.0284 Y16.1074
X31.0337 Y16.0992
X31.0345 Y16.098
X31.0396 Y16.0897
X31.045 Y16.0806
X31.0455 Y16.0796
X31.0502 Y16.0712
X31.051 Y16.0698
X31.0554 Y16.0613
X31.0564 Y16.0592
X31.0604 Y16.0505
X31.061 Y16.0492
X31.0647 Y16.0405
X31.0654 Y16.0387
X31.0688 Y16.0298
X31.0697 Y16.0272
X31.0726 Y16.0181
X31.0732 Y16.0161
X31.0757 Y16.007
X31.0762 Y16.0053
X31.0784 Y15.996
X31.0787 Y15.9944
X31.0806 Y15.985
X31.0808 Y15.9839
X31.0825 Y15.9744
X31.0828 Y15.9728
X31.0842 Y15.9632
X31.0843 Y15.9622
X31.0855 Y15.9526
X31.0856 Y15.9515
X31.0866 Y15.9418
X31.0876 Y15.9315
X31.0884 Y15.9212
X31.0892 Y15.9109
X31.0899 Y15.9011
X31.0896 Y15.8908
X31.0873 Y15.8737
X31.0849 Y15.8568
X31.0824 Y15.8393
X31.0794 Y15.8216
X31.0763 Y15.8043
X31.0761 Y15.8029
X31.0727 Y15.7865
X31.0723 Y15.7851
X31.0684 Y15.7688
X31.0681 Y15.7673
X31.0638 Y15.7514
X31.0631 Y15.7493
X31.0581 Y15.7336
X31.0575 Y15.7317
X31.0519 Y15.7163
X31.051 Y15.714
X31.0447 Y15.699
X31.0434 Y15.6962
X31.0362 Y15.6817
X31.035 Y15.6794
X31.027 Y15.6652
X31.0257 Y15.663
X31.017 Y15.6492
X31.0159 Y15.6475
X31.0066 Y15.634
X31.0053 Y15.6322
X30.9953 Y15.619
X30.9942 Y15.6176
X30.9837 Y15.6047
X30.9826 Y15.6034
X30.9716 Y15.5908
X30.9708 Y15.59
X30.9594 Y15.5775
X30.9586 Y15.5766
X30.9468 Y15.5643
X30.9344 Y15.5517
X30.9218 Y15.5392
X30.909 Y15.5268
X30.8964 Y15.5147
X30.8874 Y15.5079
X30.8673 Y15.4959
X30.8471 Y15.4839
X30.8265 Y15.4719
X30.8057 Y15.4602
X30.7848 Y15.4487
X30.7634 Y15.4376
X30.7622 Y15.437
X30.7415 Y15.4269
X30.7404 Y15.4263
X30.7196 Y15.4168
X30.718 Y15.4162
X30.6969 Y15.4074
X30.6953 Y15.4067
X30.674 Y15.3987
X30.672 Y15.398
X30.6504 Y15.3909
X30.6483 Y15.3902
X30.6265 Y15.3841
X30.6249 Y15.3837
X30.6028 Y15.3783
X30.6007 Y15.3779
X30.5783 Y15.3734
X30.5768 Y15.3731
X30.5543 Y15.3693
X30.5529 Y15.3691
X30.5301 Y15.3659
X30.5291 Y15.3657
X30.5062 Y15.363
X30.5048 Y15.3629
X30.4817 Y15.3608
X30.4578 Y15.359
X30.4336 Y15.3577
X30.4097 Y15.3566
X30.3858 Y15.3556
X30.3619 Y15.3549
X30.3382 Y15.3543
X30.3346 Y15.3544
X30.3108 Y15.3555
X30.2867 Y15.3568
X30.263 Y15.3581
X30.2387 Y15.3597
X30.2145 Y15.3617
X30.1902 Y15.364
X30.1891 Y15.3642
X30.1659 Y15.367
X30.1648 Y15.3671
X30.1417 Y15.3704
X30.1404 Y15.3706
X30.1176 Y15.3745
X30.1161 Y15.3748
X30.0934 Y15.3794
X30.0916 Y15.3798
X30.0692 Y15.3852
X30.0674 Y15.3857
X30.0453 Y15.3919
X30.0433 Y15.3925
X30.0216 Y15.3996
X30.0195 Y15.4003
X29.998 Y15.4084
X29.9961 Y15.4092
X29.9749 Y15.4182
X29.9732 Y15.4189
X29.9523 Y15.4287
X29.9509 Y15.4294
X29.9302 Y15.4399
X29.929 Y15.4405
X29.9085 Y15.4516
X29.9073 Y15.4523
X29.887 Y15.464
X29.8663 Y15.4763
X29.8653 Y15.4769
X29.8453 Y15.4894
X29.825 Y15.5023
X29.8049 Y15.5152
X29.7847 Y15.5284
X29.7744 Y15.5373
X29.758 Y15.556
X29.7415 Y15.5749
X29.7251 Y15.5941
X29.7089 Y15.6135
X29.6928 Y15.6333
X29.677 Y15.6534
X29.6763 Y15.6543
X29.6617 Y15.6739
X29.6609 Y15.675
X29.6469 Y15.6949
X29.6461 Y15.6962
X29.6327 Y15.7165
X29.6316 Y15.7182
X29.6191 Y15.7389
X29.6182 Y15.7404
X29.6064 Y15.7616
X29.6054 Y15.7635
X29.5946 Y15.7851
X29.5937 Y15.787
X29.5838 Y15.809
X29.5831 Y15.8105
X29.5739 Y15.8329
X29.5733 Y15.8344
X29.5648 Y15.8572
X29.5643 Y15.8588
X29.5565 Y15.882
X29.5562 Y15.883
X29.5489 Y15.9064
X29.5485 Y15.9075
X29.5417 Y15.9312
X29.5415 Y15.9323
X29.5352 Y15.9562
X29.529 Y15.9808
X29.5231 Y16.0058
X29.5175 Y16.0305
X29.5163 Y16.0362
X28.911 Y15.9774
X28.9168 Y15.9441
X28.9246 Y15.9014
X28.9328 Y15.859
X28.9415 Y15.8171
X28.9508 Y15.7758
X28.9611 Y15.735
X28.9721 Y15.6949
X28.9842 Y15.6556
X28.9976 Y15.6169
X29.0121 Y15.5793
X29.0281 Y15.5426
X29.0457 Y15.5066
X29.0649 Y15.4715
X29.0858 Y15.437
X29.1082 Y15.4029
X29.132 Y15.3693
X29.1571 Y15.336
X29.1831 Y15.303
X29.2101 Y15.2702
X29.238 Y15.2375
X29.2663 Y15.2049
X29.2952 Y15.1724
X29.3198 Y15.1449
X29.3533 Y15.1237
X29.3928 Y15.099
X29.4321 Y15.0747
X29.4715 Y15.0511
X29.511 Y15.0282
X29.5504 Y15.0063
X29.59 Y14.9857
X29.6298 Y14.9663
X29.67 Y14.9484
X29.7102 Y14.9322
X29.751 Y14.9177
X29.7923 Y14.905
X29.8344 Y14.894
X29.877 Y14.8845
X29.9204 Y14.8764
X29.9642 Y14.8695
X30.0087 Y14.8639
X30.0537 Y14.8592
X30.0992 Y14.8553
X30.145 Y14.8521
X30.1912 Y14.8495
X30.2377 Y14.8475
X30.2844 Y14.8456
X30.3299 Y14.8439
X30.3615 Y14.8447
X30.3947 Y14.8456
X30.4277 Y14.8466
X30.4606 Y14.8477
X30.4933 Y14.849
X30.5258 Y14.8507
X30.5583 Y14.8528
X30.5905 Y14.8552
X30.6227 Y14.8582
X30.6546 Y14.8616
X30.6862 Y14.8656
X30.7178 Y14.8703
X30.749 Y14.8756
X30.7802 Y14.8817
X30.8113 Y14.8884
X30.8424 Y14.8959
X30.8736 Y14.9039
X30.9048 Y14.9125
X30.936 Y14.9215
X30.9673 Y14.9309
X30.9986 Y14.9406
X31.03 Y14.9505
X31.0614 Y14.9607
X31.0894 Y14.9697
X31.1099 Y14.98
X31.1338 Y14.992
X31.1573 Y15.0041
X31.1806 Y15.0163
X31.2034 Y15.0285
X31.2259 Y15.0411
X31.2479 Y15.054
X31.2694 Y15.0672
X31.2904 Y15.0808
X31.3107 Y15.0948
X31.3305 Y15.1094
X31.3496 Y15.1245
X31.3681 Y15.1404
X31.386 Y15.1569
X31.4036 Y15.1742
X31.4208 Y15.1922
X31.4378 Y15.2109
X31.4545 Y15.2301
X31.471 Y15.2499
X31.4873 Y15.27
X31.5035 Y15.2905
X31.5197 Y15.3115
X31.5358 Y15.3326
X31.5497 Y15.3509
X31.5724 Y15.3925
X31.5844 Y15.4147
X31.596 Y15.4368
X31.6073 Y15.459
X31.6183 Y15.4811
X31.6287 Y15.503
X31.6385 Y15.5252
X31.6479 Y15.5473
X31.6564 Y15.5692
X31.6642 Y15.5915
X31.6713 Y15.6137
X31.6775 Y15.6362
X31.683 Y15.659
X31.6879 Y15.6821
X31.6922 Y15.7057
X31.696 Y15.7295
X31.6993 Y15.7536
X31.7022 Y15.7781
X31.7047 Y15.8027
X31.707 Y15.8276
X31.7091 Y15.8527
X31.7109 Y15.878
X31.7126 Y15.9007
X31.7106 Y15.9476
X31.7094 Y15.9721
X31.7079 Y15.9965
X31.7062 Y16.0207
X31.7042 Y16.0448
X31.7019 Y16.0685
X31.6991 Y16.0919
X31.6958 Y16.1152
X31.692 Y16.1381
X31.6876 Y16.1607
X31.6824 Y16.1829
X31.6766 Y16.2051
X31.6701 Y16.2269
X31.6628 Y16.2486
X31.6548 Y16.2705
X31.6462 Y16.2923
X31.637 Y16.3141
X31.6273 Y16.336
X31.6172 Y16.3579
X31.6067 Y16.3799
X31.596 Y16.402
X31.585 Y16.4242
X31.5757 Y16.443
X31.5648 Y16.4582
X31.5515 Y16.4766
X31.5383 Y16.4948
X31.525 Y16.5127
X31.5117 Y16.5303
X31.4981 Y16.5476
X31.4846 Y16.5644
X31.4707 Y16.5808
X31.4566 Y16.5968
X31.4423 Y16.6121
X31.4275 Y16.627
X31.4125 Y16.6413
X31.3969 Y16.6551
X31.3809 Y16.6684
X31.3643 Y16.6814
X31.3471 Y16.6941
X31.3296 Y16.7066
X31.3116 Y16.7188
X31.2933 Y16.7309
X31.2746 Y16.7428
X31.2557 Y16.7545
X31.2365 Y16.7662
X31.2171 Y16.7779
X31.2001 Y16.788
X31.1715 Y16.8007
X31.1402 Y16.8144
X31.1091 Y16.828
X31.0778 Y16.8414
X31.0465 Y16.8547
X31.0153 Y16.8676
X30.9839 Y16.8802
X30.9525 Y16.8926
X30.9212 Y16.9045
X30.8897 Y16.9159
X30.858 Y16.927
X30.8263 Y16.9374
X30.7943 Y16.9475
X30.762 Y16.9574
X30.7297 Y16.9668
X30.6972 Y16.976
X30.6645 Y16.9849
X30.6317 Y16.9935
X30.5987 Y17.0021
X30.5657 Y17.0104
X30.5326 Y17.0185
X30.466 Y17.0347
X30.433 Y17.0426
X30.3754 Y17.0555
X30.3462 Y17.0621
X30.3171 Y17.0689
X30.288 Y17.0757
X30.2587 Y17.083
X30.2295 Y17.0905
X30.2006 Y17.0982
X30.1715 Y17.1064
X30.1425 Y17.115
X30.1137 Y17.124
X30.085 Y17.1334
X30.0841 Y17.1337
X30.0563 Y17.1435
X30.0279 Y17.1542
X30.0267 Y17.1546
X29.9994 Y17.1656
X29.9715 Y17.1775
X29.9704 Y17.1779
X29.9436 Y17.19
X29.9162 Y17.203
X29.8889 Y17.2165
X29.8621 Y17.2302
X29.8354 Y17.2441
X29.8088 Y17.2583
X29.7827 Y17.2723
X29.7563 Y17.2867
X29.7452 Y17.295
X29.7376 Y17.3025
X29.7297 Y17.3103
X29.7222 Y17.3178
X29.7213 Y17.3188
X29.714 Y17.3265
X29.7066 Y17.3344
X29.7057 Y17.3354
X29.6987 Y17.3433
X29.6978 Y17.3444
X29.6911 Y17.3524
X29.6902 Y17.3535
X29.6838 Y17.3616
X29.6825 Y17.3633
X29.6765 Y17.3716
X29.6756 Y17.3728
X29.6699 Y17.3812
X29.6686 Y17.3833
X29.6633 Y17.392
X29.662 Y17.3943
X29.6572 Y17.4032
X29.6557 Y17.4061
X29.6515 Y17.4153
X29.6507 Y17.4172
X29.6469 Y17.4265
X29.6459 Y17.4293
X29.6426 Y17.439
X29.642 Y17.4409
X29.6391 Y17.4507
X29.6386 Y17.4523
X29.636 Y17.4623
X29.6355 Y17.4643
X29.6333 Y17.4744
X29.6331 Y17.4755
X29.6311 Y17.4858
X29.6309 Y17.4872
X29.6292 Y17.4976
X29.6275 Y17.5085
X29.6273 Y17.5096
X29.6259 Y17.5201
X29.6245 Y17.5306
X29.6244 Y17.5316
X29.6232 Y17.5423
Y17.5533
X29.6244 Y17.5643
X29.6257 Y17.5758
X29.6272 Y17.5873
X29.6288 Y17.5987
X29.6306 Y17.6105
X29.6309 Y17.612
X29.6329 Y17.6227
X29.6332 Y17.6242
X29.6355 Y17.6347
X29.6358 Y17.6361
X29.6384 Y17.6465
X29.639 Y17.6486
X29.642 Y17.6587
X29.6427 Y17.661
X29.6462 Y17.671
X29.647 Y17.6732
X29.6509 Y17.6829
X29.6522 Y17.6858
X29.6567 Y17.6952
X29.6582 Y17.698
X29.6633 Y17.7071
X29.6647 Y17.7095
X29.6703 Y17.7183
X29.6717 Y17.7204
X29.6778 Y17.729
X29.6795 Y17.7312
X29.6861 Y17.7395
X29.6871 Y17.7408
X29.694 Y17.7489
X29.6952 Y17.7502
X29.7025 Y17.7582
X29.7036 Y17.7594
X29.7112 Y17.7672
X29.7197 Y17.7756
X29.7284 Y17.7838
X29.7373 Y17.792
X29.7458 Y17.7997
X29.7543 Y17.8073
X29.7638 Y17.814
X29.783 Y17.8244
X29.8022 Y17.8347
X29.8216 Y17.8451
X29.8416 Y17.8553
X29.8614 Y17.8652
X29.8625 Y17.8657
X29.882 Y17.8749
X29.9022 Y17.8841
X29.9035 Y17.8847
X29.9232 Y17.893
X29.9246 Y17.8935
X29.9445 Y17.9012
X29.9461 Y17.9018
X29.9662 Y17.9088
X29.9678 Y17.9094
X29.9881 Y17.9157
X29.9899 Y17.9162
X30.0104 Y17.9217
X30.0121 Y17.9221
X30.0328 Y17.9269
X30.0345 Y17.9273
X30.0554 Y17.9314
X30.057 Y17.9317
X30.0781 Y17.9351
X30.0794 Y17.9352
X30.1007 Y17.9381
X30.1229 Y17.9408
X30.1241 Y17.9409
X30.1456 Y17.9429
X30.1681 Y17.9446
X30.1905 Y17.9459
X30.2128 Y17.947
X30.235 Y17.948
X30.2573 Y17.9487
X30.2792 Y17.9494
X30.282
X30.3023 Y17.9489
X30.3227 Y17.9484
X30.3435 Y17.9477
X30.364 Y17.9469
X30.3849 Y17.9457
X30.4058 Y17.9443
X30.4265 Y17.9425
X30.4278 Y17.9424
X30.4476 Y17.9402
X30.4684 Y17.9375
X30.47 Y17.9372
X30.4896 Y17.934
X30.4909 Y17.9338
X30.5103 Y17.9301
X30.5121 Y17.9297
X30.5313 Y17.9253
X30.5333 Y17.9248
X30.5523 Y17.9196
X30.5541 Y17.9191
X30.5729 Y17.9132
X30.5747 Y17.9126
X30.5932 Y17.906
X30.5951 Y17.9053
X30.6135 Y17.8979
X30.6147 Y17.8974
X30.6329 Y17.8895
X30.6343 Y17.8889
X30.6524 Y17.8804
X30.6534 Y17.8799
X30.6713 Y17.871
X30.6722 Y17.8705
X30.69 Y17.8612
X30.7085 Y17.851
X30.7264 Y17.8411
X30.7444 Y17.8309
X30.7622 Y17.8207
X30.7737 Y17.8116
X30.7868 Y17.7977
X30.8 Y17.7836
X30.8132 Y17.7693
X30.8264 Y17.7545
X30.8393 Y17.7397
X30.8401 Y17.7386
X30.8521 Y17.724
X30.8643 Y17.7087
X30.8654 Y17.7073
X30.8765 Y17.6923
X30.8775 Y17.6909
X30.888 Y17.6756
X30.8891 Y17.674
X30.899 Y17.6583
X30.9 Y17.6565
X30.9092 Y17.6405
X30.9103 Y17.6386
X30.9188 Y17.6222
X30.9199 Y17.62
X30.9276 Y17.6032
X30.9283 Y17.6015
X30.9354 Y17.5843
X30.936 Y17.5827
X30.9425 Y17.5653
X30.9431 Y17.5638
X30.9491 Y17.546
X30.9495 Y17.5447
X30.955 Y17.5268
X30.9553 Y17.5256
X30.9604 Y17.5074
X30.9607 Y17.5063
X30.9654 Y17.4879
X30.9701 Y17.4687
X30.9745 Y17.4493
X30.9778 Y17.4336
X31.6043 Y17.4612
X31.6017 Y17.4829
X31.5969 Y17.52
X31.5918 Y17.5566
X31.5862 Y17.5928
X31.5799 Y17.6284
X31.5728 Y17.6634
X31.5646 Y17.6977
X31.5556 Y17.7313
X31.5453 Y17.764
X31.5337 Y17.7959
X31.5207 Y17.827
X31.5063 Y17.8572
X31.4901 Y17.8867
X31.4724 Y17.916
X31.4622 Y17.9312
X31.4559 Y17.9354
X31.4484 Y17.9339
X31.4401 Y17.9284
X31.4342 Y17.9244 Z-0.3971
X31.4317 Y17.9228 Z-0.39
G0 Z5
X28.3913 Y16.6476
G1 Z1 F150
Z-0.39
X28.3942 Y16.6477 Z-0.3971
X28.4013 Y16.6481 Z-0.4
X28.4113 Y16.6486 F200
X28.4182 Y16.6519
X28.4207 Y16.6591
X28.4185 Y16.7023
X28.415 Y16.7649
X28.4111 Y16.8271
X28.4066 Y16.8889
X28.4011 Y16.9501
X28.3946 Y17.0108
X28.3869 Y17.0708
X28.3776 Y17.13
X28.3667 Y17.1885
X28.3539 Y17.246
X28.339 Y17.3025
X28.3218 Y17.358
X28.3021 Y17.4123
X28.2798 Y17.4658
X28.2549 Y17.5186
X28.2278 Y17.5708
X28.1985 Y17.6225
X28.1673 Y17.6738
X28.1346 Y17.7247
X28.1005 Y17.7754
X28.0653 Y17.8259
X28.0292 Y17.8763
X27.9925 Y17.9268
X27.9591 Y17.972
X27.9182 Y18.0052
X27.8723 Y18.0421
X27.8265 Y18.0783
X27.7806 Y18.1137
X27.7343 Y18.1479
X27.6879 Y18.181
X27.6411 Y18.2123
X27.5938 Y18.242
X27.546 Y18.2696
X27.4976 Y18.2951
X27.4486 Y18.3181
X27.3986 Y18.3384
X27.3475 Y18.3564
X27.2952 Y18.372
X27.2418 Y18.3856
X27.1876 Y18.3973
X27.1323 Y18.4073
X27.0762 Y18.4159
X27.0194 Y18.4231
X26.9619 Y18.4293
X26.9039 Y18.4347
X26.8455 Y18.4393
X26.7867 Y18.4436
X26.7302 Y18.4475
X26.6997 Y18.4464
X26.6668 Y18.4452
X26.634 Y18.4439
X26.6014 Y18.4425
X26.569 Y18.4407
X26.5366 Y18.4386
X26.5044 Y18.4362
X26.4724 Y18.4333
X26.4407 Y18.43
X26.4092 Y18.4261
X26.3778 Y18.4215
X26.3467 Y18.4164
X26.3158 Y18.4104
X26.2849 Y18.4037
X26.2541 Y18.3964
X26.2234 Y18.3883
X26.1926 Y18.3797
X26.1617 Y18.3706
X26.1309 Y18.3609
X26.1001 Y18.351
X26.0691 Y18.3407
X26.038 Y18.3302
X26.007 Y18.3195
X25.9788 Y18.3098
X25.9389 Y18.2902
X25.9179 Y18.2797
X25.897 Y18.2692
X25.8764 Y18.2585
X25.8559 Y18.2477
X25.8358 Y18.2367
X25.8159 Y18.2254
X25.7964 Y18.214
X25.7772 Y18.2021
X25.7583 Y18.1899
X25.7399 Y18.1774
X25.7217 Y18.1644
X25.7038 Y18.1509
X25.686 Y18.1369
X25.6683 Y18.1226
X25.651 Y18.1079
X25.6334 Y18.0927
X25.616 Y18.0773
X25.5988 Y18.0618
X25.5818 Y18.046
X25.5471 Y18.0136
X25.5315 Y17.9988
X25.5165 Y17.982
X25.5001 Y17.9634
X25.4839 Y17.9448
X25.4677 Y17.9262
X25.4519 Y17.9078
X25.4363 Y17.8891
X25.4208 Y17.8703
X25.4058 Y17.8517
X25.3912 Y17.8327
X25.3768 Y17.8136
X25.3629 Y17.7943
X25.3494 Y17.7749
X25.3364 Y17.7551
X25.3237 Y17.7351
X25.3112 Y17.7146
X25.2992 Y17.6941
X25.2874 Y17.6731
X25.2756 Y17.6518
X25.2642 Y17.6304
X25.2529 Y17.6088
X25.2416 Y17.587
X25.2306 Y17.565
X25.2194 Y17.5428
X25.2098 Y17.5235
X25.198 Y17.4896
X25.1852 Y17.4525
X25.1727 Y17.4156
X25.1604 Y17.3787
X25.1486 Y17.342
X25.1373 Y17.3053
X25.1265 Y17.2685
X25.1163 Y17.2317
X25.1069 Y17.195
X25.0983 Y17.1582
X25.0906 Y17.1213
X25.0838 Y17.0844
X25.0779 Y17.0471
X25.0727 Y17.0096
X25.0683 Y16.9719
X25.0646 Y16.9339
X25.0615 Y16.8958
X25.0589 Y16.8573
X25.0567 Y16.8187
X25.055 Y16.7801
X25.0535 Y16.7411
X25.0522 Y16.7021
X25.0511 Y16.6629
X25.05 Y16.6256
X25.0532 Y16.5659
X25.0568 Y16.5044
X25.0608 Y16.4431
X25.0654 Y16.3823
X25.0709 Y16.322
X25.0773 Y16.2624
X25.0851 Y16.2034
X25.0944 Y16.1451
X25.1052 Y16.0876
X25.118 Y16.031
X25.1327 Y15.9755
X25.1498 Y15.921
X25.1693 Y15.8676
X25.1915 Y15.8149
X25.216 Y15.763
X25.2429 Y15.7117
X25.2718 Y15.6608
X25.3025 Y15.6103
X25.3347 Y15.5602
X25.3684 Y15.5104
X25.4031 Y15.4607
X25.4387 Y15.4111
X25.4749 Y15.3616
X25.5076 Y15.3171
X25.5487 Y15.2842
X25.5947 Y15.2476
X25.6409 Y15.2115
X25.6871 Y15.1763
X25.7336 Y15.1422
X25.7803 Y15.1095
X25.8274 Y15.0783
X25.8749 Y15.0489
X25.9229 Y15.0214
X25.9715 Y14.9962
X26.0209 Y14.9734
X26.0711 Y14.9533
X26.1224 Y14.9355
X26.1748 Y14.9202
X26.2284 Y14.9067
X26.2829 Y14.8953
X26.3383 Y14.8855
X26.3946 Y14.8771
X26.4515 Y14.87
X26.5091 Y14.864
X26.5672 Y14.8588
X26.6258 Y14.8543
X26.6848 Y14.8502
X26.7407 Y14.8465
X26.7962 Y14.8503
X26.8548 Y14.8546
X26.913 Y14.8592
X26.9708 Y14.8645
X27.0281 Y14.8707
X27.0846 Y14.8778
X27.1405 Y14.8863
X27.1955 Y14.8963
X27.2496 Y14.9079
X27.3027 Y14.9214
X27.3548 Y14.937
X27.4056 Y14.9548
X27.4554 Y14.9751
X27.5043 Y14.998
X27.5526 Y15.0233
X27.6001 Y15.0507
X27.6472 Y15.0802
X27.6938 Y15.1116
X27.7402 Y15.1444
X27.7862 Y15.1785
X27.832 Y15.2137
X27.8777 Y15.2498
X27.9233 Y15.2864
X27.9639 Y15.3194
X27.9967 Y15.3644
X28.0331 Y15.4146
X28.0688 Y15.4648
X28.1037 Y15.5151
X28.1373 Y15.5656
X28.1697 Y15.6164
X28.2005 Y15.6675
X28.2295 Y15.719
X28.2563 Y15.7709
X28.281 Y15.8234
X28.3031 Y15.8767
X28.3226 Y15.9308
X28.3396 Y15.9859
X28.3544 Y16.0421
X28.3671 Y16.0992
X28.3779 Y16.1572
X28.3871 Y16.2161
X28.3947 Y16.2758
X28.4012 Y16.3361
X28.4066 Y16.3969
X28.4111 Y16.4583
X28.415 Y16.5202
X28.4185 Y16.5823
X28.4216 Y16.6421
X28.4207 Y16.6591
X28.4174 Y16.666
X28.4102 Y16.6686
X28.4002 Y16.668
X28.3932 Y16.6677 Z-0.3971
X28.3903 Y16.6675 Z-0.39
G0 Z5
X27.8047 Y16.6612
G1 Z1 F150
Z-0.39
X27.8018 Y16.6613 Z-0.3971
X27.7947 Y16.6615 Z-0.4
X27.7847 Y16.6618 F200
X27.7776 Y16.6591
X27.7744 Y16.6521
X27.7733 Y16.6154
X27.7719 Y16.573
X27.7702 Y16.5306
X27.768 Y16.4881
X27.7653 Y16.4456
X27.7619 Y16.4032
X27.7578 Y16.3609
X27.7576 Y16.3596
X27.7525 Y16.3186
X27.7523 Y16.3174
X27.7462 Y16.2767
X27.746 Y16.2751
X27.7386 Y16.2348
X27.7383 Y16.2333
X27.7297 Y16.1934
X27.7292 Y16.1914
X27.719 Y16.1519
X27.7184 Y16.1499
X27.7066 Y16.111
X27.706 Y16.1089
X27.6925 Y16.0706
X27.6917 Y16.0687
X27.6766 Y16.0309
X27.6759 Y16.029
X27.6592 Y15.9916
X27.6584 Y15.9901
X27.6404 Y15.9532
X27.6398 Y15.9519
X27.6207 Y15.9154
X27.6201 Y15.9143
X27.5999 Y15.878
X27.5994 Y15.8771
X27.5784 Y15.8412
X27.5564 Y15.8048
X27.5338 Y15.7685
X27.5111 Y15.7327
X27.4884 Y15.6972
X27.4799 Y15.6871
X27.4548 Y15.6643
X27.4295 Y15.6414
X27.4039 Y15.6187
X27.3779 Y15.5962
X27.3515 Y15.5743
X27.3507 Y15.5736
X27.3246 Y15.5528
X27.3235 Y15.552
X27.2971 Y15.5321
X27.2959 Y15.5312
X27.2691 Y15.5122
X27.2674 Y15.5111
X27.24 Y15.4933
X27.2384 Y15.4922
X27.2105 Y15.4756
X27.2084 Y15.4745
X27.1799 Y15.4593
X27.1776 Y15.4581
X27.1485 Y15.4445
X27.1461 Y15.4435
X27.1162 Y15.4314
X27.1136 Y15.4304
X27.083 Y15.4199
X27.081 Y15.4193
X27.0499 Y15.4101
X27.0479 Y15.4095
X27.0162 Y15.4015
X27.0145 Y15.4011
X26.9823 Y15.3942
X26.9807 Y15.3939
X26.9482 Y15.388
X26.9469 Y15.3878
X26.9139 Y15.3827
X26.9129 Y15.3825
X26.8797 Y15.3781
X26.8454 Y15.3741
X26.8111 Y15.3706
X26.7768 Y15.3673
X26.7427 Y15.3643
X26.7338
X26.6997 Y15.3674
X26.6654 Y15.3707
X26.6313 Y15.3743
X26.5968 Y15.3783
X26.5625 Y15.3829
X26.5614 Y15.3831
X26.5283 Y15.3883
X26.5271 Y15.3885
X26.4943 Y15.3945
X26.4927 Y15.3948
X26.4603 Y15.4018
X26.4586 Y15.4022
X26.4267 Y15.4103
X26.4248 Y15.4109
X26.3935 Y15.4202
X26.3913 Y15.4209
X26.3605 Y15.4316
X26.3582 Y15.4324
X26.3282 Y15.4445
X26.3257 Y15.4456
X26.2963 Y15.4594
X26.294 Y15.4606
X26.2653 Y15.4759
X26.2633 Y15.477
X26.2352 Y15.4937
X26.2334 Y15.4948
X26.2059 Y15.5127
X26.2044 Y15.5137
X26.1773 Y15.5328
X26.1761 Y15.5337
X26.1495 Y15.5537
X26.1483 Y15.5546
X26.1221 Y15.5755
X26.0953 Y15.5977
X26.069 Y15.6204
X26.043 Y15.6433
X26.0173 Y15.6664
X25.9918 Y15.6896
X25.9835 Y15.6993
X25.9608 Y15.7342
X25.9382 Y15.7694
X25.9158 Y15.8048
X25.8938 Y15.8405
X25.8724 Y15.8766
X25.8719 Y15.8775
X25.8517 Y15.9132
X25.8511 Y15.9143
X25.8319 Y15.9503
X25.8312 Y15.9516
X25.8132 Y15.988
X25.8125 Y15.9894
X25.7957 Y16.0262
X25.7949 Y16.028
X25.7796 Y16.0653
X25.7789 Y16.0674
X25.7653 Y16.1052
X25.7645 Y16.1073
X25.7526 Y16.1457
X25.7521 Y16.1477
X25.7418 Y16.1866
X25.7413 Y16.1885
X25.7325 Y16.2279
X25.7322 Y16.2295
X25.7247 Y16.2693
X25.7244 Y16.2709
X25.7181 Y16.3111
X25.7179 Y16.3124
X25.7127 Y16.353
X25.7126 Y16.3542
X25.7083 Y16.3951
X25.7082 Y16.3962
X25.7048 Y16.4373
X25.7019 Y16.4793
X25.6996 Y16.5215
X25.6977 Y16.5637
X25.6961 Y16.6057
X25.6946 Y16.6476
Y16.651
X25.6972 Y16.7344
X25.6988 Y16.7762
X25.701 Y16.8183
X25.7035 Y16.86
X25.7068 Y16.902
Y16.903
X25.7108 Y16.9438
X25.711 Y16.9449
X25.7159 Y16.9854
X25.716 Y16.9868
X25.722 Y17.027
X25.7223 Y17.0285
X25.7295 Y17.0683
X25.7298 Y17.0699
X25.7383 Y17.1093
X25.7388 Y17.1112
X25.7488 Y17.1501
X25.7493 Y17.152
X25.7608 Y17.1904
X25.7615 Y17.1926
X25.7747 Y17.2304
X25.7754 Y17.2324
X25.7903 Y17.2698
X25.7911 Y17.2717
X25.8075 Y17.3085
X25.8082 Y17.3099
X25.8259 Y17.3464
X25.8266 Y17.3478
X25.8455 Y17.3839
X25.8461 Y17.385
X25.866 Y17.4207
X25.8872 Y17.4571
X25.9089 Y17.493
X25.931 Y17.5287
X25.9535 Y17.5641
X25.976 Y17.5993
X25.9848 Y17.6096
X26.0104 Y17.6325
X26.0362 Y17.6554
X26.0623 Y17.6782
X26.0888 Y17.7007
X26.1157 Y17.7228
X26.1166 Y17.7235
X26.1432 Y17.7443
X26.1443 Y17.7451
X26.1712 Y17.765
X26.1724 Y17.7659
X26.1998 Y17.7849
X26.2013 Y17.7859
X26.2291 Y17.8037
X26.231 Y17.8048
X26.2594 Y17.8213
X26.2616 Y17.8225
X26.2907 Y17.8375
X26.2929 Y17.8386
X26.3226 Y17.8521
X26.3251 Y17.8532
X26.3555 Y17.8651
X26.358 Y17.866
X26.3891 Y17.8763
X26.3911 Y17.8769
X26.4227 Y17.8859
X26.4246 Y17.8864
X26.4568 Y17.8942
X26.4586 Y17.8946
X26.4913 Y17.9013
X26.4928 Y17.9016
X26.5259 Y17.9073
X26.5271 Y17.9075
X26.5605 Y17.9124
X26.5616 Y17.9125
X26.5954 Y17.9167
X26.6301 Y17.9205
X26.665 Y17.9238
X26.6996 Y17.9268
X26.7341 Y17.9297
X26.7418 Y17.9298
X26.7763 Y17.927
X26.8106 Y17.9241
X26.8448 Y17.921
X26.8793 Y17.9173
X26.9135 Y17.9131
X26.9476 Y17.9083
X26.949 Y17.9081
X26.9819 Y17.9025
X26.9833 Y17.9022
X27.0157 Y17.8957
X27.0175 Y17.8953
X27.0495 Y17.8877
X27.0514 Y17.8872
X27.0828 Y17.8784
X27.0848 Y17.8778
X27.1157 Y17.8677
X27.1183 Y17.8668
X27.1485 Y17.8551
X27.1508 Y17.8541
X27.1803 Y17.8409
X27.1828 Y17.8397
X27.2117 Y17.8248
X27.2137 Y17.8238
X27.2419 Y17.8076
X27.2438 Y17.8064
X27.2715 Y17.7888
X27.2729 Y17.7879
X27.3001 Y17.7693
X27.3015 Y17.7683
X27.3283 Y17.7486
X27.3295 Y17.7477
X27.3558 Y17.7271
X27.3826 Y17.7053
X27.4093 Y17.6828
X27.4354 Y17.6602
X27.4613 Y17.6372
X27.4868 Y17.6144
X27.4957 Y17.604
X27.5179 Y17.5693
X27.5401 Y17.5342
X27.562 Y17.499
X27.5835 Y17.4633
X27.6044 Y17.4274
X27.6049 Y17.4264
X27.6246 Y17.3908
X27.6252 Y17.3897
X27.6439 Y17.3538
X27.6446 Y17.3525
X27.6622 Y17.3162
X27.6629 Y17.3146
X27.6791 Y17.278
X27.6799 Y17.2763
X27.6947 Y17.2391
X27.6954 Y17.2371
X27.7085 Y17.1994
X27.7092 Y17.1973
X27.7206 Y17.159
X27.7211 Y17.1571
X27.731 Y17.1184
X27.7315 Y17.1165
X27.7399 Y17.0774
X27.7402 Y17.0757
X27.7473 Y17.0361
X27.7476 Y17.0346
X27.7535 Y16.9946
X27.7536 Y16.9933
X27.7585 Y16.9531
X27.7587 Y16.9519
X27.7626 Y16.9113
X27.7658 Y16.8695
X27.7684 Y16.8276
X27.7704 Y16.7858
X27.7721 Y16.744
X27.7734 Y16.7022
X27.7746 Y16.6606
Y16.6577
X27.7744 Y16.6521
X27.7771 Y16.6449
X27.7841 Y16.6418
X27.7941 Y16.6415
X27.8012 Y16.6413 Z-0.3971
X27.8041 Y16.6412 Z-0.39
G0 Z5
X80.3732 Y17.7054
G1 Z1 F150
Z-0.39
X80.3745 Y17.708 Z-0.3971
X80.3777 Y17.7143 Z-0.4
X80.3822 Y17.7232 F200
X80.3828 Y17.7309
X80.3778 Y17.7367
X80.3578 Y17.7551
X80.3504 Y17.7813
Y18.0682
X80.05
Y14.5818
X80.3895
Y15.794
X80.3952 Y15.8172
X80.4111 Y15.8351
X80.4334 Y15.8436
X80.4572 Y15.8408
X80.4769 Y15.8272
X80.4871 Y15.8157
X80.4974 Y15.8043
X80.5076 Y15.7929
X80.5179 Y15.7818
X80.5282 Y15.7707
X80.5385 Y15.7599
X80.5488 Y15.7493
X80.5592 Y15.739
X80.5696 Y15.7291
X80.5803 Y15.7192
X80.5909 Y15.7098
X80.6016 Y15.7009
X80.613 Y15.6919
X80.6243 Y15.6832
X80.6359 Y15.6749
X80.6479 Y15.6664
X80.66 Y15.6583
X80.6725 Y15.6501
X80.6851 Y15.6422
X80.6979 Y15.6342
X80.7109 Y15.6263
X80.7239 Y15.6185
X80.7371 Y15.6107
X80.7481 Y15.6041
X80.7609 Y15.5985
X80.7765 Y15.5917
X80.792 Y15.585
X80.8075 Y15.5784
X80.8227 Y15.5722
X80.838 Y15.5662
X80.8531 Y15.5605
X80.8683 Y15.5551
X80.8834 Y15.55
X80.8983 Y15.5454
X80.9133 Y15.5413
X80.9284 Y15.5375
X80.9435 Y15.5342
X80.9588 Y15.5314
X80.9744 Y15.5289
X80.9901 Y15.5267
X81.0062 Y15.5248
X81.0225 Y15.5232
X81.0389 Y15.5217
X81.0554 Y15.5205
X81.072 Y15.5194
X81.0888 Y15.5185
X81.106 Y15.5176
X81.1199 Y15.5169
X81.142 Y15.5186
X81.1672 Y15.5205
X81.192 Y15.5227
X81.2168 Y15.525
X81.2411 Y15.5275
X81.2653 Y15.5304
X81.2892 Y15.5337
X81.3128 Y15.5374
X81.3361 Y15.5416
X81.3589 Y15.5465
X81.3817 Y15.5521
X81.404 Y15.5582
X81.426 Y15.5652
X81.448 Y15.5729
X81.4699 Y15.5814
X81.4919 Y15.5905
X81.5137 Y15.6002
X81.5357 Y15.6105
X81.5577 Y15.6211
X81.5795 Y15.6322
X81.6016 Y15.6437
X81.6237 Y15.6554
X81.6459 Y15.6672
X81.6648 Y15.6775
X81.7056 Y15.708
X81.7271 Y15.7243
X81.7482 Y15.7406
X81.7689 Y15.7571
X81.7892 Y15.7738
X81.809 Y15.7907
X81.8283 Y15.8078
X81.8468 Y15.8253
X81.8648 Y15.8431
X81.8819 Y15.8612
X81.8983 Y15.88
X81.9141 Y15.8994
X81.9293 Y15.9193
X81.9439 Y15.94
X81.9582 Y15.9612
X81.972 Y15.9831
X81.9856 Y16.0054
X81.9988 Y16.0281
X82.0117 Y16.0512
X82.0246 Y16.0748
X82.0373 Y16.0985
X82.0499 Y16.1225
X82.0612 Y16.1441
X82.071 Y16.17
X82.0816 Y16.1987
X82.0922 Y16.2275
X82.1025 Y16.2561
X82.1125 Y16.2847
X82.1221 Y16.3132
X82.1313 Y16.3417
X82.1399 Y16.3702
X82.148 Y16.3987
X82.1555 Y16.4272
X82.1622 Y16.4557
X82.1683 Y16.4844
X82.1736 Y16.5131
X82.1782 Y16.5421
X82.1822 Y16.5714
X82.1857 Y16.601
X82.1887 Y16.6306
X82.1913 Y16.6606
X82.1935 Y16.6906
X82.1954 Y16.7208
X82.197 Y16.7513
X82.1984 Y16.7819
X82.1997 Y16.8126
X82.201 Y16.8414
X82.1998 Y16.8684
X82.1986 Y16.8975
X82.1973 Y16.9264
X82.1958 Y16.9552
X82.194 Y16.9838
X82.192 Y17.0123
X82.1897 Y17.0406
X82.187 Y17.0687
X82.1838 Y17.0967
X82.1801 Y17.1244
X82.1759 Y17.152
X82.1712 Y17.1792
X82.1657 Y17.2064
X82.1596 Y17.2335
X82.1529 Y17.2607
X82.1457 Y17.2878
X82.1379 Y17.3149
X82.1297 Y17.342
X82.1211 Y17.3692
X82.1122 Y17.3965
X82.1031 Y17.4237
X82.0937 Y17.451
X82.0841 Y17.4785
X82.0754 Y17.5032
X82.0652 Y17.5243
X82.0536 Y17.5479
X82.0422 Y17.5711
X82.0305 Y17.594
X82.0187 Y17.6168
X82.0067 Y17.6389
X81.9944 Y17.6608
X81.9818 Y17.6822
X81.9687 Y17.7031
X81.9553 Y17.7235
X81.9414 Y17.7431
X81.9269 Y17.7623
X81.9118 Y17.7807
X81.8958 Y17.7988
X81.8793 Y17.8166
X81.8621 Y17.8339
X81.8442 Y17.851
X81.8258 Y17.8679
X81.8068 Y17.8847
X81.7875 Y17.9012
X81.7677 Y17.9177
X81.7477 Y17.9341
X81.7274 Y17.9504
X81.7103 Y17.9643
X81.6685 Y17.9875
X81.6461 Y17.9998
X81.6238 Y18.0117
X81.6013 Y18.0234
X81.579 Y18.0346
X81.5568 Y18.0451
X81.5343 Y18.0551
X81.5119 Y18.0645
X81.4895 Y18.0732
X81.4672 Y18.081
X81.4446 Y18.0879
X81.4218 Y18.0941
X81.3986 Y18.0994
X81.3749 Y18.1041
X81.3509 Y18.1083
X81.3267 Y18.1118
X81.3021 Y18.1149
X81.2772 Y18.1175
X81.2521 Y18.1199
X81.2267 Y18.1218
X81.201 Y18.1236
X81.1752 Y18.1253
X81.1517 Y18.1267
X81.1355 Y18.1261
X81.117 Y18.1254
X81.0986 Y18.1245
X81.0803 Y18.1234
X81.0619 Y18.1222
X81.044 Y18.1209
X81.0263 Y18.1193
X81.0087 Y18.1173
X80.9912 Y18.115
X80.9741 Y18.1124
X80.9572 Y18.1093
X80.9405 Y18.1059
X80.9242 Y18.1019
X80.9077 Y18.0974
X80.8912 Y18.0923
X80.8748 Y18.0869
X80.8585 Y18.081
X80.8418 Y18.0746
X80.8251 Y18.068
X80.8085 Y18.0611
X80.7916 Y18.0538
X80.7749 Y18.0464
X80.7579 Y18.0388
X80.7442 Y18.0326
X80.7167 Y18.0148
X80.7016 Y18.0049
X80.6869 Y17.9951
X80.6722 Y17.9849
X80.6577 Y17.9748
X80.6435 Y17.9645
X80.6297 Y17.9542
X80.6162 Y17.9436
X80.603 Y17.9328
X80.5902 Y17.9219
X80.5779 Y17.9107
X80.5657 Y17.899
X80.5536 Y17.8868
X80.5419 Y17.8745
X80.5302 Y17.8617
X80.5187 Y17.8487
X80.5074 Y17.8354
X80.496 Y17.8216
X80.4848 Y17.8079
X80.4624 Y17.7796
X80.4512 Y17.7652
X80.4398 Y17.7506
X80.4221 Y17.7363
X80.3999 Y17.7313
X80.3778 Y17.7367
X80.3702 Y17.7373
X80.3644 Y17.7323
X80.3599 Y17.7234
X80.3567 Y17.717 Z-0.3971
X80.3554 Y17.7144 Z-0.39
G0 Z5
X80.445 Y17.4359
G1 Z1 F150
Z-0.39
X80.4476 Y17.4346 Z-0.3971
X80.4539 Y17.4313 Z-0.4
X80.4627 Y17.4267 F200
X80.4704 Y17.426
X80.4762 Y17.4309
X80.4837 Y17.4454
X80.4843 Y17.4464
X80.5005 Y17.4759
X80.5175 Y17.5059
X80.5348 Y17.5356
X80.5524 Y17.5653
X80.5698 Y17.5945
X80.5764 Y17.6031
X80.5935 Y17.6213
X80.6107 Y17.6395
X80.6281 Y17.6576
X80.646 Y17.6758
X80.6641 Y17.6935
X80.665 Y17.6944
X80.6829 Y17.7111
X80.6838 Y17.7119
X80.7019 Y17.728
X80.7029 Y17.7288
X80.7213 Y17.7443
X80.7228 Y17.7456
X80.7417 Y17.7603
X80.7433 Y17.7615
X80.7626 Y17.7753
X80.7644 Y17.7765
X80.7842 Y17.7894
X80.7864 Y17.7907
X80.8067 Y17.8025
X80.8092 Y17.8039
X80.8301 Y17.8145
X80.8326 Y17.8157
X80.8542 Y17.8252
X80.8565 Y17.8261
X80.8785 Y17.8345
X80.8807 Y17.8353
X80.9033 Y17.8427
X80.9051 Y17.8433
X80.9281 Y17.8499
X80.9299 Y17.8503
X80.9533 Y17.8561
X80.9548 Y17.8565
X80.9786 Y17.8616
X80.9797 Y17.8618
X81.0037 Y17.8664
X81.0287 Y17.8708
X81.0539 Y17.8748
X81.079 Y17.8785
X81.1035 Y17.8821
X81.1172 Y17.8822
X81.1411 Y17.8791
X81.165 Y17.876
X81.1891 Y17.8726
X81.2135 Y17.8688
X81.2375 Y17.8647
X81.2389 Y17.8644
X81.2619 Y17.8598
X81.2632 Y17.8595
X81.286 Y17.8543
X81.2876 Y17.854
X81.31 Y17.8481
X81.3121 Y17.8475
X81.3341 Y17.8407
X81.3362 Y17.84
X81.3577 Y17.8323
X81.3599 Y17.8314
X81.381 Y17.8227
X81.3836 Y17.8216
X81.404 Y17.8118
X81.4065 Y17.8105
X81.4264 Y17.7995
X81.4287 Y17.7981
X81.4481 Y17.786
X81.45 Y17.7847
X81.4688 Y17.7717
X81.4704 Y17.7706
X81.4889 Y17.7567
X81.4904 Y17.7555
X81.5084 Y17.7409
X81.5095 Y17.74
X81.5273 Y17.7247
X81.5285 Y17.7236
X81.5459 Y17.7076
X81.5637 Y17.6908
X81.5644 Y17.6901
X81.5814 Y17.6733
X81.5988 Y17.6557
X81.6159 Y17.6381
X81.6327 Y17.6207
X81.6398 Y17.6114
X81.6566 Y17.5829
X81.6733 Y17.5546
X81.6901 Y17.5254
X81.7064 Y17.4963
X81.7224 Y17.4668
X81.7378 Y17.437
X81.7384 Y17.4359
X81.7526 Y17.4067
X81.7532 Y17.4053
X81.7665 Y17.3759
X81.7671 Y17.3744
X81.7794 Y17.3446
X81.7801 Y17.3429
X81.7913 Y17.3127
X81.792 Y17.3107
X81.8019 Y17.2802
X81.8024 Y17.2784
X81.8111 Y17.2474
X81.8117 Y17.2454
X81.8191 Y17.2142
X81.8194 Y17.2125
X81.8257 Y17.1809
X81.826 Y17.1794
X81.8314 Y17.1475
X81.8316 Y17.146
X81.836 Y17.1138
X81.8362 Y17.1127
X81.8399 Y17.0804
X81.84 Y17.0791
X81.8429 Y17.0465
X81.8454 Y17.0129
X81.8472 Y16.9791
X81.8487 Y16.9456
X81.8499 Y16.9119
X81.8509 Y16.8785
X81.8518 Y16.8452
Y16.8426
X81.851 Y16.8082
X81.8501 Y16.7737
X81.849 Y16.7391
X81.8476 Y16.7045
X81.8457 Y16.6698
X81.8434 Y16.635
X81.8404 Y16.6003
X81.8403 Y16.5991
X81.8366 Y16.5656
X81.8364 Y16.5644
X81.8319 Y16.5311
X81.8317 Y16.5297
X81.8263 Y16.4966
X81.8261 Y16.4951
X81.8197 Y16.4624
X81.8193 Y16.4606
X81.8117 Y16.4282
X81.8112 Y16.4263
X81.8024 Y16.3943
X81.8018 Y16.3924
X81.7917 Y16.3608
X81.791 Y16.3588
X81.7795 Y16.3275
X81.7789 Y16.3258
X81.7663 Y16.2949
X81.7656 Y16.2933
X81.7519 Y16.2628
X81.7513 Y16.2616
X81.7367 Y16.2313
X81.7362 Y16.2301
X81.7206 Y16.2
X81.7041 Y16.1693
X81.6871 Y16.1389
X81.6699 Y16.1088
X81.6523 Y16.0789
X81.6348 Y16.0493
X81.6273 Y16.0395
X81.6099 Y16.022
X81.5924 Y16.0045
X81.5745 Y15.987
X81.5565 Y15.9697
X81.5558 Y15.969
X81.5379 Y15.9525
X81.5192 Y15.9359
X81.5181 Y15.935
X81.4997 Y15.9196
X81.4985 Y15.9186
X81.4798 Y15.9039
X81.4783 Y15.9028
X81.4592 Y15.8889
X81.4577 Y15.8878
X81.4382 Y15.8747
X81.436 Y15.8733
X81.416 Y15.8613
X81.4139 Y15.8601
X81.3934 Y15.8491
X81.3909 Y15.8479
X81.3698 Y15.8381
X81.3674 Y15.837
X81.3458 Y15.8283
X81.3433 Y15.8274
X81.3211 Y15.8198
X81.3192 Y15.8192
X81.2967 Y15.8125
X81.2946 Y15.8119
X81.2716 Y15.8061
X81.2702 Y15.8058
X81.2468 Y15.8006
X81.2454 Y15.8003
X81.2218 Y15.7958
X81.2204 Y15.7955
X81.1964 Y15.7916
X81.1717 Y15.7879
X81.1467 Y15.7846
X81.122 Y15.7815
X81.0972 Y15.7785
X81.0855
X81.0616 Y15.7813
X81.0376 Y15.7843
X81.0133 Y15.7874
X80.9891 Y15.7909
X80.988 Y15.7911
X80.9646 Y15.795
X80.9406 Y15.7994
X80.9392 Y15.7997
X80.9163 Y15.8046
X80.9145 Y15.805
X80.892 Y15.8107
X80.8904 Y15.8112
X80.8683 Y15.8176
X80.8661 Y15.8183
X80.8444 Y15.8257
X80.8421 Y15.8265
X80.8209 Y15.8349
X80.8184 Y15.836
X80.7977 Y15.8455
X80.7953 Y15.8467
X80.7752 Y15.8573
X80.7729 Y15.8586
X80.7533 Y15.8703
X80.7513 Y15.8715
X80.7321 Y15.8842
X80.7304 Y15.8854
X80.7117 Y15.8989
X80.7102 Y15.9
X80.6918 Y15.9144
X80.6907 Y15.9153
X80.6727 Y15.9302
X80.6716 Y15.9311
X80.6538 Y15.9467
X80.6529 Y15.9475
X80.6354 Y15.9636
X80.6176 Y15.9805
X80.6 Y15.9976
X80.5826 Y16.0147
X80.5652 Y16.032
X80.5576 Y16.0419
X80.5408 Y16.0703
X80.524 Y16.0987
X80.5074 Y16.1277
X80.4911 Y16.1565
X80.4906 Y16.1574
X80.4751 Y16.1862
X80.4598 Y16.2159
X80.4592 Y16.217
X80.4451 Y16.2461
X80.4445 Y16.2474
X80.4313 Y16.2768
X80.4306 Y16.2783
X80.4184 Y16.308
X80.4178 Y16.3097
X80.4067 Y16.3396
X80.406 Y16.3417
X80.3962 Y16.3722
X80.3956 Y16.3742
X80.3871 Y16.405
X80.3866 Y16.4069
X80.3793 Y16.438
X80.3789 Y16.4397
X80.3727 Y16.4712
X80.3725 Y16.4728
X80.3673 Y16.5046
X80.367 Y16.506
X80.3627 Y16.538
X80.3626 Y16.5392
X80.359 Y16.5715
X80.3589 Y16.5727
X80.3561 Y16.6052
X80.3538 Y16.6388
X80.352 Y16.6723
X80.3506 Y16.706
X80.3495 Y16.7393
X80.3487 Y16.7729
X80.3479 Y16.806
Y16.8088
X80.3501 Y16.877
X80.3515 Y16.9115
X80.3532 Y16.9458
X80.3553 Y16.9803
X80.3579 Y17.0147
X80.3612 Y17.0491
X80.3613 Y17.0501
X80.3652 Y17.0834
X80.3654 Y17.0848
X80.3702 Y17.1178
X80.3704 Y17.1192
X80.3761 Y17.1519
X80.3764 Y17.1534
X80.3831 Y17.1858
X80.3835 Y17.1875
X80.3913 Y17.2196
X80.3918 Y17.2216
X80.4009 Y17.2533
X80.4016 Y17.2553
X80.4119 Y17.2866
X80.4126 Y17.2885
X80.4243 Y17.3194
X80.425 Y17.3211
X80.4379 Y17.3517
X80.4386 Y17.3532
X80.4525 Y17.3834
X80.453 Y17.3845
X80.4677 Y17.4145
X80.4682 Y17.4156
X80.4762 Y17.4309
X80.4769 Y17.4386
X80.472 Y17.4444
X80.4631 Y17.449
X80.4568 Y17.4523 Z-0.3971
X80.4542 Y17.4536 Z-0.39
G0 Z5
X83.2116 Y17.4181
G1 Z1 F150
Z-0.39
X83.2143 Y17.4171 Z-0.3971
X83.2209 Y17.4146 Z-0.4
X83.2303 Y17.4111 F200
X83.2379 Y17.4113
X83.2432 Y17.4169
X83.2462 Y17.4249
X83.2509 Y17.4369
X83.2556 Y17.4487
X83.2603 Y17.4604
X83.2654 Y17.4725
X83.2705 Y17.4843
X83.2711 Y17.4856
X83.2763 Y17.4967
X83.2819 Y17.5082
X83.2825 Y17.5095
X83.2881 Y17.5203
X83.2888 Y17.5216
X83.2947 Y17.5322
X83.2955 Y17.5335
X83.3017 Y17.5439
X83.3027 Y17.5457
X83.3093 Y17.5558
X83.3104 Y17.5573
X83.3174 Y17.5672
X83.3184 Y17.5686
X83.3257 Y17.5782
X83.3268 Y17.5796
X83.3345 Y17.589
X83.3356 Y17.5903
X83.3437 Y17.5994
X83.3444 Y17.6003
X83.3527 Y17.6093
X83.3535 Y17.6101
X83.362 Y17.6189
X83.3628 Y17.6198
X83.3716 Y17.6284
X83.3809 Y17.6374
X83.3905 Y17.6464
X83.3998 Y17.6549
X83.4094 Y17.6636
X83.4186 Y17.6719
X83.425 Y17.6768
X83.4448 Y17.6896
X83.455 Y17.6961
X83.4655 Y17.7026
X83.476 Y17.7089
X83.4863 Y17.715
X83.4876 Y17.7157
X83.4978 Y17.7213
X83.4988 Y17.7219
X83.509 Y17.7272
X83.5103 Y17.7278
X83.5206 Y17.7328
X83.5218 Y17.7334
X83.5322 Y17.7381
X83.534 Y17.7388
X83.5446 Y17.7431
X83.5463 Y17.7438
X83.557 Y17.7477
X83.5592 Y17.7484
X83.5701 Y17.7518
X83.5714 Y17.7522
X83.5824 Y17.7553
X83.5846 Y17.7559
X83.5957 Y17.7585
X83.597 Y17.7588
X83.6082 Y17.7611
X83.6097 Y17.7613
X83.6211 Y17.7633
X83.6223 Y17.7636
X83.6337 Y17.7653
X83.6461 Y17.7669
X83.6586 Y17.7683
X83.6708 Y17.7695
X83.6832 Y17.7706
X83.6949 Y17.7716
X83.7071 Y17.7726
X83.7151 Y17.7725
X83.7294 Y17.7713
X83.7436 Y17.7701
X83.7582 Y17.7688
X83.773 Y17.7672
X83.7875 Y17.7656
X83.8019 Y17.7638
X83.8033 Y17.7636
X83.8173 Y17.7615
X83.832 Y17.7591
X83.8331 Y17.7589
X83.8469 Y17.7563
X83.8482 Y17.7561
X83.862 Y17.7531
X83.8632 Y17.7528
X83.8768 Y17.7495
X83.879 Y17.7489
X83.8924 Y17.745
X83.8934 Y17.7447
X83.9068 Y17.7405
X83.9086 Y17.7399
X83.9218 Y17.7352
X83.9228 Y17.7348
X83.9359 Y17.7298
X83.95 Y17.7241
X83.9514 Y17.7235
X83.9643 Y17.7178
X83.9778 Y17.7117
X83.9913 Y17.7052
X84.0047 Y17.6986
X84.006 Y17.6979
X84.1228 Y18.0123
X84.1079 Y18.0204
X84.0905 Y18.0297
X84.0732 Y18.0387
X84.0561 Y18.0474
X84.039 Y18.0557
X84.0218 Y18.0635
X84.0046 Y18.071
X83.9875 Y18.078
X83.9705 Y18.0844
X83.9533 Y18.0902
X83.9359 Y18.0954
X83.9183 Y18.1001
X83.9007 Y18.1042
X83.8825 Y18.1079
X83.864 Y18.1112
X83.8453 Y18.1141
X83.8263 Y18.1167
X83.807 Y18.1191
X83.7878 Y18.1213
X83.7682 Y18.1232
X83.7483 Y18.1251
X83.7323 Y18.1266
X83.724 Y18.126
X83.7117 Y18.1251
X83.6994 Y18.124
X83.6875 Y18.1229
X83.6757 Y18.1216
X83.6639 Y18.1202
X83.6525 Y18.1186
X83.6414 Y18.1168
X83.6305 Y18.1148
X83.6199 Y18.1124
X83.6096 Y18.1099
X83.5996 Y18.1069
X83.5893 Y18.1035
X83.5792 Y18.0998
X83.5694 Y18.0958
X83.5592 Y18.0912
X83.5489 Y18.0864
X83.5386 Y18.0812
X83.5282 Y18.0758
X83.5177 Y18.0701
X83.5071 Y18.0643
X83.4965 Y18.0583
X83.4858 Y18.052
X83.4797 Y18.0485
X83.4697 Y18.0392
X83.4557 Y18.0262
X83.442 Y18.0132
X83.4284 Y18.0001
X83.4152 Y17.9872
X83.4022 Y17.974
X83.3894 Y17.9607
X83.3771 Y17.9475
X83.3652 Y17.9341
X83.3538 Y17.9205
X83.3426 Y17.9065
X83.3317 Y17.8923
X83.3212 Y17.8777
X83.3108 Y17.8628
X83.3007 Y17.8476
X83.2908 Y17.8321
X83.2811 Y17.8165
X83.2715 Y17.8004
X83.2619 Y17.7842
X83.2525 Y17.7678
X83.2431 Y17.7513
X83.2245 Y17.7179
X83.2153 Y17.7011
X83.1972 Y17.6823
X83.1721 Y17.6751
X83.1468 Y17.6816
X83.1282 Y17.6999
X83.1214 Y17.7251
Y18.0682
X82.8259
Y15.5754
X83.1653
Y16.8829
Y16.8845
X83.1667 Y16.9279
X83.1674 Y16.9496
X83.1682 Y16.9715
X83.1693 Y16.9936
X83.1705 Y17.0158
X83.1718 Y17.0376
X83.1734 Y17.0599
X83.1753 Y17.0819
X83.1774 Y17.1041
X83.18 Y17.1264
X83.1829 Y17.1485
X83.1862 Y17.1708
X83.19 Y17.193
X83.194 Y17.2149
X83.1984 Y17.2368
X83.2031 Y17.2589
X83.2079 Y17.2802
X83.2131 Y17.3019
X83.2184 Y17.3235
X83.2237 Y17.3447
X83.2292 Y17.366
X83.2347 Y17.3872
X83.2402 Y17.4083
X83.2419 Y17.4133
X83.2432 Y17.4169
X83.243 Y17.4245
X83.2374 Y17.4298
X83.228 Y17.4333
X83.2214 Y17.4358 Z-0.3971
X83.2187 Y17.4368 Z-0.39
G0 Z5
X84.8077 Y17.8885
G1 Z1 F150
Z-0.39
X84.8106 Z-0.3971
X84.8177 Z-0.4
X84.8277 F200
X84.8348 Y17.8914
X84.8377 Y17.8985
Y18.0682
X84.4982
Y15.5754
X84.8377
Y17.8985
X84.8348 Y17.9055
X84.8277 Y17.9084
X84.8177
X84.8106 Z-0.3971
X84.8077 Z-0.39
G0 Z5
Y18.8748
G1 Z1 F150
Z-0.39
X84.8106 Z-0.3971
X84.8177 Z-0.4
X84.8277 F200
X84.8348 Y18.8777
X84.8377 Y18.8848
Y19.0545
X84.4982
Y18.6492
X84.8377
Y18.8848
X84.8348 Y18.8918
X84.8277 Y18.8948
X84.8177
X84.8106 Z-0.3971
X84.8077 Z-0.39
G0 Z5
X85.9889 Y17.4282
G1 Z1 F150
Z-0.39
X85.9915 Y17.427 Z-0.3971
X85.998 Y17.424 Z-0.4
X86.007 Y17.4198 F200
X86.0147 Y17.4195
X86.0203 Y17.4247
X86.0246 Y17.434
X86.0255 Y17.4357
X86.0389 Y17.4622
X86.0399 Y17.4639
X86.0545 Y17.49
X86.0552 Y17.4912
X86.0706 Y17.517
X86.0713 Y17.5182
X86.0875 Y17.5437
X86.1046 Y17.5698
X86.1223 Y17.5957
X86.14 Y17.6212
X86.1578 Y17.6465
X86.1695 Y17.6583
X86.1877 Y17.6714
X86.206 Y17.6845
X86.2244 Y17.6975
X86.2432 Y17.7105
X86.2624 Y17.7232
X86.2818 Y17.7356
X86.3012 Y17.7476
X86.3025 Y17.7484
X86.3215 Y17.7593
X86.3229 Y17.7601
X86.3421 Y17.7703
X86.3437 Y17.771
X86.3632 Y17.7806
X86.3649 Y17.7813
X86.3846 Y17.79
X86.3865 Y17.7908
X86.4066 Y17.7987
X86.4089 Y17.7996
X86.4293 Y17.8065
X86.4312 Y17.8071
X86.452 Y17.8132
X86.4539 Y17.8137
X86.4749 Y17.819
X86.4765 Y17.8194
X86.4978 Y17.824
X86.4993 Y17.8243
X86.5208 Y17.8283
X86.5222 Y17.8285
X86.5439 Y17.8319
X86.5667 Y17.835
X86.5679 Y17.8352
X86.59 Y17.8377
X86.6125 Y17.84
X86.6355 Y17.8421
X86.6579 Y17.844
X86.6808 Y17.8458
X86.6868
X86.7002 Y17.8452
X86.7144 Y17.8444
X86.7278 Y17.8436
X86.7416 Y17.8427
X86.7553 Y17.8417
X86.7693 Y17.8404
X86.7704 Y17.8403
X86.7837 Y17.8388
X86.7976 Y17.837
X86.7987 Y17.8368
X86.8118 Y17.8348
X86.813 Y17.8346
X86.826 Y17.8323
X86.8275 Y17.832
X86.8404 Y17.8293
X86.842 Y17.829
X86.8548 Y17.8259
X86.8563 Y17.8255
X86.869 Y17.822
X86.8706 Y17.8215
X86.8831 Y17.8176
X86.8848 Y17.8171
X86.8973 Y17.8127
X86.9105 Y17.8077
X86.9118 Y17.8072
X86.9241 Y17.8022
X86.9252 Y17.8018
X86.9374 Y17.7965
X86.9502 Y17.7907
X86.9632 Y17.7846
X86.9757 Y17.7784
X86.9882 Y17.7722
X87.0002 Y17.7662
X87.0125 Y17.7599
X87.0181 Y17.7566
X87.0281 Y17.7497
X87.0382 Y17.7426
X87.0485 Y17.7353
X87.0584 Y17.7281
X87.0686 Y17.7205
X87.0786 Y17.7129
X87.0796 Y17.7121
X87.0889 Y17.7046
X87.0898 Y17.7039
X87.0988 Y17.6963
X87.0999 Y17.6953
X87.1087 Y17.6874
X87.1098 Y17.6864
X87.1183 Y17.6783
X87.1196 Y17.677
X87.1278 Y17.6686
X87.129 Y17.6673
X87.1368 Y17.6587
X87.1382 Y17.6571
X87.1457 Y17.6481
X87.147 Y17.6464
X87.1541 Y17.6371
X87.1552 Y17.6357
X87.162 Y17.6261
X87.1629 Y17.6248
X87.1694 Y17.615
X87.1703 Y17.6136
X87.1765 Y17.6035
X87.183 Y17.5925
X87.1837 Y17.5913
X87.1895 Y17.5808
X87.1954 Y17.5696
X87.2013 Y17.5583
X87.2069 Y17.547
X87.2123 Y17.536
X87.2176 Y17.5254
X87.2212 Y17.516
X87.2256 Y17.4996
X87.2299 Y17.4831
X87.2343 Y17.4666
X87.2385 Y17.4499
X87.2427 Y17.4332
X87.2468 Y17.4161
X87.2505 Y17.3989
X87.2541 Y17.3818
X87.2574 Y17.3646
X87.2576 Y17.3634
X87.2604 Y17.3468
X87.2606 Y17.3457
X87.263 Y17.3291
X87.2652 Y17.3114
X87.2671 Y17.2939
X87.2687 Y17.2761
X87.2701 Y17.2588
X87.2711 Y17.2411
X87.2719 Y17.2236
X87.2727 Y17.2064
X87.2732 Y17.1889
X87.2735 Y17.1713
X87.2737 Y17.1541
X87.2739 Y17.1371
X87.274 Y17.1199
X87.2741 Y17.1029
Y15.5754
X87.6136
Y17.1197
Y17.1733
Y17.1911
X87.6135 Y17.2086
X87.6133 Y17.2263
X87.6131 Y17.244
X87.6128 Y17.2615
X87.6123 Y17.279
X87.6118 Y17.2966
X87.6111 Y17.314
X87.6104 Y17.3314
X87.6094 Y17.3488
X87.6083 Y17.366
X87.607 Y17.3832
X87.6055 Y17.4007
X87.6039 Y17.4179
X87.6021 Y17.4352
X87.6002 Y17.4528
X87.5982 Y17.4703
X87.5962 Y17.4878
X87.5918 Y17.523
X87.59 Y17.5377
X87.5871 Y17.5491
X87.5835 Y17.5634
X87.5799 Y17.5776
X87.5762 Y17.5915
X87.5724 Y17.6054
X87.5686 Y17.6191
X87.5646 Y17.6327
X87.5604 Y17.6459
X87.556 Y17.6591
X87.5515 Y17.6721
X87.5467 Y17.6847
X87.5416 Y17.6973
X87.5364 Y17.7096
X87.5306 Y17.7218
X87.5247 Y17.7341
X87.5184 Y17.7462
X87.5118 Y17.7586
X87.5049 Y17.7708
X87.4978 Y17.7831
X87.4906 Y17.7953
X87.4755 Y17.8203
X87.4679 Y17.8326
X87.4621 Y17.8417
X87.4545 Y17.8504
X87.4444 Y17.862
X87.4342 Y17.8734
X87.4242 Y17.8844
X87.4139 Y17.8953
X87.4037 Y17.9061
X87.3936 Y17.9161
X87.3832 Y17.9261
X87.3728 Y17.9357
X87.3623 Y17.9448
X87.3516 Y17.9534
X87.3407 Y17.9617
X87.3295 Y17.9697
X87.318 Y17.9773
X87.306 Y17.9847
X87.2936 Y17.9921
X87.2811 Y17.9991
X87.2681 Y18.0061
X87.255 Y18.0129
X87.2279 Y18.0263
X87.1999 Y18.0395
X87.1877 Y18.0452
X87.1726 Y18.0507
X87.1553 Y18.0571
X87.1211 Y18.0693
X87.1043 Y18.0751
X87.0873 Y18.0806
X87.0705 Y18.086
X87.0538 Y18.091
X87.0369 Y18.0957
X87.0204 Y18.1
X87.0038 Y18.1039
X86.987 Y18.1074
X86.9702 Y18.1105
X86.9533 Y18.1132
X86.9363 Y18.1156
X86.9189 Y18.1176
X86.9014 Y18.1194
X86.884 Y18.121
X86.8661 Y18.1222
X86.8481 Y18.1234
X86.8301 Y18.1244
X86.812 Y18.1253
X86.7936 Y18.126
X86.7787 Y18.1267
X86.7409 Y18.123
X86.6999 Y18.1186
X86.6592 Y18.114
X86.6192 Y18.1088
X86.5797 Y18.1029
X86.541 Y18.0962
X86.5031 Y18.0884
X86.4664 Y18.0795
X86.4305 Y18.0691
X86.3958 Y18.0573
X86.3624 Y18.0439
X86.3302 Y18.0286
X86.299 Y18.0113
X86.2688 Y17.992
X86.2391 Y17.9707
X86.2101 Y17.9475
X86.1816 Y17.9227
X86.1536 Y17.8964
X86.1259 Y17.8687
X86.0985 Y17.8398
X86.0713 Y17.81
X86.0442 Y17.7795
X86.0171 Y17.7484
X85.9899 Y17.7169
X85.9703 Y17.703
X85.9465 Y17.6999
X85.9239 Y17.7083
X85.9079 Y17.7263
X85.9021 Y17.7496
Y18.0682
X85.6066
Y15.5754
X85.9461
Y16.9415
X85.9463 Y16.9727
X85.9467 Y17.0039
X85.9472 Y17.035
X85.9481 Y17.0664
X85.9493 Y17.0975
X85.9512 Y17.1289
X85.9513 Y17.13
X85.9537 Y17.1602
X85.9538 Y17.1615
X85.957 Y17.1915
X85.9571 Y17.1927
X85.961 Y17.2224
X85.9613 Y17.2241
X85.9662 Y17.2534
X85.9665 Y17.2553
X85.9725 Y17.2844
X85.9729 Y17.2862
X85.9799 Y17.3148
X85.9805 Y17.317
X85.9888 Y17.3452
X85.9896 Y17.3476
X85.9993 Y17.3754
X86.0002 Y17.3777
X86.0113 Y17.405
X86.0122 Y17.4072
X86.0203 Y17.4247
X86.0206 Y17.4323
X86.0154 Y17.438
X86.0064 Y17.4422
X85.9999 Y17.4451 Z-0.3971
X85.9973 Y17.4464 Z-0.39
G0 Z5
X88.408 Y17.8564
G1 Z1 F150
Z-0.39
Y17.8535 Z-0.3971
Y17.8464 Z-0.4
Y17.8364 F200
X88.4109 Y17.8293
X88.418 Y17.8264
X88.443 Y17.8197
X88.4613 Y17.8014
X88.468 Y17.7764
Y16.2847
X88.4677 Y16.2622
X88.4676 Y16.2406
X88.4674 Y16.2186
Y16.197
X88.4675 Y16.1752
X88.4677 Y16.1537
X88.4681 Y16.1322
X88.4687 Y16.1109
X88.4696 Y16.0897
X88.4706 Y16.0685
X88.472 Y16.0474
X88.4736 Y16.0266
X88.4757 Y16.0057
X88.478 Y15.985
X88.4809 Y15.9644
X88.484 Y15.9438
X88.4877 Y15.9233
X88.4916 Y15.9025
X88.4959 Y15.8817
X88.5004 Y15.8607
X88.5051 Y15.8398
X88.51 Y15.8188
X88.5151 Y15.7978
X88.5186 Y15.7833
X88.5209 Y15.7792
X88.5266 Y15.769
X88.5321 Y15.7595
X88.5376 Y15.7501
X88.5432 Y15.7408
X88.5489 Y15.7318
X88.5546 Y15.7231
X88.5603 Y15.7148
X88.5662 Y15.7069
X88.5721 Y15.6992
X88.5782 Y15.6921
X88.5845 Y15.6851
X88.591 Y15.6785
X88.5981 Y15.6719
X88.6055 Y15.6653
X88.6132 Y15.6589
X88.6211 Y15.6526
X88.6296 Y15.6463
X88.6382 Y15.6399
X88.6469 Y15.6339
X88.656 Y15.6277
X88.6655 Y15.6213
X88.675 Y15.615
X88.6808 Y15.6112
X88.7059 Y15.6007
X88.7203 Y15.5949
X88.7348 Y15.589
X88.7491 Y15.5836
X88.7633 Y15.5782
X88.7772 Y15.5734
X88.7914 Y15.5688
X88.8054 Y15.5646
X88.819 Y15.5609
X88.833 Y15.5576
X88.8471 Y15.5547
X88.8613 Y15.5522
X88.8756 Y15.55
X88.8902 Y15.5482
X88.905 Y15.5467
X88.9201 Y15.5453
X88.9351 Y15.5443
X88.9504 Y15.5435
X88.966 Y15.5429
X88.9817 Y15.5424
X88.9974 Y15.5419
X89.0131 Y15.5416
X89.0279 Y15.5413
X89.0403 Y15.5418
X89.054 Y15.5424
X89.068 Y15.5429
X89.0816 Y15.5435
X89.0954 Y15.5442
X89.1091 Y15.545
X89.1227 Y15.5458
X89.136 Y15.5468
X89.1494 Y15.5478
X89.1628 Y15.5491
X89.1761 Y15.5504
X89.1894 Y15.5519
X89.2026 Y15.5536
X89.2157 Y15.5554
X89.2426 Y15.5595
X89.2559 Y15.5617
X89.2692 Y15.564
X89.2827 Y15.5665
X89.2964 Y15.569
X89.3032 Y15.5703
X89.2554 Y15.8625
X89.247 Y15.8615
X89.239 Y15.8605
X89.2304 Y15.8595
X89.2224 Y15.8586
X89.2136 Y15.8577
X89.2057 Y15.8569
X89.1971 Y15.8562
X89.1883 Y15.8555
X89.1803 Y15.8549
X89.1716 Y15.8544
X89.1636 Y15.8539
X89.1549 Y15.8535
X89.1469 Y15.8531
X89.1388 Y15.8527
X89.1301 Y15.8523
X89.122 Y15.852
X89.114 Y15.8517
X89.1059 Y15.8514
X89.1025
X89.0963 Y15.8516
X89.0901 Y15.8517
X89.0828 Y15.8519
X89.0762 Y15.8521
X89.0689 Y15.8525
X89.0616 Y15.8529
X89.0551 Y15.8533
X89.0536 Y15.8534
X89.0471 Y15.854
X89.0398 Y15.8548
X89.0326 Y15.8557
X89.0311 Y15.8559
X89.0247 Y15.8569
X89.0175 Y15.8581
X89.0153 Y15.8586
X89.009 Y15.86
X89.0019 Y15.8617
X89.0003 Y15.8621
X88.9941 Y15.8638
X88.9927 Y15.8642
X88.9865 Y15.8661
X88.9848 Y15.8666
X88.9787 Y15.8687
X88.9719 Y15.8712
X88.9652 Y15.8737
X88.9582 Y15.8765
X88.9517 Y15.8791
X88.9451 Y15.882
X88.9395 Y15.8843
X88.9385 Y15.8848
X88.9324 Y15.8875
X88.9234 Y15.8926
X88.9195 Y15.8954
X88.9154 Y15.8984
X88.9116 Y15.9011
X88.9071 Y15.9045
X88.9059 Y15.9054
X88.9021 Y15.9084
X88.8945 Y15.9144
X88.8923 Y15.9162
X88.8851 Y15.9226
X88.884 Y15.9236
X88.8806 Y15.9268
X88.8795 Y15.9278
X88.8761 Y15.9312
X88.8746 Y15.9329
X88.8714 Y15.9364
X88.87 Y15.938
X88.8669 Y15.9417
X88.8634 Y15.946
X88.8619 Y15.9478
X88.8591 Y15.9516
X88.856 Y15.956
X88.8547 Y15.958
X88.8521 Y15.962
X88.8492 Y15.9665
X88.8462 Y15.9714
X88.8434 Y15.976
X88.8406 Y15.981
X88.8379 Y15.9857
X88.8354 Y15.9903
X88.8329 Y15.995
X88.8282 Y16.0078
X88.826 Y16.0177
X88.8238 Y16.0282
X88.8217 Y16.038
X88.8196 Y16.0481
X88.8175 Y16.0589
X88.8156 Y16.0694
X88.8138 Y16.0799
X88.8121 Y16.0904
X88.8119 Y16.0919
X88.8106 Y16.1019
X88.8094 Y16.1123
X88.8092 Y16.1134
X88.8082 Y16.1235
X88.8073 Y16.1341
X88.8065 Y16.1451
X88.8059 Y16.1557
X88.8054 Y16.1668
X88.8051 Y16.1774
X88.8048 Y16.1876
X88.8047 Y16.1987
X88.8046 Y16.2089
Y16.2196
X88.8047 Y16.2302
X88.8049 Y16.2506
X88.805 Y16.2605
Y17.7764
X88.8117 Y17.8014
X88.83 Y17.8197
X88.855 Y17.8264
X89.2469
Y18.0682
X88.855
X88.83 Y18.0749
X88.8117 Y18.0932
X88.805 Y18.1182
Y18.9354
X88.468 Y18.7321
Y18.1182
X88.4613 Y18.0932
X88.443 Y18.0749
X88.418 Y18.0682
X88.1457
Y17.8264
X88.418
X88.4251 Y17.8293
X88.428 Y17.8364
Y17.8464
Y17.8535 Z-0.3971
Y17.8564 Z-0.39
G0 Z5
X89.8857 Y17.6285
G1 Z1 F150
Z-0.39
X89.8833 Y17.6302 Z-0.3971
X89.8774 Y17.6341 Z-0.4
X89.8691 Y17.6396 F200
X89.8616 Y17.6411
X89.8552 Y17.6368
X89.8545 Y17.6357
X89.8303 Y17.5979
X89.8071 Y17.5599
X89.7851 Y17.5219
X89.7644 Y17.4835
X89.7453 Y17.4449
X89.7279 Y17.4059
X89.7123 Y17.3666
X89.6986 Y17.3266
X89.6867 Y17.2858
X89.6763 Y17.2442
X89.6674 Y17.2019
X89.6599 Y17.1589
X89.6535 Y17.1154
X89.6482 Y17.0713
X89.6438 Y17.0266
X89.6401 Y16.9814
X89.637 Y16.9359
X89.6344 Y16.8901
X89.6321 Y16.8439
X89.6302 Y16.8
X89.6322 Y16.7572
X89.6345 Y16.7124
X89.6371 Y16.6679
X89.6402 Y16.6238
X89.6439 Y16.5801
X89.6483 Y16.5367
X89.6535 Y16.4938
X89.6598 Y16.4516
X89.6674 Y16.4101
X89.6761 Y16.3691
X89.6863 Y16.3289
X89.6981 Y16.2895
X89.7116 Y16.2508
X89.727 Y16.2128
X89.744 Y16.1752
X89.7629 Y16.1379
X89.7831 Y16.1009
X89.8047 Y16.0641
X89.8275 Y16.0275
X89.8513 Y15.9909
X89.8759 Y15.9544
X89.9011 Y15.918
X89.9268 Y15.8815
X89.9489 Y15.8505
X89.9763 Y15.8282
X90.0089 Y15.802
X90.0416 Y15.7762
X90.0743 Y15.7511
X90.107 Y15.7267
X90.1399 Y15.7033
X90.173 Y15.6812
X90.2063 Y15.6604
X90.24 Y15.6409
X90.274 Y15.6231
X90.3084 Y15.607
X90.3434 Y15.5928
X90.3793 Y15.5803
X90.416 Y15.5694
X90.4536 Y15.5599
X90.4919 Y15.5518
X90.5309 Y15.5448
X90.5707 Y15.5388
X90.6109 Y15.5338
X90.6518 Y15.5295
X90.693 Y15.5257
X90.7346 Y15.5225
X90.7765 Y15.5196
X90.8158 Y15.5169
X90.8461 Y15.5184
X90.8792 Y15.5201
X90.9118 Y15.522
X90.9443 Y15.5243
X90.9766 Y15.5268
X91.0084 Y15.5299
X91.04 Y15.5335
X91.0712 Y15.5378
X91.102 Y15.5429
X91.1323 Y15.5487
X91.1622 Y15.5555
X91.1915 Y15.5634
X91.2206 Y15.5723
X91.2491 Y15.5823
X91.2776 Y15.5936
X91.306 Y15.6059
X91.3342 Y15.6191
X91.3624 Y15.6332
X91.3907 Y15.6481
X91.4189 Y15.6635
X91.447 Y15.6795
X91.4752 Y15.6958
X91.5036 Y15.7126
X91.5275 Y15.7269
X91.5468 Y15.7447
X91.5697 Y15.766
X91.5923 Y15.7873
X91.6146 Y15.8087
X91.6362 Y15.8301
X91.6573 Y15.8517
X91.6777 Y15.8736
X91.6974 Y15.8958
X91.7163 Y15.9182
X91.7342 Y15.941
X91.7511 Y15.9643
X91.7669 Y15.9881
X91.7818 Y16.0125
X91.7958 Y16.0377
X91.8092 Y16.0637
X91.8219 Y16.0903
X91.8339 Y16.1174
X91.8454 Y16.1452
X91.8566 Y16.1735
X91.8673 Y16.2022
X91.8778 Y16.2313
X91.888 Y16.2607
X91.8885 Y16.2621
X91.5336 Y16.306
X91.5324 Y16.303
X91.5245 Y16.2837
X91.5164 Y16.2641
X91.5079 Y16.2445
X91.4993 Y16.2251
X91.4902 Y16.2056
X91.4808 Y16.1863
X91.4803 Y16.1854
X91.4709 Y16.1672
X91.4704 Y16.1661
X91.4606 Y16.1482
X91.4599 Y16.1469
X91.4496 Y16.1293
X91.4486 Y16.1278
X91.4377 Y16.1106
X91.437 Y16.1095
X91.4257 Y16.0927
X91.4246 Y16.0911
X91.4126 Y16.0747
X91.4115 Y16.0733
X91.3989 Y16.0573
X91.398 Y16.0562
X91.3849 Y16.0405
X91.384 Y16.0394
X91.3705 Y16.0241
X91.3698 Y16.0233
X91.3559 Y16.0082
X91.3552 Y16.0075
X91.3409 Y15.9926
X91.3258 Y15.9774
X91.3105 Y15.9624
X91.2953 Y15.9477
X91.2801 Y15.9332
X91.2649 Y15.9188
X91.2561 Y15.9122
X91.2404 Y15.9028
X91.2248 Y15.8933
X91.2079 Y15.8835
X91.1919 Y15.8742
X91.1752 Y15.8649
X91.1585 Y15.8558
X91.1575 Y15.8553
X91.1413 Y15.847
X91.14 Y15.8463
X91.1236 Y15.8385
X91.1225 Y15.838
X91.1059 Y15.8306
X91.1044 Y15.83
X91.0877 Y15.8232
X91.086 Y15.8226
X91.0691 Y15.8164
X91.0675 Y15.8158
X91.0504 Y15.8102
X91.0482 Y15.8095
X91.0309 Y15.8047
X91.0294 Y15.8043
X91.0119 Y15.8
X91.0102 Y15.7997
X90.9925 Y15.796
X90.9908 Y15.7956
X90.9729 Y15.7925
X90.9718 Y15.7924
X90.9538 Y15.7897
X90.9527 Y15.7895
X90.9346 Y15.7872
X90.9154 Y15.7851
X90.9144 Y15.785
X90.8961 Y15.7834
X90.8774 Y15.7819
X90.8584 Y15.7805
X90.8394 Y15.7794
X90.8209 Y15.7783
X90.8136 Y15.7784
X90.788 Y15.7806
X90.762 Y15.783
X90.7361 Y15.7857
X90.7101 Y15.7886
X90.6844 Y15.7919
X90.6832 Y15.7921
X90.6582 Y15.7959
X90.6572 Y15.796
X90.6324 Y15.8003
X90.6307 Y15.8007
X90.6063 Y15.8058
X90.6046 Y15.8061
X90.5805 Y15.812
X90.5788 Y15.8125
X90.5551 Y15.8192
X90.553 Y15.8198
X90.5297 Y15.8275
X90.5273 Y15.8284
X90.5044 Y15.8373
X90.502 Y15.8383
X90.4797 Y15.8483
X90.4776 Y15.8493
X90.4557 Y15.8604
X90.4538 Y15.8614
X90.4323 Y15.8735
X90.4303 Y15.8747
X90.4093 Y15.8878
X90.4082 Y15.8885
X90.3874 Y15.9023
X90.3859 Y15.9033
X90.3655 Y15.9179
X90.3645 Y15.9186
X90.3443 Y15.9338
X90.3434 Y15.9345
X90.3235 Y15.9502
X90.3032 Y15.9668
X90.2831 Y15.9834
X90.2631 Y16.0003
X90.2434 Y16.0172
X90.2354 Y16.0259
X90.2178 Y16.0504
X90.2002 Y16.0749
X90.1827 Y16.0995
X90.1654 Y16.1247
X90.1485 Y16.1501
X90.132 Y16.1758
X90.1312 Y16.177
X90.116 Y16.2024
X90.1154 Y16.2034
X90.1009 Y16.2289
X90.1001 Y16.2304
X90.0865 Y16.2563
X90.0857 Y16.2579
X90.0731 Y16.2842
X90.0723 Y16.286
X90.0608 Y16.3127
X90.0599 Y16.3148
X90.0496 Y16.342
X90.0489 Y16.344
X90.0398 Y16.3716
X90.0393 Y16.3734
X90.0312 Y16.4014
X90.0307 Y16.403
X90.0235 Y16.4314
X90.0232 Y16.4328
X90.0168 Y16.4615
X90.0165 Y16.4631
X90.011 Y16.4921
X90.0058 Y16.5223
X90.0056 Y16.5235
X90.0013 Y16.553
X89.9973 Y16.5833
X89.9937 Y16.6138
X89.9905 Y16.6442
X89.9874 Y16.6744
X89.9844 Y16.7047
X89.9894 Y16.7317
X90.0078 Y16.752
X90.0342 Y16.7595
X91.9192
X91.9197 Y16.7838
X91.9198 Y16.7881
Y16.7925
Y16.7935
X91.9199 Y16.7984
X91.92 Y16.8028
Y16.8072
Y16.8082
X91.9201 Y16.8126
Y16.8169
Y16.8179
X91.9202 Y16.8223
Y16.8256
X91.9182 Y16.8699
X91.916 Y16.9152
X91.9134 Y16.9601
X91.9104 Y17.0048
X91.9069 Y17.049
X91.9026 Y17.0926
X91.8973 Y17.136
X91.8911 Y17.1787
X91.8838 Y17.2208
X91.8751 Y17.2623
X91.865 Y17.3029
X91.8533 Y17.3429
X91.84 Y17.3821
X91.8247 Y17.4207
X91.8076 Y17.4588
X91.7889 Y17.4967
X91.7688 Y17.5343
X91.7473 Y17.5717
X91.7246 Y17.6088
X91.7009 Y17.6459
X91.6764 Y17.6829
X91.6512 Y17.72
X91.6255 Y17.7571
X91.6032 Y17.789
X91.5775 Y17.8112
X91.5472 Y17.8372
X91.5168 Y17.8626
X91.4865 Y17.8876
X91.4561 Y17.9116
X91.4255 Y17.9347
X91.3946 Y17.9568
X91.3636 Y17.9777
X91.3322 Y17.9971
X91.3005 Y18.015
X91.2684 Y18.0312
X91.2357 Y18.0457
X91.2022 Y18.0584
X91.1678 Y18.0697
X91.1325 Y18.0796
X91.0965 Y18.0882
X91.0597 Y18.0955
X91.0222 Y18.1019
X90.9841 Y18.1074
X90.9454 Y18.1122
X90.9063 Y18.1165
X90.8669 Y18.1202
X90.827 Y18.1237
X90.7909 Y18.1266
X90.7538 Y18.1237
X90.7129 Y18.1202
X90.6723 Y18.1163
X90.632 Y18.1121
X90.5922 Y18.1073
X90.5531 Y18.1017
X90.5145 Y18.0952
X90.4765 Y18.0877
X90.4395 Y18.079
X90.4032 Y18.069
X90.3677 Y18.0575
X90.3332 Y18.0445
X90.2995 Y18.0296
X90.2663 Y18.013
X90.2336 Y17.9947
X90.2013 Y17.9749
X90.1693 Y17.9535
X90.1375 Y17.9309
X90.106 Y17.9073
X90.0747 Y17.8826
X90.0434 Y17.8571
X90.0121 Y17.831
X89.9809 Y17.8044
X89.9543 Y17.7816
X89.9314 Y17.7489
X89.9053 Y17.7112
X89.8796 Y17.6735
X89.8552 Y17.6368
X89.8537 Y17.6293
X89.858 Y17.6229
X89.8663 Y17.6174
X89.8722 Y17.6135 Z-0.3971
X89.8747 Y17.6119 Z-0.39
G0 Z5
X90.1074 Y17.5082
G1 Z1 F150
Z-0.39
X90.1098 Y17.5066 Z-0.3971
X90.1157 Y17.5026 Z-0.4
X90.124 Y17.4971 F200
X90.1315 Y17.4955
X90.1379 Y17.4998
X90.138 Y17.4999
X90.152 Y17.5206
X90.1526 Y17.5216
X90.1671 Y17.542
X90.1678 Y17.5428
X90.1828 Y17.563
X90.1984 Y17.5836
X90.2146 Y17.6042
X90.2306 Y17.6242
X90.2466 Y17.6441
X90.2543 Y17.6518
X90.273 Y17.6668
X90.292 Y17.6818
X90.311 Y17.6967
X90.3304 Y17.7115
X90.35 Y17.726
X90.37 Y17.7401
X90.3711 Y17.7408
X90.3905 Y17.7538
X90.3917 Y17.7546
X90.4114 Y17.767
X90.4128 Y17.7679
X90.4328 Y17.7796
X90.4345 Y17.7805
X90.4548 Y17.7913
X90.4567 Y17.7923
X90.4774 Y17.8022
X90.4795 Y17.8031
X90.5005 Y17.812
X90.5028 Y17.8129
X90.5243 Y17.8208
X90.5265 Y17.8216
X90.5484 Y17.8285
X90.5504 Y17.8291
X90.5726 Y17.8351
X90.5744 Y17.8355
X90.597 Y17.8407
X90.5985 Y17.8411
X90.6213 Y17.8456
X90.6227 Y17.8458
X90.6458 Y17.8497
X90.6471 Y17.8499
X90.6704 Y17.8532
X90.6948 Y17.8562
X90.7192 Y17.8588
X90.7435 Y17.8612
X90.7677 Y17.8633
X90.7917 Y17.8653
X90.8008
X90.8272 Y17.8627
X90.8538 Y17.8599
X90.8806 Y17.8569
X90.9073 Y17.8535
X90.934 Y17.8497
X90.935 Y17.8495
X90.9607 Y17.8453
X90.9623 Y17.8451
X90.9876 Y17.8401
X90.989 Y17.8397
X91.014 Y17.834
X91.0159 Y17.8336
X91.0404 Y17.827
X91.0423 Y17.8264
X91.0664 Y17.8189
X91.0688 Y17.8181
X91.0924 Y17.8094
X91.0949 Y17.8084
X91.1179 Y17.7985
X91.1207 Y17.7972
X91.143 Y17.7859
X91.145 Y17.7848
X91.1669 Y17.7724
X91.1691 Y17.7711
X91.1904 Y17.7576
X91.1923 Y17.7563
X91.2131 Y17.7417
X91.2145 Y17.7407
X91.2349 Y17.7253
X91.2364 Y17.7242
X91.2564 Y17.7079
X91.2573 Y17.7071
X91.2771 Y17.6902
X91.278 Y17.6894
X91.2974 Y17.672
X91.3173 Y17.6536
X91.337 Y17.6347
X91.3563 Y17.6159
X91.3753 Y17.5973
X91.3828 Y17.588
X91.3944 Y17.5692
X91.4061 Y17.5505
X91.4178 Y17.5312
X91.4293 Y17.5118
X91.4406 Y17.4924
X91.4516 Y17.4725
X91.4522 Y17.4714
X91.4623 Y17.4521
X91.4628 Y17.4512
X91.4725 Y17.4317
X91.4731 Y17.4305
X91.4821 Y17.4109
X91.4829 Y17.4092
X91.4913 Y17.3893
X91.4919 Y17.3877
X91.4996 Y17.3675
X91.5002 Y17.3659
X91.5072 Y17.3455
X91.5077 Y17.3439
X91.514 Y17.3232
X91.5145 Y17.3215
X91.5201 Y17.3006
X91.5204 Y17.2994
X91.5255 Y17.2783
X91.5258 Y17.2772
X91.5304 Y17.2559
X91.5306 Y17.2547
X91.5347 Y17.2333
X91.5386 Y17.2107
X91.5421 Y17.1883
X91.5453 Y17.1657
X91.5482 Y17.1431
X91.5509 Y17.121
X91.5535 Y17.0985
X91.556 Y17.0764
X91.5514 Y17.0491
X91.5329 Y17.0285
X91.5063 Y17.0208
X90.0586
X90.0318 Y17.0286
X90.0134 Y17.0495
X90.009 Y17.0771
X90.0122 Y17.1024
X90.0155 Y17.1279
X90.019 Y17.1532
X90.0227 Y17.1789
X90.0268 Y17.2044
X90.027 Y17.2055
X90.0315 Y17.2302
X90.0317 Y17.2312
X90.0367 Y17.2557
X90.0369 Y17.2567
X90.0424 Y17.281
X90.0429 Y17.2827
X90.0491 Y17.3066
X90.0495 Y17.3081
X90.0565 Y17.3318
X90.0571 Y17.3335
X90.0649 Y17.3568
X90.0657 Y17.3589
X90.0745 Y17.3817
X90.0753 Y17.3837
X90.0851 Y17.4062
X90.086 Y17.4082
X90.0968 Y17.4302
X90.0978 Y17.4322
X90.1096 Y17.4538
X90.1105 Y17.4553
X90.1231 Y17.4765
X90.1239 Y17.4778
X90.1372 Y17.4987
X90.1379 Y17.4998
X90.1394 Y17.5073
X90.1352 Y17.5137
X90.1269 Y17.5192
X90.121 Y17.5232 Z-0.3971
X90.1186 Y17.5248 Z-0.39
G0 Z5
X92.9375 Y17.4169
G1 Z1 F150
Z-0.39
X92.9403 Y17.4158 Z-0.3971
X92.9469 Y17.4132 Z-0.4
X92.9562 Y17.4096 F200
X92.9638 Y17.4098
X92.9691 Y17.4153
X92.973 Y17.4253
X92.9775 Y17.4369
X92.982 Y17.4484
X92.9824 Y17.4494
X92.9918 Y17.4722
X92.9923 Y17.4733
X92.9973 Y17.4846
X93.0027 Y17.4964
X93.0032 Y17.4975
X93.0086 Y17.5085
X93.0091 Y17.5095
X93.0147 Y17.5203
X93.0154 Y17.5216
X93.0213 Y17.5322
X93.022 Y17.5335
X93.0283 Y17.5439
X93.0293 Y17.5457
X93.0359 Y17.5558
X93.037 Y17.5573
X93.044 Y17.5672
X93.045 Y17.5686
X93.0523 Y17.5782
X93.0534 Y17.5796
X93.0611 Y17.589
X93.0622 Y17.5903
X93.0703 Y17.5994
X93.079 Y17.6091
X93.08 Y17.6101
X93.0885 Y17.6189
X93.0896 Y17.62
X93.0984 Y17.6286
X93.1072 Y17.6372
X93.1082 Y17.6381
X93.1264 Y17.6549
X93.136 Y17.6636
X93.1452 Y17.6719
X93.1516 Y17.6768
X93.1614 Y17.6831
X93.1711 Y17.6895
X93.1815 Y17.6961
X93.1923 Y17.7027
X93.2023 Y17.7088
X93.2131 Y17.7151
X93.2141 Y17.7156
X93.2242 Y17.7212
X93.2253 Y17.7219
X93.2355 Y17.7272
X93.2369 Y17.7279
X93.2473 Y17.7329
X93.2484 Y17.7334
X93.2588 Y17.7381
X93.2606 Y17.7388
X93.2712 Y17.7431
X93.2729 Y17.7438
X93.2836 Y17.7477
X93.2857 Y17.7484
X93.2965 Y17.7518
X93.2979 Y17.7522
X93.3089 Y17.7553
X93.3111 Y17.7559
X93.3222 Y17.7585
X93.3236 Y17.7588
X93.3349 Y17.7611
X93.3362 Y17.7613
X93.3475 Y17.7633
X93.3489 Y17.7636
X93.3604 Y17.7653
X93.3727 Y17.7669
X93.3852 Y17.7683
X93.3973 Y17.7695
X93.4098 Y17.7706
X93.4215 Y17.7716
X93.4337 Y17.7726
X93.4417 Y17.7725
X93.4559 Y17.7713
X93.4702 Y17.7701
X93.4847 Y17.7688
X93.4995 Y17.7672
X93.514 Y17.7656
X93.5285 Y17.7638
X93.5299 Y17.7636
X93.5439 Y17.7615
X93.5586 Y17.7591
X93.5597 Y17.7589
X93.5735 Y17.7563
X93.5749 Y17.756
X93.5886 Y17.753
X93.5897 Y17.7528
X93.6033 Y17.7495
X93.6054 Y17.7489
X93.6189 Y17.745
X93.6201 Y17.7447
X93.6334 Y17.7405
X93.635 Y17.7399
X93.6483 Y17.7352
X93.6494 Y17.7348
X93.6625 Y17.7298
X93.6636 Y17.7294
X93.6766 Y17.7241
X93.6778 Y17.7236
X93.6908 Y17.7179
X93.7044 Y17.7116
X93.7178 Y17.7052
X93.7312 Y17.6987
X93.7326 Y17.6979
X93.8493 Y18.0124
X93.8345 Y18.0204
X93.8171 Y18.0297
X93.7999 Y18.0387
X93.7826 Y18.0474
X93.7655 Y18.0557
X93.7484 Y18.0635
X93.7312 Y18.071
X93.714 Y18.078
X93.697 Y18.0844
X93.6798 Y18.0902
X93.6624 Y18.0954
X93.6449 Y18.1001
X93.6272 Y18.1042
X93.6091 Y18.1079
X93.5906 Y18.1112
X93.5719 Y18.1141
X93.5529 Y18.1167
X93.5336 Y18.1191
X93.5144 Y18.1213
X93.4948 Y18.1232
X93.4748 Y18.1251
X93.4589 Y18.1266
X93.4505 Y18.126
X93.4384 Y18.1251
X93.4259 Y18.124
X93.414 Y18.1229
X93.4023 Y18.1216
X93.3904 Y18.1202
X93.379 Y18.1186
X93.3679 Y18.1168
X93.3572 Y18.1148
X93.3465 Y18.1124
X93.3361 Y18.1098
X93.3261 Y18.1069
X93.316 Y18.1035
X93.3058 Y18.0997
X93.2958 Y18.0957
X93.2857 Y18.0912
X93.2754 Y18.0864
X93.2652 Y18.0813
X93.2548 Y18.0758
X93.2442 Y18.0701
X93.2337 Y18.0643
X93.2123 Y18.052
X93.2063 Y18.0485
X93.1962 Y18.0392
X93.1824 Y18.0262
X93.1686 Y18.0132
X93.155 Y18.0001
X93.1416 Y17.9871
X93.1287 Y17.974
X93.116 Y17.9608
X93.1038 Y17.9476
X93.0918 Y17.9341
X93.0804 Y17.9205
X93.0692 Y17.9065
X93.0583 Y17.8923
X93.0478 Y17.8777
X93.0374 Y17.8628
X93.0273 Y17.8476
X93.0174 Y17.8321
X93.0076 Y17.8164
X92.998 Y17.8004
X92.9885 Y17.7842
X92.979 Y17.7678
X92.9697 Y17.7514
X92.951 Y17.7178
X92.9417 Y17.7009
X92.9235 Y17.6822
X92.8985 Y17.6751
X92.8732 Y17.6816
X92.8547 Y17.6999
X92.8479 Y17.7251
Y18.0682
X92.5524
Y15.5754
X92.8919
Y16.8829
Y16.8843
X92.8925 Y16.906
X92.8932 Y16.9279
X92.894 Y16.9498
X92.8948 Y16.9715
X92.8959 Y16.9936
X92.897 Y17.0155
X92.8984 Y17.0378
X92.8999 Y17.0597
X92.9018 Y17.0819
X92.9041 Y17.1043
X92.9065 Y17.1262
X92.9094 Y17.1485
X92.9128 Y17.1708
X92.9165 Y17.193
X92.9207 Y17.2152
X92.9249 Y17.2368
X92.9296 Y17.2586
X92.9345 Y17.2804
X92.9396 Y17.3019
X92.945 Y17.3235
X92.9503 Y17.3447
X92.9558 Y17.3659
X92.9612 Y17.387
X92.9667 Y17.4083
X92.9685 Y17.4137
X92.9691 Y17.4153
X92.969 Y17.423
X92.9634 Y17.4283
X92.9541 Y17.4319
X92.9475 Y17.4344 Z-0.3971
X92.9448 Y17.4355 Z-0.39
G0 Z5
X95.6646 Y17.0027
G1 Z1 F150
Z-0.39
X95.6656 Y17.0054 Z-0.3971
X95.6681 Y17.012 Z-0.4
X95.6716 Y17.0214 F200
X95.6714 Y17.0291
X95.6658 Y17.0343
X95.6517 Y17.0423
X95.641 Y17.0544
X95.6347 Y17.0644
X95.6284 Y17.0744
X95.622 Y17.0847
X95.6157 Y17.0946
X95.6093 Y17.1047
X95.603 Y17.1146
X95.5967 Y17.1245
X95.5902 Y17.1347
X95.584 Y17.1445
X95.5776 Y17.1544
X95.5711 Y17.1645
X95.5648 Y17.1742
X95.5583 Y17.1841
X95.5518 Y17.1939
X95.5256 Y17.2332
X95.519 Y17.243
X95.5124 Y17.2529
X95.5058 Y17.2625
X95.499 Y17.2726
X95.4923 Y17.2825
X95.4859 Y17.2919
X94.6003 Y18.5472
X94.1375
X95.4359 Y16.7342
X95.4442 Y16.7151
X95.444 Y16.6942
X95.4353 Y16.6752
X94.2375 Y15.0681
X94.6282
X95.3334 Y15.998
X95.3458 Y16.0145
X95.3582 Y16.0309
X95.3705 Y16.0473
X95.383 Y16.0639
X95.3952 Y16.0803
X95.4074 Y16.0969
X95.4197 Y16.1134
X95.4318 Y16.1299
X95.4438 Y16.1465
X95.4557 Y16.1632
X95.4676 Y16.1798
X95.4792 Y16.1964
X95.4908 Y16.2132
X95.5023 Y16.2301
X95.5136 Y16.2469
X95.525 Y16.2641
X95.5363 Y16.281
X95.5475 Y16.2982
X95.5587 Y16.3155
X95.581 Y16.35
X95.592 Y16.3674
X95.6031 Y16.3848
X95.6142 Y16.4023
X95.6326 Y16.4195
X95.657 Y16.4255
X95.6813 Y16.4189
X95.6993 Y16.4013
X95.7106 Y16.3825
X95.7218 Y16.3637
X95.7331 Y16.3451
X95.7445 Y16.3263
X95.7557 Y16.3078
X95.767 Y16.2894
X95.7785 Y16.2708
X95.7899 Y16.2525
X95.8015 Y16.2341
X95.8131 Y16.216
X95.8249 Y16.1978
X95.8367 Y16.1798
X95.8487 Y16.1618
X95.8607 Y16.1438
X95.8729 Y16.1259
X95.8852 Y16.1079
X95.8976 Y16.0899
X95.9099 Y16.0721
X95.9224 Y16.0543
X95.9349 Y16.0363
X95.9475 Y16.0185
X95.96 Y16.0007
X95.9727 Y15.9828
X95.9854 Y15.9648
X96.6198 Y15.0681
X97.0609
X95.8965 Y16.7029
X95.8882 Y16.722
X95.8884 Y16.7428
X95.897 Y16.7617
X97.2221 Y18.5472
X96.7782
X95.8952 Y17.321
X95.8884 Y17.3109
X95.8813 Y17.3
X95.8739 Y17.2889
X95.8664 Y17.2777
X95.8592 Y17.2668
X95.852 Y17.2558
X95.8448 Y17.2449
X95.8305 Y17.2229
X95.8234 Y17.2119
X95.8164 Y17.2008
X95.8092 Y17.1896
X95.8024 Y17.1787
X95.7953 Y17.1674
X95.7884 Y17.1564
X95.7813 Y17.1451
X95.7744 Y17.1339
X95.7675 Y17.1227
X95.7607 Y17.1115
X95.7536 Y17.1001
X95.7468 Y17.0889
X95.7397 Y17.0775
X95.726 Y17.055
X95.71 Y17.0388
X95.6884 Y17.0314
X95.6658 Y17.0343
X95.6581 Y17.034
X95.6529 Y17.0284
X95.6494 Y17.0191
X95.6469 Y17.0124 Z-0.3971
X95.6459 Y17.0097 Z-0.39
G0 Z15

G53 Z5
M5
G4 P1.0
G53 X0 Y0
M30
%
