%
(Made in : Autodesk CAM Post Processor)
(G Code optimized for OpenBuilds OX CNC 1000 x 750 with GRBL V0.9j controller)

(Program Name : 1001)
(3 Operations :)
(1 : Adaptive1  2 )
(  Tool : Flat End Mill 2 Flutes, Diam = 1.9mm, Len = 12.7mm)
(  Spindle : RPM = 30000, set router dial to 6)
(  Machining time : 6 min 17 sec)
(2 : Contour2  2 )
(  Tool : Flat End Mill 2 Flutes, Diam = 1.9mm, Len = 12.7mm)
(  Spindle : RPM = 30000, set router dial to 6)
(  Machining time : 18 sec)
(3 : Horizontal1  2 )
(  Tool : Flat End Mill 2 Flutes, Diam = 1.9mm, Len = 12.7mm)
(  Spindle : RPM = 30000, set router dial to 6)
(  Machining time : 29 sec)

G90 G94
G17
G21

(Operation 1 of 3 : Adaptive1  2 )

G53 G0 Z5
G54
S30000 M3
G4 P1.0
X15.8034 Y45.8808
Z6
Z5
Z2.5
G3 X15.9593 Y45.9019 Z2.3075 I0.1981 J-0.8805 F1200
X16.1165 Y45.8955 Z2.115 I0.0422 J-0.9015
X16.2702 Y45.8619 Z1.9224 I-0.115 J-0.8951
X16.4157 Y45.8022 Z1.7299 I-0.2687 J-0.8616
X16.5486 Y45.7181 Z1.5374 I-0.4142 J-0.8018
X16.6649 Y45.6121 Z1.3449 I-0.5472 J-0.7177
X16.7611 Y45.4876 Z1.1524 I-0.6635 J-0.6118
X16.8342 Y45.3483 Z0.9598 I-0.7596 J-0.4873
X16.882 Y45.1984 Z0.7673 I-0.8327 J-0.348
X16.903 Y45.0425 Z0.5748 I-0.8805 J-0.1981
X16.8966 Y44.8853 Z0.3823 I-0.9015 J-0.0422
X16.863 Y44.7317 Z0.1898 I-0.8951 J0.115
X16.8033 Y44.5861 Z-0.0028 I-0.8616 J0.2687
X16.7192 Y44.4532 Z-0.1953 I-0.8018 J0.4142
X16.6133 Y44.3369 Z-0.3878 I-0.7177 J0.5472
X16.4887 Y44.2407 Z-0.5803 I-0.6118 J0.6635
X16.3494 Y44.1676 Z-0.7728 I-0.4873 J0.7596
X16.1995 Y44.1199 Z-0.9654 I-0.348 J0.8327
X16.0436 Y44.0988 Z-1.1579 I-0.1981 J0.8805
X15.8864 Y44.1052 Z-1.3504 I-0.0422 J0.9015
X15.7328 Y44.1388 Z-1.5429 I0.115 J0.8951
X15.5872 Y44.1985 Z-1.7354 I0.2687 J0.8616
X15.4543 Y44.2826 Z-1.928 I0.4142 J0.8018
X16.904 Y45.0004 Z-1.998 I0.5472 J0.7177
X15.099 I-0.9025
X16.904 I0.9025
G1 X16.9306 Y45.5629 F3200
X16.9257 Y45.7128
X16.8808 Y45.8559
X16.8065 Y45.9862
X16.7097 Y46.1008
X16.5954 Y46.198
X16.5621 Y46.2187
X16.5356 Y46.2339
X16.5082 Y46.2472
X16.4799 Y46.2586
X16.3935 Y46.2901
X16.2617 Y46.3231
X16.1148 Y46.3435
X15.9755 Y46.3481
X15.8362 Y46.3382
X15.736 Y46.3231
X15.6968 Y46.3136
X15.5575 Y46.2734
X15.4182 Y46.2158
X15.3521 Y46.1838
X15.2788 Y46.1383
X15.1486 Y46.0445
X15.1395 Y46.0367
X15.0002 Y45.9018
X14.8909 Y45.766
X14.8608 Y45.7203
X14.8066 Y45.6267
X14.7436 Y45.4874
X14.7215 Y45.4272
X14.6974 Y45.3482
X14.6676 Y45.2089
X14.6556 Y45.0696
X14.6532 Y44.9304
X14.6672 Y44.7911
X14.6975 Y44.6518
X14.7215 Y44.5728
X14.7436 Y44.5126
X14.8066 Y44.3733
X14.8608 Y44.2797
X14.8909 Y44.234
X15.0032 Y44.0947
X15.1395 Y43.9633
X15.1486 Y43.9555
X15.2788 Y43.8617
X15.3521 Y43.8162
X15.4182 Y43.7842
X15.5575 Y43.7266
X15.6968 Y43.6864
X15.736 Y43.6769
X15.8362 Y43.6617
X15.9755 Y43.6519
X16.1148 Y43.6565
X16.2617 Y43.6769
X16.3935 Y43.7099
X16.5328 Y43.7606
X16.6722 Y43.8299
X16.7418 Y43.8748
X16.8115 Y43.9215
X16.8526 Y43.9555
X16.9508 Y44.0444
X16.9991 Y44.0947
X17.0902 Y44.2046
X17.1094 Y44.234
X17.1935 Y44.3733
X17.2295 Y44.4447
X17.2568 Y44.5126
X17.3023 Y44.6518
X17.3318 Y44.7911
X17.3464 Y44.9304
Y45.0696
X17.3319 Y45.2089
X17.3023 Y45.3482
X17.2568 Y45.4874
X17.2295 Y45.5553
X17.1935 Y45.6267
X17.1094 Y45.766
X17.0902 Y45.7954
X16.9991 Y45.9053
X16.9508 Y45.9556
X16.8526 Y46.0445
X16.8115 Y46.0785
X16.7418 Y46.1252
X16.6722 Y46.1701
X16.5328 Y46.2394
X16.4799 Y46.2586
X16.4268 Y46.2678
X16.3732 Y46.2618
X16.3235 Y46.2409
X16.2816 Y46.2068
X16.251 Y46.1624
X16.2341 Y46.1112
X16.2323 Y46.0572
X16.2458 Y46.005
X16.2733 Y45.9586
X16.3128 Y45.9219
X16.3611 Y45.8977
X16.3915 Y45.8928 Z-1.9954
X16.4212 Y45.8879 Z-1.9879
X16.4598 Y45.9007 Z-1.9676
X16.4928 Y45.9117 Z-1.9383
X16.5183 Y45.9201 Z-1.9016
X16.5347 Y45.9256 Z-1.8596
X16.5404 Y45.9299 Z-1.808
G0 Z5
X35.8021 Y10.8806
Z2.5
G3 X35.958 Y10.9016 Z2.3075 I0.1981 J-0.8805 F1200
X36.1152 Y10.8953 Z2.115 I0.0422 J-0.9015
X36.2689 Y10.8617 Z1.9224 I-0.115 J-0.8951
X36.4144 Y10.8019 Z1.7299 I-0.2687 J-0.8616
X36.5473 Y10.7178 Z1.5374 I-0.4142 J-0.8018
X36.6637 Y10.6119 Z1.3449 I-0.5472 J-0.7177
X36.7598 Y10.4874 Z1.1524 I-0.6635 J-0.6118
X36.8329 Y10.3481 Z0.9598 I-0.7596 J-0.4873
X36.8807 Y10.1982 Z0.7673 I-0.8327 J-0.348
X36.9017 Y10.0423 Z0.5748 I-0.8805 J-0.1981
X36.8953 Y9.8851 Z0.3823 I-0.9015 J-0.0422
X36.8617 Y9.7314 Z0.1898 I-0.8951 J0.115
X36.802 Y9.5859 Z-0.0028 I-0.8616 J0.2687
X36.7179 Y9.4529 Z-0.1953 I-0.8018 J0.4142
X36.612 Y9.3366 Z-0.3878 I-0.7177 J0.5472
X36.4875 Y9.2405 Z-0.5803 I-0.6118 J0.6635
X36.3481 Y9.1674 Z-0.7728 I-0.4873 J0.7596
X36.1983 Y9.1196 Z-0.9654 I-0.348 J0.8327
X36.0423 Y9.0986 Z-1.1579 I-0.1981 J0.8805
X35.8852 Y9.105 Z-1.3504 I-0.0422 J0.9015
X35.7315 Y9.1385 Z-1.5429 I0.115 J0.8951
X35.5859 Y9.1983 Z-1.7354 I0.2687 J0.8616
X35.453 Y9.2824 Z-1.928 I0.4142 J0.8018
X36.9027 Y10.0001 Z-1.998 I0.5472 J0.7177
X35.0977 I-0.9025
X36.9027 I0.9025
G1 X36.9293 Y10.5626 F3200
X36.9244 Y10.7126
X36.8795 Y10.8557
X36.8052 Y10.986
X36.7084 Y11.1005
X36.5942 Y11.1978
X36.529 Y11.2374
X36.5065 Y11.2488
X36.4835 Y11.2589
X36.4575 Y11.2694
X36.3182 Y11.3114
X36.1788 Y11.3362
X36.0395 Y11.3476
X35.9002 Y11.3446
X35.7608 Y11.327
X35.6215 Y11.2942
X35.4822 Y11.2447
X35.4389 Y11.2267
X35.3428 Y11.1771
X35.2028 Y11.0874
X35.1335 Y11.0335
X35.0642 Y10.9712
X35.0409 Y10.9482
X34.9223 Y10.8089
X34.83 Y10.6696
X34.7855 Y10.5849
X34.7603 Y10.5304
X34.7094 Y10.3911
X34.6749 Y10.2518
X34.6556 Y10.1125
X34.6511 Y9.9733
X34.6609 Y9.834
X34.6856 Y9.6947
X34.7258 Y9.5555
X34.7855 Y9.4117
X34.8606 Y9.2769
X34.9248 Y9.1871
X34.9623 Y9.1376
X35.0642 Y9.0276
X35.0976 Y8.9984
X35.2035 Y8.9122
X35.2813 Y8.8591
X35.3428 Y8.8226
X35.4822 Y8.755
X35.5729 Y8.7198
X35.6215 Y8.7058
X35.7608 Y8.673
X35.9002 Y8.6554
X36.0395 Y8.6524
X36.1788 Y8.6638
X36.3182 Y8.69
X36.4237 Y8.7198
X36.4575 Y8.732
X36.5969 Y8.7915
X36.7172 Y8.8591
X36.7362 Y8.8713
X36.8755 Y8.9753
X36.9034 Y8.9984
X37.0149 Y9.1132
X37.0377 Y9.1376
X37.1394 Y9.2769
X37.1542 Y9.3021
X37.2167 Y9.4162
X37.2742 Y9.5555
X37.3144 Y9.6947
X37.3383 Y9.834
X37.3483 Y9.9733
Y10.0429
X37.3447 Y10.1125
X37.3251 Y10.2518
X37.2935 Y10.3825
X37.2397 Y10.5304
X37.17 Y10.6696
X37.1542 Y10.6957
X37.0795 Y10.8089
X37.0149 Y10.8884
X36.9593 Y10.9482
X36.8755 Y11.0267
X36.7992 Y11.0874
X36.7362 Y11.1293
X36.5969 Y11.2094
X36.5629 Y11.2267
X36.4835 Y11.2589
X36.4307 Y11.27
X36.3769 Y11.2659
X36.3265 Y11.2468
X36.2834 Y11.2142
X36.2513 Y11.1709
X36.2325 Y11.1203
X36.2288 Y11.0665
X36.2404 Y11.0138
X36.2662 Y10.9665
X36.3044 Y10.9284
X36.3517 Y10.9025
X36.3852 Y10.8964 Z-1.9949
X36.4176 Y10.8904 Z-1.9857
X36.4183 Z-1.9854
X36.4627 Y10.9051 Z-1.9585
X36.4981 Y10.9169 Z-1.9196
X36.5218 Y10.9247 Z-1.8718
X36.5318 Y10.9281 Z-1.8189
X36.5321 Y10.9282 Z-1.808
G0 Z5
X75.3017 Y51.0308
Z2.5
G3 X75.4576 Y51.0519 Z2.3075 I0.1981 J-0.8805 F1200
X75.6148 Y51.0455 Z2.115 I0.0422 J-0.9015
X75.7685 Y51.0119 Z1.9224 I-0.115 J-0.8951
X75.9141 Y50.9522 Z1.7299 I-0.2687 J-0.8616
X76.047 Y50.8681 Z1.5374 I-0.4142 J-0.8018
X76.1633 Y50.7621 Z1.3449 I-0.5472 J-0.7177
X76.2595 Y50.6376 Z1.1524 I-0.6635 J-0.6118
X76.3325 Y50.4983 Z0.9598 I-0.7596 J-0.4873
X76.3803 Y50.3484 Z0.7673 I-0.8327 J-0.348
X76.4013 Y50.1925 Z0.5748 I-0.8805 J-0.1981
X76.395 Y50.0353 Z0.3823 I-0.9015 J-0.0422
X76.3614 Y49.8816 Z0.1898 I-0.8951 J0.115
X76.3016 Y49.7361 Z-0.0028 I-0.8616 J0.2687
X76.2175 Y49.6032 Z-0.1953 I-0.8018 J0.4142
X76.1116 Y49.4869 Z-0.3878 I-0.7177 J0.5472
X75.9871 Y49.3907 Z-0.5803 I-0.6118 J0.6635
X75.8478 Y49.3176 Z-0.7728 I-0.4873 J0.7596
X75.6979 Y49.2699 Z-0.9654 I-0.348 J0.8327
X75.542 Y49.2488 Z-1.1579 I-0.1981 J0.8805
X75.3848 Y49.2552 Z-1.3504 I-0.0422 J0.9015
X75.2311 Y49.2888 Z-1.5429 I0.115 J0.8951
X75.0856 Y49.3485 Z-1.7354 I0.2687 J0.8616
X74.9527 Y49.4326 Z-1.928 I0.4142 J0.8018
X76.4023 Y50.1503 Z-1.998 I0.5472 J0.7177
X74.5973 I-0.9025
X76.4023 I0.9025
G1 X76.429 Y50.7129 F3200
X76.424 Y50.8628
X76.3792 Y51.0059
X76.3049 Y51.1362
X76.208 Y51.2508
X76.0938 Y51.348
X75.9664 Y51.4271
X75.8292 Y51.4877
X75.6852 Y51.5298
X75.537 Y51.5534
X75.3871 Y51.5588
X75.2376 Y51.5466
X75.0905 Y51.5173
X74.9476 Y51.4717
X74.8107 Y51.4104
X74.6813 Y51.3346
X74.5608 Y51.2452
X74.4506 Y51.1435
X74.3519 Y51.0305
X74.2657 Y50.9078
X74.1929 Y50.7767
X74.1342 Y50.6386
X74.0903 Y50.4952
X74.0615 Y50.348
X74.0483 Y50.1986
X74.0506 Y50.0486
X74.0684 Y49.8996
X74.1016 Y49.7533
X74.1497 Y49.6113
X74.2122 Y49.4749
X74.2885 Y49.3458
X74.3778 Y49.2252
X74.4789 Y49.1145
X74.591 Y49.0148
X74.7127 Y48.9271
X74.8429 Y48.8525
X74.98 Y48.7917
X75.1227 Y48.7454
X75.2693 Y48.714
X75.4185 Y48.6978
X75.5685 Y48.6972
X75.7177 Y48.7119
X75.8647 Y48.742
X76.0078 Y48.7871
X76.1454 Y48.8466
X76.2763 Y48.92
X76.3988 Y49.0065
X76.5118 Y49.1051
X76.6141 Y49.2149
X76.7045 Y49.3346
X76.7821 Y49.4629
X76.8538 Y49.6121
X76.931 Y49.8123
X76.9958 Y50.0315
X77.0342 Y50.2141
X77.0536 Y50.3662
X77.0605 Y50.5161
X77.0552 Y50.666
X77.0363 Y50.8148
X77.0034 Y50.9611
X76.9571 Y51.1038
X76.8966 Y51.2411
X76.8235 Y51.372
X76.738 Y51.4953
X76.6408 Y51.6096
X76.5335 Y51.7144
X76.4169 Y51.8088
X76.292 Y51.8917
X76.1602 Y51.9633
X76.0226 Y52.0232
X75.8802 Y52.0704
X75.7344 Y52.1053
X75.5861 Y52.1281
X75.4364 Y52.1382
X75.2845 Y52.1358
X75.1351 Y52.1214
X74.9874 Y52.095
X74.8384 Y52.0557
X74.6899 Y52.0034
X74.5506 Y51.9413
X74.4152 Y51.8674
X74.2816 Y51.78
X74.1547 Y51.6815
X74.0397 Y51.5764
X73.9318 Y51.4606
X73.8308 Y51.3331
X73.7399 Y51.1971
X73.6625 Y51.0584
X73.596 Y50.9129
X73.5399 Y50.7586
X73.496 Y50.5986
X73.4658 Y50.4396
X73.4486 Y50.2802
X73.4442 Y50.1159
X73.4531 Y49.949
X73.475 Y49.7857
X73.5092 Y49.6286
X73.5567 Y49.4719
X73.6178 Y49.3165
X73.6913 Y49.1663
X73.7743 Y49.0264
X73.868 Y48.8939
X73.9745 Y48.7665
X74.0924 Y48.6464
X74.2174 Y48.5381
X74.3476 Y48.4424
X74.4877 Y48.3559
X74.6369 Y48.2795
X74.7919 Y48.2153
X74.947 Y48.1653
X75.1055 Y48.1278
X75.27 Y48.1027
X75.4382 Y48.0907
X75.6038 Y48.0922
X75.765 Y48.1066
X75.9275 Y48.1345
X76.09 Y48.176
X76.2489 Y48.2305
X76.3986 Y48.2957
X76.5422 Y48.3725
X76.6822 Y48.4625
X76.8163 Y48.5648
X76.9426 Y48.6784
X77.0625 Y48.8049
X77.1831 Y48.9547
X77.3017 Y49.1289
X77.4086 Y49.3167
X77.4993 Y49.511
X77.5731 Y49.7092
X77.63 Y49.91
X77.6696 Y50.1092
X77.6923 Y50.3051
X77.6991 Y50.4981
X77.6907 Y50.6841
X77.6678 Y50.8662
X77.6305 Y51.0449
X77.5792 Y51.2191
X77.5142 Y51.3884
X77.4356 Y51.5525
X77.3444 Y51.7091
X77.2424 Y51.8558
X77.129 Y51.9939
X77.0035 Y52.1237
X76.8669 Y52.2441
X76.7196 Y52.3542
X76.5621 Y52.4533
X76.3954 Y52.5403
X76.2213 Y52.6141
X76.0401 Y52.6743
X75.8529 Y52.7201
X75.661 Y52.7511
X75.4658 Y52.7666
X75.2679 Y52.7665
X75.0693 Y52.7503
X74.8716 Y52.7181
X74.6756 Y52.6697
X74.4823 Y52.6052
X74.2935 Y52.5248
X74.1113 Y52.4293
X73.9365 Y52.3189
X73.7698 Y52.1939
X73.6126 Y52.0549
X73.4669 Y51.9036
X73.3336 Y51.7408
X73.2131 Y51.5669
X73.1062 Y51.3825
X73.0143 Y51.1901
X72.9384 Y50.9911
X72.8784 Y50.786
X72.8348 Y50.5755
X72.8082 Y50.3618
X72.7989 Y50.1473
X72.8068 Y49.9325
X72.8321 Y49.7182
X72.8746 Y49.5057
X72.9339 Y49.2979
X73.0095 Y49.0959
X73.1013 Y48.9002
X73.209 Y48.7116
X73.3315 Y48.5323
X73.4675 Y48.364
X73.6165 Y48.2072
X73.7783 Y48.0623
X73.9516 Y47.9305
X74.1344 Y47.8134
X74.3255 Y47.7116
X74.5245 Y47.6253
X74.7307 Y47.555
X74.9417 Y47.5015
X75.1555 Y47.4652
X75.3714 Y47.4462
X75.5889 Y47.4446
X75.8064 Y47.4605
X76.0212 Y47.4937
X76.2321 Y47.5439
X76.4386 Y47.6109
X76.6398 Y47.6947
X76.8346 Y47.7947
X77.0221 Y47.911
X77.2044 Y48.0454
X77.382 Y48.1998
X77.5522 Y48.3737
X77.7117 Y48.5653
X77.8575 Y48.7721
X77.9874 Y48.9918
X78.0993 Y49.2215
X78.1921 Y49.4585
X78.2649 Y49.7002
X78.3175 Y49.9441
X78.3499 Y50.1883
X78.3625 Y50.4318
X78.3556 Y50.6733
X78.3295 Y50.9117
X78.2846 Y51.146
X78.2213 Y51.375
X78.1404 Y51.5967
X78.0423 Y51.8102
X77.9277 Y52.0148
X77.797 Y52.2096
X77.6507 Y52.3937
X77.4896 Y52.566
X77.3143 Y52.7257
X77.1258 Y52.8715
X76.9251 Y53.0024
X76.7133 Y53.1175
X76.4915 Y53.2158
X76.2611 Y53.2965
X76.0234 Y53.3589
X75.7799 Y53.4023
X75.5321 Y53.4262
X75.2818 Y53.4301
X75.0303 Y53.4138
X74.7793 Y53.3771
X74.5308 Y53.3201
X74.2864 Y53.243
X74.0477 Y53.1459
X73.8163 Y53.0294
X73.594 Y52.8941
X73.3825 Y52.7409
X73.1833 Y52.5705
X72.9975 Y52.3838
X72.8268 Y52.1822
X72.6724 Y51.9669
X72.5354 Y51.7395
X72.4168 Y51.501
X72.3174 Y51.2531
X72.2381 Y50.9976
X72.1795 Y50.7362
X72.142 Y50.4705
X72.1259 Y50.2021
X72.1314 Y49.9328
X72.1585 Y49.6647
X72.2071 Y49.3995
X72.2769 Y49.1386
X72.3675 Y48.8839
X72.4783 Y48.6372
X72.6086 Y48.4001
X72.7575 Y48.1742
X72.9243 Y47.9607
X73.1078 Y47.7611
X73.3067 Y47.577
X73.5197 Y47.4094
X73.7457 Y47.2594
X73.9831 Y47.1278
X74.2303 Y47.0158
X74.4856 Y46.924
X74.7475 Y46.8529
X75.0144 Y46.8031
X75.2845 Y46.7749
X75.556 Y46.7684
X75.827 Y46.7837
X76.096 Y46.8208
X76.3615 Y46.8793
X76.622 Y46.9592
X76.8766 Y47.0603
X77.1246 Y47.1826
X77.365 Y47.3262
X77.597 Y47.4915
X77.8195 Y47.6786
X78.0301 Y47.8868
X78.2262 Y48.1146
X78.4053 Y48.3599
X78.565 Y48.6203
X78.7037 Y48.8933
X78.8197 Y49.1761
X78.9123 Y49.466
X78.981 Y49.7607
X79.0254 Y50.0581
X79.0458 Y50.3563
X79.0422 Y50.6535
X79.0148 Y50.9479
X78.9642 Y51.2377
X78.8909 Y51.5212
X78.7953 Y51.7968
X78.6783 Y52.0632
X78.5405 Y52.319
X78.3825 Y52.563
X78.2052 Y52.7938
X78.0096 Y53.0101
X77.7965 Y53.2106
X77.5673 Y53.394
X77.3231 Y53.5591
X77.0653 Y53.7047
X76.7953 Y53.8298
X76.5147 Y53.9333
X76.2253 Y54.0144
X75.9289 Y54.0722
X75.6272 Y54.1063
X75.3221 Y54.1161
X75.0157 Y54.1013
X74.71 Y54.0617
X74.4071 Y53.9975
X74.1089 Y53.9087
X73.8176 Y53.7958
X73.5351 Y53.6594
X73.2634 Y53.5001
X73.0045 Y53.3189
X72.76 Y53.1167
X72.532 Y52.8949
X72.3218 Y52.6549
X72.1311 Y52.3981
X71.9612 Y52.1261
X71.8133 Y51.8407
X71.6886 Y51.5438
X71.5879 Y51.2374
X71.512 Y50.9232
X71.4615 Y50.6035
X71.4368 Y50.2804
X71.4381 Y49.956
X71.4655 Y49.6324
X71.5188 Y49.3116
X71.5977 Y48.996
X71.7018 Y48.6874
X71.8304 Y48.3881
X71.9826 Y48.0998
X72.1577 Y47.8246
X72.3543 Y47.5641
X72.5713 Y47.3203
X72.8072 Y47.0945
X73.0606 Y46.8883
X73.3298 Y46.7031
X73.613 Y46.54
X73.9085 Y46.4002
X74.2142 Y46.2846
X74.5284 Y46.1938
X74.8489 Y46.1285
X75.1735 Y46.0891
X75.5003 Y46.076
X75.8273 Y46.0891
X76.1524 Y46.1284
X76.4739 Y46.1938
X76.7903 Y46.2852
X77.1003 Y46.4023
X77.4024 Y46.5452
X77.6955 Y46.7139
X77.9777 Y46.9079
X78.2468 Y47.1268
X78.5004 Y47.3694
X78.736 Y47.634
X78.9511 Y47.9188
X79.1435 Y48.2212
X79.3113 Y48.5387
X79.4531 Y48.8686
X79.5678 Y49.2082
X79.6546 Y49.5549
X79.7131 Y49.9062
X79.743 Y50.2598
X79.7445 Y50.6132
X79.7178 Y50.9642
X79.6631 Y51.3107
X79.5811 Y51.6505
X79.4724 Y51.9818
X79.3376 Y52.3027
X79.1777 Y52.6115
X78.9936 Y52.9065
X78.7861 Y53.1859
X78.5566 Y53.4482
X78.3063 Y53.6917
X78.0365 Y53.9149
X77.7488 Y54.1164
X77.4447 Y54.2948
X77.1262 Y54.4488
X76.795 Y54.5772
X76.4531 Y54.679
X76.1028 Y54.7534
X75.746 Y54.7997
X75.3852 Y54.8172
X75.0227 Y54.8056
X74.6607 Y54.7649
X74.3017 Y54.6949
X73.9482 Y54.596
X73.6025 Y54.4685
X73.2669 Y54.3132
X72.9438 Y54.1308
X72.6354 Y53.9224
X72.3439 Y53.6893
X72.0713 Y53.4328
X71.8195 Y53.1546
X71.5903 Y52.8563
X71.3854 Y52.54
X71.2061 Y52.2075
X71.0538 Y51.8611
X70.9296 Y51.503
X70.8344 Y51.1355
X70.769 Y50.7611
X70.7337 Y50.3822
X70.7289 Y50.0012
X70.7548 Y49.6207
X70.8112 Y49.2432
X70.8977 Y48.8711
X71.014 Y48.507
X71.1591 Y48.1531
X71.3323 Y47.8118
X71.5324 Y47.4854
X71.7582 Y47.1759
X72.0081 Y46.8855
X72.2807 Y46.6159
X72.5741 Y46.3691
X72.8864 Y46.1465
X73.2157 Y45.9497
X73.5598 Y45.7799
X73.9164 Y45.6382
X74.2833 Y45.5256
X74.6581 Y45.4428
X75.0385 Y45.3903
X75.4219 Y45.3685
X75.8061 Y45.3776
X76.189 Y45.4175
X76.5685 Y45.4883
X76.9426 Y45.5896
X77.3096 Y45.7215
X77.6675 Y45.8837
X78.0141 Y46.0756
X78.3471 Y46.2966
X78.6639 Y46.5457
X78.9622 Y46.8217
X79.2393 Y47.123
X79.4929 Y47.4474
X79.7206 Y47.7926
X79.9203 Y48.1559
X80.0905 Y48.5344
X80.2296 Y48.9252
X80.3368 Y49.3252
X80.4113 Y49.7316
X80.4528 Y50.1416
X80.4613 Y50.5523
X80.4369 Y50.9611
X80.3799 Y51.3655
X80.2909 Y51.763
X80.1705 Y52.1514
X80.0195 Y52.5283
X79.8389 Y52.8916
X79.6297 Y53.2392
X79.3931 Y53.5691
X79.1306 Y53.8792
X78.8436 Y54.1678
X78.5337 Y54.4329
X78.2028 Y54.6728
X77.8527 Y54.8861
X77.4855 Y55.071
X77.1034 Y55.2265
X76.7088 Y55.3511
X76.304 Y55.4441
X75.8916 Y55.5044
X75.4742 Y55.5316
X75.0544 Y55.5251
X74.6351 Y55.4849
X74.2188 Y55.4108
X73.8085 Y55.3032
X73.4069 Y55.1626
X73.0165 Y54.9897
X72.6402 Y54.7853
X72.2804 Y54.5508
X71.9398 Y54.2874
X71.6206 Y53.9969
X71.3251 Y53.6809
X71.0554 Y53.3416
X70.8132 Y52.981
X70.6004 Y52.6015
X70.4185 Y52.2054
X70.2687 Y51.7954
X70.1522 Y51.3742
X70.0697 Y50.9444
X70.0219 Y50.5089
X70.0093 Y50.0706
X70.0318 Y49.6322
X70.0895 Y49.1968
X70.1821 Y48.767
X70.3089 Y48.3459
X70.4692 Y47.936
X70.662 Y47.5401
X70.886 Y47.1608
X71.1399 Y46.8005
X71.4219 Y46.4617
X71.7303 Y46.1465
X72.0631 Y45.857
X72.4182 Y45.5951
X72.7932 Y45.3624
X73.1857 Y45.1606
X73.5932 Y44.9909
X74.0131 Y44.8545
X74.4426 Y44.7521
X74.8791 Y44.6846
X75.3198 Y44.6523
X75.762 Y44.6554
X76.2032 Y44.6941
X76.6409 Y44.7683
X77.073 Y44.8778
X77.497 Y45.0223
X77.9105 Y45.2015
X78.3111 Y45.4147
X78.6959 Y45.6612
X79.0624 Y45.9397
X79.4077 Y46.2488
X79.729 Y46.5868
X80.0236 Y46.9512
X80.289 Y47.3396
X80.523 Y47.749
X80.7236 Y48.1764
X80.8893 Y48.6185
X81.0188 Y49.072
X81.1113 Y49.5338
X81.1664 Y50.0005
X81.1838 Y50.469
X81.1636 Y50.9363
X81.1061 Y51.3993
X81.0118 Y51.8553
X80.8815 Y52.3016
X80.7159 Y52.7354
X80.5162 Y53.1542
X80.2836 Y53.5556
X80.0194 Y53.9371
X79.7252 Y54.2965
X79.4028 Y54.6315
X79.0538 Y54.9401
X78.6806 Y55.2203
X78.2851 Y55.4701
X77.8698 Y55.688
X77.4371 Y55.8723
X76.9898 Y56.0218
X76.5305 Y56.1352
X76.0622 Y56.2116
X75.5877 Y56.2503
X75.1102 Y56.2509
X74.6327 Y56.2129
X74.1584 Y56.1366
X73.6903 Y56.022
X73.2315 Y55.8699
X72.7852 Y55.6808
X72.3544 Y55.456
X71.9419 Y55.1967
X71.5507 Y54.9044
X71.1834 Y54.5809
X70.8426 Y54.2283
X70.5305 Y53.8487
X70.2494 Y53.4446
X70.0013 Y53.0186
X69.7878 Y52.5734
X69.6105 Y52.1118
X69.4707 Y51.6369
X69.3693 Y51.1518
X69.3071 Y50.6596
X69.2846 Y50.1636
X69.302 Y49.6669
X69.3592 Y49.1729
X69.456 Y48.6847
X69.5917 Y48.2056
X69.7655 Y47.7387
X69.9763 Y47.287
X70.2228 Y46.8535
X70.5034 Y46.4411
X70.8163 Y46.0523
X71.1594 Y45.6899
X71.5307 Y45.3561
X71.9276 Y45.053
X72.3477 Y44.7828
X72.7881 Y44.5471
X73.2461 Y44.3475
X73.7188 Y44.1852
X74.2029 Y44.0614
X74.6956 Y43.9769
X75.1938 Y43.9321
X75.6943 Y43.9274
X76.1944 Y43.963
X76.6912 Y44.0388
X77.1819 Y44.1546
X77.6638 Y44.3101
X78.1341 Y44.5047
X78.5898 Y44.7378
X79.0279 Y45.0083
X79.4454 Y45.3149
X79.8393 Y45.656
X80.2064 Y46.0296
X80.5439 Y46.4333
X80.8488 Y46.8641
X81.1189 Y47.3191
X81.3518 Y47.7949
X81.5459 Y48.288
X81.6997 Y48.7949
X81.8122 Y49.3119
X81.8828 Y49.8355
X81.911 Y50.3621
X81.8969 Y50.8882
X81.8408 Y51.4104
X81.7431 Y51.9256
X81.6045 Y52.4306
X81.4261 Y52.9223
X81.2089 Y53.3978
X80.9543 Y53.8542
X80.6638 Y54.2888
X80.3392 Y54.699
X79.9824 Y55.0821
X79.5954 Y55.4359
X79.1806 Y55.758
X78.7405 Y56.0463
X78.2776 Y56.2989
X77.7948 Y56.5141
X77.295 Y56.6903
X76.7813 Y56.8261
X76.257 Y56.9206
X75.7253 Y56.9728
X75.1896 Y56.9821
X74.6535 Y56.9484
X74.1203 Y56.8716
X73.5936 Y56.7518
X73.0768 Y56.5898
X72.5735 Y56.3863
X72.087 Y56.1425
X71.6205 Y55.8598
X71.1773 Y55.5399
X70.7603 Y55.1847
X70.3725 Y54.7965
X70.0164 Y54.3776
X69.6946 Y53.9308
X69.4093 Y53.459
X69.1624 Y52.965
X68.9557 Y52.4523
X68.7906 Y51.9239
X68.6683 Y51.3835
X68.5898 Y50.8345
X68.5555 Y50.2805
X68.5658 Y49.725
X68.6207 Y49.1718
X68.7198 Y48.6245
X68.8627 Y48.0866
X69.0483 Y47.5616
X69.2756 Y47.053
X69.5431 Y46.5641
X69.849 Y46.0981
X70.1915 Y45.658
X70.5682 Y45.2467
X70.9769 Y44.8669
X71.4148 Y44.521
X71.8792 Y44.2113
X72.367 Y43.9399
X72.8751 Y43.7084
X73.4002 Y43.5185
X73.9389 Y43.3712
X74.4879 Y43.2677
X75.0437 Y43.2085
X75.603 Y43.1941
X76.1624 Y43.2247
X76.7188 Y43.3002
X77.2689 Y43.4205
X77.8096 Y43.5852
X78.3376 Y43.7936
X78.8497 Y44.045
X79.3424 Y44.3381
X79.8125 Y44.6716
X80.2565 Y45.0435
X80.6711 Y45.4517
X81.0531 Y45.8936
X81.3994 Y46.3662
X81.7073 Y46.8662
X81.9745 Y47.3899
X82.199 Y47.9337
X82.379 Y48.4937
X82.5134 Y49.0659
X82.6014 Y49.6464
X82.6424 Y50.2312
X82.6363 Y50.8165
X82.5834 Y51.3985
X82.4841 Y51.9736
X82.3392 Y52.5381
X82.1495 Y53.0887
X81.9165 Y53.622
X81.6415 Y54.1347
X81.3261 Y54.6237
X80.9724 Y55.0861
X80.5824 Y55.5189
X80.1584 Y55.9195
X79.703 Y56.2853
X79.2189 Y56.614
X78.709 Y56.9032
X78.1764 Y57.1511
X77.6245 Y57.356
X77.0565 Y57.5162
X76.4762 Y57.6306
X75.8871 Y57.6983
X75.2929 Y57.7185
X74.6976 Y57.6908
X74.105 Y57.6153
X73.5189 Y57.4922
X72.9433 Y57.3221
X72.3818 Y57.1058
X71.8384 Y56.8445
X71.3166 Y56.5399
X70.8199 Y56.1937
X70.3518 Y55.808
X69.9154 Y55.3853
X69.5136 Y54.9282
X69.1493 Y54.4395
X68.825 Y53.9225
X68.5428 Y53.3805
X68.3047 Y52.8169
X68.1125 Y52.2353
X67.9674 Y51.6397
X67.8705 Y51.0341
X67.8225 Y50.4227
X67.8237 Y49.8094
X67.8739 Y49.1982
X67.9729 Y48.593
X68.1199 Y47.9976
X68.3141 Y47.4158
X68.5541 Y46.8515
X68.8384 Y46.3081
X69.1652 Y45.7891
X69.5323 Y45.2979
X69.9375 Y44.8375
X70.3781 Y44.4109
X70.8513 Y44.0208
X71.3541 Y43.6696
X71.8833 Y43.3597
X72.4355 Y43.0929
X73.0072 Y42.871
X73.5948 Y42.6953
X74.1945 Y42.567
X74.8025 Y42.4868
X75.415 Y42.4553
X76.028 Y42.4725
X76.6377 Y42.5384
X77.2404 Y42.6522
X77.8321 Y42.8133
X78.4094 Y43.0204
X78.9687 Y43.272
X79.5066 Y43.5665
X80.0199 Y43.9021
X80.5053 Y44.2769
X80.9601 Y44.6883
X81.3818 Y45.1336
X81.7682 Y45.6098
X82.1172 Y46.1142
X82.4268 Y46.6435
X82.6954 Y47.1949
X82.9214 Y47.765
X83.1035 Y48.3506
X83.2407 Y48.9484
X83.3321 Y49.5548
X83.3772 Y50.1664
X83.3755 Y50.7797
X83.3272 Y51.3911
X83.2323 Y51.9969
X83.0913 Y52.5938
X82.9052 Y53.1781
X82.6748 Y53.7465
X82.4016 Y54.2956
X82.0871 Y54.8221
X81.7328 Y55.3227
X81.3406 Y55.7942
X80.9131 Y56.2338
X80.453 Y56.6394
X79.9633 Y57.0085
X79.4468 Y57.3392
X78.9067 Y57.6297
X78.346 Y57.8783
X77.7682 Y58.0836
X77.1764 Y58.2447
X76.5742 Y58.3607
X75.965 Y58.431
X75.3522 Y58.4554
X74.7393 Y58.4338
X74.1297 Y58.3666
X73.5268 Y58.2541
X72.934 Y58.0971
X72.3544 Y57.8965
X71.7919 Y57.6521
X71.2497 Y57.3656
X70.7304 Y57.0394
X70.2365 Y56.6758
X69.7708 Y56.2768
X69.3355 Y55.8447
X68.9331 Y55.382
X68.5655 Y54.8911
X68.2347 Y54.3746
X67.9424 Y53.8355
X67.6901 Y53.2765
X67.4791 Y52.7007
X67.3119 Y52.1106
X67.1901 Y51.5096
X67.1128 Y50.9012
X67.0801 Y50.2888
X67.0918 Y49.6756
X67.1478 Y49.0649
X67.2479 Y48.4599
X67.3914 Y47.8636
X67.5776 Y47.2793
X67.8055 Y46.7099
X68.074 Y46.1585
X68.3821 Y45.6283
X68.7296 Y45.123
X69.1136 Y44.6447
X69.5313 Y44.1957
X69.9803 Y43.778
X70.4583 Y43.3938
X70.9628 Y43.045
X71.4911 Y42.7335
X72.0404 Y42.4609
X72.608 Y42.2286
X73.1908 Y42.0377
X73.7859 Y41.8894
X74.3905 Y41.7865
X75.001 Y41.7289
X75.6142 Y41.716
X76.2266 Y41.7473
X76.8353 Y41.8225
X77.437 Y41.941
X78.0287 Y42.1022
X78.6075 Y42.3051
X79.1704 Y42.5486
X79.7146 Y42.8312
X80.2375 Y43.1517
X80.7359 Y43.5091
X81.2063 Y43.9026
X81.6473 Y44.3288
X82.0572 Y44.7849
X82.4345 Y45.2684
X82.7773 Y45.7769
X83.0842 Y46.3079
X83.3538 Y46.8587
X83.5847 Y47.4269
X83.776 Y48.0096
X83.9267 Y48.604
X84.036 Y49.2075
X84.1024 Y49.8172
X84.1244 Y50.43
X84.1031 Y51.043
X84.0393 Y51.6529
X83.9332 Y52.2569
X83.7854 Y52.8521
X83.5967 Y53.4357
X83.3678 Y54.0046
X83.1 Y54.5563
X82.7943 Y55.088
X82.4523 Y55.5971
X82.0752 Y56.0807
X81.6639 Y56.5356
X81.2204 Y56.9592
X80.7482 Y57.3505
X80.2498 Y57.708
X79.7279 Y58.03
X79.1849 Y58.3151
X78.6236 Y58.5621
X78.0466 Y58.7699
X77.4567 Y58.9375
X76.8566 Y59.0642
X76.2493 Y59.1496
X75.6376 Y59.1931
X75.0243 Y59.1932
X74.4125 Y59.15
X73.8052 Y59.0648
X73.2051 Y58.9385
X72.6149 Y58.7718
X72.0375 Y58.5651
X71.4758 Y58.319
X70.9323 Y58.0348
X70.4094 Y57.7143
X69.9094 Y57.3593
X69.4343 Y56.9715
X68.9862 Y56.5527
X68.5681 Y56.104
X68.1822 Y55.6274
X67.8294 Y55.1258
X67.5109 Y54.6017
X67.2279 Y54.0576
X66.9816 Y53.496
X66.7736 Y52.919
X66.6054 Y52.3293
X66.4778 Y51.7294
X66.391 Y51.1223
X66.3448 Y50.5108
X66.3393 Y49.8975
X66.3751 Y49.2853
X66.4532 Y48.677
X66.572 Y48.0753
X66.7305 Y47.4829
X66.9278 Y46.9022
X67.163 Y46.3358
X67.4352 Y45.7863
X67.7438 Y45.2563
X68.0878 Y44.7486
X68.4652 Y44.2651
X68.8739 Y43.8079
X69.312 Y43.3788
X69.7776 Y42.9797
X70.2697 Y42.6136
X70.7853 Y42.2816
X71.3219 Y41.9847
X71.877 Y41.7238
X72.4479 Y41.5
X73.0324 Y41.3143
X73.628 Y41.1681
X74.2322 Y41.0626
X74.842 Y40.9981
X75.4549 Y40.9745
X76.0679 Y40.9915
X76.6785 Y41.0487
X77.2839 Y41.147
X77.8811 Y41.2863
X78.4679 Y41.4647
X79.0417 Y41.6811
X79.6003 Y41.9343
X80.1413 Y42.2231
X80.6623 Y42.5466
X81.1608 Y42.9039
X81.6343 Y43.2936
X82.0812 Y43.7136
X82.5 Y44.1616
X82.8893 Y44.6355
X83.2474 Y45.1333
X83.5719 Y45.6538
X83.8617 Y46.1942
X84.1165 Y46.7521
X84.3354 Y47.325
X84.5177 Y47.9105
X84.6626 Y48.5064
X84.7692 Y49.1104
X84.8364 Y49.72
X84.8637 Y50.3326
X84.8513 Y50.9458
X84.7997 Y51.5569
X84.7092 Y52.1635
X84.58 Y52.763
X84.4111 Y53.3525
X84.2041 Y53.9298
X83.9605 Y54.4927
X83.6815 Y55.0388
X83.3681 Y55.5659
X83.0215 Y56.0719
X82.6427 Y56.5542
X82.2328 Y57.0104
X81.7938 Y57.4386
X81.3279 Y57.8374
X80.8374 Y58.2055
X80.3244 Y58.5416
X79.7908 Y58.8438
X79.2383 Y59.1101
X78.6698 Y59.3402
X78.0879 Y59.5338
X77.4949 Y59.6902
X76.8932 Y59.8091
X76.2853 Y59.8899
X75.6735 Y59.9319
X75.0602 Y59.9344
X74.448 Y59.8976
X73.8394 Y59.8221
X73.2367 Y59.7086
X72.6423 Y59.5577
X72.0587 Y59.3692
X71.4888 Y59.1426
X70.9347 Y58.8799
X70.3982 Y58.5827
X69.8813 Y58.2526
X69.3859 Y57.8912
X68.9137 Y57.4998
X68.4668 Y57.0799
X68.0472 Y56.6326
X67.6567 Y56.1597
X67.2964 Y55.6634
X66.9674 Y55.1458
X66.6707 Y54.6091
X66.4077 Y54.0551
X66.1809 Y53.4853
X65.9907 Y52.9022
X65.8376 Y52.3084
X65.7219 Y51.7061
X65.6435 Y51.0979
X65.6026 Y50.486
X65.5993 Y49.8727
X65.6342 Y49.2604
X65.7074 Y48.6515
X65.8181 Y48.0483
X65.9656 Y47.453
X66.1492 Y46.8679
X66.368 Y46.295
X66.6226 Y45.737
X66.9122 Y45.1964
X67.2351 Y44.675
X67.5898 Y44.1748
X67.9747 Y43.6973
X68.3882 Y43.2443
X68.8285 Y42.8174
X69.2943 Y42.4185
X69.7841 Y42.0495
X70.2959 Y41.7116
X70.8274 Y41.4057
X71.3766 Y41.1327
X71.9413 Y40.8936
X72.5198 Y40.6899
X73.1101 Y40.5236
X73.7097 Y40.3947
X74.3161 Y40.3034
X74.927 Y40.2497
X75.5401 Y40.2335
X76.153 Y40.2546
X76.7635 Y40.3131
X77.3692 Y40.4093
X77.9678 Y40.5428
X78.5571 Y40.7126
X79.135 Y40.9177
X79.6997 Y41.1571
X80.2489 Y41.43
X80.7799 Y41.7368
X81.2909 Y42.076
X81.78 Y42.4459
X82.2457 Y42.845
X82.6865 Y43.2713
X83.1012 Y43.7231
X83.4884 Y44.1987
X83.8465 Y44.6966
X84.174 Y45.2151
X84.4698 Y45.7523
X84.7334 Y46.3061
X84.964 Y46.8744
X85.161 Y47.4551
X85.3232 Y48.0466
X85.449 Y48.6468
X85.5382 Y49.2536
X85.5907 Y49.8646
X85.6065 Y50.4777
X85.5859 Y51.0906
X85.5291 Y51.7013
X85.4364 Y52.3075
X85.3075 Y52.9071
X85.1426 Y53.4978
X84.9426 Y54.0775
X84.7085 Y54.6443
X84.4412 Y55.1963
X84.1419 Y55.7316
X83.8107 Y56.2477
X83.448 Y56.7423
X83.0558 Y57.2137
X82.6356 Y57.6604
X82.1892 Y58.081
X81.7185 Y58.4741
X81.2254 Y58.8387
X80.7115 Y59.1735
X80.1786 Y59.477
X79.6283 Y59.7478
X79.063 Y59.9853
X78.4846 Y60.1892
X77.8952 Y60.359
X77.297 Y60.494
X76.6918 Y60.593
X76.0817 Y60.6552
X75.4689 Y60.6809
X74.8557 Y60.6701
X74.2442 Y60.6233
X73.6365 Y60.5409
X73.0346 Y60.4234
X72.4406 Y60.2711
X71.8565 Y60.0839
X71.2848 Y59.862
X70.7272 Y59.6067
X70.1855 Y59.3191
X69.6614 Y59.0007
X69.1565 Y58.6526
X68.673 Y58.2753
X68.2127 Y57.87
X67.777 Y57.4385
X67.3672 Y56.9822
X66.9845 Y56.5029
X66.63 Y56.0025
X66.3046 Y55.4827
X66.0094 Y54.9451
X65.7456 Y54.3915
X65.5148 Y53.8233
X65.3176 Y53.2426
X65.1546 Y52.6514
X65.026 Y52.0517
X64.932 Y51.4457
X64.8734 Y50.8352
X64.851 Y50.2223
X64.8642 Y49.6092
X64.9129 Y48.9979
X64.9968 Y48.3903
X65.1152 Y47.7886
X65.2675 Y47.1945
X65.4532 Y46.6101
X65.672 Y46.0371
X65.9236 Y45.4778
X66.2074 Y44.9342
X66.5223 Y44.4079
X66.867 Y43.9007
X67.2402 Y43.414
X67.6407 Y42.9496
X68.0679 Y42.5095
X68.5199 Y42.0951
X68.9952 Y41.7075
X69.4919 Y41.3478
X70.0084 Y41.0172
X70.5429 Y40.7163
X71.0934 Y40.4461
X71.6584 Y40.2076
X72.2362 Y40.002
X72.825 Y39.8304
X73.4227 Y39.6932
X74.0274 Y39.5908
X74.6369 Y39.5231
X75.2493 Y39.4903
X75.8626 Y39.4934
X76.4746 Y39.5322
X77.0834 Y39.6061
X77.687 Y39.7148
X78.2834 Y39.8577
X78.8708 Y40.0339
X79.4474 Y40.2428
X80.0115 Y40.4835
X80.561 Y40.7557
X81.0941 Y41.0589
X81.609 Y41.3921
X82.104 Y41.7541
X82.5778 Y42.1436
X83.029 Y42.5589
X83.4561 Y42.9991
X83.8573 Y43.4629
X84.2318 Y43.9486
X84.5785 Y44.4544
X84.8965 Y44.9788
X85.1851 Y45.5199
X85.4436 Y46.0761
X85.6713 Y46.6455
X85.8676 Y47.2265
X86.0314 Y47.8175
X86.1618 Y48.4168
X86.2585 Y49.0224
X86.3212 Y49.6325
X86.3499 Y50.2451
X86.3446 Y50.8583
X86.305 Y51.4703
X86.2305 Y52.0791
X86.1222 Y52.6827
X85.9801 Y53.2793
X85.805 Y53.867
X85.5976 Y54.4442
X85.3587 Y55.009
X85.0891 Y55.5599
X84.7895 Y56.095
X84.4603 Y56.6124
X84.1021 Y57.1102
X83.7164 Y57.587
X83.3043 Y58.0412
X82.8674 Y58.4716
X82.4073 Y58.877
X81.9248 Y59.2556
X81.4216 Y59.6062
X80.8997 Y59.9282
X80.3606 Y60.2206
X79.8061 Y60.4826
X79.238 Y60.7137
X78.6582 Y60.9134
X78.0683 Y61.0813
X77.4702 Y61.2167
X76.8654 Y61.3188
X76.256 Y61.387
X75.6436 Y61.4213
X75.0304 Y61.4217
X74.418 Y61.3886
X73.8083 Y61.3221
X73.2033 Y61.2216
X72.6048 Y61.0878
X72.0146 Y60.9211
X71.4346 Y60.722
X70.8664 Y60.4913
X70.3117 Y60.2297
X69.772 Y59.9384
X69.2487 Y59.6185
X68.7436 Y59.2708
X68.2581 Y58.896
X67.794 Y58.4951
X67.3524 Y58.0696
X66.9345 Y57.6207
X66.5415 Y57.1499
X66.1744 Y56.6587
X65.8347 Y56.148
X65.5235 Y55.6196
X65.2412 Y55.0751
X64.9889 Y54.5162
X64.7673 Y53.9443
X64.577 Y53.3613
X64.4186 Y52.7689
X64.2921 Y52.1688
X64.198 Y51.5627
X64.1369 Y50.9525
X64.1091 Y50.3399
X64.1145 Y49.7266
X64.1529 Y49.1145
X64.2242 Y48.5054
X64.3277 Y47.9009
X64.464 Y47.303
X64.6326 Y46.7133
X64.8326 Y46.1336
X65.0635 Y45.5654
X65.3247 Y45.0106
X65.6155 Y44.4707
X65.935 Y43.9472
X66.2821 Y43.4415
X66.6557 Y42.9552
X67.0548 Y42.4896
X67.4787 Y42.0464
X67.9259 Y41.6267
X68.395 Y41.2317
X68.8847 Y40.8624
X69.3933 Y40.5198
X69.9196 Y40.2049
X70.4623 Y39.9192
X71.0195 Y39.6631
X71.5897 Y39.4372
X72.1711 Y39.2423
X72.7623 Y39.0791
X73.3614 Y38.9479
X73.9666 Y38.849
X74.5763 Y38.7825
X75.1887 Y38.7487
X75.8019 Y38.7481
X76.4144 Y38.7805
X77.0241 Y38.8458
X77.6296 Y38.9435
X78.229 Y39.0732
X78.8207 Y39.2345
X79.4028 Y39.4275
X79.9738 Y39.6513
X80.5321 Y39.905
X81.0762 Y40.1879
X81.6045 Y40.4995
X82.1155 Y40.8386
X82.6078 Y41.2043
X83.0802 Y41.5954
X83.5314 Y42.0107
X83.9602 Y42.4492
X84.3652 Y42.9098
X84.7454 Y43.391
X85.1 Y43.8913
X85.428 Y44.4095
X85.7289 Y44.9439
X86.0016 Y45.4932
X86.2448 Y46.0562
X86.4586 Y46.631
X86.6423 Y47.2161
X86.7954 Y47.81
X86.9173 Y48.411
X87.0077 Y49.0176
X87.0664 Y49.6281
X87.0935 Y50.2408
X87.0887 Y50.854
X87.0518 Y51.4662
X86.9828 Y52.0756
X86.882 Y52.6805
X86.7497 Y53.2794
X86.5865 Y53.8705
X86.3928 Y54.4524
X86.1688 Y55.0233
X85.9148 Y55.5815
X85.632 Y56.1257
X85.3212 Y56.6544
X84.983 Y57.166
X84.6183 Y57.659
X84.228 Y58.1321
X83.8135 Y58.5841
X83.376 Y59.0139
X82.9166 Y59.4201
X82.4364 Y59.8016
X81.9368 Y60.1573
X81.4193 Y60.4864
X80.8854 Y60.7882
X80.3366 Y61.0618
X79.7743 Y61.3068
X79.2 Y61.5218
X78.6152 Y61.7065
X78.0217 Y61.8609
X77.421 Y61.9844
X76.8147 Y62.0767
X76.2044 Y62.1375
X75.5918 Y62.1666
X74.9785 Y62.1643
X74.3662 Y62.1306
X73.7564 Y62.0655
X73.1507 Y61.9689
X72.5509 Y61.8411
X71.9585 Y61.6826
X71.375 Y61.4938
X70.802 Y61.2751
X70.2411 Y61.0273
X69.6938 Y60.7504
X69.1617 Y60.4456
X68.6458 Y60.114
X68.1474 Y59.7566
X67.6679 Y59.3742
X67.2086 Y58.9679
X66.7705 Y58.5387
X66.3547 Y58.0879
X65.9622 Y57.6167
X65.594 Y57.1263
X65.2513 Y56.6177
X64.9349 Y56.0923
X64.6454 Y55.5516
X64.3838 Y54.997
X64.1506 Y54.4297
X63.9465 Y53.8514
X63.7726 Y53.2633
X63.6294 Y52.667
X63.5166 Y52.0642
X63.4345 Y51.4564
X63.3833 Y50.8453
X63.3631 Y50.2323
X63.3739 Y49.6191
X63.4155 Y49.0073
X63.4878 Y48.3983
X63.5905 Y47.7937
X63.7237 Y47.195
X63.887 Y46.6039
X64.0799 Y46.0217
X64.3018 Y45.45
X64.5522 Y44.8902
X64.8306 Y44.3437
X65.1366 Y43.8122
X65.4697 Y43.2973
X65.8285 Y42.7999
X66.2119 Y42.3213
X66.619 Y41.8626
X67.0488 Y41.4251
X67.5 Y41.0098
X67.9716 Y40.6177
X68.4622 Y40.2498
X68.9706 Y39.9068
X69.4956 Y39.5898
X70.036 Y39.2998
X70.5903 Y39.0374
X71.1571 Y38.8031
X71.7349 Y38.5976
X72.3223 Y38.4215
X72.918 Y38.2753
X73.5204 Y38.1603
X74.1278 Y38.0761
X74.7388 Y38.0226
X75.3516 Y37.9999
X75.9649 Y38.0081
X76.5769 Y38.0471
X77.1862 Y38.1167
X77.7913 Y38.2167
X78.3906 Y38.3466
X78.9828 Y38.5062
X79.5662 Y38.6953
X80.1394 Y38.9133
X80.7011 Y39.1595
X81.2499 Y39.4333
X81.7844 Y39.734
X82.3032 Y40.061
X82.8047 Y40.4139
X83.2877 Y40.7919
X83.7514 Y41.1933
X84.1947 Y41.6171
X84.6165 Y42.0623
X85.0158 Y42.5277
X85.3918 Y43.0122
X85.7436 Y43.5145
X86.0706 Y44.0334
X86.372 Y44.5675
X86.647 Y45.1157
X86.8947 Y45.6767
X87.1148 Y46.2491
X87.3068 Y46.8316
X87.4702 Y47.4227
X87.6046 Y48.021
X87.7095 Y48.6253
X87.7839 Y49.234
X87.828 Y49.8457
X87.8421 Y50.4588
X87.8262 Y51.0719
X87.7802 Y51.6835
X87.7042 Y52.292
X87.5985 Y52.8961
X87.4634 Y53.4943
X87.2994 Y54.0853
X87.1067 Y54.6675
X86.8855 Y55.2395
X86.6364 Y55.7999
X86.3601 Y56.3474
X86.0574 Y56.8808
X85.7287 Y57.3986
X85.375 Y57.8995
X84.9966 Y58.3822
X84.5942 Y58.845
X84.1693 Y59.2872
X83.7231 Y59.708
X83.2568 Y60.1063
X82.7714 Y60.4811
X82.2682 Y60.8316
X81.7484 Y61.1572
X81.2134 Y61.457
X80.6645 Y61.7304
X80.1029 Y61.9769
X79.5299 Y62.1955
X78.9469 Y62.3858
X78.3554 Y62.5477
X77.7567 Y62.6808
X77.1523 Y62.7847
X76.5436 Y62.8591
X75.9319 Y62.9035
X75.3188 Y62.9173
X74.7057 Y62.9013
X74.0941 Y62.8558
X73.4855 Y62.7806
X72.8811 Y62.6761
X72.2826 Y62.5425
X71.6912 Y62.3801
X71.1084 Y62.1893
X70.5354 Y61.9706
X69.9737 Y61.7244
X69.4247 Y61.4511
X68.8896 Y61.1516
X68.3694 Y60.8266
X67.8654 Y60.4772
X67.3788 Y60.104
X66.9105 Y59.708
X66.462 Y59.2897
X66.0347 Y58.8498
X65.6289 Y58.39
X65.2454 Y57.9114
X64.8853 Y57.415
X64.5492 Y56.902
X64.2379 Y56.3736
X63.9521 Y55.831
X63.6925 Y55.2754
X63.4595 Y54.708
X63.254 Y54.1302
X63.0767 Y53.5432
X62.9279 Y52.9482
X62.8077 Y52.3468
X62.7162 Y51.7404
X62.6537 Y51.1303
X62.6203 Y50.5179
X62.6164 Y49.9047
X62.6424 Y49.292
X62.6977 Y48.6812
X62.7819 Y48.0737
X62.8947 Y47.4709
X63.036 Y46.8741
X63.2054 Y46.2847
X63.4024 Y45.7039
X63.6268 Y45.1331
X63.8778 Y44.5736
X64.1552 Y44.0267
X64.4586 Y43.4937
X64.7873 Y42.9759
X65.1403 Y42.4744
X65.5166 Y41.9902
X65.9156 Y41.5244
X66.3362 Y41.0781
X66.7776 Y40.6523
X67.2392 Y40.2485
X67.7196 Y39.8674
X68.2176 Y39.5094
X68.7318 Y39.1753
X69.2614 Y38.8659
X69.805 Y38.582
X70.3613 Y38.324
X70.9293 Y38.0925
X71.5075 Y37.8882
X72.0948 Y37.7114
X72.6898 Y37.5629
X73.2913 Y37.4433
X73.8978 Y37.3525
X74.5079 Y37.2906
X75.1203 Y37.2576
X75.7336 Y37.2536
X76.3464 Y37.2787
X76.9572 Y37.3334
X77.5647 Y37.4174
X78.1676 Y37.5299
X78.7645 Y37.6706
X79.3541 Y37.8392
X79.9352 Y38.0353
X80.5065 Y38.2584
X81.0667 Y38.5079
X81.6147 Y38.7833
X82.1492 Y39.084
X82.6689 Y39.4095
X83.1727 Y39.7594
X83.6592 Y40.1326
X84.1278 Y40.5283
X84.5775 Y40.9453
X85.0073 Y41.3828
X85.4163 Y41.8398
X85.8035 Y42.3154
X86.1677 Y42.8088
X86.5085 Y43.3187
X86.8256 Y43.8436
X87.1181 Y44.3826
X87.3856 Y44.9345
X87.6274 Y45.4981
X87.8431 Y46.0722
X88.0323 Y46.6555
X88.1947 Y47.2469
X88.3296 Y47.8452
X88.4367 Y48.4491
X88.5154 Y49.0573
X88.5657 Y49.6685
X88.5877 Y50.2814
X88.5814 Y50.8946
X88.5469 Y51.5069
X88.4841 Y52.117
X88.3927 Y52.7234
X88.2727 Y53.3248
X88.125 Y53.92
X87.95 Y54.5078
X87.7481 Y55.0869
X87.5195 Y55.656
X87.265 Y56.214
X86.9849 Y56.7596
X86.68 Y57.2917
X86.3508 Y57.8091
X85.9978 Y58.3106
X85.6218 Y58.7951
X85.2232 Y59.2612
X84.8032 Y59.7081
X84.363 Y60.1351
X83.9034 Y60.5411
X83.4255 Y60.9255
X82.9304 Y61.2873
X82.4186 Y61.6253
X81.8915 Y61.9388
X81.3506 Y62.2278
X80.7969 Y62.4916
X80.2318 Y62.7296
X79.6562 Y62.9415
X79.0716 Y63.1267
X78.4791 Y63.2851
X77.88 Y63.4163
X77.2756 Y63.52
X76.667 Y63.596
X76.0556 Y63.6436
X75.4426 Y63.6629
X74.8294 Y63.654
X74.2172 Y63.6171
X73.6074 Y63.5523
X73.0011 Y63.4599
X72.3997 Y63.3398
X71.8046 Y63.1916
X71.217 Y63.016
X70.6381 Y62.8137
X70.0689 Y62.5852
X69.5109 Y62.3309
X68.965 Y62.0514
X68.4324 Y61.7474
X67.914 Y61.4196
X67.411 Y61.0687
X66.9244 Y60.6955
X66.4551 Y60.3007
X66.0044 Y59.8848
X65.5732 Y59.4487
X65.1622 Y58.9936
X64.772 Y58.5203
X64.4036 Y58.0301
X64.0576 Y57.5237
X63.7347 Y57.0023
X63.4363 Y56.4666
X63.1626 Y55.9177
X62.914 Y55.3571
X62.6908 Y54.7859
X62.4938 Y54.2051
X62.3233 Y53.616
X62.1797 Y53.0198
X62.063 Y52.4177
X61.9735 Y51.811
X61.9112 Y51.2009
X61.8765 Y50.5886
X61.8695 Y49.9753
X61.8905 Y49.3624
X61.9391 Y48.7511
X62.0151 Y48.1425
X62.1181 Y47.538
X62.2481 Y46.9386
X62.4048 Y46.3457
X62.5884 Y45.7605
X62.7985 Y45.1844
X63.0342 Y44.6182
X63.2951 Y44.0632
X63.5808 Y43.5205
X63.8906 Y42.9913
X64.2241 Y42.4766
X64.5803 Y41.9773
X64.9585 Y41.4946
X65.3579 Y41.0292
X65.7778 Y40.5822
X66.2174 Y40.1545
X66.676 Y39.7473
X67.1525 Y39.3612
X67.6458 Y38.9969
X68.1548 Y38.6549
X68.6786 Y38.3359
X69.2161 Y38.0406
X69.7665 Y37.77
X70.3286 Y37.5249
X70.9012 Y37.3052
X71.4831 Y37.1114
X72.0731 Y36.9439
X72.67 Y36.8032
X73.2726 Y36.6896
X73.8798 Y36.6031
X74.4902 Y36.5439
X75.1026 Y36.512
X75.7159 Y36.5074
X76.3288 Y36.5303
X76.9399 Y36.581
X77.5482 Y36.6592
X78.1524 Y36.7644
X78.7513 Y36.8964
X79.3438 Y37.0547
X79.9287 Y37.2392
X80.5048 Y37.4495
X81.0707 Y37.6858
X81.6255 Y37.9472
X82.1682 Y38.2328
X82.6977 Y38.5422
X83.2129 Y38.8749
X83.7127 Y39.2302
X84.1963 Y39.6074
X84.6628 Y40.0055
X85.1113 Y40.4238
X85.541 Y40.8613
X85.9511 Y41.3173
X86.3407 Y41.791
X86.7088 Y42.2815
X87.0551 Y42.7877
X87.3789 Y43.3085
X87.6798 Y43.8429
X87.9572 Y44.3898
X88.2106 Y44.9483
X88.439 Y45.5175
X88.642 Y46.0962
X88.8196 Y46.6832
X88.9715 Y47.2774
X89.0973 Y47.8776
X89.1966 Y48.4828
X89.2693 Y49.0917
X89.3152 Y49.7033
X89.3344 Y50.3163
X89.3269 Y50.9295
X89.2926 Y51.5418
X89.2316 Y52.1521
X89.1437 Y52.759
X89.029 Y53.3615
X88.8879 Y53.9583
X88.721 Y54.5484
X88.5285 Y55.1307
X88.3107 Y55.704
X88.0681 Y56.2673
X87.8006 Y56.8191
X87.5087 Y57.3585
X87.1935 Y57.8846
X86.8555 Y58.3963
X86.4953 Y58.8926
X86.1134 Y59.3725
X85.7106 Y59.835
X85.2879 Y60.2793
X84.846 Y60.7046
X84.386 Y61.1102
X83.9087 Y61.4952
X83.4149 Y61.8589
X82.9055 Y62.2004
X82.3815 Y62.519
X81.844 Y62.8145
X81.2943 Y63.0863
X80.7333 Y63.334
X80.162 Y63.5571
X79.5815 Y63.755
X78.9929 Y63.927
X78.3972 Y64.073
X77.7958 Y64.1932
X77.1898 Y64.2872
X76.5803 Y64.3548
X75.9683 Y64.3956
X75.3552 Y64.4099
X74.7421 Y64.3975
X74.13 Y64.3587
X73.5202 Y64.2936
X72.9138 Y64.2022
X72.3119 Y64.0846
X71.7157 Y63.9407
X71.1264 Y63.771
X70.545 Y63.5758
X69.9726 Y63.3558
X69.4102 Y63.1112
X68.8589 Y62.8425
X68.3197 Y62.5502
X67.794 Y62.2344
X67.2825 Y61.8961
X66.7859 Y61.5363
X66.3051 Y61.1555
X65.8412 Y60.7544
X65.3949 Y60.3337
X64.9672 Y59.8942
X64.5587 Y59.4368
X64.17 Y58.9624
X63.8019 Y58.4719
X63.4549 Y57.9662
X63.13 Y57.4461
X62.8278 Y56.9125
X62.5488 Y56.3663
X62.2935 Y55.8087
X62.0622 Y55.2407
X61.8554 Y54.6633
X61.6735 Y54.0776
X61.5171 Y53.4847
X61.3868 Y52.8854
X61.2824 Y52.281
X61.2039 Y51.6728
X61.1513 Y51.0618
X61.1249 Y50.4491
X61.1247 Y49.8358
X61.1508 Y49.2231
X61.2029 Y48.612
X61.2809 Y48.0037
X61.3846 Y47.3993
X61.5137 Y46.7997
X61.6682 Y46.2062
X61.848 Y45.6199
X62.0528 Y45.0418
X62.2821 Y44.473
X62.5353 Y43.9145
X62.812 Y43.3672
X63.1119 Y42.8322
X63.4344 Y42.3106
X63.7794 Y41.8035
X64.1459 Y41.3118
X64.533 Y40.8361
X64.9399 Y40.3773
X65.366 Y39.9362
X65.8105 Y39.5137
X66.2727 Y39.1106
X66.7516 Y38.7275
X67.2463 Y38.365
X67.7559 Y38.0238
X68.2794 Y37.7044
X68.816 Y37.4074
X69.3648 Y37.1336
X69.9248 Y36.8837
X70.495 Y36.6578
X71.0742 Y36.4563
X71.6615 Y36.2796
X72.2557 Y36.128
X72.8559 Y36.002
X73.461 Y35.9021
X74.0698 Y35.8286
X74.6813 Y35.781
X75.2942 Y35.7593
X75.9074 Y35.7636
X76.52 Y35.794
X77.1306 Y35.8505
X77.7383 Y35.9329
X78.3421 Y36.0408
X78.9407 Y36.174
X79.5332 Y36.3322
X80.1186 Y36.5151
X80.6957 Y36.7227
X81.2634 Y36.9546
X81.8208 Y37.2103
X82.367 Y37.4892
X82.901 Y37.7908
X83.4219 Y38.1146
X83.9286 Y38.46
X84.4201 Y38.8268
X84.8955 Y39.2143
X85.354 Y39.6215
X85.7952 Y40.0475
X86.2183 Y40.4915
X86.6225 Y40.9527
X87.007 Y41.4304
X87.3713 Y41.9238
X87.7147 Y42.4319
X88.0369 Y42.9538
X88.3373 Y43.4884
X88.6154 Y44.035
X88.8707 Y44.5927
X89.1025 Y45.1604
X89.3105 Y45.7374
X89.4943 Y46.3224
X89.6539 Y46.9146
X89.7889 Y47.5128
X89.8989 Y48.1162
X89.9838 Y48.7235
X90.0428 Y49.334
X90.076 Y49.9464
X90.0836 Y50.5596
X90.0659 Y51.1726
X90.0229 Y51.7844
X89.9544 Y52.3938
X89.8605 Y52.9999
X89.7414 Y53.6015
X89.5974 Y54.1976
X89.4289 Y54.7873
X89.2362 Y55.3695
X89.0196 Y55.9433
X88.7793 Y56.5075
X88.5155 Y57.0611
X88.2287 Y57.6032
X87.9196 Y58.1329
X87.5887 Y58.6493
X87.2366 Y59.1514
X86.8637 Y59.6383
X86.4707 Y60.1091
X86.0578 Y60.5626
X85.6262 Y60.9982
X85.1767 Y61.4155
X84.7103 Y61.8137
X84.2278 Y62.1922
X83.7299 Y62.5503
X83.2174 Y62.8872
X82.6914 Y63.2025
X82.1528 Y63.4958
X81.6026 Y63.7667
X81.0417 Y64.0146
X80.4711 Y64.2393
X79.8916 Y64.4401
X79.3042 Y64.6166
X78.7101 Y64.7686
X78.1102 Y64.896
X77.5056 Y64.9987
X76.8972 Y65.0764
X76.2862 Y65.129
X75.6735 Y65.156
X75.0603 Y65.1571
X74.4475 Y65.1329
X73.8362 Y65.0835
X73.2274 Y65.0091
X72.6222 Y64.9099
X72.0216 Y64.7857
X71.4267 Y64.6369
X70.8384 Y64.4636
X70.2577 Y64.2663
X69.6856 Y64.0454
X69.123 Y63.8013
X68.5709 Y63.5344
X68.0302 Y63.2449
X67.502 Y62.9332
X66.9871 Y62.6002
X66.4861 Y62.2464
X65.9999 Y61.8726
X65.5293 Y61.4794
X65.0752 Y61.0672
X64.6385 Y60.6366
X64.2201 Y60.1883
X63.8204 Y59.7231
X63.4398 Y59.2422
X63.079 Y58.7463
X62.7386 Y58.2362
X62.4192 Y57.7126
X62.1215 Y57.1764
X61.8458 Y56.6286
X61.5926 Y56.0701
X61.3622 Y55.5017
X61.155 Y54.9245
X60.9714 Y54.3393
X60.812 Y53.7471
X60.6771 Y53.1489
X60.5668 Y52.5456
X60.481 Y51.9383
X60.4198 Y51.3281
X60.3834 Y50.7159
X60.3718 Y50.1028
X60.3853 Y49.4896
X60.4243 Y48.8776
X60.4882 Y48.2676
X60.5767 Y47.6608
X60.6894 Y47.058
X60.8263 Y46.4602
X60.9873 Y45.8684
X61.1723 Y45.2837
X61.3807 Y44.7069
X61.6123 Y44.139
X61.8666 Y43.5809
X62.1432 Y43.0336
X62.4417 Y42.4979
X62.7619 Y41.9748
X63.1032 Y41.4653
X63.465 Y40.9701
X63.8466 Y40.49
X64.2473 Y40.0257
X64.6663 Y39.5779
X65.1031 Y39.1474
X65.5571 Y38.735
X66.0277 Y38.3419
X66.5141 Y37.9683
X67.0151 Y37.6146
X67.5299 Y37.2813
X68.0576 Y36.9689
X68.5976 Y36.678
X69.1488 Y36.4094
X69.7106 Y36.1632
X70.2817 Y35.9399
X70.8615 Y35.7398
X71.4488 Y35.5632
X72.0427 Y35.4105
X72.6424 Y35.282
X73.2468 Y35.1782
X73.855 Y35.0991
X74.4658 Y35.0448
X75.0784 Y35.0151
X75.6917 Y35.01
X76.3046 Y35.0297
X76.9163 Y35.0741
X77.5256 Y35.1438
X78.1316 Y35.2382
X78.7332 Y35.357
X79.3297 Y35.4997
X79.9199 Y35.6661
X80.5031 Y35.856
X81.0781 Y36.0691
X81.6442 Y36.3052
X82.2003 Y36.5637
X82.7456 Y36.8443
X83.2794 Y37.1463
X83.8006 Y37.4695
X84.3085 Y37.8132
X84.8021 Y38.1772
X85.2805 Y38.5608
X85.7432 Y38.9634
X86.1896 Y39.384
X86.6189 Y39.8219
X87.0306 Y40.2765
X87.4239 Y40.747
X87.798 Y41.233
X88.1521 Y41.7337
X88.486 Y42.2481
X88.7994 Y42.7752
X89.092 Y43.3143
X89.3632 Y43.8643
X89.6125 Y44.4246
X89.8395 Y44.9944
X90.0438 Y45.5726
X90.2252 Y46.1584
X90.3835 Y46.7509
X90.5184 Y47.3492
X90.6296 Y47.9523
X90.7169 Y48.5593
X90.7798 Y49.1694
X90.8183 Y49.7815
X90.8325 Y50.3946
X90.8225 Y51.0078
X90.7884 Y51.6201
X90.7302 Y52.2306
X90.6479 Y52.8383
X90.5411 Y53.4422
X90.41 Y54.0414
X90.2553 Y54.6348
X90.0773 Y55.2217
X89.8764 Y55.8011
X89.6529 Y56.3722
X89.4069 Y56.934
X89.1387 Y57.4855
X88.8488 Y58.026
X88.5378 Y58.5546
X88.2062 Y59.0704
X87.8544 Y59.5727
X87.4828 Y60.0607
X87.092 Y60.5333
X86.6825 Y60.9898
X86.255 Y61.4296
X85.8104 Y61.852
X85.3494 Y62.2565
X84.8728 Y62.6424
X84.3814 Y63.0093
X83.8757 Y63.3562
X83.3563 Y63.6824
X82.8244 Y63.9875
X82.2808 Y64.2715
X81.7265 Y64.5339
X81.1623 Y64.7745
X80.5892 Y64.9927
X80.0079 Y65.1881
X79.4193 Y65.3604
X78.8244 Y65.5096
X78.2242 Y65.6353
X77.6195 Y65.7375
X77.0113 Y65.816
X76.4004 Y65.8706
X75.7879 Y65.9009
X75.1746 Y65.9068
X74.5616 Y65.8886
X73.9498 Y65.8464
X73.3401 Y65.7805
X72.7334 Y65.6908
X72.1307 Y65.5774
X71.5329 Y65.4403
X70.9412 Y65.2793
X70.3562 Y65.095
X69.7789 Y64.888
X69.2102 Y64.6586
X68.6507 Y64.4073
X68.1016 Y64.1343
X67.5635 Y63.84
X67.0374 Y63.5249
X66.5239 Y63.1896
X66.0238 Y62.8346
X65.5378 Y62.4605
X65.0667 Y62.0679
X64.6112 Y61.6573
X64.1721 Y61.2292
X63.7502 Y60.7841
X63.3459 Y60.3229
X62.9597 Y59.8465
X62.5922 Y59.3555
X62.2439 Y58.8508
X61.9153 Y58.333
X61.6071 Y57.8027
X61.3203 Y57.2606
X61.0548 Y56.7078
X60.811 Y56.1451
X60.589 Y55.5734
X60.3893 Y54.9935
X60.2122 Y54.4064
X60.0581 Y53.8128
X59.9273 Y53.2136
X59.8197 Y52.6098
X59.7355 Y52.0024
X59.6748 Y51.3921
X59.6376 Y50.78
X59.624 Y50.1668
X59.6344 Y49.5536
X59.6687 Y48.9413
X59.7267 Y48.3308
X59.8083 Y47.7229
X59.913 Y47.1187
X60.0408 Y46.5189
X60.1915 Y45.9244
X60.3651 Y45.3362
X60.5619 Y44.7553
X60.7811 Y44.1826
X61.0223 Y43.6187
X61.285 Y43.0645
X61.5687 Y42.5209
X61.8733 Y41.9886
X62.1983 Y41.4685
X62.5432 Y40.9614
X62.9075 Y40.468
X63.2905 Y39.9891
X63.6917 Y39.5252
X64.1103 Y39.077
X64.5459 Y38.6453
X64.9978 Y38.2308
X65.4657 Y37.8342
X65.9486 Y37.4561
X66.4456 Y37.0969
X66.9561 Y36.757
X67.4791 Y36.4368
X68.0141 Y36.1369
X68.5602 Y35.8578
X69.1169 Y35.6005
X69.6832 Y35.3651
X70.2581 Y35.1517
X70.8409 Y34.9606
X71.4305 Y34.7919
X72.0262 Y34.6461
X72.6271 Y34.5235
X73.2323 Y34.4242
X73.8409 Y34.3485
X74.4519 Y34.2962
X75.0645 Y34.2673
X75.6777 Y34.262
X76.2908 Y34.2801
X76.9026 Y34.322
X77.5124 Y34.3876
X78.1191 Y34.4767
X78.722 Y34.5891
X79.3202 Y34.7244
X79.9128 Y34.8823
X80.499 Y35.0627
X81.0778 Y35.2653
X81.6483 Y35.4902
X82.2097 Y35.7372
X82.7612 Y36.0055
X83.302 Y36.2946
X83.8315 Y36.6041
X84.3488 Y36.9334
X84.8532 Y37.2824
X85.3438 Y37.6504
X85.8199 Y38.0369
X86.281 Y38.4413
X86.7264 Y38.8628
X87.1557 Y39.3008
X87.5681 Y39.7547
X87.963 Y40.2239
X88.3398 Y40.7078
X88.6977 Y41.2058
X89.0366 Y41.717
X89.356 Y42.2405
X89.6555 Y42.7756
X89.9349 Y43.3216
X90.1937 Y43.8776
X90.4313 Y44.443
X90.6469 Y45.0171
X90.8406 Y45.599
X91.0123 Y46.1878
X91.1618 Y46.7825
X91.2889 Y47.3825
X91.3934 Y47.9868
X91.4749 Y48.5946
X91.5333 Y49.2051
X91.5685 Y49.8174
X91.5807 Y50.4306
X91.5698 Y51.0437
X91.5359 Y51.6561
X91.479 Y52.2667
X91.3991 Y52.8748
X91.296 Y53.4793
X91.17 Y54.0795
X91.0212 Y54.6745
X90.8503 Y55.2635
X90.6574 Y55.8456
X90.4428 Y56.4201
X90.2067 Y56.9861
X89.9492 Y57.5427
X89.6703 Y58.0889
X89.3708 Y58.6241
X89.0513 Y59.1476
X88.7123 Y59.6587
X88.3542 Y60.1566
X87.9775 Y60.6405
X87.5826 Y61.1097
X87.1701 Y61.5635
X86.7406 Y62.0013
X86.2949 Y62.4225
X85.8336 Y62.8267
X85.3575 Y63.2132
X84.8671 Y63.5814
X84.363 Y63.9308
X83.846 Y64.2607
X83.3168 Y64.5706
X82.7763 Y64.8604
X82.2254 Y65.1298
X81.6648 Y65.3785
X81.0953 Y65.606
X80.5176 Y65.812
X79.9325 Y65.9957
X79.3408 Y66.157
X78.7435 Y66.2959
X78.1414 Y66.4125
X77.5354 Y66.5066
X76.9263 Y66.5779
X76.3149 Y66.6264
X75.7021 Y66.6518
X75.0889 Y66.6541
X74.4759 Y66.6334
X73.8642 Y66.59
X73.2545 Y66.5238
X72.6477 Y66.435
X72.0446 Y66.3236
X71.4461 Y66.1896
X70.8532 Y66.033
X70.2666 Y65.8542
X69.687 Y65.6535
X69.1154 Y65.4315
X68.5523 Y65.1884
X67.9987 Y64.9245
X67.4554 Y64.6402
X66.9232 Y64.3353
X66.403 Y64.0106
X65.8952 Y63.6667
X65.4004 Y63.3043
X64.9194 Y62.9239
X64.4527 Y62.526
X64.0012 Y62.111
X63.5654 Y61.6795
X63.146 Y61.232
X62.7435 Y60.7693
X62.3583 Y60.2921
X61.9909 Y59.801
X61.6417 Y59.2968
X61.3115 Y58.7801
X61.0006 Y58.2514
X60.7098 Y57.7115
X60.4393 Y57.1611
X60.1893 Y56.6011
X59.9602 Y56.0322
X59.7521 Y55.4553
X59.5655 Y54.8711
X59.4006 Y54.2804
X59.2583 Y53.6839
X59.1385 Y53.0824
X59.041 Y52.4769
X58.9659 Y51.8683
X58.9132 Y51.2573
X58.883 Y50.6447
X58.8754 Y50.0315
X58.8906 Y49.4184
X58.9285 Y48.8063
X58.989 Y48.196
X59.0718 Y47.5883
X59.1767 Y46.9841
X59.3037 Y46.3841
X59.4526 Y45.7892
X59.6235 Y45.2002
X59.8161 Y44.618
X60.0303 Y44.0433
X60.2654 Y43.4769
X60.5213 Y42.9195
X60.7973 Y42.3719
X61.0934 Y41.8348
X61.409 Y41.309
X61.7442 Y40.7954
X62.0985 Y40.2948
X62.4711 Y39.8077
X62.8614 Y39.3346
X63.2687 Y38.8761
X63.6925 Y38.4329
X64.1324 Y38.0055
X64.5878 Y37.5948
X65.0581 Y37.2012
X65.5426 Y36.8251
X66.0405 Y36.4671
X66.5512 Y36.1276
X67.0739 Y35.8068
X67.608 Y35.5055
X68.1529 Y35.224
X68.7079 Y34.963
X69.2721 Y34.7227
X69.8449 Y34.5035
X70.4253 Y34.3053
X71.0125 Y34.1286
X71.6059 Y33.9735
X72.2045 Y33.8404
X72.8077 Y33.7298
X73.4147 Y33.642
X74.0245 Y33.5767
X74.6363 Y33.5339
X75.2492 Y33.5134
X75.8625 Y33.5154
X76.4753 Y33.5399
X77.0868 Y33.587
X77.6961 Y33.6566
X78.3024 Y33.7486
X78.905 Y33.8627
X79.503 Y33.9986
X80.0957 Y34.1562
X80.6823 Y34.3351
X81.262 Y34.5354
X81.8338 Y34.7569
X82.3971 Y34.9994
X82.9512 Y35.2623
X83.4953 Y35.5452
X84.0288 Y35.8477
X84.551 Y36.1693
X85.0611 Y36.5098
X85.5584 Y36.8687
X86.0418 Y37.246
X86.5111 Y37.6408
X86.9657 Y38.0525
X87.4052 Y38.4802
X87.829 Y38.9235
X88.2365 Y39.3819
X88.6271 Y39.8546
X89.0003 Y40.3413
X89.3556 Y40.8412
X89.6926 Y41.3536
X90.011 Y41.8777
X90.3105 Y42.4129
X90.5907 Y42.9584
X90.8512 Y43.5136
X91.0915 Y44.0779
X91.3111 Y44.6505
X91.5098 Y45.2307
X91.6875 Y45.8176
X91.8441 Y46.4106
X91.9793 Y47.0088
X92.093 Y47.6114
X92.185 Y48.2178
X92.2547 Y48.8271
X92.3018 Y49.4385
X92.3267 Y50.0513
X92.3296 Y50.6646
X92.3104 Y51.2775
X92.2693 Y51.8895
X92.2062 Y52.4995
X92.1211 Y53.1068
X92.0139 Y53.7107
X91.885 Y54.3102
X91.7345 Y54.9048
X91.5627 Y55.4935
X91.37 Y56.0757
X91.1566 Y56.6507
X90.9226 Y57.2175
X90.6681 Y57.7755
X90.3933 Y58.3238
X90.0988 Y58.8618
X89.7851 Y59.3887
X89.4526 Y59.904
X89.1017 Y60.407
X88.7329 Y60.897
X88.3464 Y61.3732
X87.9426 Y61.8347
X87.522 Y62.281
X87.0854 Y62.7118
X86.6336 Y63.1265
X86.1672 Y63.5247
X85.6868 Y63.9059
X85.1929 Y64.2694
X84.6861 Y64.6148
X84.1672 Y64.9416
X83.6367 Y65.2495
X83.0956 Y65.538
X82.5445 Y65.8071
X81.9841 Y66.0563
X81.4152 Y66.2854
X80.8385 Y66.4938
X80.2545 Y66.6812
X79.6642 Y66.8474
X79.0682 Y66.9922
X78.4675 Y67.1156
X77.8628 Y67.2175
X77.2548 Y67.2979
X76.6443 Y67.3565
X76.0321 Y67.3929
X75.419 Y67.4069
X74.8057 Y67.3986
X74.1932 Y67.3684
X73.5821 Y67.3164
X72.9733 Y67.2428
X72.3675 Y67.1476
X71.7654 Y67.0307
X71.168 Y66.8923
X70.5759 Y66.7324
X69.9899 Y66.5514
X69.4108 Y66.3497
X68.8392 Y66.1275
X68.2758 Y65.8851
X67.7214 Y65.6229
X67.1768 Y65.341
X66.6426 Y65.0397
X66.1197 Y64.7193
X65.6084 Y64.3806
X65.1095 Y64.0239
X64.6235 Y63.6499
X64.151 Y63.2589
X63.6927 Y62.8514
X63.2492 Y62.4278
X62.8214 Y61.9883
X62.4097 Y61.5338
X62.0143 Y61.0651
X61.6356 Y60.5827
X61.2741 Y60.0872
X60.9303 Y59.5794
X60.6046 Y59.0598
X60.2976 Y58.5289
X60.0097 Y57.9873
X59.7412 Y57.436
X59.4923 Y56.8755
X59.2634 Y56.3065
X59.0546 Y55.7299
X58.8662 Y55.1462
X58.6988 Y54.5563
X58.5526 Y53.9607
X58.4278 Y53.3602
X58.3244 Y52.7557
X58.2423 Y52.148
X58.1817 Y51.5377
X58.1425 Y50.9257
X58.1249 Y50.3126
X58.1291 Y49.6994
X58.1556 Y49.0867
X58.2039 Y48.4753
X58.2737 Y47.866
X58.3648 Y47.2595
X58.4771 Y46.6566
X58.6104 Y46.058
X58.7647 Y45.4644
X58.9399 Y44.8767
X59.1358 Y44.2956
X59.3521 Y43.7217
X59.5885 Y43.1558
X59.8446 Y42.5986
X60.1201 Y42.0507
X60.4147 Y41.5128
X60.7282 Y40.9856
X61.0602 Y40.47
X61.4105 Y39.9666
X61.7784 Y39.476
X62.1634 Y38.9985
X62.5648 Y38.5349
X62.9822 Y38.0856
X63.4152 Y37.6513
X63.8633 Y37.2325
X64.3262 Y36.8303
X64.8032 Y36.4448
X65.2935 Y36.0764
X65.7963 Y35.7254
X66.3112 Y35.3921
X66.8373 Y35.077
X67.3742 Y34.7806
X67.9212 Y34.5033
X68.4777 Y34.2456
X69.043 Y34.0077
X69.6162 Y33.7898
X70.1968 Y33.5922
X70.7839 Y33.415
X71.3769 Y33.2585
X71.975 Y33.123
X72.5776 Y33.0089
X73.1839 Y32.9164
X73.793 Y32.8455
X74.4043 Y32.796
X75.017 Y32.768
X75.6302 Y32.7614
X76.2433 Y32.7763
X76.8555 Y32.8127
X77.466 Y32.8712
X78.074 Y32.9514
X78.6788 Y33.053
X79.2797 Y33.1756
X79.8759 Y33.3191
X80.4669 Y33.4832
X81.0517 Y33.6677
X81.6298 Y33.8726
X82.2002 Y34.0977
X82.7625 Y34.3427
X83.3158 Y34.6072
X83.8596 Y34.8907
X84.3932 Y35.193
X84.9159 Y35.5137
X85.4272 Y35.8523
X85.9263 Y36.2087
X86.4125 Y36.5826
X86.8852 Y36.9733
X87.344 Y37.3803
X87.7884 Y37.8029
X88.218 Y38.2405
X88.6323 Y38.6928
X89.0306 Y39.159
X89.4124 Y39.639
X89.7769 Y40.1322
X90.124 Y40.6378
X90.4535 Y41.1551
X90.765 Y41.6833
X91.0583 Y42.2219
X91.333 Y42.7702
X91.5887 Y43.3277
X91.8249 Y43.8936
X92.0415 Y44.4674
X92.238 Y45.0483
X92.4145 Y45.6357
X92.5708 Y46.2287
X92.7066 Y46.8267
X92.8219 Y47.4291
X92.9162 Y48.0351
X92.9894 Y48.644
X93.0412 Y49.2551
X93.0717 Y49.8676
X93.0811 Y50.4808
X93.0694 Y51.094
X93.0367 Y51.7064
X92.9829 Y52.3173
X92.9081 Y52.926
X92.8118 Y53.5316
X92.6942 Y54.1335
X92.5558 Y54.731
X92.3969 Y55.3233
X92.2178 Y55.9099
X92.0186 Y56.4899
X91.7997 Y57.0628
X91.561 Y57.6277
X91.3029 Y58.184
X91.0255 Y58.731
X90.7294 Y59.268
X90.4148 Y59.7945
X90.0823 Y60.3098
X89.7322 Y60.8134
X89.3649 Y61.3045
X88.9807 Y61.7825
X88.5799 Y62.2467
X88.163 Y62.6965
X87.7308 Y63.1315
X87.2837 Y63.5513
X86.8224 Y63.9555
X86.3475 Y64.3435
X85.8596 Y64.715
X85.3589 Y65.0692
X84.846 Y65.4054
X84.3217 Y65.7235
X83.7867 Y66.0233
X83.2417 Y66.3046
X82.6874 Y66.5671
X82.1245 Y66.8105
X81.5536 Y67.0344
X80.9753 Y67.2386
X80.3903 Y67.4226
X79.7993 Y67.5863
X79.203 Y67.7297
X78.6021 Y67.8526
X77.9974 Y67.9549
X77.3896 Y68.0365
X76.7794 Y68.0973
X76.1674 Y68.1369
X75.5544 Y68.1552
X74.9411 Y68.1523
X74.3283 Y68.1283
X73.7166 Y68.0834
X73.1069 Y68.0177
X72.4997 Y67.9314
X71.8959 Y67.8243
X71.2961 Y67.6964
X70.7011 Y67.5474
X70.1117 Y67.378
X69.5285 Y67.1885
X68.952 Y66.9791
X68.383 Y66.7504
X67.8221 Y66.5024
X67.27 Y66.2354
X66.7274 Y65.9496
X66.1949 Y65.6454
X65.6731 Y65.3231
X65.1626 Y64.9832
X64.6639 Y64.6262
X64.1776 Y64.2526
X63.7042 Y63.8627
X63.2443 Y63.457
X62.7986 Y63.0358
X62.3677 Y62.5994
X61.952 Y62.1485
X61.5518 Y61.6838
X61.1676 Y61.2058
X60.7997 Y60.7151
X60.4485 Y60.2124
X60.1144 Y59.698
X59.7983 Y59.1725
X59.5006 Y58.6364
X59.2214 Y58.0903
X58.9609 Y57.5351
X58.7193 Y56.9714
X58.4969 Y56.3999
X58.2938 Y55.8212
X58.1105 Y55.236
X57.9473 Y54.6448
X57.8043 Y54.0484
X57.6818 Y53.4475
X57.5797 Y52.8428
X57.4981 Y52.235
X57.437 Y51.6247
X57.3964 Y51.0128
X57.3766 Y50.3998
X57.3777 Y49.7866
X57.3998 Y49.1737
X57.4428 Y48.5619
X57.5065 Y47.952
X57.5907 Y47.3445
X57.6952 Y46.7402
X57.8199 Y46.1397
X57.9647 Y45.5438
X58.1298 Y44.9531
X58.3152 Y44.3685
X58.5204 Y43.7906
X58.7451 Y43.22
X58.9889 Y42.6572
X59.2515 Y42.103
X59.5325 Y41.5579
X59.8318 Y41.0226
X60.149 Y40.4978
X60.484 Y39.9841
X60.8363 Y39.4821
X61.2054 Y38.9923
X61.5908 Y38.5152
X61.9919 Y38.0514
X62.4085 Y37.6012
X62.8399 Y37.1654
X63.2859 Y36.7444
X63.7461 Y36.3391
X64.2198 Y35.9496
X64.7065 Y35.5764
X65.2054 Y35.2197
X65.716 Y34.88
X66.2377 Y34.5576
X66.7698 Y34.2528
X67.312 Y33.9662
X67.8638 Y33.6986
X68.4245 Y33.45
X68.9932 Y33.2204
X69.5693 Y33.0102
X70.1522 Y32.8194
X70.7411 Y32.6483
X71.3354 Y32.4971
X71.9346 Y32.3662
X72.5378 Y32.2557
X73.1445 Y32.1658
X73.7538 Y32.0964
X74.3651 Y32.0477
X74.9778 Y32.0195
X75.591 Y32.0118
X76.2041 Y32.0247
X76.8165 Y32.0583
X77.4274 Y32.1128
X78.036 Y32.1882
X78.6417 Y32.284
X79.2439 Y32.4001
X79.8419 Y32.5362
X80.435 Y32.6921
X81.0226 Y32.8677
X81.604 Y33.0629
X82.1784 Y33.278
X82.745 Y33.5125
X83.3035 Y33.7659
X83.8532 Y34.0378
X84.3935 Y34.328
X84.9239 Y34.6359
X85.4437 Y34.9613
X85.9523 Y35.304
X86.4491 Y35.6636
X86.9335 Y36.0397
X87.405 Y36.4319
X87.8632 Y36.8395
X88.3075 Y37.2622
X88.7377 Y37.6993
X89.1531 Y38.1504
X89.5534 Y38.6151
X89.9378 Y39.0929
X90.306 Y39.5834
X90.6575 Y40.086
X90.9922 Y40.5999
X91.3098 Y41.1245
X91.61 Y41.6593
X91.8925 Y42.2036
X92.1569 Y42.757
X92.4027 Y43.3188
X92.6294 Y43.8887
X92.8369 Y44.4658
X93.0253 Y45.0494
X93.1943 Y45.6389
X93.3438 Y46.2337
X93.4738 Y46.8331
X93.5839 Y47.4364
X93.6739 Y48.043
X93.7436 Y48.6523
X93.7929 Y49.2636
X93.8219 Y49.8762
X93.8306 Y50.4894
X93.8191 Y51.1026
X93.7875 Y51.7151
X93.7356 Y52.3261
X93.6635 Y52.9352
X93.571 Y53.5414
X93.4582 Y54.1442
X93.3253 Y54.7429
X93.1727 Y55.3369
X93.0006 Y55.9256
X92.8092 Y56.5082
X92.5988 Y57.0843
X92.3694 Y57.653
X92.1209 Y58.2137
X91.8536 Y58.7657
X91.568 Y59.3084
X91.2645 Y59.8413
X90.9436 Y60.3639
X90.6055 Y60.8756
X90.2507 Y61.3758
X89.8795 Y61.864
X89.4921 Y62.3394
X89.0889 Y62.8016
X88.6705 Y63.25
X88.2374 Y63.6842
X87.7902 Y64.1038
X87.3293 Y64.5084
X86.8553 Y64.8976
X86.3688 Y65.2709
X85.87 Y65.6277
X85.3594 Y65.9675
X84.8378 Y66.29
X84.3058 Y66.5951
X83.764 Y66.8825
X83.2131 Y67.1519
X82.6536 Y67.4031
X82.0862 Y67.6358
X81.5114 Y67.8496
X80.9297 Y68.0438
X80.3418 Y68.2185
X79.7485 Y68.3737
X79.1504 Y68.5093
X78.5482 Y68.6253
X77.9425 Y68.7215
X77.334 Y68.7977
X76.7233 Y68.8539
X76.1111 Y68.8899
X75.498 Y68.9054
X74.8847 Y68.9007
X74.2719 Y68.8759
X73.6603 Y68.831
X73.0505 Y68.7661
X72.4431 Y68.6814
X71.8388 Y68.5768
X71.2383 Y68.4522
X70.6423 Y68.3076
X70.0514 Y68.1433
X69.4663 Y67.9597
X68.8875 Y67.757
X68.3156 Y67.5355
X67.7512 Y67.2955
X67.195 Y67.0372
X66.6477 Y66.7606
X66.1099 Y66.4657
X65.5822 Y66.1533
X65.065 Y65.8237
X64.5588 Y65.4774
X64.0642 Y65.1149
X63.5816 Y64.7365
X63.1115 Y64.3426
X62.6545 Y63.9336
X62.2113 Y63.5097
X61.7822 Y63.0716
X61.3677 Y62.6196
X60.9681 Y62.1543
X60.5838 Y61.6764
X60.2152 Y61.1863
X59.8625 Y60.6845
X59.5264 Y60.1715
X59.2073 Y59.6478
X58.9057 Y59.1138
X58.6218 Y58.5702
X58.3558 Y58.0177
X58.1078 Y57.4567
X57.8781 Y56.8881
X57.667 Y56.3123
X57.4746 Y55.73
X57.3015 Y55.1416
X57.1482 Y54.5478
X57.0145 Y53.9493
X56.9004 Y53.3467
X56.8059 Y52.7408
X56.7311 Y52.1321
X56.676 Y51.5213
X56.6407 Y50.909
X56.6252 Y50.2959
X56.6299 Y49.6827
X56.6546 Y49.0699
X56.6994 Y48.4583
X56.7639 Y47.8484
X56.8481 Y47.2409
X56.9517 Y46.6365
X57.0748 Y46.0356
X57.2173 Y45.4391
X57.3791 Y44.8476
X57.5603 Y44.2617
X57.7606 Y43.6821
X57.9797 Y43.1092
X58.2172 Y42.5438
X58.4728 Y41.9863
X58.7462 Y41.4374
X59.0373 Y40.8976
X59.3458 Y40.3676
X59.6719 Y39.8481
X60.0148 Y39.3397
X60.3742 Y38.8428
X60.7495 Y38.3577
X61.1402 Y37.885
X61.546 Y37.4252
X61.9664 Y36.9787
X62.4011 Y36.546
X62.8496 Y36.1278
X63.3116 Y35.7245
X63.7865 Y35.3364
X64.2737 Y34.9639
X64.7727 Y34.6074
X65.2829 Y34.2671
X65.8037 Y33.9433
X66.3347 Y33.6365
X66.8755 Y33.3471
X67.4254 Y33.0757
X67.9839 Y32.8224
X68.5504 Y32.5874
X69.1242 Y32.3709
X69.7047 Y32.173
X70.2912 Y31.9938
X70.8832 Y31.8337
X71.4801 Y31.6929
X72.0814 Y31.5721
X72.6863 Y31.4712
X73.2942 Y31.39
X73.9044 Y31.3286
X74.5162 Y31.2869
X75.1291 Y31.2649
X75.7424 Y31.2626
X76.3554 Y31.2801
X76.9675 Y31.3176
X77.5781 Y31.375
X78.1865 Y31.4523
X78.7921 Y31.5491
X79.3942 Y31.6655
X79.9924 Y31.801
X80.5858 Y31.9556
X81.174 Y32.1291
X81.7564 Y32.3215
X82.3321 Y32.5329
X82.9006 Y32.7628
X83.4614 Y33.011
X84.014 Y33.2771
X84.5577 Y33.5608
X85.0921 Y33.8617
X85.6166 Y34.1795
X86.1306 Y34.514
X86.6333 Y34.8653
X87.1243 Y35.2327
X87.6032 Y35.6159
X88.0694 Y36.0143
X88.5228 Y36.4273
X88.9627 Y36.8546
X89.3888 Y37.2957
X89.8008 Y37.75
X90.1979 Y38.2173
X90.5798 Y38.6972
X90.9462 Y39.189
X91.2965 Y39.6923
X91.6307 Y40.2066
X91.9485 Y40.7311
X92.2496 Y41.2654
X92.5337 Y41.8089
X92.8004 Y42.3611
X93.0494 Y42.9216
X93.2801 Y43.4898
X93.4925 Y44.0651
X93.6866 Y44.6469
X93.8621 Y45.2345
X94.0189 Y45.8274
X94.157 Y46.4249
X94.2761 Y47.0265
X94.3759 Y47.6316
X94.4559 Y48.2397
X94.5163 Y48.85
X94.5571 Y49.4619
X94.5783 Y50.0748
X94.5802 Y50.6881
X94.5626 Y51.3011
X94.5257 Y51.9133
X94.4693 Y52.524
X94.3935 Y53.1325
X94.2981 Y53.7384
X94.1833 Y54.3408
X94.0494 Y54.9393
X93.8965 Y55.5332
X93.7249 Y56.122
X93.5348 Y56.705
X93.3263 Y57.2818
X93.0995 Y57.8516
X92.8545 Y58.4138
X92.5915 Y58.9678
X92.3108 Y59.5131
X92.0128 Y60.0491
X91.6979 Y60.5754
X91.3665 Y61.0914
X91.0189 Y61.5967
X90.6553 Y62.0906
X90.2759 Y62.5723
X89.8809 Y63.0415
X89.4709 Y63.4976
X89.0465 Y63.9403
X88.6082 Y64.3693
X88.1565 Y64.7841
X87.6919 Y65.1844
X87.2148 Y65.5697
X86.7257 Y65.9397
X86.2249 Y66.2937
X85.713 Y66.6315
X85.1906 Y66.9527
X84.6582 Y67.2572
X84.1165 Y67.5446
X83.5659 Y67.8148
X83.0071 Y68.0675
X82.4406 Y68.3024
X81.8669 Y68.5192
X81.2866 Y68.7174
X80.7002 Y68.897
X80.1084 Y69.0578
X79.5117 Y69.1998
X78.911 Y69.323
X78.3066 Y69.4272
X77.6993 Y69.5124
X77.0895 Y69.5783
X76.478 Y69.6244
X75.8653 Y69.6508
X75.2521 Y69.6576
X74.6389 Y69.6451
X74.0265 Y69.6132
X73.4153 Y69.5621
X72.8061 Y69.4918
X72.1993 Y69.4025
X71.5957 Y69.294
X70.9959 Y69.1663
X70.4004 Y69.0195
X69.8099 Y68.854
X69.2249 Y68.6698
X68.646 Y68.4673
X68.0738 Y68.2468
X67.5087 Y68.0085
X66.9514 Y67.7525
X66.4025 Y67.4789
X65.8627 Y67.1879
X65.3324 Y66.8799
X64.812 Y66.5554
X64.3021 Y66.2146
X63.8031 Y65.8581
X63.3154 Y65.4862
X62.8396 Y65.0993
X62.3762 Y64.6976
X61.926 Y64.2812
X61.4892 Y63.8507
X61.0663 Y63.4066
X60.6575 Y62.9494
X60.2631 Y62.4797
X59.8836 Y61.998
X59.5192 Y61.5047
X59.1703 Y61.0003
X58.8374 Y60.4853
X58.5209 Y59.96
X58.2212 Y59.4249
X57.9384 Y58.8807
X57.6729 Y58.3279
X57.4246 Y57.7671
X57.194 Y57.1989
X56.9811 Y56.6237
X56.7864 Y56.0422
X56.61 Y55.4548
X56.4525 Y54.8621
X56.3138 Y54.2647
X56.1939 Y53.6633
X56.0929 Y53.0584
X56.0107 Y52.4506
X55.9475 Y51.8406
X55.9032 Y51.2289
X55.8781 Y50.6162
X55.8727 Y50.0029
X55.8867 Y49.3898
X55.9199 Y48.7774
X55.9723 Y48.1664
X56.0437 Y47.5573
X56.1339 Y46.9507
X56.2428 Y46.3471
X56.3704 Y45.7473
X56.5166 Y45.1517
X56.6814 Y44.561
X56.8648 Y43.9757
X57.0664 Y43.3965
X57.286 Y42.8239
X57.5232 Y42.2584
X57.778 Y41.7005
X58.0499 Y41.1508
X58.3387 Y40.6098
X58.6445 Y40.0782
X58.9669 Y39.5565
X59.3057 Y39.0453
X59.6603 Y38.545
X60.0304 Y38.0559
X60.4155 Y37.5786
X60.8152 Y37.1135
X61.2291 Y36.661
X61.657 Y36.2216
X62.0986 Y35.796
X62.5535 Y35.3847
X63.0211 Y34.9879
X63.5009 Y34.6059
X63.9923 Y34.239
X64.4948 Y33.8875
X65.008 Y33.5517
X65.5313 Y33.2319
X66.0643 Y32.9286
X66.6065 Y32.642
X67.1575 Y32.3727
X67.7167 Y32.1208
X68.2834 Y31.8864
X68.8571 Y31.6698
X69.4373 Y31.471
X70.0234 Y31.2903
X70.6147 Y31.1279
X71.2109 Y30.9841
X71.8114 Y30.8593
X72.4155 Y30.7535
X73.0226 Y30.6666
X73.6321 Y30.5988
X74.2434 Y30.5499
X74.8559 Y30.52
X75.4691 Y30.509
X76.0824 Y30.5171
X76.695 Y30.5446
X77.3065 Y30.5916
X77.9162 Y30.6577
X78.5235 Y30.7427
X79.128 Y30.8466
X79.7289 Y30.9691
X80.3258 Y31.11
X80.918 Y31.2692
X81.5051 Y31.4466
X82.0863 Y31.6422
X82.6612 Y31.8558
X83.2291 Y32.0873
X83.7896 Y32.3363
X84.3421 Y32.6025
X84.8861 Y32.8855
X85.4212 Y33.1851
X85.9469 Y33.5011
X86.4624 Y33.8332
X86.9674 Y34.1812
X87.4612 Y34.545
X87.9434 Y34.9239
X88.4136 Y35.3176
X88.8716 Y35.7255
X89.3168 Y36.1473
X89.7489 Y36.5824
X90.1675 Y37.0306
X90.572 Y37.4916
X90.9618 Y37.9651
X91.3367 Y38.4504
X91.6965 Y38.9471
X92.0409 Y39.4545
X92.3696 Y39.9722
X92.6825 Y40.4997
X92.9792 Y41.0364
X93.2595 Y41.5819
X93.5229 Y42.1357
X93.7692 Y42.6974
X93.9981 Y43.2664
X94.2094 Y43.8421
X94.403 Y44.424
X94.5788 Y45.0115
X94.7367 Y45.6042
X94.8764 Y46.2013
X94.998 Y46.8024
X95.1009 Y47.407
X95.1851 Y48.0145
X95.2503 Y48.6243
X95.2968 Y49.2358
X95.3244 Y49.8484
X95.3334 Y50.4616
X95.3237 Y51.0748
X95.2954 Y51.6875
X95.2483 Y52.2989
X95.1822 Y52.9086
X95.0971 Y53.516
X94.9932 Y54.1204
X94.8707 Y54.7213
X94.73 Y55.3182
X94.5711 Y55.9106
X94.3942 Y56.4978
X94.1996 Y57.0794
X93.9873 Y57.6547
X93.7574 Y58.2233
X93.51 Y58.7845
X93.2454 Y59.3377
X92.9639 Y59.8826
X92.6658 Y60.4186
X92.3515 Y60.9451
X92.0212 Y61.4619
X91.6753 Y61.9683
X91.3139 Y62.4638
X90.9374 Y62.9479
X90.5458 Y63.4199
X90.1398 Y63.8796
X89.7198 Y64.3264
X89.2863 Y64.7602
X88.8397 Y65.1805
X88.3805 Y65.587
X87.9091 Y65.9793
X87.4258 Y66.3568
X86.9309 Y66.719
X86.425 Y67.0657
X85.9086 Y67.3965
X85.3823 Y67.7114
X84.8467 Y68.0101
X84.3022 Y68.2923
X83.7494 Y68.5579
X83.1888 Y68.8066
X82.6209 Y69.0381
X82.0462 Y69.252
X81.4651 Y69.4482
X80.8783 Y69.6265
X80.2863 Y69.7868
X79.6898 Y69.9289
X79.0892 Y70.053
X78.4851 Y70.1588
X77.8781 Y70.2463
X77.2687 Y70.3152
X76.6575 Y70.3652
X76.045 Y70.3964
X75.4318 Y70.4087
X74.8186 Y70.4024
X74.2058 Y70.3774
X73.5941 Y70.3339
X72.9839 Y70.272
X72.3759 Y70.1916
X71.7707 Y70.0926
X71.1688 Y69.9748
X70.5709 Y69.8386
X69.9774 Y69.6841
X69.3889 Y69.5116
X68.8058 Y69.3213
X68.2288 Y69.1136
X67.6583 Y68.8885
X67.0949 Y68.6462
X66.5391 Y68.387
X65.9915 Y68.1109
X65.4526 Y67.8182
X64.9228 Y67.5092
X64.4027 Y67.1843
X63.8926 Y66.8438
X63.393 Y66.4882
X62.9043 Y66.1177
X62.4269 Y65.7327
X61.9615 Y65.3333
X61.5085 Y64.9199
X61.0684 Y64.4928
X60.6414 Y64.0526
X60.228 Y63.5996
X59.8283 Y63.1344
X59.4428 Y62.6575
X59.0717 Y62.1692
X58.7154 Y61.67
X58.3746 Y61.1602
X58.0495 Y60.6402
X57.7405 Y60.1105
X57.4476 Y59.5716
X57.1711 Y59.0242
X56.9113 Y58.4687
X56.6681 Y57.9057
X56.442 Y57.3356
X56.2331 Y56.759
X56.0416 Y56.1764
X55.868 Y55.5882
X55.7123 Y54.995
X55.5747 Y54.3973
X55.4553 Y53.7958
X55.3539 Y53.191
X55.2708 Y52.5834
X55.2058 Y51.9735
X55.1591 Y51.362
X55.1309 Y50.7494
X55.1214 Y50.1362
X55.1306 Y49.523
X55.1584 Y48.9103
X55.2046 Y48.2988
X55.2691 Y47.6889
X55.3518 Y47.0812
X55.4526 Y46.4763
X55.5713 Y45.8746
X55.7083 Y45.2768
X55.8635 Y44.6835
X56.0367 Y44.0952
X56.2275 Y43.5124
X56.4358 Y42.9355
X56.6613 Y42.3652
X56.9038 Y41.8019
X57.163 Y41.2461
X57.4386 Y40.6983
X57.7306 Y40.159
X58.0388 Y39.6288
X58.363 Y39.1082
X58.7028 Y38.5976
X59.0578 Y38.0975
X59.4277 Y37.6084
X59.812 Y37.1305
X60.2105 Y36.6642
X60.6227 Y36.2101
X61.0483 Y35.7687
X61.4873 Y35.3403
X61.939 Y34.9255
X62.4031 Y34.5246
X62.879 Y34.1378
X63.3663 Y33.7655
X63.8645 Y33.4079
X64.3732 Y33.0652
X64.8918 Y32.7379
X65.42 Y32.4264
X65.9576 Y32.1311
X66.5038 Y31.8524
X67.0583 Y31.5902
X67.6203 Y31.3448
X68.1895 Y31.1164
X68.7652 Y30.9051
X69.347 Y30.7111
X69.9343 Y30.5345
X70.5266 Y30.3756
X71.1235 Y30.2347
X71.7244 Y30.1119
X72.3287 Y30.0074
X72.9359 Y29.9212
X73.5454 Y29.8532
X74.1566 Y29.8035
X74.7691 Y29.772
X75.3822 Y29.7587
X75.9955 Y29.7639
X76.6083 Y29.7877
X77.2201 Y29.83
X77.8304 Y29.8908
X78.4385 Y29.97
X79.044 Y30.0672
X79.6464 Y30.1825
X80.2451 Y30.3156
X80.8395 Y30.4663
X81.4292 Y30.6348
X82.0135 Y30.8211
X82.5919 Y31.025
X83.1639 Y31.2462
X83.729 Y31.4844
X84.2868 Y31.7393
X84.8368 Y32.0107
X85.3784 Y32.2983
X85.9114 Y32.6017
X86.4351 Y32.9209
X86.949 Y33.2555
X87.4526 Y33.6055
X87.9455 Y33.9705
X88.4272 Y34.35
X88.8975 Y34.7437
X89.3558 Y35.1511
X89.802 Y35.5719
X90.2355 Y36.0056
X90.6561 Y36.452
X91.0631 Y36.9107
X91.4562 Y37.3815
X91.8351 Y37.8637
X92.1994 Y38.357
X92.5491 Y38.8609
X92.8837 Y39.3748
X93.2031 Y39.8984
X93.5071 Y40.431
X93.7953 Y40.9723
X94.0672 Y41.522
X94.3226 Y42.0796
X94.5613 Y42.6446
X94.7831 Y43.2163
X94.988 Y43.7943
X95.1758 Y44.3782
X95.3464 Y44.9672
X95.4998 Y45.561
X95.6356 Y46.1591
X95.7538 Y46.7609
X95.854 Y47.3659
X95.9362 Y47.9736
X96.0003 Y48.5836
X96.0463 Y49.1951
X96.0742 Y49.8077
X96.0841 Y50.4209
X96.076 Y51.0342
X96.0499 Y51.6469
X96.0058 Y52.2586
X95.9434 Y52.8687
X95.8627 Y53.4766
X95.764 Y54.0819
X95.6474 Y54.684
X95.5131 Y55.2824
X95.3612 Y55.8766
X95.1919 Y56.466
X95.0055 Y57.0503
X94.8018 Y57.6288
X94.5809 Y58.2009
X94.3429 Y58.7661
X94.0882 Y59.324
X93.8171 Y59.874
X93.5298 Y60.4159
X93.2266 Y60.949
X92.9078 Y61.4729
X92.5738 Y61.9872
X92.2248 Y62.4915
X91.8609 Y62.9852
X91.4824 Y63.4677
X91.0896 Y63.9387
X90.683 Y64.3978
X90.2629 Y64.8446
X89.8298 Y65.2788
X89.384 Y65.7
X88.9261 Y66.1079
X88.4563 Y66.5022
X87.9751 Y66.8823
X87.4827 Y67.2479
X86.9795 Y67.5985
X86.4662 Y67.9341
X85.9431 Y68.2543
X85.4109 Y68.5589
X84.8699 Y68.8479
X84.3207 Y69.1208
X83.7638 Y69.3777
X83.1995 Y69.6178
X82.6283 Y69.8409
X82.0506 Y70.047
X81.4672 Y70.2359
X80.8784 Y70.4075
X80.2849 Y70.5618
X79.687 Y70.6987
X79.0855 Y70.818
X78.4807 Y70.9198
X77.8732 Y71.0038
X77.2635 Y71.0698
X76.6521 Y71.1178
X76.0396 Y71.1476
X75.4264 Y71.1594
X74.8131 Y71.1532
X74.2003 Y71.129
X73.5885 Y71.0869
X72.9781 Y71.0271
X72.3698 Y70.9495
X71.764 Y70.8539
X71.1613 Y70.7404
X70.5623 Y70.6091
X69.9674 Y70.4601
X69.3771 Y70.2938
X68.7919 Y70.1102
X68.2123 Y69.9097
X67.6389 Y69.6924
X67.0719 Y69.4584
X66.5122 Y69.2077
X65.9602 Y68.9406
X65.4163 Y68.6572
X64.881 Y68.358
X64.3547 Y68.0432
X63.8377 Y67.7132
X63.3306 Y67.3684
X62.8337 Y67.009
X62.3474 Y66.6353
X61.8721 Y66.2477
X61.4084 Y65.8463
X60.9568 Y65.4315
X60.5174 Y65.0035
X60.0908 Y64.563
X59.6772 Y64.1101
X59.2769 Y63.6455
X58.8902 Y63.1695
X58.5174 Y62.6826
X58.1588 Y62.1851
X57.815 Y61.6772
X57.4863 Y61.1595
X57.1729 Y60.6323
X56.875 Y60.0963
X56.5929 Y59.5517
X56.3267 Y58.9992
X56.0765 Y58.4393
X55.8427 Y57.8723
X55.6254 Y57.2989
X55.4251 Y56.7192
X55.242 Y56.1339
X55.0761 Y55.5435
X54.9277 Y54.9484
X54.7966 Y54.3493
X54.6829 Y53.7467
X54.5868 Y53.141
X54.5082 Y52.5328
X54.4471 Y51.9225
X54.4038 Y51.3108
X54.3783 Y50.698
X54.3707 Y50.0848
X54.3811 Y49.4716
X54.4094 Y48.859
X54.4554 Y48.2474
X54.519 Y47.6375
X54.6002 Y47.0296
X54.6989 Y46.4243
X54.8149 Y45.8221
X54.9485 Y45.2235
X55.0995 Y44.6291
X55.2679 Y44.0394
X55.4534 Y43.4549
X55.6557 Y42.8759
X55.8747 Y42.3031
X56.1102 Y41.7368
X56.3619 Y41.1776
X56.6296 Y40.6258
X56.9134 Y40.0821
X57.2131 Y39.5471
X57.5283 Y39.021
X57.8588 Y38.5044
X58.2041 Y37.9976
X58.5641 Y37.501
X58.9382 Y37.0151
X59.3261 Y36.5401
X59.7276 Y36.0765
X60.1422 Y35.6246
X60.5699 Y35.1851
X61.0102 Y34.7582
X61.4628 Y34.3443
X61.9272 Y33.9438
X62.4031 Y33.557
X62.8899 Y33.184
X63.3873 Y32.8252
X63.8948 Y32.4808
X64.4119 Y32.1512
X64.9385 Y31.8367
X65.474 Y31.5378
X66.018 Y31.2547
X66.57 Y30.9875
X67.1295 Y30.7364
X67.6961 Y30.5017
X68.2692 Y30.2833
X68.8483 Y30.0816
X69.433 Y29.8966
X70.0229 Y29.7288
X70.6175 Y29.5784
X71.2162 Y29.4455
X71.8185 Y29.3301
X72.4239 Y29.2323
X73.0319 Y29.1521
X73.642 Y29.0895
X74.2536 Y29.0445
X74.8663 Y29.017
X75.4795 Y29.0072
X76.0927 Y29.0152
X76.7055 Y29.0411
X77.3172 Y29.0848
X77.9274 Y29.1462
X78.5355 Y29.2253
X79.1412 Y29.3219
X79.7438 Y29.4359
X80.3429 Y29.567
X80.938 Y29.7152
X81.5285 Y29.8805
X82.114 Y30.063
X82.694 Y30.2624
X83.2679 Y30.4785
X83.8354 Y30.7111
X84.3959 Y30.9599
X84.9491 Y31.2247
X85.4945 Y31.5051
X86.0317 Y31.8011
X86.56 Y32.1125
X87.079 Y32.4391
X87.5884 Y32.7807
X88.0876 Y33.1369
X88.5763 Y33.5074
X89.0542 Y33.8918
X89.5209 Y34.2897
X89.976 Y34.7007
X90.4193 Y35.1245
X90.8503 Y35.5608
X91.2687 Y36.0092
X91.674 Y36.4695
X92.0659 Y36.9412
X92.4441 Y37.424
X92.8083 Y37.9174
X93.1582 Y38.4211
X93.4938 Y38.9344
X93.8147 Y39.457
X94.1207 Y39.9885
X94.4115 Y40.5285
X94.6867 Y41.0765
X94.9461 Y41.6323
X95.1894 Y42.1952
X95.4165 Y42.7649
X95.6274 Y43.3408
X95.8218 Y43.9224
X95.9997 Y44.5093
X96.1609 Y45.101
X96.3053 Y45.6971
X96.4324 Y46.297
X96.5422 Y46.9004
X96.6346 Y47.5067
X96.7096 Y48.1153
X96.7672 Y48.7259
X96.8073 Y49.3379
X96.83 Y49.9507
X96.8354 Y50.564
X96.8234 Y51.1772
X96.794 Y51.7897
X96.7471 Y52.4012
X96.6827 Y53.0111
X96.6008 Y53.6189
X96.5014 Y54.2241
X96.3849 Y54.8262
X96.2512 Y55.4247
X96.1006 Y56.0192
X95.9333 Y56.6092
X95.7493 Y57.1942
X95.5487 Y57.7738
X95.3314 Y58.3473
X95.0978 Y58.9143
X94.848 Y59.4744
X94.5822 Y60.0271
X94.3007 Y60.572
X94.0039 Y61.1086
X93.6919 Y61.6366
X93.3651 Y62.1556
X93.0234 Y62.6649
X92.6672 Y63.164
X92.2966 Y63.6527
X91.9121 Y64.1305
X91.514 Y64.597
X91.1027 Y65.0519
X90.6786 Y65.4949
X90.242 Y65.9256
X89.7933 Y66.3437
X89.333 Y66.7489
X88.8613 Y67.1409
X88.3786 Y67.5191
X87.8851 Y67.8833
X87.3814 Y68.2332
X86.8679 Y68.5685
X86.3451 Y68.889
X85.8133 Y69.1945
X85.2732 Y69.4849
X84.725 Y69.7599
X84.1693 Y70.0193
X83.6064 Y70.2627
X83.0367 Y70.4899
X82.4608 Y70.7006
X81.8791 Y70.8948
X81.2921 Y71.0724
X80.7003 Y71.2334
X80.1042 Y71.3775
X79.5043 Y71.5048
X78.901 Y71.6151
X78.2948 Y71.708
X77.6862 Y71.7836
X77.0757 Y71.8417
X76.4637 Y71.8823
X75.8509 Y71.9055
X75.2376 Y71.9113
X74.6245 Y71.8998
X74.0119 Y71.871
X73.4003 Y71.825
X72.7903 Y71.7618
X72.1823 Y71.6814
X71.5769 Y71.5836
X70.9745 Y71.4687
X70.3756 Y71.3366
X69.7807 Y71.1876
X69.1902 Y71.0217
X68.6047 Y70.8393
X68.0246 Y70.6405
X67.4502 Y70.4255
X66.8822 Y70.1943
X66.321 Y69.947
X65.767 Y69.6838
X65.2208 Y69.405
X64.6827 Y69.1108
X64.1531 Y68.8015
X63.6325 Y68.4774
X63.1211 Y68.1388
X62.6195 Y67.7861
X62.1279 Y67.4194
X61.647 Y67.0388
X61.1771 Y66.6447
X60.7186 Y66.2374
X60.2717 Y65.8174
X59.837 Y65.3848
X59.4145 Y64.9402
X59.0047 Y64.484
X58.6078 Y64.0164
X58.2241 Y63.538
X57.8539 Y63.0491
X57.4976 Y62.55
X57.1554 Y62.041
X56.8279 Y61.5225
X56.5151 Y60.995
X56.2172 Y60.4589
X55.9346 Y59.9147
X55.6673 Y59.3627
X55.4155 Y58.8035
X55.1794 Y58.2375
X54.9593 Y57.6651
X54.7554 Y57.0867
X54.5681 Y56.5027
X54.3974 Y55.9137
X54.2433 Y55.32
X54.1061 Y54.7223
X53.9856 Y54.121
X53.882 Y53.5165
X53.7953 Y52.9094
X53.7257 Y52.3001
X53.6733 Y51.689
X53.6383 Y51.0768
X53.6206 Y50.4637
X53.6202 Y49.8505
X53.637 Y49.2374
X53.671 Y48.6251
X53.7221 Y48.0139
X53.7902 Y47.4044
X53.8753 Y46.7971
X53.9771 Y46.1923
X54.0959 Y45.5907
X54.2314 Y44.9926
X54.3838 Y44.3985
X54.5529 Y43.809
X54.7384 Y43.2245
X54.9403 Y42.6453
X55.1582 Y42.0721
X55.392 Y41.5051
X55.6415 Y40.9449
X55.9065 Y40.3918
X56.1871 Y39.8465
X56.4829 Y39.3093
X56.7938 Y38.7807
X57.1195 Y38.261
X57.4597 Y37.7507
X57.814 Y37.2501
X58.1821 Y36.7596
X58.5638 Y36.2796
X58.9587 Y35.8104
X59.3667 Y35.3525
X59.7875 Y34.9064
X60.2207 Y34.4723
X60.666 Y34.0506
X61.123 Y33.6416
X61.5912 Y33.2455
X62.0703 Y32.8627
X62.5599 Y32.4933
X63.0595 Y32.1377
X63.5688 Y31.796
X64.0875 Y31.4688
X64.6151 Y31.1561
X65.1513 Y30.8585
X65.6957 Y30.5761
X66.2478 Y30.309
X66.8071 Y30.0575
X67.3732 Y29.8217
X67.9457 Y29.6017
X68.5241 Y29.3978
X69.1079 Y29.21
X69.6968 Y29.0388
X70.2903 Y28.8842
X70.8879 Y28.7465
X71.4891 Y28.6256
X72.0935 Y28.5217
X72.7006 Y28.4348
X73.3099 Y28.3648
X73.9209 Y28.3117
X74.5331 Y28.2757
X75.1461 Y28.257
X75.7594 Y28.2556
X76.3724 Y28.2715
X76.9848 Y28.3046
X77.596 Y28.3548
X78.2056 Y28.4222
X78.8131 Y28.5065
X79.418 Y28.6076
X80.0198 Y28.7254
X80.6182 Y28.8598
X81.2126 Y29.0108
X81.8026 Y29.1783
X82.3876 Y29.3622
X82.9673 Y29.5624
X83.5411 Y29.7788
X84.1087 Y30.011
X84.6697 Y30.2589
X85.2236 Y30.5222
X85.77 Y30.8007
X86.3084 Y31.0942
X86.8385 Y31.4027
X87.3597 Y31.7258
X87.8717 Y32.0635
X88.3741 Y32.4153
X88.8664 Y32.7809
X89.3484 Y33.1601
X89.8197 Y33.5525
X90.28 Y33.9577
X90.729 Y34.3755
X91.1662 Y34.8056
X91.5912 Y35.2477
X92.0038 Y35.7015
X92.4035 Y36.1666
X92.7902 Y36.6426
X93.1636 Y37.1291
X93.5235 Y37.6257
X93.8695 Y38.132
X94.2016 Y38.6476
X94.5194 Y39.1721
X94.8228 Y39.7051
X95.1115 Y40.2462
X95.3851 Y40.795
X95.6434 Y41.3513
X95.8862 Y41.9144
X96.1135 Y42.4841
X96.325 Y43.0597
X96.5206 Y43.6409
X96.7003 Y44.2273
X96.8639 Y44.8183
X97.0113 Y45.4137
X97.142 Y46.0128
X97.2561 Y46.6154
X97.3535 Y47.2209
X97.4341 Y47.8289
X97.4978 Y48.4388
X97.5447 Y49.0503
X97.5749 Y49.6629
X97.5882 Y50.276
X97.5847 Y50.8893
X97.5641 Y51.5022
X97.5265 Y52.1143
X97.472 Y52.7252
X97.4005 Y53.3343
X97.3122 Y53.9412
X97.2072 Y54.5454
X97.0856 Y55.1465
X96.9475 Y55.744
X96.7931 Y56.3375
X96.6226 Y56.9266
X96.4359 Y57.5108
X96.2332 Y58.0896
X96.0146 Y58.6626
X95.7801 Y59.2293
X95.53 Y59.7893
X95.2646 Y60.3421
X94.984 Y60.8874
X94.6885 Y61.4248
X94.3784 Y61.9539
X94.0538 Y62.4743
X93.715 Y62.9855
X93.362 Y63.487
X92.9953 Y63.9785
X92.6149 Y64.4596
X92.2214 Y64.93
X91.8149 Y65.3892
X91.396 Y65.8371
X90.9648 Y66.2732
X90.5219 Y66.6974
X90.0673 Y67.1091
X89.6014 Y67.5079
X89.1247 Y67.8937
X88.6374 Y68.2661
X88.14 Y68.6248
X87.6328 Y68.9696
X87.1164 Y69.3003
X86.591 Y69.6167
X86.0572 Y69.9186
X85.5153 Y70.2058
X84.9658 Y70.4781
X84.409 Y70.7352
X83.8454 Y70.9769
X83.2753 Y71.2029
X82.6991 Y71.4131
X82.1174 Y71.6074
X81.5306 Y71.7856
X80.9391 Y71.9477
X80.3435 Y72.0936
X79.744 Y72.2233
X79.1413 Y72.3365
X78.5357 Y72.433
X77.9276 Y72.5128
X77.3176 Y72.5758
X76.706 Y72.6219
X76.0935 Y72.6512
X75.4803 Y72.6637
X74.867 Y72.6595
X74.2541 Y72.6385
X73.642 Y72.6008
X73.0312 Y72.5463
X72.422 Y72.4749
X71.8151 Y72.3868
X71.2109 Y72.2821
X70.6097 Y72.1607
X70.0121 Y72.0229
X69.4185 Y71.8688
X68.8293 Y71.6985
X68.245 Y71.5122
X67.666 Y71.3102
X67.0927 Y71.0925
X66.5255 Y70.8591
X65.965 Y70.6103
X65.4115 Y70.3462
X64.8655 Y70.067
X64.3273 Y69.7729
X63.7973 Y69.4643
X63.2759 Y69.1414
X62.7635 Y68.8044
X62.2604 Y68.4537
X61.767 Y68.0895
X61.2838 Y67.7119
X60.8111 Y67.3212
X60.3492 Y66.9176
X59.8986 Y66.5016
X59.4595 Y66.0735
X59.0322 Y65.6336
X58.617 Y65.1823
X58.2141 Y64.7199
X57.8239 Y64.2467
X57.4468 Y63.7631
X57.0831 Y63.2693
X56.733 Y62.7658
X56.3967 Y62.2529
X56.0745 Y61.7311
X55.7667 Y61.2007
X55.6328 Y60.9549
X55.6205 Y60.9305
X55.6097 Y60.9053
X55.6004 Y60.8796
X53.3169 Y53.8334
X53.1572 Y53.2413
X53.034 Y52.6605
X52.9553 Y52.0523
X52.9055 Y51.441
X52.8766 Y50.8284
X52.8658 Y50.2152
X52.8721 Y49.602
X52.8952 Y48.9891
X52.935 Y48.3771
X52.9912 Y47.7664
X53.0418 Y47.3424
X53.0462 Y47.3139
X53.0523 Y47.2859
X53.0603 Y47.2582
X53.0847 Y47.2121
X53.1206 Y47.1744
X53.1655 Y47.1478
X53.2159 Y47.1345
X53.2681 Y47.1353
X53.318 Y47.1503
X53.362 Y47.1784
X53.3967 Y47.2173
X53.4195 Y47.2642
X53.4287 Y47.3155
X53.4392 Y47.5775
X53.6755 Y53.5141
X53.6853 Y53.761
X53.6799 Y53.8144
X53.6597 Y53.8641
X53.6264 Y53.9062
X53.5828 Y53.9373
X53.5321 Y53.955
X53.4785 Y53.9578
X53.4263 Y53.9455
X53.3796 Y53.9192
X53.3421 Y53.8808
X53.3169 Y53.8334
X52.3723 Y50.919
X52.3415 Y50.824
X52.3272 Y50.7798
X52.2772 Y50.5941
X52.2152 Y50.2597
X52.194 Y50.0539
X52.192 Y49.9925
X52.1984 Y49.9314
X52.2133 Y49.8717
X52.2365 Y49.8273
X52.2705 Y49.7904
X52.313 Y49.7637
X52.361 Y49.7491
X52.4111 Y49.7476
X52.4599 Y49.7592
X52.504 Y49.7832
X52.5402 Y49.8179
X52.5661 Y49.8608
X52.5799 Y49.9091
X52.6208 Y50.1884
X52.6609 Y50.4627
X52.6938 Y50.6874
X52.6944 Y50.738
X52.6816 Y50.787
X52.6563 Y50.8308
X52.6204 Y50.8664
X52.5763 Y50.8913
X52.5273 Y50.9037
X52.4767 Y50.9027
X52.4281 Y50.8883
X52.3851 Y50.8617
X52.3507 Y50.8246
X52.3272 Y50.7798
X52.1467 Y50.2227
X52.1376 Y50.1879
X52.1348 Y50.1704
X52.1335 Y50.153
X52.1339 Y50.1356
X52.1358 Y50.1182
X52.1447 Y50.0834
X55.3945 Y40.0559
X55.6125 Y39.4826
X55.8643 Y38.9269
X56.1614 Y38.3904
X56.4823 Y37.8677
X56.8203 Y37.356
X57.173 Y36.8543
X57.5395 Y36.3625
X57.9191 Y35.8809
X58.3117 Y35.4097
X58.717 Y34.9494
X59.1346 Y34.5003
X59.5644 Y34.0628
X60.0058 Y33.6371
X60.4587 Y33.2236
X60.9226 Y32.8225
X61.3972 Y32.434
X61.882 Y32.0585
X62.3768 Y31.6961
X62.8813 Y31.3474
X63.3951 Y31.0125
X63.9178 Y30.6917
X64.4489 Y30.3852
X64.9883 Y30.0932
X65.5353 Y29.8159
X66.0896 Y29.5536
X66.6508 Y29.3063
X67.2185 Y29.0742
X67.7922 Y28.8574
X68.3715 Y28.6562
X68.956 Y28.4707
X69.5454 Y28.3011
X70.1392 Y28.1476
X70.7369 Y28.0104
X71.3382 Y27.8895
X71.9424 Y27.7849
X72.5493 Y27.6966
X73.1584 Y27.6248
X73.7692 Y27.5693
X74.3812 Y27.5304
X74.9941 Y27.5081
X75.6073 Y27.5025
X76.2205 Y27.5135
X76.8332 Y27.5412
X77.4448 Y27.5854
X78.0551 Y27.6462
X78.6635 Y27.7235
X79.2696 Y27.817
X79.873 Y27.9267
X80.4732 Y28.0528
X81.0697 Y28.1951
X81.6622 Y28.3535
X82.2502 Y28.5278
X82.8332 Y28.7179
X83.411 Y28.9237
X83.9829 Y29.145
X84.5488 Y29.3815
X85.108 Y29.6331
X85.6604 Y29.8996
X86.2054 Y30.1807
X86.7428 Y30.4764
X87.2719 Y30.7864
X87.7925 Y31.1106
X88.3041 Y31.4488
X88.8064 Y31.8006
X89.2991 Y32.1658
X89.7818 Y32.5441
X90.2542 Y32.9352
X90.716 Y33.3387
X91.1669 Y33.7544
X91.6065 Y34.1821
X92.0344 Y34.6214
X92.4503 Y35.0721
X92.854 Y35.5338
X93.2452 Y36.0061
X93.6235 Y36.4888
X93.9889 Y36.9813
X94.341 Y37.4834
X94.6798 Y37.9947
X95.0047 Y38.5148
X95.2045 Y38.8545
X95.2198 Y38.8829
X95.233 Y38.9123
X95.2441 Y38.9426
X97.9971 Y47.4372
X98.1201 Y47.8932
X98.2277 Y48.4748
X98.2906 Y49.0849
X98.325 Y49.6972
X98.339 Y50.3103
X98.3353 Y50.9235
X98.3147 Y51.5365
X98.2922 Y51.9066
X98.2884 Y51.9437
X98.2814 Y51.9804
X98.2714 Y52.0164
X98.2473 Y52.0622
X98.2117 Y52.0997
X98.1673 Y52.1263
X98.1174 Y52.1399
X98.0657 Y52.1396
X98.016 Y52.1253
X97.9719 Y52.0981
X97.9369 Y52.06
X97.9134 Y52.0139
X97.9032 Y51.9632
X97.8868 Y51.6973
X97.6438 Y47.7563
X97.6289 Y47.5138
X97.6333 Y47.4599
X97.6526 Y47.4094
X97.6855 Y47.3665
X97.729 Y47.3345
X97.7799 Y47.3161
X97.8338 Y47.3127
X97.8865 Y47.3247
X97.9337 Y47.351
X97.9716 Y47.3896
X97.9971 Y47.4372
X98.8547 Y50.0834
X98.8636 Y50.1182
X98.8655 Y50.1356
X98.8659 Y50.153
X98.8646 Y50.1704
X98.8618 Y50.1879
X98.8527 Y50.2227
X95.0613 Y61.9215
X94.9058 Y62.3303
X94.6992 Y62.7649
X94.3923 Y63.2959
X94.0518 Y63.806
X93.6916 Y64.3023
X93.3162 Y64.7873
X92.9272 Y65.2614
X92.5254 Y65.7248
X92.1114 Y66.1772
X91.6854 Y66.6184
X91.2479 Y67.0481
X90.7989 Y67.4659
X90.3387 Y67.8713
X89.8677 Y68.2641
X89.3863 Y68.644
X88.8949 Y69.0109
X88.3939 Y69.3646
X87.8835 Y69.7047
X87.3643 Y70.0311
X86.8367 Y70.3437
X86.3009 Y70.6421
X85.7575 Y70.9263
X85.2067 Y71.1961
X84.649 Y71.4511
X84.0846 Y71.6912
X83.5141 Y71.9161
X82.9378 Y72.1258
X82.3561 Y72.3201
X81.7695 Y72.4989
X81.1783 Y72.6621
X80.583 Y72.8097
X79.9841 Y72.9415
X79.3819 Y73.0575
X78.7768 Y73.1574
X78.1693 Y73.2411
X77.5597 Y73.3086
X76.9486 Y73.3599
X76.3363 Y73.3949
X75.7233 Y73.4136
X75.11 Y73.4162
X74.4969 Y73.4025
X73.8843 Y73.3728
X73.2728 Y73.3266
X72.6628 Y73.2638
X72.0546 Y73.1848
X71.4487 Y73.0896
X70.8456 Y72.9783
X70.2457 Y72.851
X69.6494 Y72.7079
X69.057 Y72.549
X68.4691 Y72.3746
X67.8859 Y72.1848
X67.3079 Y71.9797
X66.7356 Y71.7595
X66.1692 Y71.5242
X65.6093 Y71.274
X65.0562 Y71.009
X64.5104 Y70.7294
X63.9721 Y70.4355
X63.4418 Y70.1275
X62.9197 Y69.8057
X62.4063 Y69.4703
X61.9018 Y69.1216
X61.4067 Y68.7597
X60.9213 Y68.3848
X60.446 Y67.9973
X59.9812 Y67.5973
X59.527 Y67.1851
X59.0839 Y66.7611
X58.6521 Y66.3256
X58.2319 Y65.8789
X57.8235 Y65.4214
X57.4272 Y64.9534
X57.0436 Y64.4749
X56.6729 Y63.9863
X56.5936 Y63.8759
X56.5689 Y63.8375
X56.5483 Y63.7967
X56.532 Y63.7541
X55.6004 Y60.8796
X55.5931 Y60.8279
X55.6001 Y60.7762
X55.621 Y60.7283
X55.654 Y60.6879
X55.6968 Y60.658
X55.7462 Y60.6409
X55.7983 Y60.6379
X55.8492 Y60.6492
X55.8952 Y60.6739
X55.9327 Y60.7102
X55.959 Y60.7553
X55.9719 Y60.8059
X55.9706 Y60.858
X55.9552 Y60.9079
X55.9268 Y60.9517
X55.8946 Y60.9889 Z-1.9915
X55.8646 Y61.0235 Z-1.9725
X55.8388 Y61.0533 Z-1.9423
X55.8191 Y61.0761 Z-1.903
X55.8066 Y61.0904 Z-1.8572
X55.8024 Y61.0953 Z-1.808
G0 Z5
X55.4147 Y41.0263
Z-1.618
G1 Z-1.808 F3200
X55.4133 Y41.0199 Z-1.8572
X55.4091 Y41.0014 Z-1.903
X55.4024 Y40.972 Z-1.9424
X55.3937 Y40.9336 Z-1.9725
X55.3836 Y40.8889 Z-1.9915
X55.3727 Y40.841 Z-1.998
G3 X55.3945 Y40.0559 I1.5434 J-0.35
G1 X56.3424 Y37.1312
X56.4479 Y36.8536
X56.5944 Y36.5456
X56.844 Y36.1138
X57.1925 Y35.6092
X57.5714 Y35.1269
X57.9682 Y34.6594
X58.3791 Y34.204
X58.8025 Y33.7604
X59.2377 Y33.3284
X59.6843 Y32.908
X60.1418 Y32.4996
X60.6098 Y32.1032
X61.088 Y31.7192
X61.576 Y31.3478
X62.0736 Y30.9893
X62.5804 Y30.644
X63.0961 Y30.3121
X63.6204 Y29.9939
X64.1528 Y29.6895
X64.693 Y29.3992
X65.2407 Y29.1232
X65.7953 Y28.8616
X66.3567 Y28.6145
X66.9242 Y28.3821
X67.4976 Y28.1646
X68.0765 Y27.9621
X68.6605 Y27.7748
X69.2491 Y27.6029
X69.8421 Y27.4465
X70.4391 Y27.3057
X71.0395 Y27.1807
X71.6429 Y27.0714
X72.249 Y26.978
X72.8574 Y26.9004
X73.4676 Y26.8387
X74.0791 Y26.7929
X74.6917 Y26.7632
X75.3048 Y26.7495
X75.9181 Y26.7522
X76.5311 Y26.7712
X77.1433 Y26.8064
X77.7545 Y26.8575
X78.3641 Y26.9246
X78.9717 Y27.0076
X79.577 Y27.1063
X80.1795 Y27.2208
X80.7788 Y27.351
X81.3745 Y27.4968
X81.9662 Y27.6581
X82.5534 Y27.8349
X83.1359 Y28.0269
X83.7131 Y28.234
X84.2848 Y28.4561
X84.8505 Y28.6929
X85.4098 Y28.9444
X85.9625 Y29.2102
X86.5081 Y29.4902
X87.0463 Y29.7843
X87.5766 Y30.0923
X88.0987 Y30.414
X88.6123 Y30.7493
X89.1169 Y31.0978
X89.6123 Y31.4593
X90.0981 Y31.8336
X90.5741 Y32.2204
X91.0399 Y32.6193
X91.4953 Y33.0301
X91.9398 Y33.4525
X92.3733 Y33.8864
X92.7952 Y34.3314
X93.2052 Y34.7875
X93.6032 Y35.2541
X93.9889 Y35.7309
X94.3135 Y36.154
X94.3418 Y36.1956
X94.3653 Y36.2402
X94.3835 Y36.2871
X95.2441 Y38.9426
X95.2514 Y38.9942
X95.2444 Y39.046
X95.2235 Y39.0938
X95.1905 Y39.1342
X95.1477 Y39.1641
X95.0984 Y39.1812
X95.0463 Y39.1842
X94.9953 Y39.1729
X94.9493 Y39.1482
X94.9118 Y39.1119
X94.8856 Y39.0668
X94.8726 Y39.0162
X94.8739 Y38.9641
X94.8893 Y38.9142
X94.9177 Y38.8704
X94.9499 Y38.8333 Z-1.9915
X94.9799 Y38.7986 Z-1.9725
X95.0057 Y38.7689 Z-1.9423
X95.0254 Y38.746 Z-1.903
X95.0379 Y38.7317 Z-1.8572
X95.0421 Y38.7268 Z-1.808
G0 Z5
X95.041 Y60.9511
Z-1.618
G1 Z-1.808 F3200
X95.0425 Y60.9574 Z-1.8572
X95.0467 Y60.9759 Z-1.903
X95.0533 Y61.0053 Z-1.9424
X95.062 Y61.0437 Z-1.9725
X95.0722 Y61.0884 Z-1.9915
X95.0831 Y61.1364 Z-1.998
G3 X95.0613 Y61.9215 I-1.5434 J0.35
G1 X94.294 Y64.2891
X94.1806 Y64.5872
X94.0555 Y64.8502
X93.8544 Y65.1982
X93.508 Y65.6997
X93.1201 Y66.1747
X92.7116 Y66.6322
X92.2887 Y67.0764
X91.8536 Y67.5086
X91.4072 Y67.929
X90.9497 Y68.3375
X90.4817 Y68.7339
X90.0035 Y69.1179
X89.5155 Y69.4893
X89.0181 Y69.848
X88.5115 Y70.1937
X87.9962 Y70.5262
X87.4725 Y70.8454
X86.9408 Y71.1509
X86.4012 Y71.4425
X85.8544 Y71.7201
X85.3006 Y71.9836
X84.7402 Y72.2327
X84.1736 Y72.4673
X83.6011 Y72.6872
X83.0231 Y72.8924
X82.4401 Y73.0826
X81.8524 Y73.2578
X81.2604 Y73.4179
X80.6645 Y73.5629
X80.0651 Y73.6926
X79.4625 Y73.8068
X78.8573 Y73.9056
X78.2496 Y73.9887
X77.6401 Y74.0562
X77.029 Y74.1079
X76.4168 Y74.1439
X75.8038 Y74.1642
X75.1906 Y74.1688
X74.5774 Y74.1577
X73.9647 Y74.131
X73.3529 Y74.0884
X72.7424 Y74.0299
X72.1336 Y73.9556
X71.527 Y73.8656
X70.9229 Y73.76
X70.3217 Y73.6389
X69.7238 Y73.5025
X69.1296 Y73.3507
X68.5394 Y73.1839
X67.9538 Y73.0018
X67.3731 Y72.8047
X66.7976 Y72.5928
X66.2277 Y72.3662
X65.6637 Y72.1251
X65.1062 Y71.8697
X64.5554 Y71.6
X64.0117 Y71.3163
X63.4754 Y71.0188
X62.9469 Y70.7077
X62.4264 Y70.3833
X61.9144 Y70.0457
X61.4111 Y69.6953
X60.9169 Y69.3321
X60.4321 Y68.9565
X59.9572 Y68.5686
X59.4922 Y68.1686
X59.0377 Y67.7569
X58.5938 Y67.3337
X58.1609 Y66.8993
X57.7391 Y66.4541
X57.3287 Y65.9984
X57.2747 Y65.9352
X57.2398 Y65.8885
X57.2114 Y65.8378
X57.1898 Y65.7837
X56.532 Y63.7541
X56.5247 Y63.7024
X56.5317 Y63.6507
X56.5526 Y63.6028
X56.5856 Y63.5624
X56.6284 Y63.5325
X56.6778 Y63.5154
X56.7299 Y63.5124
X56.7808 Y63.5237
X56.8268 Y63.5484
X56.8643 Y63.5847
X56.8905 Y63.6298
X56.9035 Y63.6804
X56.9022 Y63.7325
X56.8868 Y63.7824
X56.8584 Y63.8262
X56.8262 Y63.8634 Z-1.9915
X56.7962 Y63.898 Z-1.9725
X56.7704 Y63.9278 Z-1.9424
X56.7507 Y63.9506 Z-1.903
X56.7382 Y63.9649 Z-1.8572
X56.734 Y63.9698 Z-1.808
G0 Z5
X56.3626 Y38.1016
Z-1.618
G1 Z-1.808 F3200
X56.3612 Y38.0952 Z-1.8572
X56.357 Y38.0767 Z-1.903
X56.3503 Y38.0473 Z-1.9424
X56.3416 Y38.0089 Z-1.9725
X56.3315 Y37.9642 Z-1.9915
X56.3206 Y37.9163 Z-1.998
G3 X56.3424 Y37.1312 I1.5434 J-0.35
G1 X57.0194 Y35.0421
X57.0728 Y34.9019
X57.1764 Y34.6845
X57.3449 Y34.3937
X57.6094 Y34.0115
X57.9979 Y33.5369
X58.4167 Y33.089
X58.8528 Y32.6577
X59.3016 Y32.2398
X59.7615 Y31.8341
X60.2317 Y31.4404
X60.7118 Y31.0588
X61.2014 Y30.6895
X61.7003 Y30.3327
X62.208 Y29.9888
X62.7243 Y29.6578
X63.2489 Y29.34
X63.7813 Y29.0357
X64.3213 Y28.745
X64.8685 Y28.4681
X65.4225 Y28.2051
X65.983 Y27.9562
X66.5496 Y27.7215
X67.122 Y27.5012
X67.6997 Y27.2954
X68.2824 Y27.1042
X68.8698 Y26.9279
X69.4615 Y26.7666
X70.0571 Y26.6203
X70.6562 Y26.4893
X71.2584 Y26.3735
X71.8634 Y26.273
X72.4707 Y26.1878
X73.0801 Y26.1182
X73.691 Y26.0641
X74.303 Y26.0257
X74.9159 Y26.0028
X75.5291 Y25.9956
X76.1423 Y26.0042
X76.7551 Y26.0285
X77.3671 Y26.0683
X77.9779 Y26.1237
X78.5871 Y26.1944
X79.1943 Y26.2805
X79.7991 Y26.3819
X80.4012 Y26.4985
X81.0002 Y26.6303
X81.5956 Y26.7773
X82.1871 Y26.9392
X82.7743 Y27.116
X83.3569 Y27.3077
X83.9344 Y27.5139
X84.5066 Y27.7347
X85.073 Y27.9698
X85.6334 Y28.219
X86.1873 Y28.4822
X86.7345 Y28.7591
X87.2745 Y29.0498
X87.8071 Y29.3539
X88.3318 Y29.6714
X88.8483 Y30.002
X89.3563 Y30.3456
X89.8555 Y30.7019
X90.3456 Y31.0706
X90.8262 Y31.4515
X91.2971 Y31.8444
X91.7579 Y32.2491
X92.2083 Y32.6653
X92.6481 Y33.0927
X93.0769 Y33.5312
X93.4945 Y33.9803
X93.6568 Y34.1641
X93.6937 Y34.2121
X93.7237 Y34.2647
X93.7462 Y34.3209
X94.3835 Y36.2871
X94.3908 Y36.3388
X94.3838 Y36.3905
X94.363 Y36.4384
X94.3299 Y36.4788
X94.2871 Y36.5087
X94.2378 Y36.5257
X94.1857 Y36.5288
X94.1347 Y36.5175
X94.0887 Y36.4928
X94.0512 Y36.4565
X94.025 Y36.4114
X94.012 Y36.3608
X94.0133 Y36.3087
X94.0287 Y36.2588
X94.0572 Y36.215
X94.0893 Y36.1778 Z-1.9915
X94.1193 Y36.1432 Z-1.9725
X94.1451 Y36.1134 Z-1.9424
X94.1649 Y36.0906 Z-1.903
X94.1773 Y36.0763 Z-1.8572
X94.1815 Y36.0714 Z-1.808
G0 Z5
X94.2737 Y63.3187
Z-1.618
G1 Z-1.808 F3200
X94.2752 Y63.325 Z-1.8572
X94.2793 Y63.3435 Z-1.903
X94.286 Y63.373 Z-1.9424
X94.2947 Y63.4113 Z-1.9725
X94.3049 Y63.456 Z-1.9915
X94.3157 Y63.504 Z-1.998
G3 X94.294 Y64.2891 I-1.5434 J0.35
G1 X93.662 Y66.2389
X93.605 Y66.3888
X93.5117 Y66.585
X93.3616 Y66.8447
X93.1362 Y67.1711
X92.7483 Y67.6461
X92.3235 Y68.0884
X91.8799 Y68.5118
X91.4231 Y68.9211
X90.9553 Y69.3176
X90.4773 Y69.7019
X89.9897 Y70.0739
X89.4929 Y70.4335
X88.9873 Y70.7805
X88.4731 Y71.1148
X87.9508 Y71.4362
X87.4206 Y71.7444
X86.8828 Y72.0391
X86.3378 Y72.3204
X85.786 Y72.588
X85.2277 Y72.8418
X84.6633 Y73.0816
X84.093 Y73.3072
X83.5173 Y73.5185
X82.9365 Y73.7155
X82.351 Y73.8979
X81.761 Y74.0656
X81.1671 Y74.2185
X80.5696 Y74.3565
X79.9688 Y74.4796
X79.3651 Y74.5878
X78.7589 Y74.6809
X78.1506 Y74.7588
X77.5406 Y74.8216
X76.9292 Y74.8691
X76.3167 Y74.9014
X75.7037 Y74.9185
X75.0904 Y74.9204
X74.4773 Y74.9072
X73.8647 Y74.8786
X73.253 Y74.8347
X72.6425 Y74.7755
X72.0338 Y74.701
X71.4271 Y74.6113
X70.8229 Y74.5065
X70.2214 Y74.3866
X69.6231 Y74.2519
X69.0284 Y74.1023
X68.4375 Y73.9381
X67.8509 Y73.7591
X67.269 Y73.5656
X66.692 Y73.3577
X66.1204 Y73.1355
X65.5544 Y72.8992
X64.9945 Y72.6489
X64.441 Y72.3849
X63.8943 Y72.1071
X63.3545 Y71.8159
X62.8222 Y71.5114
X62.2976 Y71.1937
X61.7811 Y70.8631
X61.2729 Y70.5197
X60.7734 Y70.164
X60.2828 Y69.796
X59.8015 Y69.4159
X59.3297 Y69.0241
X58.8678 Y68.6207
X58.416 Y68.2059
X57.9746 Y67.7802
X57.8433 Y67.6472
X57.799 Y67.5947
X57.7633 Y67.536
X57.7372 Y67.4725
X57.1898 Y65.7837
X57.1825 Y65.732
X57.1895 Y65.6803
X57.2104 Y65.6324
X57.2434 Y65.592
X57.2862 Y65.5622
X57.3355 Y65.5451
X57.3876 Y65.5421
X57.4386 Y65.5533
X57.4846 Y65.578
X57.5221 Y65.6143
X57.5483 Y65.6594
X57.5613 Y65.71
X57.56 Y65.7622
X57.5446 Y65.812
X57.5162 Y65.8558
X57.484 Y65.893 Z-1.9915
X57.454 Y65.9276 Z-1.9725
X57.4282 Y65.9574 Z-1.9424
X57.4084 Y65.9802 Z-1.903
X57.396 Y65.9946 Z-1.8572
X57.3918 Y65.9995 Z-1.808
G0 Z5
X57.0397 Y36.0125
Z-1.618
G1 Z-1.808 F3200
X57.0382 Y36.0062 Z-1.8572
X57.034 Y35.9877 Z-1.903
X57.0274 Y35.9582 Z-1.9424
X57.0186 Y35.9198 Z-1.9725
X57.0085 Y35.8752 Z-1.9915
X56.9976 Y35.8272 Z-1.998
G3 X57.0194 Y35.0421 I1.5434 J-0.35
G1 X57.5611 Y33.3708
X57.6144 Y33.2306
X57.7036 Y33.0481
X57.8417 Y32.8151
X58.0429 Y32.5304
X58.3759 Y32.1315
X58.8054 Y31.6938
X59.2588 Y31.2808
X59.7264 Y30.884
X60.2051 Y30.5006
X60.6934 Y30.1296
X61.1909 Y29.7709
X61.6971 Y29.4247
X62.2116 Y29.091
X62.7343 Y28.7702
X63.2646 Y28.4622
X63.8024 Y28.1674
X64.3473 Y27.886
X64.8989 Y27.6179
X65.4569 Y27.3635
X66.021 Y27.1227
X66.5907 Y26.8959
X67.1659 Y26.683
X67.7461 Y26.4845
X68.3311 Y26.3004
X68.9205 Y26.1309
X69.5139 Y25.9759
X70.1109 Y25.8356
X70.7112 Y25.71
X71.3144 Y25.5992
X71.9201 Y25.5033
X72.528 Y25.4223
X73.1377 Y25.3563
X73.7489 Y25.3054
X74.3611 Y25.2696
X74.9741 Y25.249
X75.5873 Y25.2435
X76.2005 Y25.2533
X76.8133 Y25.2783
X77.4253 Y25.3184
X78.0361 Y25.3735
X78.6453 Y25.4435
X79.2527 Y25.5284
X79.8578 Y25.6281
X80.4603 Y25.7426
X81.0598 Y25.8718
X81.656 Y26.0157
X82.2484 Y26.1742
X82.8368 Y26.3471
X83.4208 Y26.5344
X84 Y26.7359
X84.5742 Y26.9515
X85.1429 Y27.181
X85.7058 Y27.4243
X86.2627 Y27.6813
X86.8132 Y27.9516
X87.3568 Y28.2355
X87.8933 Y28.5327
X88.4223 Y28.8429
X88.9435 Y29.166
X89.4567 Y29.5018
X89.9615 Y29.85
X90.4577 Y30.2105
X90.945 Y30.5829
X91.423 Y30.9671
X91.8915 Y31.3629
X92.3501 Y31.7701
X92.7986 Y32.1883
X93.0964 Y32.4799
X93.1431 Y32.5337
X93.1806 Y32.5942
X93.2079 Y32.66
X93.7462 Y34.3209
X93.7535 Y34.3726
X93.7465 Y34.4243
X93.7257 Y34.4721
X93.6926 Y34.5125
X93.6498 Y34.5424
X93.6005 Y34.5595
X93.5484 Y34.5625
X93.4974 Y34.5512
X93.4515 Y34.5265
X93.414 Y34.4902
X93.3877 Y34.4451
X93.3748 Y34.3946
X93.3761 Y34.3424
X93.3915 Y34.2925
X93.4199 Y34.2487
X93.4521 Y34.2116 Z-1.9915
X93.4821 Y34.1769 Z-1.9725
X93.5078 Y34.1472 Z-1.9423
X93.5276 Y34.1243 Z-1.903
X93.54 Y34.11 Z-1.8572
X93.5443 Y34.1051 Z-1.808
G0 Z5
X93.6418 Y65.2685
Z-1.618
G1 Z-1.808 F3200
X93.6432 Y65.2748 Z-1.8572
X93.6474 Y65.2933 Z-1.903
X93.6541 Y65.3228 Z-1.9424
X93.6628 Y65.3611 Z-1.9725
X93.673 Y65.4058 Z-1.9915
X93.6838 Y65.4538 Z-1.998
G3 X93.662 Y66.2389 I-1.5434 J0.35
G1 X93.1663 Y67.7687
X93.0922 Y67.9635
X93.0128 Y68.1305
X92.8906 Y68.3418
X92.7194 Y68.5897
X92.4401 Y68.9318
X92.0153 Y69.3741
X91.5596 Y69.7845
X91.0876 Y70.1761
X90.6041 Y70.5534
X90.1109 Y70.9178
X89.6087 Y71.2699
X89.0981 Y71.6096
X88.5794 Y71.9367
X88.0528 Y72.2512
X87.5188 Y72.5527
X86.9775 Y72.841
X86.4293 Y73.116
X85.8747 Y73.3776
X85.3138 Y73.6258
X84.7472 Y73.8604
X84.175 Y74.0811
X83.5977 Y74.288
X83.0155 Y74.4809
X82.4289 Y74.6597
X81.8381 Y74.8242
X81.2435 Y74.9743
X80.6454 Y75.11
X80.0442 Y75.2313
X79.4403 Y75.338
X78.834 Y75.4301
X78.2256 Y75.5075
X77.6155 Y75.5702
X77.0041 Y75.6182
X76.3918 Y75.6514
X75.7788 Y75.6698
X75.1655 Y75.6735
X74.5523 Y75.6625
X73.9396 Y75.6366
X73.3276 Y75.5959
X72.7169 Y75.5404
X72.1077 Y75.4701
X71.5003 Y75.3849
X70.8952 Y75.2852
X70.2927 Y75.1708
X69.6931 Y75.0419
X69.0968 Y74.8987
X68.5041 Y74.7411
X67.9154 Y74.5692
X67.3311 Y74.383
X66.7515 Y74.1826
X66.1769 Y73.9682
X65.6076 Y73.7401
X65.044 Y73.4983
X64.4864 Y73.243
X63.9351 Y72.9744
X63.3904 Y72.6926
X62.8526 Y72.3978
X62.3221 Y72.0901
X61.7992 Y71.7697
X61.2841 Y71.4367
X60.7772 Y71.0916
X60.2787 Y70.7344
X59.7889 Y70.3653
X59.3081 Y69.9846
X58.8366 Y69.5924
X58.3746 Y69.189
X58.3453 Y69.1622
X58.2939 Y69.1061
X58.2527 Y69.0421
X58.2231 Y68.972
X57.7372 Y67.4725
X57.7298 Y67.4208
X57.7368 Y67.3691
X57.7577 Y67.3212
X57.7907 Y67.2808
X57.8335 Y67.251
X57.8829 Y67.2339
X57.935 Y67.2308
X57.9859 Y67.2421
X58.0319 Y67.2668
X58.0694 Y67.3031
X58.0957 Y67.3482
X58.1086 Y67.3988
X58.1073 Y67.451
X58.0919 Y67.5008
X58.0635 Y67.5446
X58.0313 Y67.5818 Z-1.9915
X58.0013 Y67.6164 Z-1.9725
X57.9755 Y67.6462 Z-1.9424
X57.9558 Y67.669 Z-1.903
X57.9433 Y67.6834 Z-1.8572
X57.9391 Y67.6883 Z-1.808
G0 Z5
X57.5813 Y34.3412
Z-1.618
G1 Z-1.808 F3200
X57.5799 Y34.3349 Z-1.8572
X57.5757 Y34.3164 Z-1.903
X57.569 Y34.287 Z-1.9424
X57.5603 Y34.2486 Z-1.9725
X57.5502 Y34.2039 Z-1.9915
X57.5393 Y34.1559 Z-1.998
G3 X57.5611 Y33.3708 I1.5434 J-0.35
G1 X58.0124 Y31.9781
X58.0896 Y31.7753
X58.1634 Y31.6201
X58.2746 Y31.4277
X58.4268 Y31.2073
X58.6703 Y30.9092
X59.0587 Y30.5047
X59.5176 Y30.0979
X59.9964 Y29.7147
X60.4877 Y29.3476
X60.9888 Y28.994
X61.4986 Y28.653
X62.0164 Y28.3245
X62.542 Y28.0085
X63.0751 Y27.7052
X63.6152 Y27.4147
X64.162 Y27.1371
X64.7153 Y26.8726
X65.2748 Y26.6213
X65.84 Y26.3834
X66.4107 Y26.1589
X66.9866 Y25.9482
X67.5675 Y25.7513
X68.1528 Y25.5684
X68.7424 Y25.3995
X69.3359 Y25.2449
X69.9328 Y25.1044
X70.533 Y24.9782
X71.136 Y24.8664
X71.7415 Y24.769
X72.3491 Y24.686
X72.9586 Y24.6176
X73.5695 Y24.5639
X74.1815 Y24.5247
X74.7943 Y24.5003
X75.4075 Y24.4906
X76.0208 Y24.4956
X76.6338 Y24.5154
X77.2461 Y24.5498
X77.8574 Y24.5988
X78.4674 Y24.6623
X79.0757 Y24.7403
X79.6819 Y24.8328
X80.2858 Y24.9398
X80.8869 Y25.0613
X81.485 Y25.1971
X82.0796 Y25.347
X82.6706 Y25.5111
X83.2574 Y25.6891
X83.8399 Y25.881
X84.4177 Y26.0867
X84.9904 Y26.306
X85.5578 Y26.5388
X86.1195 Y26.7849
X86.6753 Y27.0442
X87.2247 Y27.3166
X87.7676 Y27.6021
X88.3034 Y27.9003
X88.832 Y28.2113
X89.3531 Y28.5347
X89.8663 Y28.8705
X90.3714 Y29.2183
X90.8682 Y29.5779
X91.3563 Y29.9492
X91.8354 Y30.332
X92.3054 Y30.726
X92.5998 Y30.985
X92.6542 Y31.0423
X92.6977 Y31.1084
X92.7287 Y31.1811
X93.2079 Y32.66
X93.2153 Y32.7117
X93.2082 Y32.7634
X93.1874 Y32.8112
X93.1544 Y32.8516
X93.1116 Y32.8815
X93.0622 Y32.8986
X93.0101 Y32.9016
X92.9592 Y32.8903
X92.9132 Y32.8656
X92.8757 Y32.8294
X92.8494 Y32.7842
X92.8365 Y32.7337
X92.8378 Y32.6815
X92.8532 Y32.6316
X92.8816 Y32.5878
X92.9138 Y32.5507 Z-1.9915
X92.9438 Y32.516 Z-1.9725
X92.9696 Y32.4863 Z-1.9424
X92.9893 Y32.4634 Z-1.903
X93.0018 Y32.4491 Z-1.8572
X93.006 Y32.4442 Z-1.808
G0 Z5
X93.146 Y66.7983
Z-1.618
G1 Z-1.808 F3200
X93.1474 Y66.8046 Z-1.8572
X93.1516 Y66.8231 Z-1.903
X93.1583 Y66.8526 Z-1.9423
X93.167 Y66.8909 Z-1.9725
X93.1772 Y66.9356 Z-1.9915
