%
(Made in : Autodesk CAM Post Processor)
(G Code optimized for OpenBuilds OX CNC 1000 x 750 with GRBL V0.9j controller)

(Program Name : 1001)
(3 Operations :)
(1 : Pocket2)
(  Tool : Flat End Mill 2 Flutes, Diam = 1.9mm, Len = 12.7mm)
(  Spindle : RPM = 30000, set router dial to 6)
(  Machining time : 12 sec)
(2 : Contour2  2 )
(  Tool : Flat End Mill 2 Flutes, Diam = 1.9mm, Len = 12.7mm)
(  Spindle : RPM = 30000, set router dial to 6)
(  Machining time : 7 sec)
(3 : Horizontal1  2 )
(  Tool : Flat End Mill 2 Flutes, Diam = 1.9mm, Len = 12.7mm)
(  Spindle : RPM = 30000, set router dial to 6)
(  Machining time : 29 sec)

G90 G94
G17
G21

(Operation 1 of 3 : Pocket2)

G53 G0 Z5
G54
S30000 M3
G4 P1.0
X86.2397 Y42.2781
Z6
Z-1.848
G1 X86.244 Y42.2841 Z-1.895 F3200
X86.2567 Y42.3016 Z-1.9373
X86.2764 Y42.3288 Z-1.971
X86.3013 Y42.3631 Z-1.9926
X86.3289 Y42.4011 Z-2
X90.2251 Y47.7729
X90.2406 Y47.7984
X90.252 Y47.8259
X90.6543 Y49.0675
G3 X90.6544 Y51.2332 I-3.3423 J1.083
G1 X90.2502 Y52.4809
X90.2299 Y52.524
X90.1996 Y52.5608
X90.1611 Y52.5888
X90.1168 Y52.6064
X90.0696 Y52.6124
X86.4211 Y52.6156
X86.372 Z-1.9935
X86.3261 Y52.6157 Z-1.9745
X86.2868 Z-1.9444
X86.2566 Z-1.905
X86.2376 Y52.6158 Z-1.8592
X86.2311 Z-1.81
G0 Z5
X86.2398 Y37.4288
Z-1.848
G1 X86.2441 Y37.4348 Z-1.895 F3200
X86.2568 Y37.4523 Z-1.9373
X86.2766 Y37.4795 Z-1.971
X86.3014 Y37.5138 Z-1.9926
X86.329 Y37.5518 Z-2
X90.2252 Y42.9237
X90.2407 Y42.9491
X90.2521 Y42.9766
X92.2256 Y49.0674
G3 X92.2257 Y51.2331 I-3.3423 J1.083
G1 X90.2516 Y57.3272
X90.2469 Y57.3641
X90.256 Y57.4001
X90.2776 Y57.4303
X90.3087 Y57.4505
X90.3451 Y57.458
X90.3817 Y57.4517
X90.4134 Y57.4325
X90.436 Y57.403
X93.6569 Y51.0093
X93.679 Y50.9802
X93.7102 Y50.961
X93.7461 Y50.9543
X93.7821 Y50.961
X93.8133 Y50.9801
X93.8354 Y51.0092
X93.8457 Y51.0444
X93.8426 Y51.0808
G3 X93.7971 Y51.2331 I-3.3879 J-0.9305
G1 X90.253 Y62.1735
X90.2327 Y62.2167
X90.2024 Y62.2534
X90.1639 Y62.2814
X90.1196 Y62.299
X90.0724 Y62.305
X86.424 Y62.3082
X86.3748 Y62.3083 Z-1.9935
X86.3289 Z-1.9745
X86.2896 Z-1.9444
X86.2594 Y62.3084 Z-1.905
X86.2404 Z-1.8592
X86.2339 Z-1.81
G0 Z5
X95.4825 Y50.8809
Z3.6292
G1 Z3.5 F1200
Z-1.81 F3200
X95.4805 Y50.887 Z-1.8592
X95.4746 Y50.9051 Z-1.905
X95.4653 Y50.9338 Z-1.9444
X95.4532 Y50.9712 Z-1.9745
X95.4391 Y51.0148 Z-1.9935
X95.4239 Y51.0616 Z-2
X95.1312 Y51.9654
X90.2514 Y67.0289
X87.9258 Y74.208
X87.6908 Y74.9334
G3 X86.8464 Y75.5475 I-0.8445 J-0.2736
G1 X64.1527 Y75.5494
G3 X63.3083 Y74.9354 I-0.0001 J-0.8876
G1 X63.071 Y74.2031
X63.062 Y74.1543
X63.0659 Y74.1048
X63.0825 Y74.0581
X64.971 Y70.3592
X64.9934 Y70.3154 Z-1.9935
X65.0142 Y70.2746 Z-1.9745
X65.0321 Y70.2395 Z-1.9444
X65.0459 Y70.2127 Z-1.905
X65.0545 Y70.1957 Z-1.8592
X65.0574 Y70.19 Z-1.81
G0 Z5
X64.7595 Y58.0315
Z-1.848
G1 X64.7552 Y58.0255 Z-1.895 F3200
X64.7425 Y58.008 Z-1.9373
X64.7228 Y57.9808 Z-1.971
X64.6979 Y57.9465 Z-1.9926
X64.6703 Y57.9085 Z-2
X60.7752 Y52.538
X60.7596 Y52.5126
X60.7483 Y52.485
X60.3415 Y51.2295
G3 X60.3416 Y49.0644 I3.3405 J-1.0823
G1 X60.749 Y47.8077
X60.7692 Y47.7645
X60.7995 Y47.7278
X60.838 Y47.6998
X60.8823 Y47.6822
X60.9296 Y47.6762
X64.578 Y47.6737
X64.6272 Z-1.9935
X64.673 Y47.6736 Z-1.9745
X64.7124 Z-1.9443
X64.7425 Z-1.905
X64.7615 Z-1.8592
X64.768 Z-1.81
G0 Z5
X64.7604 Y62.8822
Z-1.848
G1 X64.756 Y62.8762 Z-1.895 F3200
X64.7434 Y62.8587 Z-1.9373
X64.7236 Y62.8315 Z-1.971
X64.6987 Y62.7972 Z-1.9926
X64.6712 Y62.7592 Z-2
X60.7751 Y57.3874
X60.7595 Y57.3619
X60.7481 Y57.3344
X58.7701 Y51.2294
G3 X58.7702 Y49.0643 I3.3405 J-1.0823
G1 X60.7484 Y42.9615
X60.7531 Y42.9246
X60.744 Y42.8885
X60.7223 Y42.8583
X60.6911 Y42.8381
X60.6546 Y42.8307
X60.618 Y42.8371
X60.5862 Y42.8565
X60.5637 Y42.8861
X57.298 Y49.4534
X57.2764 Y49.4823
X57.246 Y49.5016
X57.2107 Y49.5089
X57.1752 Y49.5032
X57.1439 Y49.4853
X57.121 Y49.4574
X57.1095 Y49.4233
X57.1109 Y49.3873
G3 X57.1988 Y49.0642 I3.4283 J0.7597
G1 X60.7479 Y38.1153
X60.7681 Y38.0722
X60.7984 Y38.0355
X60.8369 Y38.0075
X60.8812 Y37.9899
X60.9285 Y37.9839
X64.5769 Y37.9813
X64.6261 Z-1.9935
X64.6719 Z-1.9745
X64.7112 Y37.9812 Z-1.9444
X64.7414 Z-1.905
X64.7604 Z-1.8592
X64.7669 Z-1.81
G0 Z5
X55.5016 Y49.4523
Z3.6241
G1 Z3.5 F1200
Z-1.81 F3200
X55.5035 Y49.4462 Z-1.8592
X55.5094 Y49.4281 Z-1.905
X55.5187 Y49.3994 Z-1.9444
X55.5308 Y49.362 Z-1.9745
X55.545 Y49.3184 Z-1.9935
X55.5601 Y49.2716 Z-2
X55.8531 Y48.3679
X60.7473 Y33.2691
X63.0713 Y26.0994
X63.3087 Y25.3672
G3 X64.1533 Y24.7531 I0.8446 J0.2738
G1 X86.8444 Y24.7527
G3 X87.6889 Y25.3667 J0.8877
G1 X87.9262 Y26.0991
X87.9352 Y26.1479
X87.9313 Y26.1973
X87.9147 Y26.2441
X86.0262 Y29.943
X86.0038 Y29.9868 Z-1.9935
X85.983 Y30.0276 Z-1.9745
X85.9651 Y30.0626 Z-1.9443
X85.9514 Y30.0895 Z-1.905
X85.9427 Y30.1064 Z-1.8592
X85.9398 Y30.1122 Z-1.81
G0 Z5
X86.2399 Y32.5795
Z-1.848
G1 X86.2442 Y32.5855 Z-1.895 F3200
X86.2569 Y32.603 Z-1.9373
X86.2767 Y32.6302 Z-1.971
X86.3015 Y32.6645 Z-1.9926
X86.3291 Y32.7026 Z-2
X90.2253 Y38.0744
X90.2408 Y38.0998
X90.2522 Y38.1274
X93.797 Y49.0673
G3 X93.8407 Y49.213 I-3.3423 J1.083
G1 X93.858 Y49.2475
X93.8872 Y49.2729
X96.9232 Y51.0226
X96.9488 Y51.0437
X96.9661 Y51.072
X96.9732 Y51.1044
X96.9692 Y51.1373
G3 X96.9398 Y51.2329 I-3.3719 J-0.9871
G1 X90.2529 Y71.8752
X89.4972 Y74.208
X88.778 Y76.4282
G3 X87.9335 Y77.0423 I-0.8445 J-0.2736
G1 X63.0657 Y77.0444
G3 X62.2213 Y76.4304 I-0.0001 J-0.8876
G1 X61.5006 Y74.2061
X61.4937 Y74.1772
X61.4914 Y74.1474
X61.495 Y69.6974
X61.4951 Y69.6483 Z-1.9935
Y69.6024 Z-1.9745
Y69.5631 Z-1.9444
X61.4952 Y69.5329 Z-1.905
Y69.5139 Z-1.8592
Y69.5074 Z-1.81
G0 Z5
X64.7603 Y67.7316
Z-1.848
G1 X64.7559 Y67.7256 Z-1.895 F3200
X64.7432 Y67.7081 Z-1.9373
X64.7235 Y67.6809 Z-1.971
X64.6986 Y67.6466 Z-1.9926
X64.671 Y67.6086 Z-2
X60.7749 Y62.2367
X60.7594 Y62.2113
X60.748 Y62.1837
X57.1987 Y51.2293
G3 X57.1113 Y50.9084 I3.3405 J-1.0823
G1 X57.096 Y50.8734
X57.0688 Y50.8467
X54.1752 Y48.934
X54.1514 Y48.9121
X54.1359 Y48.8836
X54.1303 Y48.8518
X54.1352 Y48.8198
X60.7497 Y28.4138
X61.5 Y26.0993
X62.2218 Y23.8724
G3 X63.0664 Y23.2583 I0.8446 J0.2738
G1 X87.9314 Y23.2578
G3 X88.7759 Y23.8719 J0.8877
G1 X89.4966 Y26.0961
X90.2523 Y33.2781
X95.1302 Y48.3322
X95.138 Y48.3677 Z-1.9928
X95.139 Y48.404 Z-1.9855
X95.1343 Y48.4344 Z-1.9649
X95.1249 Y48.4637 Z-1.9444
X95.1051 Y48.4997 Z-1.8827
X95.0964 Y48.5112 Z-1.81
G0 Z5
X89.5809 Y27.515
Z3.6773
G1 Z3.5 F1200
Z-1.81 F3200
X89.5858 Y27.5192 Z-1.8592
X89.6003 Y27.5315 Z-1.905
X89.6232 Y27.5511 Z-1.9443
X89.6531 Y27.5767 Z-1.9745
X89.6879 Y27.6065 Z-1.9935
X89.7253 Y27.6385 Z-2
G3 X90.2524 Y28.4288 I-1.1376 J1.3297
G1 X96.9397 Y49.0672
X96.9678 Y49.158
X96.9756 Y49.1935 Z-1.9928
X96.9766 Y49.2298 Z-1.9855
X96.9719 Y49.2602 Z-1.9649
X96.9625 Y49.2895 Z-1.9444
X96.9427 Y49.3255 Z-1.8827
X96.934 Y49.3371 Z-1.81
G0 Z5
X64.7605 Y68.4229
Z-1.924
G1 X64.755 Y68.4211 Z-1.9531 F3200
X64.7394 Y68.416 Z-1.9777
X64.7159 Y68.4084 Z-1.9942
X64.6883 Y68.3994 Z-2
X60.8697 Y67.1552
X60.8292 Y67.1365
X60.7941 Y67.1088
X60.7665 Y67.0737
X60.7479 Y67.0331
X55.8555 Y51.9337
X55.8477 Y51.8982 Z-1.9928
X55.8467 Y51.862 Z-1.9855
X55.8514 Y51.8315 Z-1.9649
X55.8608 Y51.8022 Z-1.9444
X55.8806 Y51.7662 Z-1.8827
X55.8893 Y51.7547 Z-1.81
G0 Z5
X61.4192 Y72.7963
Z3.6773
G1 Z3.5 F1200
Z-1.81 F3200
X61.4143 Y72.7921 Z-1.8592
X61.3999 Y72.7798 Z-1.905
X61.377 Y72.7601 Z-1.9443
X61.3471 Y72.7346 Z-1.9745
X61.3122 Y72.7048 Z-1.9935
X61.2749 Y72.6728 Z-2
G3 X60.7477 Y71.8825 I1.1376 J-1.3297
G1 X54.1366 Y51.4782
G2 X53.0544 Y50.787 I-0.9607 J0.3113
G3 X52.2379 Y49.7958 I-0.0917 J-0.7563
G1 X52.4698 Y49.0803
X61.3274 Y21.7544
X89.6705 Y21.7539
X98.8714 Y50.15
X89.6727 Y78.5461
X61.3317 Y78.5484
X61.0067 Y77.561
X52.1242 Y50.1465
X52.2379 Y49.7958
X52.2523 Y49.7625 Z-1.9928
X52.2729 Y49.7325 Z-1.9855
X52.2944 Y49.7106 Z-1.9649
X52.3193 Y49.6924 Z-1.9444
X52.3564 Y49.6748 Z-1.8827
X52.3703 Y49.6706 Z-1.81
G0 Z6

(Operation 2 of 3 : Contour2  2 )

G54
S30000 M3
X53.4672 Y50.7049
Z6
Z1.1898
G1 Z-0.81 F3200
X53.4611 Y50.7029 Z-0.8592
X53.443 Y50.6971 Z-0.905
X53.4143 Y50.6878 Z-0.9443
X53.3769 Y50.6756 Z-0.9745
X53.3333 Y50.6615 Z-0.9935
X53.2865 Y50.6464 Z-1
X51.7932 Y50.1624
X51.7484 Y50.1411
X51.7107 Y50.1089
X51.6826 Y50.068
X51.666 Y50.0213
X51.662 Y49.9719
X51.671 Y49.9231
X60.9389 Y21.3267
X60.9482 Y21.2997
X60.9543 Y21.2828
X60.955 Y21.2811
X60.9566 Y21.2778
X60.9575 Y21.2761
X60.9596 Y21.2727
X60.9614 Y21.2702
X60.9635 Y21.2677
X60.966 Y21.265
X60.9686 Y21.2627
X60.9708 Y21.261
X60.973 Y21.2594
X60.9753 Y21.258
X60.9775 Y21.2567
X60.9798 Y21.2556
X60.982 Y21.2546
X60.9865 Y21.2531
X60.9888 Y21.2526
X60.991 Y21.2521
X60.9933 Y21.2517
X60.9955 Y21.2514
X60.9978 Y21.2513
X61.0315 Y21.2504
X61.1416 Y21.2503
X89.8838
X89.9939 Y21.2507
X90.0055 Y21.2515
X90.007 Y21.2518
X90.0099 Y21.2523
X90.0113 Y21.2526
X90.0157 Y21.2538
X90.02 Y21.2555
X90.0229 Y21.257
X90.0244 Y21.2578
X90.0273 Y21.2596
X90.0288 Y21.2606
X90.0322 Y21.2633
X90.0339 Y21.265
X90.0356 Y21.2667
X90.0382 Y21.2697
X90.0394 Y21.2712
X90.0416 Y21.2744
X90.0425 Y21.2762
X90.0435 Y21.2779
X90.0443 Y21.2796
X90.0472 Y21.2865
X90.052 Y21.3002
X99.3564 Y50.0097
X99.3917 Y50.1198
X99.397 Y50.137
X99.3975 Y50.1387
X99.3982 Y50.1422
X99.3984 Y50.1439
X99.3987 Y50.1473
X99.3988 Y50.1491
Y50.1508
Y50.1525
X99.3984 Y50.1559
X99.3982 Y50.1577
X99.3975 Y50.1611
X99.3971 Y50.1628
X99.3934 Y50.1749
X99.376 Y50.2299
X90.0493 Y79.0081
X90.0458 Y79.017
X90.0448 Y79.0192
X90.0438 Y79.0215
X90.0426 Y79.0237
X90.0413 Y79.0259
X90.0394 Y79.0288
X90.0383 Y79.0302
X90.0359 Y79.033
X90.0345 Y79.0344
X90.033 Y79.0359
X90.0314 Y79.0373
X90.029 Y79.0392
X90.0265 Y79.0409
X90.024 Y79.0425
X90.0216 Y79.0437
X90.0198 Y79.0446
X90.0164 Y79.0459
X90.0146 Y79.0465
X90.0112 Y79.0475
X90.0095 Y79.0478
X90.006 Y79.0484
X90.0043 Y79.0486
X89.9939 Y79.0493
X89.8838 Y79.0497
X61.1416
X61.0315 Y79.0496
X60.9975 Y79.0487
X60.996 Y79.0486
X60.993 Y79.0483
X60.9915 Y79.0481
X60.9871 Y79.047
X60.9856 Y79.0466
X60.9826 Y79.0456
X60.981 Y79.0449
X60.9794 Y79.0442
X60.9778 Y79.0435
X60.9747 Y79.0417
X60.9731 Y79.0407
X60.9697 Y79.0382
X60.9678 Y79.0366
X60.9659 Y79.0349
X60.9641 Y79.0329
X60.9626 Y79.0313
X60.9601 Y79.028
X60.959 Y79.0263
X60.9574 Y79.0238
X60.9562 Y79.0213
X60.955 Y79.0189
X60.9541 Y79.0164
X60.9504 Y79.0065
X60.9368 Y78.9669
X51.6234 Y50.2299
X51.606 Y50.1749
X51.6025 Y50.1611
X51.6021 Y50.1594
X51.6016 Y50.1559
X51.6014 Y50.1542
X51.6012 Y50.1508
Y50.1491
X51.6014 Y50.1456
X51.6016 Y50.1439
X51.6021 Y50.1405
X51.6025 Y50.1387
X51.6073 Y50.1198
X51.643 Y50.0097
X51.671 Y49.9231
X51.7307 Y49.7389 Z-1.0001
X51.7904 Y49.5548 Z-1.0004
X51.8501 Y49.3706 Z-1.0008
X51.9098 Y49.1865 Z-1.0015
X51.9694 Y49.0023 Z-1.0023
X52.0291 Y48.8182 Z-1.0033
X52.0888 Y48.6341 Z-1.0045
X52.1485 Y48.4499 Z-1.0058
X52.2082 Y48.2658 Z-1.0073
X52.2678 Y48.0816 Z-1.009
X52.3275 Y47.8975 Z-1.0109
X52.3872 Y47.7133 Z-1.0129
X52.4469 Y47.5292 Z-1.0151
X52.5066 Y47.345 Z-1.0174
X52.5662 Y47.1609 Z-1.0199
X52.6259 Y46.9767 Z-1.0225
X52.6856 Y46.7926 Z-1.0253
X52.7453 Y46.6085 Z-1.0283
X52.805 Y46.4243 Z-1.0314
X52.8646 Y46.2402 Z-1.0347
X52.9243 Y46.056 Z-1.0381
X52.984 Y45.8719 Z-1.0416
X53.0437 Y45.6877 Z-1.0453
X53.1034 Y45.5036 Z-1.0491
X53.163 Y45.3194 Z-1.0531
X53.2227 Y45.1353 Z-1.0572
X53.2824 Y44.9512 Z-1.0614
X53.3421 Y44.767 Z-1.0658
X53.4018 Y44.5829 Z-1.0702
X53.4614 Y44.3987 Z-1.0749
X53.5211 Y44.2146 Z-1.0796
X53.5808 Y44.0304 Z-1.0845
X53.6405 Y43.8463 Z-1.0894
X53.6703 Y43.7542 Z-1.092
X53.7002 Y43.6621 Z-1.0945
X53.73 Y43.5701 Z-1.0971
X53.7598 Y43.478 Z-1.0997
X53.7897 Y43.3859 Z-1.1024
X53.8195 Y43.2938 Z-1.1051
X53.8494 Y43.2018 Z-1.1078
X53.8792 Y43.1097 Z-1.1105
X53.909 Y43.0176 Z-1.1133
X53.9389 Y42.9256 Z-1.1161
X53.9687 Y42.8335 Z-1.1189
X53.9986 Y42.7414 Z-1.1217
X54.0284 Y42.6493 Z-1.1246
X54.0582 Y42.5573 Z-1.1275
X54.0881 Y42.4652 Z-1.1304
X54.1179 Y42.3731 Z-1.1334
X54.1478 Y42.281 Z-1.1363
X54.1776 Y42.189 Z-1.1393
X54.2074 Y42.0969 Z-1.1423
X54.2373 Y42.0048 Z-1.1454
X54.2671 Y41.9128 Z-1.1485
X54.297 Y41.8207 Z-1.1516
X54.3268 Y41.7286 Z-1.1547
X54.3566 Y41.6365 Z-1.1578
X54.3865 Y41.5445 Z-1.161
X54.4163 Y41.4524 Z-1.1642
X54.4462 Y41.3603 Z-1.1674
X54.476 Y41.2682 Z-1.1706
X54.5058 Y41.1762 Z-1.1739
X54.5357 Y41.0841 Z-1.1772
X54.5655 Y40.992 Z-1.1805
X54.5954 Y40.9 Z-1.1838
X54.6252 Y40.8079 Z-1.1871
X54.6849 Y40.6237 Z-1.1939
X54.7147 Y40.5317 Z-1.1972
X54.7445 Y40.4396 Z-1.2006
X54.7744 Y40.3475 Z-1.204
X54.8042 Y40.2554 Z-1.2074
X54.8341 Y40.1634 Z-1.2108
X54.8639 Y40.0713 Z-1.2141
X54.8937 Y39.9792 Z-1.2175
X54.9236 Y39.8872 Z-1.2209
X54.9534 Y39.7951 Z-1.2243
X54.9833 Y39.703 Z-1.2277
X55.0131 Y39.6109 Z-1.231
X55.0429 Y39.5189 Z-1.2344
X55.1026 Y39.3347 Z-1.2412
X55.1921 Y39.0585 Z-1.2513
X55.2817 Y38.7823 Z-1.2614
X55.3712 Y38.5061 Z-1.2716
X55.4607 Y38.2299 Z-1.2817
X55.5502 Y37.9536 Z-1.2919
X55.6397 Y37.6774 Z-1.302
X55.7293 Y37.4012 Z-1.3121
X55.8188 Y37.125 Z-1.3223
X55.9083 Y36.8488 Z-1.3324
X55.9978 Y36.5725 Z-1.3426
X56.147 Y36.1122 Z-1.3595
X56.2962 Y35.6518 Z-1.3764
X56.4454 Y35.1915 Z-1.3933
X56.6543 Y34.5469 Z-1.4169
X56.9229 Y33.7183 Z-1.4473
X57.3705 Y32.3372 Z-1.498
X59.5189 Y25.708 Z-1.7413
X59.6084 Y25.4318 Z-1.7515
X59.698 Y25.1555 Z-1.7616
X59.7278 Y25.0635 Z-1.765
X59.7576 Y24.9714 Z-1.7684
X59.7875 Y24.8793 Z-1.7717
X59.8173 Y24.7872 Z-1.7751
X59.8472 Y24.6952 Z-1.7785
X59.877 Y24.6031 Z-1.7819
X59.9068 Y24.511 Z-1.7853
X59.9367 Y24.419 Z-1.7886
X59.9665 Y24.3269 Z-1.792
X59.9964 Y24.2348 Z-1.7954
X60.0262 Y24.1427 Z-1.7988
X60.056 Y24.0507 Z-1.8022
X60.0859 Y23.9586 Z-1.8055
X60.1157 Y23.8665 Z-1.8089
X60.1456 Y23.7744 Z-1.8123
X60.1754 Y23.6824 Z-1.8156
X60.2052 Y23.5903 Z-1.819
X60.2351 Y23.4982 Z-1.8223
X60.2649 Y23.4062 Z-1.8255
X60.2948 Y23.3141 Z-1.8288
X60.3246 Y23.222 Z-1.832
X60.3544 Y23.1299 Z-1.8353
X60.3843 Y23.0379 Z-1.8385
X60.4141 Y22.9458 Z-1.8416
X60.444 Y22.8537 Z-1.8448
X60.4738 Y22.7616 Z-1.8479
X60.5036 Y22.6696 Z-1.851
X60.5335 Y22.5775 Z-1.8541
X60.5633 Y22.4854 Z-1.8571
X60.5932 Y22.3934 Z-1.8601
X60.623 Y22.3013 Z-1.8631
X60.6528 Y22.2092 Z-1.8661
X60.6827 Y22.1171 Z-1.8691
X60.7125 Y22.0251 Z-1.872
X60.7424 Y21.933 Z-1.8749
X60.7722 Y21.8409 Z-1.8778
X60.802 Y21.7488 Z-1.8806
X60.8319 Y21.6568 Z-1.8834
X60.8617 Y21.5647 Z-1.8862
X60.8916 Y21.4726 Z-1.889
X60.9214 Y21.3806 Z-1.8917
X60.9504 Y21.2936 Z-1.8945
X60.9548 Y21.2815 Z-1.8948
X60.9562 Y21.2785 Z-1.8949
X60.9577 Y21.2757 Z-1.895
X60.9594 Y21.2729
X60.9613 Y21.2703 Z-1.8951
X60.9634 Y21.2678 Z-1.8952
X60.9656 Y21.2654 Z-1.8953
X60.968 Y21.2632 Z-1.8954
X60.9705 Y21.2612 Z-1.8955
X60.9731 Y21.2593
X60.9759 Y21.2576 Z-1.8956
X60.9788 Y21.2561 Z-1.8957
X60.9817 Y21.2548 Z-1.8958
X60.9847 Y21.2537 Z-1.8959
X60.9877 Y21.2528 Z-1.896
X60.9908 Y21.2521
X60.9939 Y21.2516 Z-1.8961
X60.997 Y21.2513 Z-1.8962
X61.0314 Y21.2504 Z-1.8971
X61.1282 Y21.2503 Z-1.8998
X61.2249 Z-1.9024
X61.3217 Z-1.905
X61.4185 Z-1.9076
X61.5153 Z-1.9101
X61.6121 Z-1.9126
X61.8057 Z-1.9176
X61.9992 Z-1.9224
X62.1928 Z-1.9271
X62.3864 Z-1.9316
X62.58 Z-1.9361
X62.7735 Z-1.9404
X62.9671 Z-1.9445
X63.1607 Z-1.9486
X63.3543 Z-1.9525
X63.5478 Z-1.9562
X63.7414 Z-1.9599
X63.935 Z-1.9634
X64.1286 Z-1.9667
X64.3221 Z-1.9699
X64.5157 Z-1.9729
X64.7093 Z-1.9758
X64.9029 Z-1.9786
X65.0964 Z-1.9812
X65.29 Z-1.9836
X65.4836 Z-1.9859
X65.6772 Z-1.988
X65.8707 Z-1.9899
X66.0643 Z-1.9917
X66.2579 Z-1.9933
X66.4515 Z-1.9948
X66.645 Z-1.996
X66.8386 Z-1.9971
X67.0322 Z-1.9981
X67.2258 Z-1.9988
X67.4193 Z-1.9994
X67.6129 Z-1.9998
X67.8065 Z-2
X67.9203
X89.8838
X89.9939 Y21.2507
X90.0055 Y21.2515
X90.007 Y21.2518
X90.0099 Y21.2523
X90.0113 Y21.2526
X90.0157 Y21.2538
X90.02 Y21.2555
X90.0229 Y21.257
X90.0244 Y21.2578
X90.0273 Y21.2596
X90.0288 Y21.2606
X90.0322 Y21.2633
X90.0339 Y21.265
X90.0356 Y21.2667
X90.0382 Y21.2697
X90.0394 Y21.2712
X90.0416 Y21.2744
X90.0425 Y21.2762
X90.0435 Y21.2779
X90.0443 Y21.2796
X90.0472 Y21.2865
X90.052 Y21.3002
X99.3564 Y50.0097
X99.3917 Y50.1198
X99.397 Y50.137
X99.3975 Y50.1387
X99.3982 Y50.1422
X99.3984 Y50.1439
X99.3987 Y50.1473
X99.3988 Y50.1491
Y50.1508
Y50.1525
X99.3984 Y50.1559
X99.3982 Y50.1577
X99.3975 Y50.1611
X99.3971 Y50.1628
X99.3934 Y50.1749
X99.376 Y50.2299
X90.0493 Y79.0081
X90.0458 Y79.017
X90.0448 Y79.0192
X90.0438 Y79.0215
X90.0426 Y79.0237
X90.0413 Y79.0259
X90.0394 Y79.0288
X90.0383 Y79.0302
X90.0359 Y79.033
X90.0345 Y79.0344
X90.033 Y79.0359
X90.0314 Y79.0373
X90.029 Y79.0392
X90.0265 Y79.0409
X90.024 Y79.0425
X90.0216 Y79.0437
X90.0198 Y79.0446
X90.0164 Y79.0459
X90.0146 Y79.0465
X90.0112 Y79.0475
X90.0095 Y79.0478
X90.006 Y79.0484
X90.0043 Y79.0486
X89.9939 Y79.0493
X89.8838 Y79.0497
X61.1416
X61.0315 Y79.0496
X60.9975 Y79.0487
X60.996 Y79.0486
X60.993 Y79.0483
X60.9915 Y79.0481
X60.9871 Y79.047
X60.9856 Y79.0466
X60.9826 Y79.0456
X60.981 Y79.0449
X60.9794 Y79.0442
X60.9778 Y79.0435
X60.9747 Y79.0417
X60.9731 Y79.0407
X60.9697 Y79.0382
X60.9678 Y79.0366
X60.9659 Y79.0349
X60.9641 Y79.0329
X60.9626 Y79.0313
X60.9601 Y79.028
X60.959 Y79.0263
X60.9574 Y79.0238
X60.9562 Y79.0213
X60.955 Y79.0189
X60.9541 Y79.0164
X60.9504 Y79.0065
X60.9368 Y78.9669
X51.6234 Y50.2299
X51.606 Y50.1749
X51.6025 Y50.1611
X51.6021 Y50.1594
X51.6016 Y50.1559
X51.6014 Y50.1542
X51.6012 Y50.1508
Y50.1491
X51.6014 Y50.1456
X51.6016 Y50.1439
X51.6021 Y50.1405
X51.6025 Y50.1387
X51.6073 Y50.1198
X51.643 Y50.0097
X60.9389 Y21.3267
X60.9482 Y21.2997
X60.9543 Y21.2828
X60.955 Y21.2811
X60.9566 Y21.2778
X60.9575 Y21.2761
X60.9596 Y21.2727
X60.9614 Y21.2702
X60.9635 Y21.2677
X60.966 Y21.265
X60.9686 Y21.2627
X60.9708 Y21.261
X60.973 Y21.2594
X60.9753 Y21.258
X60.9775 Y21.2567
X60.9798 Y21.2556
X60.982 Y21.2546
X60.9865 Y21.2531
X60.9888 Y21.2526
X60.991 Y21.2521
X60.9933 Y21.2517
X60.9955 Y21.2514
X60.9978 Y21.2513
X61.0315 Y21.2504
X61.1416 Y21.2503
X67.9203
X67.9727 Y21.2577
X68.021 Y21.2792
X68.0615 Y21.3132
X68.0911 Y21.3571
X68.1074 Y21.4074
X68.1092 Y21.4602
X67.9412 Y23.0533
X67.936 Y23.1022 Z-1.9935
X67.9312 Y23.1478 Z-1.9745
X67.9271 Y23.1869 Z-1.9444
X67.9239 Y23.217 Z-1.905
X67.9219 Y23.2358 Z-1.8592
X67.9212 Y23.2423 Z-1.81
G0 Z6

(Operation 3 of 3 : Horizontal1  2 )

G54
S30000 M3
X56.8882 Y56.4839
Z6
Z-1.2601
G1 X56.8868 Y56.4827 Z-1.2866 F1200
X56.8825 Y56.4792 Z-1.3125
X56.8756 Y56.4733 Z-1.3374
X56.8662 Y56.4652 Z-1.3608
X56.8546 Y56.4548 Z-1.3822
X56.8411 Y56.4423 Z-1.4013
X56.8261 Y56.4277 Z-1.4176
X56.81 Y56.4114 Z-1.4309
X56.7932 Y56.3934 Z-1.4408
X56.7762 Y56.3741 Z-1.4472
X56.7593 Y56.3539 Z-1.45
G3 X56.8685 Y56.4672 Z-1.6425 I0.7021 J-0.5671
X56.9956 Y56.5598 Z-1.835 I0.5929 J-0.6804
X57.1369 Y56.6289 Z-2.0276 I0.4658 J-0.773
X57.2881 Y56.6725 Z-2.2201 I0.3245 J-0.8421
X57.4445 Y56.6891 Z-2.4126 I0.1733 J-0.8857
X57.1522 Y54.9389 Z-2.5 I0.0169 J-0.9023
G1 X57.1895 Y54.925 F3200
G3 X57.5074 Y55.1448 I0.083 J0.2198
G1 Y55.6332
X57.4997 Y55.6874
X57.4772 Y55.7373
X57.4416 Y55.7789
X57.3959 Y55.8089
X57.3436 Y55.825
X57.2888 Y55.8258
X57.2361 Y55.8113
X57.1894 Y55.7827
X57.1526 Y55.7422
X57.1286 Y55.6931
X56.9823 Y55.2417
G3 X57.1269 Y54.948 I0.2235 J-0.0724
G1 X57.1522 Y54.9389
G2 X57.6779 Y54.4282 I-0.3071 J-0.842
G3 X58.3977 Y54.5661 I0.3467 J0.1379
G1 Y61.2678
X58.39 Y61.322
X58.3675 Y61.3719
X58.332 Y61.4135
X58.2862 Y61.4435
X58.2339 Y61.4596
X58.1792 Y61.4604
X58.1264 Y61.446
X58.0797 Y61.4174
X58.0429 Y61.3769
X58.0189 Y61.3277
X55.9315 Y54.8873
G3 X56.2902 Y54.2604 I0.4643 J-0.1505
G2 X57.9264 Y53.5252 I-0.9565 J-4.3168
G1 X57.9279 Y53.5239
X57.9294 Y53.5226
G3 X58.3977 Y53.7626 I0.1726 J0.24
G1 Y54.5661
X58.3913 Y54.6153
X58.3723 Y54.6611
X58.3421 Y54.7005
X58.3027 Y54.7306
X58.2569 Y54.7496
X58.2077 Y54.7561
X58.1586 Z-2.4935
X58.1127 Z-2.4745
X58.0734 Z-2.4443
X58.0432 Z-2.405
X58.0242 Z-2.3592
X58.0177 Z-2.31
G0 Z5
X58.0461 Y46.19
Z-1.2601
G1 X58.0443 Y46.1904 Z-1.2866 F1200
X58.0389 Y46.1916 Z-1.3125
X58.03 Y46.1934 Z-1.3374
X58.0178 Y46.1958 Z-1.3608
X58.0025 Y46.1986 Z-1.3822
X57.9843 Y46.2015 Z-1.4013
X57.9636 Y46.2044 Z-1.4176
X57.9408 Y46.207 Z-1.4309
X57.9163 Y46.2092 Z-1.4408
X57.8906 Y46.2107 Z-1.4472
X57.8643 Y46.2115 Z-1.45
G3 X58.0208 Y46.1952 Z-1.6425 I-0.0147 J-0.9024
X58.172 Y46.1521 Z-1.835 I-0.1712 J-0.8861
X58.3135 Y46.0833 Z-2.0276 I-0.3224 J-0.8429
X58.4409 Y45.9909 Z-2.2201 I-0.4639 J-0.7741
X58.5503 Y45.8779 Z-2.4126 I-0.5913 J-0.6818
X56.9911 Y45.0309 Z-2.5 I-0.7007 J-0.5688
G1 X57.1286 Y44.6066 F3200
X57.1526 Y44.5574
X57.1894 Y44.5169
X57.2361 Y44.4883
X57.2889 Y44.4738
X57.3436 Y44.4746
X57.3959 Y44.4907
X57.4416 Y44.5208
X57.4772 Y44.5624
X57.4997 Y44.6122
X57.5074 Y44.6664
Y45.1546
G3 X57.1929 Y45.3756 I-0.2349
G1 X57.1269 Y45.3521
G3 X56.9822 Y45.0584 I0.0788 J-0.2213
G1 X56.9898 Y45.0349
X56.9911 Y45.0309
G2 X56.7734 Y44.2584 I-0.6881 J-0.223
G3 X56.5558 Y43.486 I0.4705 J-0.5494
G1 X58.0189 Y38.9717
X58.0429 Y38.9226
X58.0797 Y38.8821
X58.1264 Y38.8534
X58.1792 Y38.839
X58.2339 Y38.8398
X58.2862 Y38.8559
X58.3319 Y38.8859
X58.3675 Y38.9275
X58.39 Y38.9774
X58.3977 Y39.0316
Y46.5377
G3 X57.9298 Y46.7775 I-0.2954
G2 X56.2967 Y46.0407 I-2.6348 J3.6618
G1 X56.2929 Y46.0401
X56.2892 Y46.0394
G3 X55.9311 Y45.4138 I0.1052 J-0.4755
G1 X56.5558 Y43.486
G2 X56.3382 Y42.7136 I-0.6881 J-0.223
G3 X56.1206 Y41.9411 I0.4705 J-0.5494
G1 X58.9092 Y33.3369
X58.9332 Y33.2877
X58.97 Y33.2472
X59.0167 Y33.2186
X59.0695 Y33.2041
X59.1242 Y33.205
X59.1765 Y33.2211
X59.2222 Y33.2511
X59.2578 Y33.2927
X59.2803 Y33.3426
X59.288 Y33.3968
X59.2881 Y66.9025
X59.2803 Y66.9566
X59.2578 Y67.0065
X59.2223 Y67.0481
X59.1765 Y67.0782
X59.1242 Y67.0942
X59.0695 Y67.0951
X59.0167 Y67.0806
X58.97 Y67.052
X58.9332 Y67.0115
X58.9092 Y66.9623
X54.6735 Y53.8934
G3 X55.0498 Y53.4394 I0.3322 J-0.1077
G2 X56.6808 Y47.0309 I0.4213 J-3.3046
X55.8761 Y46.8433 I-1.0467 J2.6696
X55.05 Y46.8607 I-0.3308 J3.9061
G3 X54.6735 Y46.4065 I-0.0442 J-0.3466
G1 X56.1206 Y41.9411
G2 X55.903 Y41.1685 I-0.6883 J-0.2231
G3 X55.6853 Y40.3959 I0.4706 J-0.5495
G1 X59.8072 Y27.6775
X59.8308 Y27.6294
X59.8669 Y27.5897
X59.9126 Y27.5616
X59.9643 Y27.5474
X60.0179 Y27.5483
X60.0692 Y27.564
X60.114 Y27.5934
X60.1489 Y27.6342
X60.171 Y27.6831
X60.1785 Y27.7362
Y72.5628
X60.171 Y72.6159
X60.1489 Y72.6648
X60.1141 Y72.7055
X60.0692 Y72.735
X60.018 Y72.7507
X59.9643 Y72.7515
X59.9126 Y72.7374
X59.8669 Y72.7093
X59.8308 Y72.6696
X59.8073 Y72.6214
X52.5471 Y50.221
G3 Y50.079 I0.219 J-0.071
G1 X55.6853 Y40.3959
X55.7035 Y40.3635
X55.7327 Y40.3405
X55.7685 Y40.3305
X55.8055 Y40.335
X55.8378 Y40.3533
X55.8606 Y40.3826
X55.8705 Y40.4185
X56.3857 Y47.7227
X56.3809 Y47.76
X56.3619 Y47.7925
X56.3319 Y47.8151
X56.2954 Y47.8243
X56.2582 Y47.8186
G2 X55.4799 Y47.6634 I-0.886 J2.4147
X53.0272 Y49.444 I-0.1022 J2.4388
X53.411 Y51.5922 I2.4165 J0.6766
X55.3209 Y52.6479 I2.0784 J-1.5047
X57.852 Y49.5501 I0.1613 J-2.4511
X56.2582 Y47.8186 I-2.4798 J0.6832
X55.297 Y48.1375 I-0.2802 J0.7635
G3 X54.5873 Y48.86 I-2.154 J-1.4062
G1 X54.5032 Y48.917
X54.4475 Y48.9608
X54.3931 Y49.008
X54.3277 Y49.0708
X54.283 Y49.118
X54.2415 Y49.1652
X54.2291 Y49.1809
X54.1476 Y49.2909
X54.1294 Y49.3184
X54.1125 Y49.3459
X54.0806 Y49.4009
X54.0628 Y49.4337
X54.0256 Y49.5109
X54.0006 Y49.5659
X53.98 Y49.621
X53.9527 Y49.7032
X53.9449 Y49.731
X53.9179 Y49.841
X53.8987 Y49.951
X53.8925 Y50.006
X53.8884 Y50.0611
X53.8857 Y50.1711
X53.8915 Y50.2811
X53.9053 Y50.3911
X53.9271 Y50.5011
X53.9527 Y50.5966
X53.9953 Y50.7212
X54.0189 Y50.7762
X54.0454 Y50.8312
X54.1044 Y50.9412
X54.1769 Y51.0513
X54.2196 Y51.1063
X54.2642 Y51.1613
X54.283 Y51.1825
X54.37 Y51.2713
X54.3931 Y51.2923
X54.447 Y51.3376
X54.5032 Y51.3829
X54.6133 Y51.4579
X54.7234 Y51.5193
X54.7784 Y51.5469
X54.8335 Y51.5708
X54.9144 Y51.6014
X54.9436 Y51.6111
X55.0537 Y51.6429
X55.1638 Y51.6663
X55.2739 Y51.6816
X55.384 Y51.6889
X55.4941 Y51.6878
X55.5491 Y51.6839
X55.6042 Y51.679
X55.7143 Y51.6611
X55.8244 Y51.6357
X55.9349 Y51.6014
X56.0446 Y51.5594
X56.0996 Y51.5334
X56.1547 Y51.5052
X56.1801 Y51.4913
X56.2648 Y51.4402
X56.3749 Y51.3613
X56.4271 Y51.3185
X56.485 Y51.2659
X56.5372 Y51.2136
X56.5852 Y51.1613
X56.6734 Y51.0513
X56.7052 Y51.0048
X56.7454 Y50.9412
X56.8153 Y50.8106
X56.8533 Y50.7212
X56.8753 Y50.6662
X56.8935 Y50.6112
X56.9254 Y50.4894
X56.9446 Y50.3911
X56.9584 Y50.2811
X56.9645 Y50.1711
X56.9618 Y50.0611
X56.951 Y49.951
X56.9322 Y49.841
X56.9254 Y49.8054
X56.8897 Y49.676
X56.8699 Y49.621
X56.8245 Y49.5109
X56.7699 Y49.4009
X56.7026 Y49.2909
X56.6211 Y49.1809
X56.5951 Y49.1509
X56.5045 Y49.0522
X56.485 Y49.0335
X56.4023 Y48.9608
X56.3749 Y48.9385
X56.2648 Y48.86
X56.2507 Y48.8508
X56.1547 Y48.7944
X56.0153 Y48.7283
X55.9884 Y48.7178
X55.8794 Y48.679
X55.8244 Y48.6635
X55.7143 Y48.6389
X55.6681 Y48.6308
X55.6042 Y48.6216
X55.4941 Y48.6122
X55.384 Y48.6111
X55.2739 Y48.6185
X55.1638 Y48.6337
X55.0537 Y48.6569
X54.9986 Y48.6706
X54.8748 Y48.7121
X54.8083 Y48.7408
X54.7234 Y48.7799
X54.6683 Y48.8097
X54.6133 Y48.8423
X54.5873 Y48.86
X54.543 Y48.8822
X54.4944 Y48.8922
X54.4449 Y48.8893
X54.3978 Y48.8737
X54.3564 Y48.8465
X54.3234 Y48.8094
X54.2958 Y48.7687 Z-2.4935
X54.2701 Y48.7308 Z-2.4745
X54.248 Y48.6982 Z-2.4444
X54.231 Y48.6732 Z-2.405
X54.2203 Y48.6575 Z-2.3592
X54.2167 Y48.6522 Z-2.31
G0 Z5
X62.0621 Y24.8029
Z-1.2601
G1 X62.0612 Y24.8013 Z-1.2866 F1200
X62.0584 Y24.7965 Z-1.3125
X62.0539 Y24.7887 Z-1.3374
X62.0479 Y24.7778 Z-1.3608
X62.0405 Y24.764 Z-1.3822
X62.0321 Y24.7477 Z-1.4013
X62.023 Y24.7289 Z-1.4176
X62.0135 Y24.708 Z-1.4309
X62.0039 Y24.6854 Z-1.4408
X61.9945 Y24.6614 Z-1.4472
X61.9856 Y24.6366 Z-1.45
G3 X62.0493 Y24.7804 Z-1.6425 I0.8539 J-0.2922
X62.137 Y24.911 Z-1.835 I0.7902 J-0.436
X62.2461 Y25.0244 Z-2.0276 I0.7025 J-0.5666
X62.3732 Y25.1171 Z-2.2201 I0.5934 J-0.68
X62.5145 Y25.1863 Z-2.4126 I0.4663 J-0.7727
X62.8395 Y23.4419 Z-2.5 I0.325 J-0.8419
G1 X88.212 F3200
G3 X88.5128 Y23.6606 J0.3162
G1 X88.5595 Y23.8047
G3 X88.2587 Y24.2184 I-0.3008 J0.0975
G1 X62.7404 Y24.2185
G3 X62.4396 Y23.8047 J-0.3162
G1 X62.4863 Y23.6606
G3 X62.7871 Y23.4419 I0.3008 J0.0975
G1 X62.8395
G2 X63.8075 Y22.7966 J-1.0486
G3 X64.7755 Y22.1513 I0.968 J0.4033
G1 X88.7478
G3 X89.5754 Y22.7531 J0.87
G1 X90.3578 Y25.1672
G3 X90.0091 Y25.5407 I-0.2779 J0.0901
G2 X89.8205 Y25.5075 I-0.3297 J1.3193
X89.6294 Y25.4971 I-0.1993 J1.91
G1 X61.1735 Y25.5061
X61.0802 Y25.5197
X60.9884 Y25.5415
G3 X60.6408 Y25.1686 I-0.0703 J-0.283
G1 X61.4237 Y22.7531
G3 X62.2513 Y22.1513 I0.8277 J0.2682
G1 X64.7755
X64.8246 Y22.1577
X64.8705 Y22.1767
X64.9098 Y22.2069
X64.94 Y22.2463
X64.959 Y22.2921
X64.9655 Y22.3413
Y22.3904 Z-2.4935
Y22.4363 Z-2.4745
Y22.4756 Z-2.4443
Y22.5058 Z-2.405
Y22.5248 Z-2.3592
Y22.5313 Z-2.31
G0 Z5
X94.873 Y45.8471
Z-1.2601
G1 X94.8714 Y45.848 Z-1.2866 F1200
X94.8667 Y45.8508 Z-1.3125
X94.8588 Y45.8553 Z-1.3374
X94.8479 Y45.8614 Z-1.3608
X94.8342 Y45.8687 Z-1.3822
X94.8178 Y45.8771 Z-1.4013
X94.799 Y45.8862 Z-1.4176
X94.7781 Y45.8957 Z-1.4309
X94.7555 Y45.9053 Z-1.4408
X94.7315 Y45.9147 Z-1.4472
X94.7067 Y45.9236 Z-1.45
G3 X94.8506 Y45.8599 Z-1.6425 I-0.2922 J-0.8539
X94.9812 Y45.7722 Z-1.835 I-0.436 J-0.7902
X95.0945 Y45.6631 Z-2.0276 I-0.5666 J-0.7025
X95.1872 Y45.536 Z-2.2201 I-0.68 J-0.5934
X95.2565 Y45.3948 Z-2.4126 I-0.7727 J-0.4663
X93.512 Y45.0697 Z-2.5 I-0.8419 J-0.325
G1 Y44.7924 F3200
X93.5197 Y44.7383
X93.5423 Y44.6884
X93.5778 Y44.6468
X93.6236 Y44.6167
X93.6759 Y44.6007
X93.7306 Y44.5998
X93.7834 Y44.6143
X93.83 Y44.6429
X93.8669 Y44.6834
X93.8909 Y44.7326
X93.9773 Y44.9992
G3 X93.8286 Y45.2944 I-0.2235 J0.0724
G1 X93.8222 Y45.2965
G3 X93.512 Y45.074 I-0.0752 J-0.2226
G1 Y45.0697
G2 X93.0669 Y44.402 I-0.7234
G3 X92.6217 Y43.7343 I0.2782 J-0.6677
G1 Y39.1576
X92.6294 Y39.1034
X92.652 Y39.0535
X92.6875 Y39.0119
X92.7333 Y38.9819
X92.7856 Y38.9658
X92.8403 Y38.965
X92.8931 Y38.9794
X92.9397 Y39.0081
X92.9765 Y39.0486
X93.0006 Y39.0977
X95.0393 Y45.3884
G3 X94.6754 Y45.9969 I-0.448 J0.1452
G2 X93.0994 Y46.627 I0.7583 J4.1825
G3 X92.6217 Y46.3704 I-0.1699 J-0.2566
G1 Y43.7343
X92.6282 Y43.6851
X92.6472 Y43.6393
X92.6774 Y43.5999
X92.7167 Y43.5697
X92.7626 Y43.5507
X92.8117 Y43.5443
X92.8609 Z-2.4935
X92.9067 Z-2.4745
X92.9461 Z-2.4444
X92.9763 Z-2.405
X92.9953 Z-2.3592
X93.0017 Z-2.31
G0 Z5
X92.922 Y54.1437
Z-1.2601
G1 X92.9238 Y54.1433 Z-1.2866 F1200
X92.9292 Y54.1421 Z-1.3125
X92.938 Y54.1402 Z-1.3374
X92.9502 Y54.1378 Z-1.3608
X92.9656 Y54.1351 Z-1.3822
X92.9837 Y54.1321 Z-1.4013
X93.0044 Y54.1292 Z-1.4176
X93.0272 Y54.1266 Z-1.4309
X93.0517 Y54.1245 Z-1.4408
X93.0774 Y54.123 Z-1.4472
X93.1037 Y54.1221 Z-1.45
G3 X92.9473 Y54.1384 Z-1.6425 I0.0147 J0.9024
X92.796 Y54.1816 Z-1.835 I0.1712 J0.8861
X92.6545 Y54.2504 Z-2.0276 I0.3224 J0.8429
X92.5271 Y54.3427 Z-2.2201 I0.4639 J0.7741
X92.4177 Y54.4557 Z-2.4126 I0.5913 J0.6818
X93.977 Y55.3028 Z-2.5 I0.7007 J0.5688
G1 X93.8909 Y55.5684 F3200
X93.8669 Y55.6175
X93.8301 Y55.658
X93.7834 Y55.6866
X93.7306 Y55.7011
X93.6759 Y55.7003
X93.6236 Y55.6842
X93.5778 Y55.6542
X93.5423 Y55.6126
X93.5198 Y55.5627
X93.512 Y55.5085
Y55.2247
G3 X93.819 Y55.0011 I0.2349
G1 X93.8261 Y55.0034
G3 X93.978 Y55.2996 I-0.0716 J0.2237
G1 X93.977 Y55.3028
G2 X94.1946 Y56.0752 I0.6881 J0.223
G3 X94.4122 Y56.8477 I-0.4705 J0.5494
G1 X93.0006 Y61.2032
X92.9766 Y61.2524
X92.9398 Y61.2929
X92.8931 Y61.3215
X92.8403 Y61.3359
X92.7856 Y61.3351
X92.7333 Y61.319
X92.6875 Y61.289
X92.652 Y61.2474
X92.6295 Y61.1975
X92.6217 Y61.1433
Y53.9293
G3 X93.0991 Y53.6728 I0.3076
G2 X94.6712 Y54.3023 I2.3057 J-3.481
G3 X95.0393 Y54.9127 I-0.0808 J0.4649
G1 X94.4122 Y56.8477
G2 X94.6298 Y57.6201 I0.6881 J0.223
G3 X94.8474 Y58.3925 I-0.4705 J0.5494
G1 X92.1103 Y66.838
X92.0863 Y66.8872
X92.0494 Y66.9277
X92.0028 Y66.9563
X91.95 Y66.9708
X91.8953 Y66.9699
X91.843 Y66.9539
X91.7972 Y66.9238
X91.7617 Y66.8822
X91.7392 Y66.8323
X91.7314 Y66.7782
Y33.5227
X91.7391 Y33.4685
X91.7617 Y33.4186
X91.7972 Y33.377
X91.843 Y33.347
X91.8953 Y33.3309
X91.95 Y33.3301
X92.0028 Y33.3446
X92.0494 Y33.3732
X92.0862 Y33.4137
X92.1103 Y33.4628
X96.3093 Y46.4193
G3 X95.9356 Y46.8595 I-0.3229 J0.1046
G2 X92.255 Y48.9853 I-0.5101 J3.3661
X93.5913 Y53.0203 I3.0991 J1.2124
X94.7275 Y53.4383 I1.57 J-2.5137
X95.9381 Y53.4401 I0.6113 J-4.1317
G3 X96.3097 Y53.8806 I0.0487 J0.3358
G1 X94.8474 Y58.3925
G2 X95.065 Y59.165 I0.6881 J0.223
G3 X95.2826 Y59.9374 I-0.4705 J0.5494
G1 X91.2122 Y72.4974
X91.1887 Y72.5455
X91.1526 Y72.5852
X91.1069 Y72.6133
X91.0552 Y72.6275
X91.0015 Y72.6267
X90.9503 Y72.6109
X90.9054 Y72.5815
X90.8706 Y72.5407
X90.8485 Y72.4918
X90.841 Y72.4387
X90.8409 Y27.8621
X90.8485 Y27.809
X90.8706 Y27.7601
X90.9054 Y27.7194
X90.9502 Y27.6899
X91.0015 Y27.6742
X91.0551 Y27.6734
X91.1069 Y27.6875
X91.1526 Y27.7156
X91.1887 Y27.7553
X91.2122 Y27.8035
X98.4315 Y50.079
G3 Y50.2208 I-0.219 J0.071
G1 X95.2826 Y59.9374
X95.2646 Y59.9698
X95.2355 Y59.9927
X95.1998 Y60.0028
X95.1631 Y59.9985
X95.1307 Y59.9805
X95.1077 Y59.9514
X95.0976 Y59.9158
X94.5113 Y52.6902
X94.5157 Y52.6531
X94.534 Y52.6205
X94.5635 Y52.5976
X94.5995 Y52.5877
X94.6365 Y52.5925
G2 X95.3687 Y52.7302 I0.8497 J-2.5042
X97.8913 Y50.874 I0.1109 J-2.4916
X97.4309 Y48.594 I-2.5493 J-0.6716
X95.3371 Y47.5808 I-2.0593 J1.5856
X92.9299 Y50.7652 I0.0335 J2.5274
X94.6365 Y52.5925 I2.5564 J-0.6769
X95.6913 Y52.1899 I0.2843 J-0.838
G3 X96.4175 Y51.3254 I2.6804 J1.5144
G1 X96.4518 Y51.2972
X96.4796 Y51.2713
X96.5619 Y51.1877
X96.5856 Y51.1613
X96.6295 Y51.1072
X96.6734 Y51.0513
X96.7454 Y50.9412
X96.8045 Y50.8312
X96.831 Y50.7762
X96.8543 Y50.7212
X96.8938 Y50.6112
X96.9228 Y50.5011
X96.9446 Y50.3911
X96.9585 Y50.2811
X96.9645 Y50.1711
X96.9618 Y50.0611
X96.951 Y49.951
X96.9323 Y49.841
X96.9052 Y49.731
X96.8922 Y49.6845
X96.8493 Y49.5659
X96.8245 Y49.5109
X96.7821 Y49.4228
X96.7026 Y49.2909
X96.6206 Y49.1809
X96.5932 Y49.1473
X96.5218 Y49.0708
X96.4868 Y49.0351
X96.4518 Y49.004
X96.3417 Y48.9129
X96.2503 Y48.8508
X96.2316 Y48.8389
X96.1765 Y48.8068
X96.1215 Y48.7774
X96.0415 Y48.7408
X96.0114 Y48.7279
X95.9013 Y48.6874
X95.7912 Y48.6548
X95.7361 Y48.6425
X95.6672 Y48.6308
X95.571 Y48.6179
X95.4609 Y48.6108
X95.3508 Y48.6123
X95.2407 Y48.6221
X95.1808 Y48.6308
X95.1306 Y48.6399
X95.0205 Y48.6647
X94.9654 Y48.6807
X94.8331 Y48.7288
X94.7177 Y48.7826
X94.6902 Y48.7972
X94.5993 Y48.8508
X94.5801 Y48.863
X94.47 Y48.9427
X94.4481 Y48.9608
X94.3599 Y49.0388
X94.3271 Y49.0708
X94.2498 Y49.1557
X94.2288 Y49.1809
X94.1476 Y49.2909
X94.08 Y49.4009
X94.0124 Y49.5384
X94.0012 Y49.5659
X93.9602 Y49.676
X93.9446 Y49.731
X93.9194 Y49.833
X93.8987 Y49.951
X93.8925 Y50.006
X93.8884 Y50.0611
X93.8857 Y50.1711
X93.8915 Y50.2811
X93.9053 Y50.3911
X93.9194 Y50.4671
X93.9271 Y50.5011
X93.9562 Y50.6112
X93.9745 Y50.6662
X93.9965 Y50.7212
X94.0295 Y50.8006
X94.0882 Y50.9137
X94.1049 Y50.9412
X94.1769 Y51.0513
X94.2647 Y51.1613
X94.3096 Y51.211
X94.371 Y51.2713
X94.4205 Y51.3162
X94.47 Y51.3571
X94.5801 Y51.4371
X94.6249 Y51.4651
X94.6902 Y51.5026
X94.7452 Y51.5307
X94.8003 Y51.5569
X94.915 Y51.6014
X95.0205 Y51.6342
X95.1306 Y51.6601
X95.2407 Y51.6784
X95.2957 Y51.6837
X95.3508 Y51.6877
X95.4609 Y51.6892
X95.571 Y51.6821
X95.6811 Y51.6672
X95.7361 Y51.6575
X95.7912 Y51.6452
X95.9013 Y51.6126
X95.9355 Y51.6014
X96.0114 Y51.5729
X96.0664 Y51.5496
X96.1215 Y51.5219
X96.178 Y51.4913
X96.2316 Y51.4611
X96.3494 Y51.3813
X96.4175 Y51.3254
X96.4596 Y51.2992
X96.507 Y51.2848
X96.5566 Y51.2831
X96.6049 Y51.2943
X96.6487 Y51.3177
X96.6849 Y51.3516
X96.7161 Y51.3896 Z-2.4935
X96.7452 Y51.425 Z-2.4745
X96.7702 Y51.4554 Z-2.4443
X96.7893 Y51.4787 Z-2.405
X96.8014 Y51.4934 Z-2.3592
X96.8055 Y51.4984 Z-2.31
G0 Z5
X63.6173 Y75.4971
Z-1.2601
G1 X63.6182 Y75.4987 Z-1.2866 F1200
X63.621 Y75.5035 Z-1.3125
X63.6255 Y75.5114 Z-1.3374
X63.6316 Y75.5222 Z-1.3608
X63.6389 Y75.536 Z-1.3822
X63.6473 Y75.5523 Z-1.4013
X63.6564 Y75.5711 Z-1.4176
X63.6659 Y75.592 Z-1.4309
X63.6755 Y75.6147 Z-1.4408
X63.6849 Y75.6386 Z-1.4472
X63.6938 Y75.6634 Z-1.45
G3 X63.6301 Y75.5196 Z-1.6425 I-0.8539 J0.2922
X63.5424 Y75.389 Z-1.835 I-0.7902 J0.436
X63.4333 Y75.2756 Z-2.0276 I-0.7025 J0.5666
X63.3062 Y75.1829 Z-2.2201 I-0.5934 J0.68
X63.165 Y75.1137 Z-2.4126 I-0.4663 J0.7727
X62.8399 Y76.8581 Z-2.5 I-0.325 J0.8419
G1 X62.7875 F3200
G3 X62.4867 Y76.6394 J-0.3162
G1 X62.44 Y76.4953
G3 X62.7408 Y76.0815 I0.3008 J-0.0975
G1 X88.259 Y76.0816
G3 X88.5598 Y76.4953 J0.3162
G1 X88.5131 Y76.6394
G3 X88.2123 Y76.8581 I-0.3008 J-0.0975
G1 X62.8399
G2 X62.1656 Y77.3247 J0.7206
G3 X61.3458 Y77.3055 I-0.4065 J-0.1531
G1 X60.6413 Y75.1317
G3 X60.9889 Y74.7586 I0.2775 J-0.0899
G2 X61.0872 Y74.7813 I0.7458 J-3.01
X61.1872 Y74.7952 I0.1459 J-0.6835
G1 X89.7825 Y74.7973
G2 X89.897 Y74.7846 I-0.0138 J-0.6474
X90.0094 Y74.7592 I-0.4994 J-2.4694
G3 X90.3582 Y75.1326 I0.0709 J0.2833
G1 X89.5757 Y77.5469
G3 X88.7481 Y78.1488 I-0.8277 J-0.2682
G1 X62.2518
G3 X61.4241 Y77.5469 J-0.8701
G1 X61.3458 Y77.3055
G2 X60.709 Y76.8016 I-0.6964 J0.2257
G3 X60.0721 Y76.2977 I0.0595 J-0.7296
G1 X51.64 Y50.2811
X51.6033 Y50.1642
X51.6012 Y50.1504
X51.6031 Y50.1367
X51.6085 Y50.1161
X60.9329 Y21.3451
X60.9551 Y21.2809
X60.9627 Y21.2686
X60.9725 Y21.2597
X60.9834 Y21.2542
X60.996 Y21.2514
X61.1092 Y21.2503
X89.9833
X90.0109 Y21.2524
X90.0225 Y21.2568
X90.0336 Y21.2647
X90.042 Y21.2751
X90.0472 Y21.2865
X99.3906 Y50.1161
X99.3981 Y50.1418
X99.3986 Y50.1539
X99.3967 Y50.1642
X99.1811 Y50.8312
X90.0487 Y79.0099
X90.0417 Y79.0253
X90.0331 Y79.0359
X90.0237 Y79.0426
X90.0116 Y79.0474
X90.0043 Y79.0486
X89.9558 Y79.0497
X61.1092
X60.9926 Y79.0482
X60.9796 Y79.0443
X60.9687 Y79.0374
X60.9594 Y79.027
X60.954 Y79.0161
X60.947 Y78.997
X60.0721 Y76.2977
X60.0678 Y76.2608
X60.0779 Y76.2252
X60.1009 Y76.1961
X62.7789 Y73.9126
X62.8077 Y73.8958
X62.8405 Y73.8899
X89.7356 Y73.89
X89.7631 Y73.8894
X89.7769 Y73.8878
X89.7906 Y73.8852
X89.8044 Y73.8815
X89.8182 Y73.8766
X89.8319 Y73.8706
X89.8457 Y73.8631
X89.857 Y73.8558
X89.8796 Y73.8375
X89.8969 Y73.8191
X89.9116 Y73.7985
X89.9193 Y73.7847
X89.9257 Y73.771
X89.9307 Y73.7572
X89.9346 Y73.7435
X89.9374 Y73.7297
X89.9392 Y73.716
X89.94 Y73.6884
Y26.5987
X89.9393 Y26.5849
X89.9375 Y26.5712
X89.9348 Y26.5574
X89.9309 Y26.5437
X89.9259 Y26.5299
X89.9143 Y26.5063
X89.9011 Y26.4865
X89.8874 Y26.4704
X89.8694 Y26.4536
X89.8575 Y26.4446
X89.8457 Y26.4369
X89.8319 Y26.4294
X89.8182 Y26.4234
X89.8044 Y26.4185
X89.7906 Y26.4148
X89.7769 Y26.4122
X89.7631 Y26.4106
X89.6255 Y26.41
X61.2469 Y26.4101
X61.2331 Y26.411
X61.2193 Y26.4129
X61.2056 Y26.4159
X61.1918 Y26.4199
X61.1781 Y26.4252
X61.1643 Y26.4317
X61.1505 Y26.4397
X61.1299 Y26.4544
X61.1092 Y26.474
X61.0927 Y26.4951
X61.0803 Y26.5162
X61.0741 Y26.5299
X61.0691 Y26.5437
X61.0652 Y26.5574
X61.0625 Y26.5712
X61.0607 Y26.5849
X61.06 Y26.6262
Y73.7022
X61.0608 Y73.716
X61.0626 Y73.7297
X61.0654 Y73.7435
X61.0693 Y73.7572
X61.0743 Y73.771
X61.0807 Y73.7847
X61.0929 Y73.8054
X61.1092 Y73.8262
X61.1299 Y73.8457
X61.1505 Y73.8604
X61.1643 Y73.8683
X61.1781 Y73.8748
X61.1918 Y73.8801
X61.2056 Y73.8841
X61.2193 Y73.8871
X61.2331 Y73.889
X61.2469 Y73.8899
X62.8405
X62.8897 Y73.8964
X62.9356 Y73.9154
X62.9749 Y73.9456
X63.0051 Y73.9849
X63.0241 Y74.0308
X63.0305 Y74.0799
Y74.1291 Z-2.4935
Y74.1749 Z-2.4745
Y74.2143 Z-2.4444
Y74.2445 Z-2.405
Y74.2635 Z-2.3592
Y74.2699 Z-2.31
G0 Z6

G53 Z5
M5
G4 P1.0
G53 X0 Y0
M30
%
