%
(Made in : Autodesk CAM Post Processor)
(G Code optimized for OpenBuilds OX CNC 1000 x 750 with GRBL V0.9j controller)

(Program Name : 1001)
(1 Operation :)
(1 : Pocket1)
(  Tool : Flat End Mill 3 Flutes, Diam = 3.175mm, Len = 20mm)
(  Spindle : RPM = 30000, set router dial to 6)
(  Machining time : 16 min 5 sec)

G90 G94
G17
G21

(Operation 1 of 1 : Pocket1)

G53 G0 Z5
G54
S30000 M3
G4 P1.0
X182.7543 Y36.8269
Z6
Z3
G1 Z2.4173 F1200
X182.7674 Y36.8339 Z2.3213
X182.8051 Y36.855 Z2.2343
X182.8628 Y36.8901 Z2.1644
X182.9334 Y36.9382 Z2.1182
X183.0089 Y36.9965 Z2.1
G3 X182.7922 Y36.8476 Z1.7783 I-0.9589 J1.164
X182.553 Y36.7387 Z1.4566 I-0.7422 J1.3128
X182.2984 Y36.673 Z1.1349 I-0.503 J1.4218
X182.0364 Y36.6524 Z0.8132 I-0.2484 J1.4875
X181.7747 Y36.6777 Z0.4914 I0.0136 J1.5081
X181.5214 Y36.748 Z0.1697 I0.2753 J1.4828
X181.2842 Y36.8613 Z-0.152 I0.5286 J1.4124
X181.0702 Y37.014 Z-0.4737 I0.7659 J1.2992
X180.886 Y37.2016 Z-0.7954 I0.9798 J1.1465
X180.7372 Y37.4183 Z-1.1171 I1.164 J0.9589
X180.6282 Y37.6575 Z-1.4388 I1.3128 J0.7422
X180.5625 Y37.9121 Z-1.7605 I1.4218 J0.503
X182.05 Y39.6686 Z-2 I1.4875 J0.2484
G1 X181.9098 F3500
G3 X181.3814 Y39.1402 J-0.5285
G1 Y31.1594
G3 X182.7186 I0.6686
G1 Y39.1402
G3 X182.1902 Y39.6686 I-0.5284
G1 X182.05
G2 X181.2124 Y40.3821 J0.8484
G3 X180.1325 Y40.5924 I-0.5786 J-0.0932
X179.9932 Y40.0935 I0.824 J-0.4989
G1 Y29.9065
G3 X180.9565 Y28.9432 I0.9632
G1 X183.1436
G3 X184.1068 Y29.9065 J0.9632
G1 Y40.0935
G3 X183.1436 Y41.0568 I-0.9632
G1 X180.9565
G3 X180.1325 Y40.5924 J-0.9632
G2 X178.6889 Y39.331 I-2.7023 J1.636
G3 X177.6375 Y37.728 I0.6964 J-1.603
G1 Y26.5875
X186.4625
Y43.4125
X177.6375
Y37.728
X177.6439 Y37.6834
X177.6626 Y37.6424
X177.692 Y37.6082
X177.7298 Y37.5838
X177.773 Y37.5709
X177.8181 Y37.5707
X180.5893 Y37.9555
X180.6255 Y37.9656
X180.6582 Y37.9839
X182.5121 Y39.33
X182.5439 Y39.3607
X182.5661 Y39.3991
X182.5767 Y39.442
X182.5752 Y39.4862
X182.5614 Y39.5283
X182.5366 Y39.5649
X182.5027 Y39.5933
X182.4622 Y39.6112
G3 X182.7079 Y39.5176 Z-2.3217 I-0.4122 J-1.4507 F1200
X182.9335 Y39.3827 Z-2.6434 I-0.6579 J-1.3571
X183.1324 Y39.2107 Z-2.9651 I-0.8835 J-1.2222
X183.2983 Y39.0068 Z-3.2868 I-1.0823 J-1.0502
X183.4263 Y38.7772 Z-3.6086 I-1.2483 J-0.8463
X183.5125 Y38.5288 Z-3.9303 I-1.3763 J-0.6167
X182.05 Y39.6686 Z-4 I-1.4624 J-0.3684
G1 X181.9098 F3500
G3 X181.3814 Y39.1402 J-0.5285
G1 Y31.1594
G3 X182.7186 I0.6686
G1 Y39.1402
G3 X182.1902 Y39.6686 I-0.5284
G1 X182.05
G2 X181.2124 Y40.3821 J0.8484
G3 X180.1325 Y40.5924 I-0.5786 J-0.0932
X179.9932 Y40.0935 I0.824 J-0.4989
G1 Y29.9065
G3 X180.9565 Y28.9432 I0.9632
G1 X183.1436
G3 X184.1068 Y29.9065 J0.9632
G1 Y40.0935
G3 X183.1436 Y41.0568 I-0.9632
G1 X180.9565
G3 X180.1325 Y40.5924 J-0.9632
G2 X178.6889 Y39.331 I-2.7023 J1.636
G3 X177.6375 Y37.728 I0.6964 J-1.603
G1 Y26.5875
X186.4625
Y43.4125
X177.6375
Y37.728
X177.6439 Y37.6834
X177.6626 Y37.6424
X177.692 Y37.6082
X177.7298 Y37.5838
X177.773 Y37.5709
X177.8181 Y37.5707
X180.5893 Y37.9555
X180.6255 Y37.9656
X180.6582 Y37.9839
X182.5121 Y39.33
X182.5439 Y39.3607
X182.5661 Y39.3991
X182.5767 Y39.442
X182.5752 Y39.4862
X182.5614 Y39.5283
X182.5366 Y39.5649
X182.5027 Y39.5933
X182.4622 Y39.6112
G3 X182.7079 Y39.5176 Z-4.3217 I-0.4122 J-1.4507 F1200
X182.9335 Y39.3827 Z-4.6434 I-0.6579 J-1.3571
X183.1324 Y39.2107 Z-4.9651 I-0.8835 J-1.2222
X183.2983 Y39.0068 Z-5.2868 I-1.0823 J-1.0502
X183.4263 Y38.7772 Z-5.6086 I-1.2483 J-0.8463
X183.5125 Y38.5288 Z-5.9303 I-1.3763 J-0.6167
X182.05 Y39.6686 Z-6 I-1.4624 J-0.3684
G1 X181.9098 F3500
G3 X181.3814 Y39.1402 J-0.5285
G1 Y31.1594
G3 X182.7186 I0.6686
G1 Y39.1402
G3 X182.1902 Y39.6686 I-0.5284
G1 X182.05
G2 X181.2124 Y40.3821 J0.8484
G3 X180.1325 Y40.5924 I-0.5786 J-0.0932
X179.9932 Y40.0935 I0.824 J-0.4989
G1 Y29.9065
G3 X180.9565 Y28.9432 I0.9632
G1 X183.1436
G3 X184.1068 Y29.9065 J0.9632
G1 Y40.0935
G3 X183.1436 Y41.0568 I-0.9632
G1 X180.9565
G3 X180.1325 Y40.5924 J-0.9632
G2 X178.6889 Y39.331 I-2.7023 J1.636
G3 X177.6375 Y37.728 I0.6964 J-1.603
G1 Y26.5875
X186.4625
Y43.4125
X177.6375
Y37.728
X177.6413 Y37.6791 Z-5.9922
X177.6525 Y37.6314 Z-5.9845
X177.6689 Y37.5903 Z-5.9619
X177.6908 Y37.5519 Z-5.9394
X177.7359 Y37.4982 Z-5.8691
X177.7706 Y37.4695 Z-5.7806
X177.7835 Y37.4608 Z-5.6825
G0 Z5
X182.1831 Y34.8415
Z-3
G1 Z-8 F1200
X182.2053 Y34.86 F3500
X182.2166 Y34.8733
X182.2375 Y34.9071
X182.2477 Y34.9307
X182.2552 Y34.9591
X182.259 Y34.9933
X182.2576 Y35.0229
X182.2494 Y35.0639
X182.2454 Y35.0751
X182.2238 Y35.1143
X182.1984 Y35.1462
X182.1678 Y35.1731
X182.1598 Y35.1783
X182.1168 Y35.1977
X182.0864 Y35.2058
X182.0549 Y35.209
X182.0242 Y35.2074
X181.9822 Y35.1986
X181.9268 Y35.1698
X181.9172 Y35.1628
X181.9058 Y35.152
X181.871 Y35.1062
X181.8552 Y35.075
X181.8459 Y35.0454
X181.8414 Y35.0152
X181.8418 Y34.9722
X181.8527 Y34.9314
X181.8686 Y34.8969
X181.8919 Y34.8623
X181.9055 Y34.8474
X181.9167 Y34.8381
X181.9626 Y34.8108
X181.9995 Y34.7966
X182.0063 Y34.7951
X182.0683 Y34.7911
X182.1074 Y34.7992
X182.1421 Y34.8126
X182.1636 Y34.8251
X182.1831 Y34.8415
X182.2053 Y34.86 Z-7.9987
X182.2166 Y34.8733 Z-7.9966
X182.2375 Y34.9071 Z-7.9881
X182.2477 Y34.9307 Z-7.9797
X182.2552 Y34.9591 Z-7.9669
X182.259 Y34.9933 Z-7.947
X182.2576 Y35.0229 Z-7.9247
X182.2494 Y35.0639 Z-7.8819
X182.2454 Y35.0751 Z-7.8662
X182.2328 Y35.0979 Z-7.8224
X182.2238 Y35.1143 Z-7.775
X182.2174 Y35.1224 Z-7.7292
X182.2152 Y35.1251 Z-7.6825
G0 Z5
X182.183 Y34.8415
Z-5
G1 Z-10 F1200
X182.2052 Y34.8601 F3500
X182.2165 Y34.8733
X182.2375 Y34.9071
X182.2477 Y34.9308
X182.2551 Y34.9591
X182.2589 Y34.9933
X182.2575 Y35.0229
X182.2493 Y35.0639
X182.2453 Y35.0749
X182.2237 Y35.1143
X182.1983 Y35.1461
X182.1678 Y35.173
X182.1598 Y35.1782
X182.1167 Y35.1976
X182.0863 Y35.2057
X182.0549 Y35.2089
X182.0242 Y35.2073
X181.9822 Y35.1985
X181.9269 Y35.1697
X181.9172 Y35.1627
X181.9059 Y35.1519
X181.8711 Y35.1061
X181.8553 Y35.075
X181.846 Y35.0454
X181.8415 Y35.0152
X181.8419 Y34.9722
X181.8528 Y34.9315
X181.8687 Y34.897
X181.892 Y34.8623
X181.9055 Y34.8476
X181.9168 Y34.8382
X181.9627 Y34.8108
X181.9994 Y34.7967
X182.0076 Y34.7949
X182.0676 Y34.791
X182.1073 Y34.7993
X182.142 Y34.8126
X182.1635 Y34.8252
X182.183 Y34.8415
X182.2052 Y34.8601 Z-9.9987
X182.2165 Y34.8733 Z-9.9966
X182.2375 Y34.9071 Z-9.9881
X182.2477 Y34.9308 Z-9.9796
X182.2551 Y34.9591 Z-9.9669
X182.2589 Y34.9933 Z-9.9471
X182.2575 Y35.0229 Z-9.9248
X182.2493 Y35.0639 Z-9.8821
X182.2453 Y35.0749 Z-9.8666
X182.2328 Y35.0978 Z-9.8228
X182.2237 Y35.1143 Z-9.7754
X182.2173 Y35.1224 Z-9.7295
X182.2151 Y35.1252 Z-9.6825
G0 Z5
X182.2119 Y35.1292
Z-7
G1 Z-12 F1200
X182.1983 Y35.1461 F3500
X182.1678 Y35.173
X182.1598 Y35.1782
X182.1167 Y35.1976
X182.0863 Y35.2057
X182.0549 Y35.2089
X182.0242 Y35.2073
X181.9822 Y35.1985
X181.9269 Y35.1697
X181.9172 Y35.1627
X181.9059 Y35.1519
X181.8711 Y35.1061
X181.8553 Y35.075
X181.846 Y35.0454
X181.8415 Y35.0152
X181.8419 Y34.9722
X181.8528 Y34.9315
X181.8687 Y34.897
X181.892 Y34.8623
X181.9055 Y34.8476
X181.9168 Y34.8382
X181.9627 Y34.8108
X181.9994 Y34.7967
X182.0076 Y34.7949
X182.0676 Y34.791
X182.1073 Y34.7993
X182.142 Y34.8126
X182.1635 Y34.8252
X182.2052 Y34.8601
X182.2165 Y34.8733
X182.2375 Y34.9071
X182.2477 Y34.9308
X182.2551 Y34.9591
X182.2589 Y34.9933
X182.2575 Y35.0229
X182.2493 Y35.0639
X182.2453 Y35.0749
X182.2237 Y35.1143
X182.2119 Y35.1292
X182.1983 Y35.1461 Z-11.9993
X182.1678 Y35.173 Z-11.9938
X182.1598 Y35.1782 Z-11.9917
X182.1167 Y35.1976 Z-11.9768
X182.0863 Y35.2057 Z-11.962
X182.0549 Y35.2089 Z-11.9425
X182.0242 Y35.2073 Z-11.918
X181.9822 Y35.1985 Z-11.8705
X181.9523 Y35.1829 Z-11.8127
X181.9338 Y35.1733 Z-11.7491
X181.9275 Y35.17 Z-11.6825
G0 Z5
X182.183 Y34.8415
Z-3
G1 Z-9 F1200
Z-13.4
X182.2052 Y34.8601 F3500
X182.2165 Y34.8733
X182.2375 Y34.9071
X182.2477 Y34.9308
X182.2551 Y34.9591
X182.2589 Y34.9933
X182.2575 Y35.0229
X182.2493 Y35.0639
X182.2453 Y35.0749
X182.2237 Y35.1143
X182.1983 Y35.1461
X182.1678 Y35.173
X182.1598 Y35.1782
X182.1167 Y35.1976
X182.0863 Y35.2057
X182.0549 Y35.2089
X182.0242 Y35.2073
X181.9822 Y35.1985
X181.9269 Y35.1697
X181.9172 Y35.1627
X181.9059 Y35.1519
X181.8711 Y35.1061
X181.8553 Y35.075
X181.846 Y35.0454
X181.8415 Y35.0152
X181.8419 Y34.9722
X181.8528 Y34.9315
X181.8687 Y34.897
X181.892 Y34.8623
X181.9055 Y34.8476
X181.9168 Y34.8382
X181.9627 Y34.8108
X181.9994 Y34.7967
X182.0076 Y34.7949
X182.0676 Y34.791
X182.1073 Y34.7993
X182.142 Y34.8126
X182.1635 Y34.8252
X182.183 Y34.8415
X182.2052 Y34.8601 Z-13.3987
X182.2165 Y34.8733 Z-13.3966
X182.2375 Y34.9071 Z-13.3881
X182.2477 Y34.9308 Z-13.3796
X182.2551 Y34.9591 Z-13.3669
X182.2589 Y34.9933 Z-13.3471
X182.2575 Y35.0229 Z-13.3248
X182.2493 Y35.0639 Z-13.2821
X182.2453 Y35.0749 Z-13.2666
X182.2328 Y35.0978 Z-13.2228
X182.2237 Y35.1143 Z-13.1754
X182.2173 Y35.1224 Z-13.1295
X182.2151 Y35.1252 Z-13.0825
G0 Z5
X117.548 Y29.0897
Z2.4173
G1 X117.5556 Z2.3482 F1200
X117.5781 Z2.2824
X117.6143 Z2.2231
X117.6626 Z2.1731
X117.7206 Z2.1348
X117.7856 Z2.11
X117.8544 Z2.1
X120.9434 Y29.09 Z1.9921
X121.0357 Y29.0996 Z1.9889
X121.1459 Y29.1236 Z1.985
X121.2552 Y29.1609 Z1.9809
X121.3029 Y29.1824 Z1.9791
X121.3532 Y29.2098 Z1.9771
X121.4481 Y29.2738 Z1.9731
X121.5589 Y29.3717 Z1.9679
X121.6051 Y29.4227 Z1.9655
X121.6438 Y29.4738 Z1.9633
X121.7022 Y29.5688 Z1.9594
X121.7444 Y29.6606 Z1.9559
X121.7832 Y29.7813 Z1.9514
X121.804 Y29.8969 Z1.9473
X121.8096 Y30.016 Z1.9432
X121.7996 Y30.1348 Z1.939
X121.7722 Y30.2603 Z1.9345
X121.742 Y30.3457 Z1.9314
X121.6736 Y30.4796 Z1.9261
X121.6239 Y30.5522 Z1.923
X121.5631 Y30.624 Z1.9198
X121.4855 Y30.6968 Z1.916
X121.3795 Y30.774 Z1.9115
X121.305 Y30.8152 Z1.9085
X121.1844 Y30.864 Z1.9039
X121.0637 Y30.8948 Z1.8996
X120.9365 Y30.9097 Z1.8951
X100.8975 Y30.9115 Z1.1953
X100.758 Y30.8986 Z1.1905
X100.6388 Y30.8713 Z1.1862
X100.5185 Y30.8258 Z1.1817
X100.4007 Y30.7608 Z1.177
X100.3193 Y30.7014 Z1.1735
X100.2607 Y30.6477 Z1.1707
X100.1478 Y30.5118 Z1.1645
X100.1033 Y30.4397 Z1.1616
X100.0394 Y30.2982 Z1.1561
X100.0253 Y30.2544 Z1.1545
X99.9996 Y30.1325 Z1.1502
X99.9902 Y30.0175 Z1.1462
X99.9958 Y29.9001 Z1.1421
X100.0232 Y29.7529 Z1.1368
X100.0361 Y29.7108 Z1.1353
X100.087 Y29.5885 Z1.1307
X100.1126 Y29.541 Z1.1288
X100.1447 Y29.4907 Z1.1267
X100.2224 Y29.3926 Z1.1223
X100.3039 Y29.3132 Z1.1183
X100.4399 Y29.2149 Z1.1125
X100.5157 Y29.1747 Z1.1095
X100.6269 Y29.1312 Z1.1053
X100.6991 Y29.1118 Z1.1027
X100.812 Y29.0944 Z1.0987
X101.1173 Y29.0879 Z1.0881
X120.9434 Y29.09 Z0.3957
X121.0357 Y29.0996 Z0.3925
X121.1459 Y29.1236 Z0.3885
X121.2552 Y29.1609 Z0.3845
X121.3029 Y29.1824 Z0.3827
X121.3532 Y29.2098 Z0.3807
X121.4481 Y29.2738 Z0.3767
X121.5589 Y29.3717 Z0.3715
X121.6051 Y29.4227 Z0.3691
X121.6438 Y29.4738 Z0.3669
X121.7022 Y29.5688 Z0.363
X121.7444 Y29.6606 Z0.3595
X121.7832 Y29.7813 Z0.355
X121.804 Y29.8969 Z0.3509
X121.8096 Y30.016 Z0.3468
X121.7996 Y30.1348 Z0.3426
X121.7722 Y30.2603 Z0.3381
X121.742 Y30.3457 Z0.3349
X121.6736 Y30.4796 Z0.3297
X121.6239 Y30.5522 Z0.3266
X121.5631 Y30.624 Z0.3233
X121.4855 Y30.6968 Z0.3196
X121.3795 Y30.774 Z0.315
X121.305 Y30.8152 Z0.3121
X121.1844 Y30.864 Z0.3075
X121.0637 Y30.8948 Z0.3032
X120.9365 Y30.9097 Z0.2987
X100.8975 Y30.9115 Z-0.4011
X100.758 Y30.8986 Z-0.406
X100.6388 Y30.8713 Z-0.4102
X100.5185 Y30.8258 Z-0.4147
X100.4007 Y30.7608 Z-0.4194
X100.3193 Y30.7014 Z-0.4229
X100.2607 Y30.6477 Z-0.4257
X100.1478 Y30.5118 Z-0.4319
X100.1033 Y30.4397 Z-0.4348
X100.0394 Y30.2982 Z-0.4403
X100.0253 Y30.2544 Z-0.4419
X99.9996 Y30.1325 Z-0.4462
X99.9902 Y30.0175 Z-0.4503
X99.9958 Y29.9001 Z-0.4544
X100.0232 Y29.7529 Z-0.4596
X100.0361 Y29.7108 Z-0.4611
X100.087 Y29.5885 Z-0.4657
X100.1126 Y29.541 Z-0.4676
X100.1447 Y29.4907 Z-0.4697
X100.2224 Y29.3926 Z-0.4741
X100.3039 Y29.3132 Z-0.4781
X100.4399 Y29.2149 Z-0.4839
X100.5157 Y29.1747 Z-0.4869
X100.6269 Y29.1312 Z-0.4911
X100.6991 Y29.1118 Z-0.4937
X100.812 Y29.0944 Z-0.4977
X101.1173 Y29.0879 Z-0.5083
X120.9434 Y29.09 Z-1.2007
X121.0357 Y29.0996 Z-1.2039
X121.1459 Y29.1236 Z-1.2079
X121.2552 Y29.1609 Z-1.2119
X121.3029 Y29.1824 Z-1.2137
X121.3532 Y29.2098 Z-1.2157
X121.4481 Y29.2738 Z-1.2197
X121.5589 Y29.3717 Z-1.2249
X121.6051 Y29.4227 Z-1.2273
X121.6438 Y29.4738 Z-1.2295
X121.7022 Y29.5688 Z-1.2334
X121.7444 Y29.6606 Z-1.237
X121.7832 Y29.7813 Z-1.2414
X121.804 Y29.8969 Z-1.2455
X121.8096 Y30.016 Z-1.2496
X121.7996 Y30.1348 Z-1.2538
X121.7722 Y30.2603 Z-1.2583
X121.742 Y30.3457 Z-1.2615
X121.6736 Y30.4796 Z-1.2667
X121.6239 Y30.5522 Z-1.2698
X121.5631 Y30.624 Z-1.2731
X121.4855 Y30.6968 Z-1.2768
X121.3795 Y30.774 Z-1.2814
X121.305 Y30.8152 Z-1.2843
X121.1844 Y30.864 Z-1.2889
X121.0637 Y30.8948 Z-1.2932
X120.9365 Y30.9097 Z-1.2977
X100.8975 Y30.9115 Z-1.9975
X100.8257 Y30.9049 Z-2
X100.758 Y30.8986 F3500
X100.6388 Y30.8713
X100.5185 Y30.8258
X100.4007 Y30.7608
X100.3193 Y30.7014
X100.2607 Y30.6477
X100.1478 Y30.5118
X100.1033 Y30.4397
X100.0394 Y30.2982
X100.0253 Y30.2544
X99.9996 Y30.1325
X99.9902 Y30.0175
X99.9958 Y29.9001
X100.0232 Y29.7529
X100.0361 Y29.7108
X100.087 Y29.5885
X100.1126 Y29.541
X100.1447 Y29.4907
X100.2224 Y29.3926
X100.3039 Y29.3132
X100.4399 Y29.2149
X100.5157 Y29.1747
X100.6269 Y29.1312
X100.6991 Y29.1118
X100.812 Y29.0944
X101.1173 Y29.0879
X120.9434 Y29.09
X121.0357 Y29.0996
X121.1459 Y29.1236
X121.2552 Y29.1609
X121.3029 Y29.1824
X121.3532 Y29.2098
X121.4481 Y29.2738
X121.5589 Y29.3717
X121.6051 Y29.4227
X121.6438 Y29.4738
X121.7022 Y29.5688
X121.7444 Y29.6606
X121.7832 Y29.7813
X121.804 Y29.8969
X121.8096 Y30.016
X121.7996 Y30.1348
X121.7722 Y30.2603
X121.742 Y30.3457
X121.6736 Y30.4796
X121.6239 Y30.5522
X121.5631 Y30.624
X121.4855 Y30.6968
X121.3795 Y30.774
X121.305 Y30.8152
X121.1844 Y30.864
X121.0637 Y30.8948
X120.9365 Y30.9097
X100.8975 Y30.9115
X100.8257 Y30.9049
X100.8025 Y30.8971
X100.7851 Y30.88
X100.777 Y30.8568
X100.7801 Y30.8326
X100.7935 Y30.8122
X100.8146 Y30.7998
X101.0021 Y30.744
X112.2205 Y30.7483
X112.3997 Y30.8052
X112.4211 Y30.8185
X112.4341 Y30.84
X112.436 Y30.8651
X112.4263 Y30.8883
X112.4071 Y30.9046
X112.3826 Y30.9104
X100.8975 Y30.9115 Z-2.4011 F1200
X100.758 Y30.8986 Z-2.406
X100.6388 Y30.8713 Z-2.4102
X100.5185 Y30.8258 Z-2.4147
X100.4007 Y30.7608 Z-2.4194
X100.3193 Y30.7014 Z-2.4229
X100.2607 Y30.6477 Z-2.4257
X100.1478 Y30.5118 Z-2.4319
X100.1033 Y30.4397 Z-2.4348
X100.0394 Y30.2982 Z-2.4403
X100.0253 Y30.2544 Z-2.4419
X99.9996 Y30.1325 Z-2.4462
X99.9902 Y30.0175 Z-2.4503
X99.9958 Y29.9001 Z-2.4544
X100.0232 Y29.7529 Z-2.4596
X100.0361 Y29.7108 Z-2.4611
X100.087 Y29.5885 Z-2.4657
X100.1126 Y29.541 Z-2.4676
X100.1447 Y29.4907 Z-2.4697
X100.2224 Y29.3926 Z-2.4741
X100.3039 Y29.3132 Z-2.4781
X100.4399 Y29.2149 Z-2.4839
X100.5157 Y29.1747 Z-2.4869
X100.6269 Y29.1312 Z-2.4911
X100.6991 Y29.1118 Z-2.4937
X100.812 Y29.0944 Z-2.4977
X101.1173 Y29.0879 Z-2.5083
X120.9434 Y29.09 Z-3.2007
X121.0357 Y29.0996 Z-3.2039
X121.1459 Y29.1236 Z-3.2079
X121.2552 Y29.1609 Z-3.2119
X121.3029 Y29.1824 Z-3.2137
X121.3532 Y29.2098 Z-3.2157
X121.4481 Y29.2738 Z-3.2197
X121.5589 Y29.3717 Z-3.2249
X121.6051 Y29.4227 Z-3.2273
X121.6438 Y29.4738 Z-3.2295
X121.7022 Y29.5688 Z-3.2334
X121.7444 Y29.6606 Z-3.237
X121.7832 Y29.7813 Z-3.2414
X121.804 Y29.8969 Z-3.2455
X121.8096 Y30.016 Z-3.2496
X121.7996 Y30.1348 Z-3.2538
X121.7722 Y30.2603 Z-3.2583
X121.742 Y30.3457 Z-3.2615
X121.6736 Y30.4796 Z-3.2667
X121.6239 Y30.5522 Z-3.2698
X121.5631 Y30.624 Z-3.2731
X121.4855 Y30.6968 Z-3.2768
X121.3795 Y30.774 Z-3.2814
X121.305 Y30.8152 Z-3.2843
X121.1844 Y30.864 Z-3.2889
X121.0637 Y30.8948 Z-3.2932
X120.9365 Y30.9097 Z-3.2977
X100.8975 Y30.9115 Z-3.9975
X100.8257 Y30.9049 Z-4
X100.758 Y30.8986 F3500
X100.6388 Y30.8713
X100.5185 Y30.8258
X100.4007 Y30.7608
X100.3193 Y30.7014
X100.2607 Y30.6477
X100.1478 Y30.5118
X100.1033 Y30.4397
X100.0394 Y30.2982
X100.0253 Y30.2544
X99.9996 Y30.1325
X99.9902 Y30.0175
X99.9958 Y29.9001
X100.0232 Y29.7529
X100.0361 Y29.7108
X100.087 Y29.5885
X100.1126 Y29.541
X100.1447 Y29.4907
X100.2224 Y29.3926
X100.3039 Y29.3132
X100.4399 Y29.2149
X100.5157 Y29.1747
X100.6269 Y29.1312
X100.6991 Y29.1118
X100.812 Y29.0944
X101.1173 Y29.0879
X120.9434 Y29.09
X121.0357 Y29.0996
X121.1459 Y29.1236
X121.2552 Y29.1609
X121.3029 Y29.1824
X121.3532 Y29.2098
X121.4481 Y29.2738
X121.5589 Y29.3717
X121.6051 Y29.4227
X121.6438 Y29.4738
X121.7022 Y29.5688
X121.7444 Y29.6606
X121.7832 Y29.7813
X121.804 Y29.8969
X121.8096 Y30.016
X121.7996 Y30.1348
X121.7722 Y30.2603
X121.742 Y30.3457
X121.6736 Y30.4796
X121.6239 Y30.5522
X121.5631 Y30.624
X121.4855 Y30.6968
X121.3795 Y30.774
X121.305 Y30.8152
X121.1844 Y30.864
X121.0637 Y30.8948
X120.9365 Y30.9097
X100.8975 Y30.9115
X100.8257 Y30.9049
X100.7789 Y30.8932
X100.7377 Y30.868
X100.7061 Y30.8316
X100.6868 Y30.7874
X100.6817 Y30.7394
X100.6912 Y30.6922
X100.7145 Y30.6499
X100.7494 Y30.6166
X100.7926 Y30.5953
X100.8403 Y30.588
X112.3827 Y30.5929
X112.4317 Y30.6007
X112.476 Y30.6233
X112.5111 Y30.6584
X112.5336 Y30.7027
X112.5414 Y30.7517
X112.5336 Y30.8008
X112.511 Y30.845
X112.4759 Y30.8801
X112.4317 Y30.9027
X112.3826 Y30.9104
X100.8975 Y30.9115 Z-4.4011 F1200
X100.758 Y30.8986 Z-4.406
X100.6388 Y30.8713 Z-4.4102
X100.5185 Y30.8258 Z-4.4147
X100.4007 Y30.7608 Z-4.4194
X100.3193 Y30.7014 Z-4.4229
X100.2607 Y30.6477 Z-4.4257
X100.1478 Y30.5118 Z-4.4319
X100.1033 Y30.4397 Z-4.4348
X100.0394 Y30.2982 Z-4.4403
X100.0253 Y30.2544 Z-4.4419
X99.9996 Y30.1325 Z-4.4462
X99.9902 Y30.0175 Z-4.4503
X99.9958 Y29.9001 Z-4.4544
X100.0232 Y29.7529 Z-4.4596
X100.0361 Y29.7108 Z-4.4611
X100.087 Y29.5885 Z-4.4657
X100.1126 Y29.541 Z-4.4676
X100.1447 Y29.4907 Z-4.4697
X100.2224 Y29.3926 Z-4.4741
X100.3039 Y29.3132 Z-4.4781
X100.4399 Y29.2149 Z-4.4839
X100.5157 Y29.1747 Z-4.4869
X100.6269 Y29.1312 Z-4.4911
X100.6991 Y29.1118 Z-4.4937
X100.812 Y29.0944 Z-4.4977
X101.1173 Y29.0879 Z-4.5083
X120.9434 Y29.09 Z-5.2007
X121.0357 Y29.0996 Z-5.2039
X121.1459 Y29.1236 Z-5.2079
X121.2552 Y29.1609 Z-5.2119
X121.3029 Y29.1824 Z-5.2137
X121.3532 Y29.2098 Z-5.2157
X121.4481 Y29.2738 Z-5.2197
X121.5589 Y29.3717 Z-5.2249
X121.6051 Y29.4227 Z-5.2273
X121.6438 Y29.4738 Z-5.2295
X121.7022 Y29.5688 Z-5.2334
X121.7444 Y29.6606 Z-5.237
X121.7832 Y29.7813 Z-5.2414
X121.804 Y29.8969 Z-5.2455
X121.8096 Y30.016 Z-5.2496
X121.7996 Y30.1348 Z-5.2538
X121.7722 Y30.2603 Z-5.2583
X121.742 Y30.3457 Z-5.2615
X121.6736 Y30.4796 Z-5.2667
X121.6239 Y30.5522 Z-5.2698
X121.5631 Y30.624 Z-5.2731
X121.4855 Y30.6968 Z-5.2768
X121.3795 Y30.774 Z-5.2814
X121.305 Y30.8152 Z-5.2843
X121.1844 Y30.864 Z-5.2889
X121.0637 Y30.8948 Z-5.2932
X120.9365 Y30.9097 Z-5.2977
X100.8975 Y30.9115 Z-5.9975
X100.8257 Y30.9049 Z-6
X100.758 Y30.8986 F3500
X100.6388 Y30.8713
X100.5185 Y30.8258
X100.4007 Y30.7608
X100.3193 Y30.7014
X100.2607 Y30.6477
X100.1478 Y30.5118
X100.1033 Y30.4397
X100.0394 Y30.2982
X100.0253 Y30.2544
X99.9996 Y30.1325
X99.9902 Y30.0175
X99.9958 Y29.9001
X100.0232 Y29.7529
X100.0361 Y29.7108
X100.087 Y29.5885
X100.1126 Y29.541
X100.1447 Y29.4907
X100.2224 Y29.3926
X100.3039 Y29.3132
X100.4399 Y29.2149
X100.5157 Y29.1747
X100.6269 Y29.1312
X100.6991 Y29.1118
X100.812 Y29.0944
X101.1173 Y29.0879
X120.9434 Y29.09
X121.0357 Y29.0996
X121.1459 Y29.1236
X121.2552 Y29.1609
X121.3029 Y29.1824
X121.3532 Y29.2098
X121.4481 Y29.2738
X121.5589 Y29.3717
X121.6051 Y29.4227
X121.6438 Y29.4738
X121.7022 Y29.5688
X121.7444 Y29.6606
X121.7832 Y29.7813
X121.804 Y29.8969
X121.8096 Y30.016
X121.7996 Y30.1348
X121.7722 Y30.2603
X121.742 Y30.3457
X121.6736 Y30.4796
X121.6239 Y30.5522
X121.5631 Y30.624
X121.4855 Y30.6968
X121.3795 Y30.774
X121.305 Y30.8152
X121.1844 Y30.864
X121.0637 Y30.8948
X120.9365 Y30.9097
X100.8975 Y30.9115
X100.8257 Y30.9049
X100.8025 Y30.8971
X100.7851 Y30.88
X100.777 Y30.8568
X100.7801 Y30.8326
X100.7935 Y30.8122
X100.8146 Y30.7998
X101.0021 Y30.744
X112.2205 Y30.7483
X112.3997 Y30.8052
X112.4211 Y30.8185
X112.4341 Y30.84
X112.436 Y30.8651
X112.4263 Y30.8883
X112.4071 Y30.9046
X112.3826 Y30.9104
X100.8975 Y30.9115 Z-6.4011 F1200
X100.758 Y30.8986 Z-6.406
X100.6388 Y30.8713 Z-6.4102
X100.5185 Y30.8258 Z-6.4147
X100.4007 Y30.7608 Z-6.4194
X100.3193 Y30.7014 Z-6.4229
X100.2607 Y30.6477 Z-6.4257
X100.1478 Y30.5118 Z-6.4319
X100.1033 Y30.4397 Z-6.4348
X100.0394 Y30.2982 Z-6.4403
X100.0253 Y30.2544 Z-6.4419
X99.9996 Y30.1325 Z-6.4462
X99.9902 Y30.0175 Z-6.4503
X99.9958 Y29.9001 Z-6.4544
X100.0232 Y29.7529 Z-6.4596
X100.0361 Y29.7108 Z-6.4611
X100.087 Y29.5885 Z-6.4657
X100.1126 Y29.541 Z-6.4676
X100.1447 Y29.4907 Z-6.4697
X100.2224 Y29.3926 Z-6.4741
X100.3039 Y29.3132 Z-6.4781
X100.4399 Y29.2149 Z-6.4839
X100.5157 Y29.1747 Z-6.4869
X100.6269 Y29.1312 Z-6.4911
X100.6991 Y29.1118 Z-6.4937
X100.812 Y29.0944 Z-6.4977
X101.1173 Y29.0879 Z-6.5083
X120.9434 Y29.09 Z-7.2007
X121.0357 Y29.0996 Z-7.2039
X121.1459 Y29.1236 Z-7.2079
X121.2552 Y29.1609 Z-7.2119
X121.3029 Y29.1824 Z-7.2137
X121.3532 Y29.2098 Z-7.2157
X121.4481 Y29.2738 Z-7.2197
X121.5589 Y29.3717 Z-7.2249
X121.6051 Y29.4227 Z-7.2273
X121.6438 Y29.4738 Z-7.2295
X121.7022 Y29.5688 Z-7.2334
X121.7444 Y29.6606 Z-7.237
X121.7832 Y29.7813 Z-7.2414
X121.804 Y29.8969 Z-7.2455
X121.8096 Y30.016 Z-7.2496
X121.7996 Y30.1348 Z-7.2538
X121.7722 Y30.2603 Z-7.2583
X121.742 Y30.3457 Z-7.2615
X121.6736 Y30.4796 Z-7.2667
X121.6239 Y30.5522 Z-7.2698
X121.5631 Y30.624 Z-7.2731
X121.4855 Y30.6968 Z-7.2768
X121.3795 Y30.774 Z-7.2814
X121.305 Y30.8152 Z-7.2843
X121.1844 Y30.864 Z-7.2889
X121.0637 Y30.8948 Z-7.2932
X120.9365 Y30.9097 Z-7.2977
X100.8975 Y30.9115 Z-7.9975
X100.8257 Y30.9049 Z-8
X100.758 Y30.8986 F3500
X100.6388 Y30.8713
X100.5185 Y30.8258
X100.4007 Y30.7608
X100.3193 Y30.7014
X100.2607 Y30.6477
X100.1478 Y30.5118
X100.1033 Y30.4397
X100.0394 Y30.2982
X100.0253 Y30.2544
X99.9996 Y30.1325
X99.9902 Y30.0175
X99.9958 Y29.9001
X100.0232 Y29.7529
X100.0361 Y29.7108
X100.087 Y29.5885
X100.1126 Y29.541
X100.1447 Y29.4907
X100.2224 Y29.3926
X100.3039 Y29.3132
X100.4399 Y29.2149
X100.5157 Y29.1747
X100.6269 Y29.1312
X100.6991 Y29.1118
X100.812 Y29.0944
X101.1173 Y29.0879
X120.9434 Y29.09
X121.0357 Y29.0996
X121.1459 Y29.1236
X121.2552 Y29.1609
X121.3029 Y29.1824
X121.3532 Y29.2098
X121.4481 Y29.2738
X121.5589 Y29.3717
X121.6051 Y29.4227
X121.6438 Y29.4738
X121.7022 Y29.5688
X121.7444 Y29.6606
X121.7832 Y29.7813
X121.804 Y29.8969
X121.8096 Y30.016
X121.7996 Y30.1348
X121.7722 Y30.2603
X121.742 Y30.3457
X121.6736 Y30.4796
X121.6239 Y30.5522
X121.5631 Y30.624
X121.4855 Y30.6968
X121.3795 Y30.774
X121.305 Y30.8152
X121.1844 Y30.864
X121.0637 Y30.8948
X120.9365 Y30.9097
X100.8975 Y30.9115
X100.8257 Y30.9049
X100.8025 Y30.8971
X100.7851 Y30.88
X100.777 Y30.8568
X100.7801 Y30.8326
X100.7935 Y30.8122
X100.8146 Y30.7998
X101.0021 Y30.744
X112.2205 Y30.7483
X112.3997 Y30.8052
X112.4211 Y30.8185
X112.4341 Y30.84
X112.436 Y30.8651
X112.4263 Y30.8883
X112.4071 Y30.9046
X112.3826 Y30.9104
X100.8975 Y30.9115 Z-8.4011 F1200
X100.758 Y30.8986 Z-8.406
X100.6388 Y30.8713 Z-8.4102
X100.5185 Y30.8258 Z-8.4147
X100.4007 Y30.7608 Z-8.4194
X100.3193 Y30.7014 Z-8.4229
X100.2607 Y30.6477 Z-8.4257
X100.1478 Y30.5118 Z-8.4319
X100.1033 Y30.4397 Z-8.4348
X100.0394 Y30.2982 Z-8.4403
X100.0253 Y30.2544 Z-8.4419
X99.9996 Y30.1325 Z-8.4462
X99.9902 Y30.0175 Z-8.4503
X99.9958 Y29.9001 Z-8.4544
X100.0232 Y29.7529 Z-8.4596
X100.0361 Y29.7108 Z-8.4611
X100.087 Y29.5885 Z-8.4657
X100.1126 Y29.541 Z-8.4676
X100.1447 Y29.4907 Z-8.4697
X100.2224 Y29.3926 Z-8.4741
X100.3039 Y29.3132 Z-8.4781
X100.4399 Y29.2149 Z-8.4839
X100.5157 Y29.1747 Z-8.4869
X100.6269 Y29.1312 Z-8.4911
X100.6991 Y29.1118 Z-8.4937
X100.812 Y29.0944 Z-8.4977
X101.1173 Y29.0879 Z-8.5083
X120.9434 Y29.09 Z-9.2007
X121.0357 Y29.0996 Z-9.2039
X121.1459 Y29.1236 Z-9.2079
X121.2552 Y29.1609 Z-9.2119
X121.3029 Y29.1824 Z-9.2137
X121.3532 Y29.2098 Z-9.2157
X121.4481 Y29.2738 Z-9.2197
X121.5589 Y29.3717 Z-9.2249
X121.6051 Y29.4227 Z-9.2273
X121.6438 Y29.4738 Z-9.2295
X121.7022 Y29.5688 Z-9.2334
X121.7444 Y29.6606 Z-9.237
X121.7832 Y29.7813 Z-9.2414
X121.804 Y29.8969 Z-9.2455
X121.8096 Y30.016 Z-9.2496
X121.7996 Y30.1348 Z-9.2538
X121.7722 Y30.2603 Z-9.2583
X121.742 Y30.3457 Z-9.2615
X121.6736 Y30.4796 Z-9.2667
X121.6239 Y30.5522 Z-9.2698
X121.5631 Y30.624 Z-9.2731
X121.4855 Y30.6968 Z-9.2768
X121.3795 Y30.774 Z-9.2814
X121.305 Y30.8152 Z-9.2843
X121.1844 Y30.864 Z-9.2889
X121.0637 Y30.8948 Z-9.2932
X120.9365 Y30.9097 Z-9.2977
X100.8975 Y30.9115 Z-9.9975
X100.8257 Y30.9049 Z-10
X100.758 Y30.8986 F3500
X100.6388 Y30.8713
X100.5185 Y30.8258
X100.4007 Y30.7608
X100.3193 Y30.7014
X100.2607 Y30.6477
X100.1478 Y30.5118
X100.1033 Y30.4397
X100.0394 Y30.2982
X100.0253 Y30.2544
X99.9996 Y30.1325
X99.9902 Y30.0175
X99.9958 Y29.9001
X100.0232 Y29.7529
X100.0361 Y29.7108
X100.087 Y29.5885
X100.1126 Y29.541
X100.1447 Y29.4907
X100.2224 Y29.3926
X100.3039 Y29.3132
X100.4399 Y29.2149
X100.5157 Y29.1747
X100.6269 Y29.1312
X100.6991 Y29.1118
X100.812 Y29.0944
X101.1173 Y29.0879
X120.9434 Y29.09
X121.0357 Y29.0996
X121.1459 Y29.1236
X121.2552 Y29.1609
X121.3029 Y29.1824
X121.3532 Y29.2098
X121.4481 Y29.2738
X121.5589 Y29.3717
X121.6051 Y29.4227
X121.6438 Y29.4738
X121.7022 Y29.5688
X121.7444 Y29.6606
X121.7832 Y29.7813
X121.804 Y29.8969
X121.8096 Y30.016
X121.7996 Y30.1348
X121.7722 Y30.2603
X121.742 Y30.3457
X121.6736 Y30.4796
X121.6239 Y30.5522
X121.5631 Y30.624
X121.4855 Y30.6968
X121.3795 Y30.774
X121.305 Y30.8152
X121.1844 Y30.864
X121.0637 Y30.8948
X120.9365 Y30.9097
X100.8975 Y30.9115
X100.8257 Y30.9049
X100.8025 Y30.8971
X100.7851 Y30.88
X100.777 Y30.8568
X100.7801 Y30.8326
X100.7935 Y30.8122
X100.8146 Y30.7998
X101.0021 Y30.744
X112.2205 Y30.7483
X112.3997 Y30.8052
X112.4211 Y30.8185
X112.4341 Y30.84
X112.436 Y30.8651
X112.4263 Y30.8883
X112.4071 Y30.9046
X112.3826 Y30.9104
X100.8975 Y30.9115 Z-10.4011 F1200
X100.758 Y30.8986 Z-10.406
X100.6388 Y30.8713 Z-10.4102
X100.5185 Y30.8258 Z-10.4147
X100.4007 Y30.7608 Z-10.4194
X100.3193 Y30.7014 Z-10.4229
X100.2607 Y30.6477 Z-10.4257
X100.1478 Y30.5118 Z-10.4319
X100.1033 Y30.4397 Z-10.4348
X100.0394 Y30.2982 Z-10.4403
X100.0253 Y30.2544 Z-10.4419
X99.9996 Y30.1325 Z-10.4462
X99.9902 Y30.0175 Z-10.4503
X99.9958 Y29.9001 Z-10.4544
X100.0232 Y29.7529 Z-10.4596
X100.0361 Y29.7108 Z-10.4611
X100.087 Y29.5885 Z-10.4657
X100.1126 Y29.541 Z-10.4676
X100.1447 Y29.4907 Z-10.4697
X100.2224 Y29.3926 Z-10.4741
X100.3039 Y29.3132 Z-10.4781
X100.4399 Y29.2149 Z-10.4839
X100.5157 Y29.1747 Z-10.4869
X100.6269 Y29.1312 Z-10.4911
X100.6991 Y29.1118 Z-10.4937
X100.812 Y29.0944 Z-10.4977
X101.1173 Y29.0879 Z-10.5083
X120.9434 Y29.09 Z-11.2007
X121.0357 Y29.0996 Z-11.2039
X121.1459 Y29.1236 Z-11.2079
X121.2552 Y29.1609 Z-11.2119
X121.3029 Y29.1824 Z-11.2137
X121.3532 Y29.2098 Z-11.2157
X121.4481 Y29.2738 Z-11.2197
X121.5589 Y29.3717 Z-11.2249
X121.6051 Y29.4227 Z-11.2273
X121.6438 Y29.4738 Z-11.2295
X121.7022 Y29.5688 Z-11.2334
X121.7444 Y29.6606 Z-11.237
X121.7832 Y29.7813 Z-11.2414
X121.804 Y29.8969 Z-11.2455
X121.8096 Y30.016 Z-11.2496
X121.7996 Y30.1348 Z-11.2538
X121.7722 Y30.2603 Z-11.2583
X121.742 Y30.3457 Z-11.2615
X121.6736 Y30.4796 Z-11.2667
X121.6239 Y30.5522 Z-11.2698
X121.5631 Y30.624 Z-11.2731
X121.4855 Y30.6968 Z-11.2768
X121.3795 Y30.774 Z-11.2814
X121.305 Y30.8152 Z-11.2843
X121.1844 Y30.864 Z-11.2889
X121.0637 Y30.8948 Z-11.2932
X120.9365 Y30.9097 Z-11.2977
X100.8975 Y30.9115 Z-11.9975
X100.8257 Y30.9049 Z-12
X100.758 Y30.8986 F3500
X100.6388 Y30.8713
X100.5185 Y30.8258
X100.4007 Y30.7608
X100.3193 Y30.7014
X100.2607 Y30.6477
X100.1478 Y30.5118
X100.1033 Y30.4397
X100.0394 Y30.2982
X100.0253 Y30.2544
X99.9996 Y30.1325
X99.9902 Y30.0175
X99.9958 Y29.9001
X100.0232 Y29.7529
X100.0361 Y29.7108
X100.087 Y29.5885
X100.1126 Y29.541
X100.1447 Y29.4907
X100.2224 Y29.3926
X100.3039 Y29.3132
X100.4399 Y29.2149
X100.5157 Y29.1747
X100.6269 Y29.1312
X100.6991 Y29.1118
X100.812 Y29.0944
X101.1173 Y29.0879
X120.9434 Y29.09
X121.0357 Y29.0996
X121.1459 Y29.1236
X121.2552 Y29.1609
X121.3029 Y29.1824
X121.3532 Y29.2098
X121.4481 Y29.2738
X121.5589 Y29.3717
X121.6051 Y29.4227
X121.6438 Y29.4738
X121.7022 Y29.5688
X121.7444 Y29.6606
X121.7832 Y29.7813
X121.804 Y29.8969
X121.8096 Y30.016
X121.7996 Y30.1348
X121.7722 Y30.2603
X121.742 Y30.3457
X121.6736 Y30.4796
X121.6239 Y30.5522
X121.5631 Y30.624
X121.4855 Y30.6968
X121.3795 Y30.774
X121.305 Y30.8152
X121.1844 Y30.864
X121.0637 Y30.8948
X120.9365 Y30.9097
X100.8975 Y30.9115
X100.8257 Y30.9049
X100.8014 Y30.8965
X100.7838 Y30.8778
X100.7768 Y30.8531
X100.782 Y30.8279
X100.7983 Y30.8081
X100.9842 Y30.67
X103.5975 Y29.3247
X103.6129 Y29.3128
X103.6231 Y29.2964
X103.6915 Y29.1225
X103.7031 Y29.1045
X103.7208 Y29.0924
X103.7418 Y29.0882
X120.9434 Y29.09 Z-12.6007 F1200
X121.0357 Y29.0996 Z-12.6039
X121.1459 Y29.1236 Z-12.6079
X121.2552 Y29.1609 Z-12.6119
X121.3029 Y29.1824 Z-12.6137
X121.3532 Y29.2098 Z-12.6157
X121.4481 Y29.2738 Z-12.6197
X121.5589 Y29.3717 Z-12.6249
X121.6051 Y29.4227 Z-12.6273
X121.6438 Y29.4738 Z-12.6295
X121.7022 Y29.5688 Z-12.6334
X121.7444 Y29.6606 Z-12.637
X121.7832 Y29.7813 Z-12.6414
X121.804 Y29.8969 Z-12.6455
X121.8096 Y30.016 Z-12.6496
X121.7996 Y30.1348 Z-12.6538
X121.7722 Y30.2603 Z-12.6583
X121.742 Y30.3457 Z-12.6615
X121.6736 Y30.4796 Z-12.6667
X121.6239 Y30.5522 Z-12.6698
X121.5631 Y30.624 Z-12.6731
X121.4855 Y30.6968 Z-12.6768
X121.3795 Y30.774 Z-12.6814
X121.305 Y30.8152 Z-12.6843
X121.1844 Y30.864 Z-12.6889
X121.0637 Y30.8948 Z-12.6932
X120.9365 Y30.9097 Z-12.6977
X100.8975 Y30.9115 Z-13.3975
X100.8257 Y30.9049 Z-13.4
X100.758 Y30.8986 F3500
X100.6388 Y30.8713
X100.5185 Y30.8258
X100.4007 Y30.7608
X100.3193 Y30.7014
X100.2607 Y30.6477
X100.1478 Y30.5118
X100.1033 Y30.4397
X100.0394 Y30.2982
X100.0253 Y30.2544
X99.9996 Y30.1325
X99.9902 Y30.0175
X99.9958 Y29.9001
X100.0232 Y29.7529
X100.0361 Y29.7108
X100.087 Y29.5885
X100.1126 Y29.541
X100.1447 Y29.4907
X100.2224 Y29.3926
X100.3039 Y29.3132
X100.4399 Y29.2149
X100.5157 Y29.1747
X100.6269 Y29.1312
X100.6991 Y29.1118
X100.812 Y29.0944
X101.1173 Y29.0879
X120.9434 Y29.09
X121.0357 Y29.0996
X121.1459 Y29.1236
X121.2552 Y29.1609
X121.3029 Y29.1824
X121.3532 Y29.2098
X121.4481 Y29.2738
X121.5589 Y29.3717
X121.6051 Y29.4227
X121.6438 Y29.4738
X121.7022 Y29.5688
X121.7444 Y29.6606
X121.7832 Y29.7813
X121.804 Y29.8969
X121.8096 Y30.016
X121.7996 Y30.1348
X121.7722 Y30.2603
X121.742 Y30.3457
X121.6736 Y30.4796
X121.6239 Y30.5522
X121.5631 Y30.624
X121.4855 Y30.6968
X121.3795 Y30.774
X121.305 Y30.8152
X121.1844 Y30.864
X121.0637 Y30.8948
X120.9365 Y30.9097
X100.8975 Y30.9115
X100.8257 Y30.9049
X100.7774 Y30.8966 Z-13.3922
X100.7309 Y30.881 Z-13.3845
X100.6915 Y30.861 Z-13.3619
X100.6553 Y30.8356 Z-13.3394
X100.6059 Y30.7858 Z-13.2691
X100.5805 Y30.7486 Z-13.1806
X100.573 Y30.735 Z-13.0825
G0 Z5
X68.3509 Y49.296
Z2.4173
G1 X68.3579 Y49.2828 Z2.3213 F1200
X68.379 Y49.2452 Z2.2343
X68.4141 Y49.1875 Z2.1644
X68.4621 Y49.1169 Z2.1182
X68.5204 Y49.0414 Z2.1
G3 X68.3716 Y49.258 Z1.7783 I1.164 J0.9589
X68.2627 Y49.4973 Z1.4566 I1.3128 J0.7422
X68.1969 Y49.7518 Z1.1349 I1.4218 J0.503
X68.1764 Y50.0139 Z0.8132 I1.4875 J0.2484
X68.2017 Y50.2756 Z0.4914 I1.5081 J-0.0136
X68.272 Y50.5289 Z0.1697 I1.4828 J-0.2753
X68.3853 Y50.7661 Z-0.152 I1.4124 J-0.5286
X68.538 Y50.9801 Z-0.4737 I1.2992 J-0.7659
X68.7255 Y51.1643 Z-0.7954 I1.1465 J-0.9798
X68.9422 Y51.3131 Z-1.1171 I0.9589 J-1.164
X69.1815 Y51.422 Z-1.4388 I0.7422 J-1.3128
X69.436 Y51.4878 Z-1.7605 I0.503 J-1.4218
X71.1926 Y50.0003 Z-2 I0.2484 J-1.4875
X70.608 I-0.2923 F3500
X74.2088 I1.8004
X67.5918 I-3.3085
X77.2251 I4.8167
X64.5755 I-6.3248
X80.2413 I7.8329
X61.5592 I-9.341
X80.2413 I9.341
G2 X81.4815 Y52.0164 I2.2588
G3 X82.3594 Y54.2146 I-0.8066 J1.5965
G1 X82.3114 Y54.349
X82.1204 Y54.82
X81.9058 Y55.2916
X81.6667 Y55.7628
X81.4008 Y56.2339
X81.1065 Y56.7047
X80.7566 Y57.2095
X80.421 Y57.6472
X80.0218 Y58.119
X79.5742 Y58.5958
X79.3434 Y58.8227
X78.8652 Y59.2564
X78.3926 Y59.6433
X77.9018 Y60.0055
X77.4474 Y60.3081
X76.9739 Y60.5943
X76.5012 Y60.8515
X76.0284 Y61.0829
X75.5552 Y61.2896
X75.0825 Y61.4736
X74.6101 Y61.6346
X74.1365 Y61.775
X73.6637 Y61.8953
X73.1914 Y61.9951
X72.7183 Y62.0756
X72.2449 Y62.1376
X71.7722 Y62.1809
X71.2999 Y62.2055
X70.827 Y62.2116
X70.3537 Y62.1995
X69.8805 Y62.1693
X69.4081 Y62.1207
X68.9356 Y62.0528
X68.4622 Y61.966
X67.9891 Y61.8599
X67.5167 Y61.734
X67.0438 Y61.5869
X66.5706 Y61.4187
X66.1009 Y61.2294
X65.4832 Y60.9448
X65.156 Y60.7769
X64.6227 Y60.4752
X64.2077 Y60.2148
X63.7337 Y59.8882
X63.2625 Y59.5286
X62.7137 Y59.0617
X62.2208 Y58.5905
X61.7786 Y58.1193
X61.3679 Y57.6332
X61.0194 Y57.1769
X60.694 Y56.7056
X60.3992 Y56.2339
X60.1333 Y55.7628
X59.8942 Y55.2916
X59.68 Y54.8208
X59.4768 Y54.3172
X59.3204 Y53.8782
X59.1738 Y53.4096
X59.0027 Y52.7549
X58.9401 Y52.4679
X58.8518 Y51.9921
X58.7831 Y51.5206
X58.7331 Y51.0498
X58.7019 Y50.5788
X58.6887 Y50.1071
X58.6936 Y49.6353
X58.7165 Y49.1642
X58.758 Y48.6935
X58.8184 Y48.222
X58.8971 Y47.751
X59.0047 Y47.2362
X59.1123 Y46.8091
X59.2495 Y46.3407
X59.4802 Y45.6735
X59.5884 Y45.3978
X59.7939 Y44.9224
X60.0212 Y44.4513
X60.2751 Y43.9802
X60.5558 Y43.5094
X60.8968 Y42.9948
X61.2107 Y42.5674
X61.5922 Y42.095
X62.0138 Y41.6237
X62.4874 Y41.1482
X62.7843 Y40.8752
X63.2611 Y40.4725
X63.7322 Y40.1129
X64.2837 Y39.7358
X64.6778 Y39.4923
X65.1522 Y39.2251
X65.6249 Y38.9863
X66.098 Y38.7718
X66.5706 Y38.5813
X67.0438 Y38.4131
X67.5167 Y38.266
X67.9891 Y38.1401
X68.4622 Y38.034
X68.9356 Y37.9472
X69.4082 Y37.8793
X69.8805 Y37.8307
X70.3537 Y37.8005
X70.827 Y37.7884
X71.2999 Y37.7945
X71.7722 Y37.8191
X72.2449 Y37.8624
X72.7183 Y37.9244
X73.1914 Y38.0049
X73.6637 Y38.1047
X74.1365 Y38.225
X74.6101 Y38.3654
X75.0782 Y38.5249
X75.7642 Y38.7988
X76.0243 Y38.9151
X76.5012 Y39.1485
X76.9725 Y39.4049
X77.5225 Y39.7397
X77.9183 Y40.0061
X78.3923 Y40.3565
X78.8652 Y40.7436
X79.3382 Y41.1727
X79.8109 Y41.6498
X80.2874 Y42.1895
X80.5869 Y42.5641
X80.9327 Y43.0377
X81.2439 Y43.5087
X81.5249 Y43.9802
X81.7788 Y44.4513
X82.0061 Y44.9224
X82.2101 Y45.3941
X82.3906 Y45.8651
X82.5493 Y46.3366
X82.6874 Y46.8081
X82.805 Y47.279
X82.9028 Y47.7502
X82.9816 Y48.2221
X83.042 Y48.6935
X83.0835 Y49.1642
X83.1064 Y49.6353
X83.1113 Y50.1071
X83.0981 Y50.5788
X83.0669 Y51.0498
X83.017 Y51.5206
X82.9482 Y51.9921
X82.8606 Y52.464
X82.7541 Y52.9351
X82.6273 Y53.4059
X82.4797 Y53.8777
X82.3594 Y54.2146
X82.3376 Y54.2554
X82.305 Y54.2882
X82.2644 Y54.3103
X82.2191 Y54.3196
X82.173 Y54.3156
X71.323 Y51.7217
X71.2833 Y51.7124
X71.2473 Y51.6933
X71.2173 Y51.6657
X71.1954 Y51.6314
X71.1829 Y51.5926
X70.8263 Y49.6602
X70.8249 Y49.6121
X70.838 Y49.5657
X70.8643 Y49.5254
X70.9016 Y49.4948
X70.9463 Y49.4768
X70.9944 Y49.4731
X71.0413 Y49.484
X71.0828 Y49.5084
X71.1151 Y49.5442
X71.1352 Y49.588
G3 X71.0415 Y49.3424 Z-2.3217 I-1.4507 J0.4122 F1200
X70.9067 Y49.1167 Z-2.6434 I-1.3571 J0.6579
X70.7347 Y48.9179 Z-2.9651 I-1.2222 J0.8835
X70.5308 Y48.752 Z-3.2868 I-1.0502 J1.0823
X70.3012 Y48.624 Z-3.6086 I-0.8463 J1.2483
X70.0528 Y48.5378 Z-3.9303 I-0.6167 J1.3763
X71.1926 Y50.0003 Z-4 I-0.3684 J1.4624
X70.608 I-0.2923 F3500
X74.2088 I1.8004
X67.5918 I-3.3085
X77.2251 I4.8167
X64.5755 I-6.3248
X80.2413 I7.8329
X61.5592 I-9.341
X80.2413 I9.341
G2 X81.4815 Y52.0164 I2.2588
G3 X82.3594 Y54.2146 I-0.8066 J1.5965
G1 X82.3114 Y54.349
X82.1204 Y54.82
X81.9058 Y55.2916
X81.6667 Y55.7628
X81.4008 Y56.2339
X81.1065 Y56.7047
X80.7566 Y57.2095
X80.421 Y57.6472
X80.0218 Y58.119
X79.5742 Y58.5958
X79.3434 Y58.8227
X78.8652 Y59.2564
X78.3926 Y59.6433
X77.9018 Y60.0055
X77.4474 Y60.3081
X76.9739 Y60.5943
X76.5012 Y60.8515
X76.0284 Y61.0829
X75.5552 Y61.2896
X75.0825 Y61.4736
X74.6101 Y61.6346
X74.1365 Y61.775
X73.6637 Y61.8953
X73.1914 Y61.9951
X72.7183 Y62.0756
X72.2449 Y62.1376
X71.7722 Y62.1809
X71.2999 Y62.2055
X70.827 Y62.2116
X70.3537 Y62.1995
X69.8805 Y62.1693
X69.4081 Y62.1207
X68.9356 Y62.0528
X68.4622 Y61.966
X67.9891 Y61.8599
X67.5167 Y61.734
X67.0438 Y61.5869
X66.5706 Y61.4187
X66.1009 Y61.2294
X65.4832 Y60.9448
X65.156 Y60.7769
X64.6227 Y60.4752
X64.2077 Y60.2148
X63.7337 Y59.8882
X63.2625 Y59.5286
X62.7137 Y59.0617
X62.2208 Y58.5905
X61.7786 Y58.1193
X61.3679 Y57.6332
X61.0194 Y57.1769
X60.694 Y56.7056
X60.3992 Y56.2339
X60.1333 Y55.7628
X59.8942 Y55.2916
X59.68 Y54.8208
X59.4768 Y54.3172
X59.3204 Y53.8782
X59.1738 Y53.4096
X59.0027 Y52.7549
X58.9401 Y52.4679
X58.8518 Y51.9921
X58.7831 Y51.5206
X58.7331 Y51.0498
X58.7019 Y50.5788
X58.6887 Y50.1071
X58.6936 Y49.6353
X58.7165 Y49.1642
X58.758 Y48.6935
X58.8184 Y48.222
X58.8971 Y47.751
X59.0047 Y47.2362
X59.1123 Y46.8091
X59.2495 Y46.3407
X59.4802 Y45.6735
X59.5884 Y45.3978
X59.7939 Y44.9224
X60.0212 Y44.4513
X60.2751 Y43.9802
X60.5558 Y43.5094
X60.8968 Y42.9948
X61.2107 Y42.5674
X61.5922 Y42.095
X62.0138 Y41.6237
X62.4874 Y41.1482
X62.7843 Y40.8752
X63.2611 Y40.4725
X63.7322 Y40.1129
X64.2837 Y39.7358
X64.6778 Y39.4923
X65.1522 Y39.2251
X65.6249 Y38.9863
X66.098 Y38.7718
X66.5706 Y38.5813
X67.0438 Y38.4131
X67.5167 Y38.266
X67.9891 Y38.1401
X68.4622 Y38.034
X68.9356 Y37.9472
X69.4082 Y37.8793
X69.8805 Y37.8307
X70.3537 Y37.8005
X70.827 Y37.7884
X71.2999 Y37.7945
X71.7722 Y37.8191
X72.2449 Y37.8624
X72.7183 Y37.9244
X73.1914 Y38.0049
X73.6637 Y38.1047
X74.1365 Y38.225
X74.6101 Y38.3654
X75.0782 Y38.5249
X75.7642 Y38.7988
X76.0243 Y38.9151
X76.5012 Y39.1485
X76.9725 Y39.4049
X77.5225 Y39.7397
X77.9183 Y40.0061
X78.3923 Y40.3565
X78.8652 Y40.7436
X79.3382 Y41.1727
X79.8109 Y41.6498
X80.2874 Y42.1895
X80.5869 Y42.5641
X80.9327 Y43.0377
X81.2439 Y43.5087
X81.5249 Y43.9802
X81.7788 Y44.4513
X82.0061 Y44.9224
X82.2101 Y45.3941
X82.3906 Y45.8651
X82.5493 Y46.3366
X82.6874 Y46.8081
X82.805 Y47.279
X82.9028 Y47.7502
X82.9816 Y48.2221
X83.042 Y48.6935
X83.0835 Y49.1642
X83.1064 Y49.6353
X83.1113 Y50.1071
X83.0981 Y50.5788
X83.0669 Y51.0498
X83.017 Y51.5206
X82.9482 Y51.9921
X82.8606 Y52.464
X82.7541 Y52.9351
X82.6273 Y53.4059
X82.4797 Y53.8777
X82.3594 Y54.2146
X82.3376 Y54.2554
X82.305 Y54.2882
X82.2644 Y54.3103
X82.2191 Y54.3196
X82.173 Y54.3156
X71.323 Y51.7217
X71.2833 Y51.7124
X71.2473 Y51.6933
X71.2173 Y51.6657
X71.1954 Y51.6314
X71.1829 Y51.5926
X70.8263 Y49.6602
X70.8249 Y49.6121
X70.838 Y49.5657
X70.8643 Y49.5254
X70.9016 Y49.4948
X70.9463 Y49.4768
X70.9944 Y49.4731
X71.0413 Y49.484
X71.0828 Y49.5084
X71.1151 Y49.5442
X71.1352 Y49.588
G3 X71.0415 Y49.3424 Z-4.3217 I-1.4507 J0.4122 F1200
X70.9067 Y49.1167 Z-4.6434 I-1.3571 J0.6579
X70.7347 Y48.9179 Z-4.9651 I-1.2222 J0.8835
X70.5308 Y48.752 Z-5.2868 I-1.0502 J1.0823
X70.3012 Y48.624 Z-5.6086 I-0.8463 J1.2483
X70.0528 Y48.5378 Z-5.9303 I-0.6167 J1.3763
X71.1926 Y50.0003 Z-6 I-0.3684 J1.4624
X70.608 I-0.2923 F3500
X74.2088 I1.8004
X67.5918 I-3.3085
X77.2251 I4.8167
X64.5755 I-6.3248
X80.2413 I7.8329
X61.5592 I-9.341
X80.2413 I9.341
G2 X81.4815 Y52.0164 I2.2588
G3 X82.3594 Y54.2146 I-0.8066 J1.5965
G1 X82.3114 Y54.349
X82.1204 Y54.82
X81.9058 Y55.2916
X81.6667 Y55.7628
X81.4008 Y56.2339
X81.1065 Y56.7047
X80.7566 Y57.2095
X80.421 Y57.6472
X80.0218 Y58.119
X79.5742 Y58.5958
X79.3434 Y58.8227
X78.8652 Y59.2564
X78.3926 Y59.6433
X77.9018 Y60.0055
X77.4474 Y60.3081
X76.9739 Y60.5943
X76.5012 Y60.8515
X76.0284 Y61.0829
X75.5552 Y61.2896
X75.0825 Y61.4736
X74.6101 Y61.6346
X74.1365 Y61.775
X73.6637 Y61.8953
X73.1914 Y61.9951
X72.7183 Y62.0756
X72.2449 Y62.1376
X71.7722 Y62.1809
X71.2999 Y62.2055
X70.827 Y62.2116
X70.3537 Y62.1995
X69.8805 Y62.1693
X69.4081 Y62.1207
X68.9356 Y62.0528
X68.4622 Y61.966
X67.9891 Y61.8599
X67.5167 Y61.734
X67.0438 Y61.5869
X66.5706 Y61.4187
X66.1009 Y61.2294
X65.4832 Y60.9448
X65.156 Y60.7769
X64.6227 Y60.4752
X64.2077 Y60.2148
X63.7337 Y59.8882
X63.2625 Y59.5286
X62.7137 Y59.0617
X62.2208 Y58.5905
X61.7786 Y58.1193
X61.3679 Y57.6332
X61.0194 Y57.1769
X60.694 Y56.7056
X60.3992 Y56.2339
X60.1333 Y55.7628
X59.8942 Y55.2916
X59.68 Y54.8208
X59.4768 Y54.3172
X59.3204 Y53.8782
X59.1738 Y53.4096
X59.0027 Y52.7549
X58.9401 Y52.4679
X58.8518 Y51.9921
X58.7831 Y51.5206
X58.7331 Y51.0498
X58.7019 Y50.5788
X58.6887 Y50.1071
X58.6936 Y49.6353
X58.7165 Y49.1642
X58.758 Y48.6935
X58.8184 Y48.222
X58.8971 Y47.751
X59.0047 Y47.2362
X59.1123 Y46.8091
X59.2495 Y46.3407
X59.4802 Y45.6735
X59.5884 Y45.3978
X59.7939 Y44.9224
X60.0212 Y44.4513
X60.2751 Y43.9802
X60.5558 Y43.5094
X60.8968 Y42.9948
X61.2107 Y42.5674
X61.5922 Y42.095
X62.0138 Y41.6237
X62.4874 Y41.1482
X62.7843 Y40.8752
X63.2611 Y40.4725
X63.7322 Y40.1129
X64.2837 Y39.7358
X64.6778 Y39.4923
X65.1522 Y39.2251
X65.6249 Y38.9863
X66.098 Y38.7718
X66.5706 Y38.5813
X67.0438 Y38.4131
X67.5167 Y38.266
X67.9891 Y38.1401
X68.4622 Y38.034
X68.9356 Y37.9472
X69.4082 Y37.8793
X69.8805 Y37.8307
X70.3537 Y37.8005
X70.827 Y37.7884
X71.2999 Y37.7945
X71.7722 Y37.8191
X72.2449 Y37.8624
X72.7183 Y37.9244
X73.1914 Y38.0049
X73.6637 Y38.1047
X74.1365 Y38.225
X74.6101 Y38.3654
X75.0782 Y38.5249
X75.7642 Y38.7988
X76.0243 Y38.9151
X76.5012 Y39.1485
X76.9725 Y39.4049
X77.5225 Y39.7397
X77.9183 Y40.0061
X78.3923 Y40.3565
X78.8652 Y40.7436
X79.3382 Y41.1727
X79.8109 Y41.6498
X80.2874 Y42.1895
X80.5869 Y42.5641
X80.9327 Y43.0377
X81.2439 Y43.5087
X81.5249 Y43.9802
X81.7788 Y44.4513
X82.0061 Y44.9224
X82.2101 Y45.3941
X82.3906 Y45.8651
X82.5493 Y46.3366
X82.6874 Y46.8081
X82.805 Y47.279
X82.9028 Y47.7502
X82.9816 Y48.2221
X83.042 Y48.6935
X83.0835 Y49.1642
X83.1064 Y49.6353
X83.1113 Y50.1071
X83.0981 Y50.5788
X83.0669 Y51.0498
X83.017 Y51.5206
X82.9482 Y51.9921
X82.8606 Y52.464
X82.7541 Y52.9351
X82.6273 Y53.4059
X82.4797 Y53.8777
X82.3594 Y54.2146
X82.3376 Y54.2554
X82.305 Y54.2882
X82.2644 Y54.3103
X82.2191 Y54.3196
X82.173 Y54.3156
X71.323 Y51.7217
X71.2833 Y51.7124
X71.2473 Y51.6933
X71.2173 Y51.6657
X71.1954 Y51.6314
X71.1829 Y51.5926
X70.8263 Y49.6602
X70.8249 Y49.6121
X70.838 Y49.5657
X70.8643 Y49.5254
X70.9016 Y49.4948
X70.9463 Y49.4768
X70.9944 Y49.4731
X71.0413 Y49.484
X71.0828 Y49.5084
X71.1151 Y49.5442
X71.1352 Y49.588
G3 X71.0415 Y49.3424 Z-6.3217 I-1.4507 J0.4122 F1200
X70.9067 Y49.1167 Z-6.6434 I-1.3571 J0.6579
X70.7347 Y48.9179 Z-6.9651 I-1.2222 J0.8835
X70.5308 Y48.752 Z-7.2868 I-1.0502 J1.0823
X70.3012 Y48.624 Z-7.6086 I-0.8463 J1.2483
X70.0528 Y48.5378 Z-7.9303 I-0.6167 J1.3763
X71.1926 Y50.0003 Z-8 I-0.3684 J1.4624
X70.608 I-0.2923 F3500
X74.2088 I1.8004
X67.5918 I-3.3085
X77.2251 I4.8167
X64.5755 I-6.3248
X80.2413 I7.8329
X61.5592 I-9.341
X80.2413 I9.341
G2 X81.4815 Y52.0164 I2.2588
G3 X82.3594 Y54.2146 I-0.8066 J1.5965
G1 X82.3114 Y54.349
X82.1204 Y54.82
X81.9058 Y55.2916
X81.6667 Y55.7628
X81.4008 Y56.2339
X81.1065 Y56.7047
X80.7566 Y57.2095
X80.421 Y57.6472
X80.0218 Y58.119
X79.5742 Y58.5958
X79.3434 Y58.8227
X78.8652 Y59.2564
X78.3926 Y59.6433
X77.9018 Y60.0055
X77.4474 Y60.3081
X76.9739 Y60.5943
X76.5012 Y60.8515
X76.0284 Y61.0829
X75.5552 Y61.2896
X75.0825 Y61.4736
X74.6101 Y61.6346
X74.1365 Y61.775
X73.6637 Y61.8953
X73.1914 Y61.9951
X72.7183 Y62.0756
X72.2449 Y62.1376
X71.7722 Y62.1809
X71.2999 Y62.2055
X70.827 Y62.2116
X70.3537 Y62.1995
X69.8805 Y62.1693
X69.4081 Y62.1207
X68.9356 Y62.0528
X68.4622 Y61.966
X67.9891 Y61.8599
X67.5167 Y61.734
X67.0438 Y61.5869
X66.5706 Y61.4187
X66.1009 Y61.2294
X65.4832 Y60.9448
X65.156 Y60.7769
X64.6227 Y60.4752
X64.2077 Y60.2148
X63.7337 Y59.8882
X63.2625 Y59.5286
X62.7137 Y59.0617
X62.2208 Y58.5905
X61.7786 Y58.1193
X61.3679 Y57.6332
X61.0194 Y57.1769
X60.694 Y56.7056
X60.3992 Y56.2339
X60.1333 Y55.7628
X59.8942 Y55.2916
X59.68 Y54.8208
X59.4768 Y54.3172
X59.3204 Y53.8782
X59.1738 Y53.4096
X59.0027 Y52.7549
X58.9401 Y52.4679
X58.8518 Y51.9921
X58.7831 Y51.5206
X58.7331 Y51.0498
X58.7019 Y50.5788
X58.6887 Y50.1071
X58.6936 Y49.6353
X58.7165 Y49.1642
X58.758 Y48.6935
X58.8184 Y48.222
X58.8971 Y47.751
X59.0047 Y47.2362
X59.1123 Y46.8091
X59.2495 Y46.3407
X59.4802 Y45.6735
X59.5884 Y45.3978
X59.7939 Y44.9224
X60.0212 Y44.4513
X60.2751 Y43.9802
X60.5558 Y43.5094
X60.8968 Y42.9948
X61.2107 Y42.5674
X61.5922 Y42.095
X62.0138 Y41.6237
X62.4874 Y41.1482
X62.7843 Y40.8752
X63.2611 Y40.4725
X63.7322 Y40.1129
X64.2837 Y39.7358
X64.6778 Y39.4923
X65.1522 Y39.2251
X65.6249 Y38.9863
X66.098 Y38.7718
X66.5706 Y38.5813
X67.0438 Y38.4131
X67.5167 Y38.266
X67.9891 Y38.1401
X68.4622 Y38.034
X68.9356 Y37.9472
X69.4082 Y37.8793
X69.8805 Y37.8307
X70.3537 Y37.8005
X70.827 Y37.7884
X71.2999 Y37.7945
X71.7722 Y37.8191
X72.2449 Y37.8624
X72.7183 Y37.9244
X73.1914 Y38.0049
X73.6637 Y38.1047
X74.1365 Y38.225
X74.6101 Y38.3654
X75.0782 Y38.5249
X75.7642 Y38.7988
X76.0243 Y38.9151
X76.5012 Y39.1485
X76.9725 Y39.4049
X77.5225 Y39.7397
X77.9183 Y40.0061
X78.3923 Y40.3565
X78.8652 Y40.7436
X79.3382 Y41.1727
X79.8109 Y41.6498
X80.2874 Y42.1895
X80.5869 Y42.5641
X80.9327 Y43.0377
X81.2439 Y43.5087
X81.5249 Y43.9802
X81.7788 Y44.4513
X82.0061 Y44.9224
X82.2101 Y45.3941
X82.3906 Y45.8651
X82.5493 Y46.3366
X82.6874 Y46.8081
X82.805 Y47.279
X82.9028 Y47.7502
X82.9816 Y48.2221
X83.042 Y48.6935
X83.0835 Y49.1642
X83.1064 Y49.6353
X83.1113 Y50.1071
X83.0981 Y50.5788
X83.0669 Y51.0498
X83.017 Y51.5206
X82.9482 Y51.9921
X82.8606 Y52.464
X82.7541 Y52.9351
X82.6273 Y53.4059
X82.4797 Y53.8777
X82.3594 Y54.2146
X82.3376 Y54.2554
X82.305 Y54.2882
X82.2644 Y54.3103
X82.2191 Y54.3196
X82.173 Y54.3156
X71.323 Y51.7217
X71.2833 Y51.7124
X71.2473 Y51.6933
X71.2173 Y51.6657
X71.1954 Y51.6314
X71.1829 Y51.5926
X70.8263 Y49.6602
X70.8249 Y49.6121
X70.838 Y49.5657
X70.8643 Y49.5254
X70.9016 Y49.4948
X70.9463 Y49.4768
X70.9944 Y49.4731
X71.0413 Y49.484
X71.0828 Y49.5084
X71.1151 Y49.5442
X71.1352 Y49.588
G3 X71.0415 Y49.3424 Z-8.3217 I-1.4507 J0.4122 F1200
X70.9067 Y49.1167 Z-8.6434 I-1.3571 J0.6579
X70.7347 Y48.9179 Z-8.9651 I-1.2222 J0.8835
X70.5308 Y48.752 Z-9.2868 I-1.0502 J1.0823
X70.3012 Y48.624 Z-9.6086 I-0.8463 J1.2483
X70.0528 Y48.5378 Z-9.9303 I-0.6167 J1.3763
X71.1926 Y50.0003 Z-10 I-0.3684 J1.4624
X70.608 I-0.2923 F3500
X74.2088 I1.8004
X67.5918 I-3.3085
X77.2251 I4.8167
X64.5755 I-6.3248
X80.2413 I7.8329
X61.5592 I-9.341
X80.2413 I9.341
G2 X81.4815 Y52.0164 I2.2588
G3 X82.3594 Y54.2146 I-0.8066 J1.5965
G1 X82.3114 Y54.349
X82.1204 Y54.82
X81.9058 Y55.2916
X81.6667 Y55.7628
X81.4008 Y56.2339
X81.1065 Y56.7047
X80.7566 Y57.2095
X80.421 Y57.6472
X80.0218 Y58.119
X79.5742 Y58.5958
X79.3434 Y58.8227
X78.8652 Y59.2564
X78.3926 Y59.6433
X77.9018 Y60.0055
X77.4474 Y60.3081
X76.9739 Y60.5943
X76.5012 Y60.8515
X76.0284 Y61.0829
X75.5552 Y61.2896
X75.0825 Y61.4736
X74.6101 Y61.6346
X74.1365 Y61.775
X73.6637 Y61.8953
X73.1914 Y61.9951
X72.7183 Y62.0756
X72.2449 Y62.1376
X71.7722 Y62.1809
X71.2999 Y62.2055
X70.827 Y62.2116
X70.3537 Y62.1995
X69.8805 Y62.1693
X69.4081 Y62.1207
X68.9356 Y62.0528
X68.4622 Y61.966
X67.9891 Y61.8599
X67.5167 Y61.734
X67.0438 Y61.5869
X66.5706 Y61.4187
X66.1009 Y61.2294
X65.4832 Y60.9448
X65.156 Y60.7769
X64.6227 Y60.4752
X64.2077 Y60.2148
X63.7337 Y59.8882
X63.2625 Y59.5286
X62.7137 Y59.0617
X62.2208 Y58.5905
X61.7786 Y58.1193
X61.3679 Y57.6332
X61.0194 Y57.1769
X60.694 Y56.7056
X60.3992 Y56.2339
X60.1333 Y55.7628
X59.8942 Y55.2916
X59.68 Y54.8208
X59.4768 Y54.3172
X59.3204 Y53.8782
X59.1738 Y53.4096
X59.0027 Y52.7549
X58.9401 Y52.4679
X58.8518 Y51.9921
X58.7831 Y51.5206
X58.7331 Y51.0498
X58.7019 Y50.5788
X58.6887 Y50.1071
X58.6936 Y49.6353
X58.7165 Y49.1642
X58.758 Y48.6935
X58.8184 Y48.222
X58.8971 Y47.751
X59.0047 Y47.2362
X59.1123 Y46.8091
X59.2495 Y46.3407
X59.4802 Y45.6735
X59.5884 Y45.3978
X59.7939 Y44.9224
X60.0212 Y44.4513
X60.2751 Y43.9802
X60.5558 Y43.5094
X60.8968 Y42.9948
X61.2107 Y42.5674
X61.5922 Y42.095
X62.0138 Y41.6237
X62.4874 Y41.1482
X62.7843 Y40.8752
X63.2611 Y40.4725
X63.7322 Y40.1129
X64.2837 Y39.7358
X64.6778 Y39.4923
X65.1522 Y39.2251
X65.6249 Y38.9863
X66.098 Y38.7718
X66.5706 Y38.5813
X67.0438 Y38.4131
X67.5167 Y38.266
X67.9891 Y38.1401
X68.4622 Y38.034
X68.9356 Y37.9472
X69.4082 Y37.8793
X69.8805 Y37.8307
X70.3537 Y37.8005
X70.827 Y37.7884
X71.2999 Y37.7945
X71.7722 Y37.8191
X72.2449 Y37.8624
X72.7183 Y37.9244
X73.1914 Y38.0049
X73.6637 Y38.1047
X74.1365 Y38.225
X74.6101 Y38.3654
X75.0782 Y38.5249
X75.7642 Y38.7988
X76.0243 Y38.9151
X76.5012 Y39.1485
X76.9725 Y39.4049
X77.5225 Y39.7397
X77.9183 Y40.0061
X78.3923 Y40.3565
X78.8652 Y40.7436
X79.3382 Y41.1727
X79.8109 Y41.6498
X80.2874 Y42.1895
X80.5869 Y42.5641
X80.9327 Y43.0377
X81.2439 Y43.5087
X81.5249 Y43.9802
X81.7788 Y44.4513
X82.0061 Y44.9224
X82.2101 Y45.3941
X82.3906 Y45.8651
X82.5493 Y46.3366
X82.6874 Y46.8081
X82.805 Y47.279
X82.9028 Y47.7502
X82.9816 Y48.2221
X83.042 Y48.6935
X83.0835 Y49.1642
X83.1064 Y49.6353
X83.1113 Y50.1071
X83.0981 Y50.5788
X83.0669 Y51.0498
X83.017 Y51.5206
X82.9482 Y51.9921
X82.8606 Y52.464
X82.7541 Y52.9351
X82.6273 Y53.4059
X82.4797 Y53.8777
X82.3594 Y54.2146
X82.3376 Y54.2554
X82.305 Y54.2882
X82.2644 Y54.3103
X82.2191 Y54.3196
X82.173 Y54.3156
X71.323 Y51.7217
X71.2833 Y51.7124
X71.2473 Y51.6933
X71.2173 Y51.6657
X71.1954 Y51.6314
X71.1829 Y51.5926
X70.8263 Y49.6602
X70.8249 Y49.6121
X70.838 Y49.5657
X70.8643 Y49.5254
X70.9016 Y49.4948
X70.9463 Y49.4768
X70.9944 Y49.4731
X71.0413 Y49.484
X71.0828 Y49.5084
X71.1151 Y49.5442
X71.1352 Y49.588
G3 X71.0415 Y49.3424 Z-10.3217 I-1.4507 J0.4122 F1200
X70.9067 Y49.1167 Z-10.6434 I-1.3571 J0.6579
X70.7347 Y48.9179 Z-10.9651 I-1.2222 J0.8835
X70.5308 Y48.752 Z-11.2868 I-1.0502 J1.0823
X70.3012 Y48.624 Z-11.6086 I-0.8463 J1.2483
X70.0528 Y48.5378 Z-11.9303 I-0.6167 J1.3763
X71.1926 Y50.0003 Z-12 I-0.3684 J1.4624
X70.608 I-0.2923 F3500
X74.2088 I1.8004
X67.5918 I-3.3085
X77.2251 I4.8167
X64.5755 I-6.3248
X80.2413 I7.8329
X61.5592 I-9.341
X80.2413 I9.341
G2 X81.4815 Y52.0164 I2.2588
G3 X82.3594 Y54.2146 I-0.8066 J1.5965
G1 X82.3114 Y54.349
X82.1204 Y54.82
X81.9058 Y55.2916
X81.6667 Y55.7628
X81.4008 Y56.2339
X81.1065 Y56.7047
X80.7566 Y57.2095
X80.421 Y57.6472
X80.0218 Y58.119
X79.5742 Y58.5958
X79.3434 Y58.8227
X78.8652 Y59.2564
X78.3926 Y59.6433
X77.9018 Y60.0055
X77.4474 Y60.3081
X76.9739 Y60.5943
X76.5012 Y60.8515
X76.0284 Y61.0829
X75.5552 Y61.2896
X75.0825 Y61.4736
X74.6101 Y61.6346
X74.1365 Y61.775
X73.6637 Y61.8953
X73.1914 Y61.9951
X72.7183 Y62.0756
X72.2449 Y62.1376
X71.7722 Y62.1809
X71.2999 Y62.2055
X70.827 Y62.2116
X70.3537 Y62.1995
X69.8805 Y62.1693
X69.4081 Y62.1207
X68.9356 Y62.0528
X68.4622 Y61.966
X67.9891 Y61.8599
X67.5167 Y61.734
X67.0438 Y61.5869
X66.5706 Y61.4187
X66.1009 Y61.2294
X65.4832 Y60.9448
X65.156 Y60.7769
X64.6227 Y60.4752
X64.2077 Y60.2148
X63.7337 Y59.8882
X63.2625 Y59.5286
X62.7137 Y59.0617
X62.2208 Y58.5905
X61.7786 Y58.1193
X61.3679 Y57.6332
X61.0194 Y57.1769
X60.694 Y56.7056
X60.3992 Y56.2339
X60.1333 Y55.7628
X59.8942 Y55.2916
X59.68 Y54.8208
X59.4768 Y54.3172
X59.3204 Y53.8782
X59.1738 Y53.4096
X59.0027 Y52.7549
X58.9401 Y52.4679
X58.8518 Y51.9921
X58.7831 Y51.5206
X58.7331 Y51.0498
X58.7019 Y50.5788
X58.6887 Y50.1071
X58.6936 Y49.6353
X58.7165 Y49.1642
X58.758 Y48.6935
X58.8184 Y48.222
X58.8971 Y47.751
X59.0047 Y47.2362
X59.1123 Y46.8091
X59.2495 Y46.3407
X59.4802 Y45.6735
X59.5884 Y45.3978
X59.7939 Y44.9224
X60.0212 Y44.4513
X60.2751 Y43.9802
X60.5558 Y43.5094
X60.8968 Y42.9948
X61.2107 Y42.5674
X61.5922 Y42.095
X62.0138 Y41.6237
X62.4874 Y41.1482
X62.7843 Y40.8752
X63.2611 Y40.4725
X63.7322 Y40.1129
X64.2837 Y39.7358
X64.6778 Y39.4923
X65.1522 Y39.2251
X65.6249 Y38.9863
X66.098 Y38.7718
X66.5706 Y38.5813
X67.0438 Y38.4131
X67.5167 Y38.266
X67.9891 Y38.1401
X68.4622 Y38.034
X68.9356 Y37.9472
X69.4082 Y37.8793
X69.8805 Y37.8307
X70.3537 Y37.8005
X70.827 Y37.7884
X71.2999 Y37.7945
X71.7722 Y37.8191
X72.2449 Y37.8624
X72.7183 Y37.9244
X73.1914 Y38.0049
X73.6637 Y38.1047
X74.1365 Y38.225
X74.6101 Y38.3654
X75.0782 Y38.5249
X75.7642 Y38.7988
X76.0243 Y38.9151
X76.5012 Y39.1485
X76.9725 Y39.4049
X77.5225 Y39.7397
X77.9183 Y40.0061
X78.3923 Y40.3565
X78.8652 Y40.7436
X79.3382 Y41.1727
X79.8109 Y41.6498
X80.2874 Y42.1895
X80.5869 Y42.5641
X80.9327 Y43.0377
X81.2439 Y43.5087
X81.5249 Y43.9802
X81.7788 Y44.4513
X82.0061 Y44.9224
X82.2101 Y45.3941
X82.3906 Y45.8651
X82.5493 Y46.3366
X82.6874 Y46.8081
X82.805 Y47.279
X82.9028 Y47.7502
X82.9816 Y48.2221
X83.042 Y48.6935
X83.0835 Y49.1642
X83.1064 Y49.6353
X83.1113 Y50.1071
X83.0981 Y50.5788
X83.0669 Y51.0498
X83.017 Y51.5206
X82.9482 Y51.9921
X82.8606 Y52.464
X82.7541 Y52.9351
X82.6273 Y53.4059
X82.4797 Y53.8777
X82.3594 Y54.2146
X82.3387 Y54.2539
X82.3079 Y54.286
X82.2695 Y54.3083
X82.2263 Y54.3191
X82.1819 Y54.3174
X73.7925 Y52.8147
X73.7614 Y52.8122
X73.7187 Y52.8072
X73.6789 Y52.791
X73.6449 Y52.7646
X69.7331 Y48.7717
X69.7047 Y48.7321
X69.6897 Y48.6857
X69.6895 Y48.637
X69.7041 Y48.5905
X69.7321 Y48.5506
X69.7709 Y48.521
X69.8168 Y48.5047
X69.8655 Y48.503
G3 X69.6028 Y48.4943 Z-12.3217 I-0.1811 J1.4972 F1200
X69.3425 Y48.5314 Z-12.6434 I0.0817 J1.5059
X69.0927 Y48.6131 Z-12.9651 I0.3419 J1.4689
X68.8608 Y48.7369 Z-13.2868 I0.5918 J1.3872
X71.1926 Y50.0003 Z-13.4 I0.8237 J1.2633
X70.608 I-0.2923 F3500
X74.2088 I1.8004
X67.5918 I-3.3085
X77.2251 I4.8167
X64.5755 I-6.3248
X80.2413 I7.8329
X61.5592 I-9.341
X80.2413 I9.341
G2 X81.4815 Y52.0164 I2.2588
G3 X82.3594 Y54.2146 I-0.8066 J1.5965
G1 X82.3114 Y54.349
X82.1204 Y54.82
X81.9058 Y55.2916
X81.6667 Y55.7628
X81.4008 Y56.2339
X81.1065 Y56.7047
X80.7566 Y57.2095
X80.421 Y57.6472
X80.0218 Y58.119
X79.5742 Y58.5958
X79.3434 Y58.8227
X78.8652 Y59.2564
X78.3926 Y59.6433
X77.9018 Y60.0055
X77.4474 Y60.3081
X76.9739 Y60.5943
X76.5012 Y60.8515
X76.0284 Y61.0829
X75.5552 Y61.2896
X75.0825 Y61.4736
X74.6101 Y61.6346
X74.1365 Y61.775
X73.6637 Y61.8953
X73.1914 Y61.9951
X72.7183 Y62.0756
X72.2449 Y62.1376
X71.7722 Y62.1809
X71.2999 Y62.2055
X70.827 Y62.2116
X70.3537 Y62.1995
X69.8805 Y62.1693
X69.4081 Y62.1207
X68.9356 Y62.0528
X68.4622 Y61.966
X67.9891 Y61.8599
X67.5167 Y61.734
X67.0438 Y61.5869
X66.5706 Y61.4187
X66.1009 Y61.2294
X65.4832 Y60.9448
X65.156 Y60.7769
X64.6227 Y60.4752
X64.2077 Y60.2148
X63.7337 Y59.8882
X63.2625 Y59.5286
X62.7137 Y59.0617
X62.2208 Y58.5905
X61.7786 Y58.1193
X61.3679 Y57.6332
X61.0194 Y57.1769
X60.694 Y56.7056
X60.3992 Y56.2339
X60.1333 Y55.7628
X59.8942 Y55.2916
X59.68 Y54.8208
X59.4768 Y54.3172
X59.3204 Y53.8782
X59.1738 Y53.4096
X59.0027 Y52.7549
X58.9401 Y52.4679
X58.8518 Y51.9921
X58.7831 Y51.5206
X58.7331 Y51.0498
X58.7019 Y50.5788
X58.6887 Y50.1071
X58.6936 Y49.6353
X58.7165 Y49.1642
X58.758 Y48.6935
X58.8184 Y48.222
X58.8971 Y47.751
X59.0047 Y47.2362
X59.1123 Y46.8091
X59.2495 Y46.3407
X59.4802 Y45.6735
X59.5884 Y45.3978
X59.7939 Y44.9224
X60.0212 Y44.4513
X60.2751 Y43.9802
X60.5558 Y43.5094
X60.8968 Y42.9948
X61.2107 Y42.5674
X61.5922 Y42.095
X62.0138 Y41.6237
X62.4874 Y41.1482
X62.7843 Y40.8752
X63.2611 Y40.4725
X63.7322 Y40.1129
X64.2837 Y39.7358
X64.6778 Y39.4923
X65.1522 Y39.2251
X65.6249 Y38.9863
X66.098 Y38.7718
X66.5706 Y38.5813
X67.0438 Y38.4131
X67.5167 Y38.266
X67.9891 Y38.1401
X68.4622 Y38.034
X68.9356 Y37.9472
X69.4082 Y37.8793
X69.8805 Y37.8307
X70.3537 Y37.8005
X70.827 Y37.7884
X71.2999 Y37.7945
X71.7722 Y37.8191
X72.2449 Y37.8624
X72.7183 Y37.9244
X73.1914 Y38.0049
X73.6637 Y38.1047
X74.1365 Y38.225
X74.6101 Y38.3654
X75.0782 Y38.5249
X75.7642 Y38.7988
X76.0243 Y38.9151
X76.5012 Y39.1485
X76.9725 Y39.4049
X77.5225 Y39.7397
X77.9183 Y40.0061
X78.3923 Y40.3565
X78.8652 Y40.7436
X79.3382 Y41.1727
X79.8109 Y41.6498
X80.2874 Y42.1895
X80.5869 Y42.5641
X80.9327 Y43.0377
X81.2439 Y43.5087
X81.5249 Y43.9802
X81.7788 Y44.4513
X82.0061 Y44.9224
X82.2101 Y45.3941
X82.3906 Y45.8651
X82.5493 Y46.3366
X82.6874 Y46.8081
X82.805 Y47.279
X82.9028 Y47.7502
X82.9816 Y48.2221
X83.042 Y48.6935
X83.0835 Y49.1642
X83.1064 Y49.6353
X83.1113 Y50.1071
X83.0981 Y50.5788
X83.0669 Y51.0498
X83.017 Y51.5206
X82.9482 Y51.9921
X82.8606 Y52.464
X82.7541 Y52.9351
X82.6273 Y53.4059
X82.4797 Y53.8777
X82.3594 Y54.2146
X82.3394 Y54.2593 Z-13.3922
X82.3128 Y54.3004 Z-13.3845
X82.2835 Y54.3336 Z-13.3619
X82.25 Y54.3624 Z-13.3394
X82.1895 Y54.3978 Z-13.2691
X82.1471 Y54.4132 Z-13.1806
X82.1321 Y54.4171 Z-13.0825
G0 Z5
X34.9913 Y40.3548
Z2.4173
G1 Y40.3472 Z2.3482 F1200
Y40.3247 Z2.2824
Y40.2885 Z2.2231
Y40.2402 Z2.1731
Y40.1822 Z2.1348
Y40.1172 Z2.11
Y40.0484 Z2.1
Y39.9493 Z2.0965
X35.0066 Y39.8279 Z2.0923
X35.0379 Y39.7098 Z2.088
X35.0918 Y39.5817 Z2.0831
X35.1421 Y39.4947 Z2.0796
X35.1836 Y39.4378 Z2.0772
X35.2724 Y39.341 Z2.0726
X35.362 Y39.2654 Z2.0685
X35.4334 Y39.2174 Z2.0655
X35.4732 Y39.1953 Z2.0639
X35.6105 Y39.1375 Z2.0587
X35.7287 Y39.1063 Z2.0544
X35.8472 Y39.0915 Z2.0503
X35.9662 Y39.0924 Z2.0461
X36.085 Y39.1091 Z2.0419
X36.2032 Y39.1423 Z2.0376
X36.3305 Y39.1983 Z2.0328
X36.4164 Y39.2503 Z2.0293
X36.5011 Y39.317 Z2.0255
X36.6105 Y39.4297 Z2.02
X36.6397 Y39.4676 Z2.0183
X36.6755 Y39.5219 Z2.0161
X36.7277 Y39.6199 Z2.0122
X36.7595 Y39.6999 Z2.0092
X36.7934 Y39.8278 Z2.0046
X36.8087 Y39.9494 Z2.0003
X36.8099 Y60.0337 Z1.2989
X36.7954 Y60.1613 Z1.2944
X36.7656 Y60.2796 Z1.2902
X36.717 Y60.3995 Z1.2857
X36.6462 Y60.5211 Z1.2808
X36.5912 Y60.5923 Z1.2776
X36.5054 Y60.6797 Z1.2733
X36.4288 Y60.7409 Z1.2699
X36.3276 Y60.803 Z1.2658
X36.2032 Y60.8577 Z1.261
X36.0849 Y60.891 Z1.2567
X35.9662 Y60.9076 Z1.2525
X35.8472 Y60.9085 Z1.2484
X35.7155 Y60.8921 Z1.2438
X35.6678 Y60.8808 Z1.242
X35.544 Y60.8372 Z1.2375
X35.4243 Y60.7757 Z1.2328
X35.3425 Y60.7194 Z1.2293
X35.2454 Y60.633 Z1.2248
X35.1923 Y60.5732 Z1.222
X35.1286 Y60.4837 Z1.2181
X35.0864 Y60.4081 Z1.2151
X35.0342 Y60.2794 Z1.2103
X35.0045 Y60.1613 Z1.206
X34.9899 Y60.0335 Z1.2015
X34.9913 Y39.9493 Z0.5002
X35.0066 Y39.8279 Z0.4959
X35.0379 Y39.7098 Z0.4916
X35.0918 Y39.5817 Z0.4868
X35.1421 Y39.4947 Z0.4832
X35.1836 Y39.4378 Z0.4808
X35.2724 Y39.341 Z0.4762
X35.362 Y39.2654 Z0.4721
X35.4334 Y39.2174 Z0.4691
X35.4732 Y39.1953 Z0.4675
X35.6105 Y39.1375 Z0.4623
X35.7287 Y39.1063 Z0.458
X35.8472 Y39.0915 Z0.4539
X35.9662 Y39.0924 Z0.4497
X36.085 Y39.1091 Z0.4455
X36.2032 Y39.1423 Z0.4412
X36.3305 Y39.1983 Z0.4364
X36.4164 Y39.2503 Z0.4329
X36.5011 Y39.317 Z0.4291
X36.6105 Y39.4297 Z0.4236
X36.6397 Y39.4676 Z0.422
X36.6755 Y39.5219 Z0.4197
X36.7277 Y39.6199 Z0.4158
X36.7595 Y39.6999 Z0.4128
X36.7934 Y39.8278 Z0.4082
X36.8087 Y39.9494 Z0.4039
X36.8099 Y60.0337 Z-0.2975
X36.7954 Y60.1613 Z-0.3019
X36.7656 Y60.2796 Z-0.3062
X36.717 Y60.3995 Z-0.3107
X36.6462 Y60.5211 Z-0.3156
X36.5912 Y60.5923 Z-0.3188
X36.5054 Y60.6797 Z-0.3231
X36.4288 Y60.7409 Z-0.3265
X36.3276 Y60.803 Z-0.3306
X36.2032 Y60.8577 Z-0.3354
X36.0849 Y60.891 Z-0.3397
X35.9662 Y60.9076 Z-0.3438
X35.8472 Y60.9085 Z-0.348
X35.7155 Y60.8921 Z-0.3526
X35.6678 Y60.8808 Z-0.3543
X35.544 Y60.8372 Z-0.3589
X35.4243 Y60.7757 Z-0.3636
X35.3425 Y60.7194 Z-0.3671
X35.2454 Y60.633 Z-0.3716
X35.1923 Y60.5732 Z-0.3744
X35.1286 Y60.4837 Z-0.3783
X35.0864 Y60.4081 Z-0.3813
X35.0342 Y60.2794 Z-0.3861
X35.0045 Y60.1613 Z-0.3904
X34.9899 Y60.0335 Z-0.3949
X34.9913 Y39.9493 Z-1.0962
X35.0066 Y39.8279 Z-1.1005
X35.0379 Y39.7098 Z-1.1048
X35.0918 Y39.5817 Z-1.1096
X35.1421 Y39.4947 Z-1.1131
X35.1836 Y39.4378 Z-1.1156
X35.2724 Y39.341 Z-1.1202
X35.362 Y39.2654 Z-1.1243
X35.4334 Y39.2174 Z-1.1273
X35.4732 Y39.1953 Z-1.1289
X35.6105 Y39.1375 Z-1.1341
X35.7287 Y39.1063 Z-1.1383
X35.8472 Y39.0915 Z-1.1425
X35.9662 Y39.0924 Z-1.1467
X36.085 Y39.1091 Z-1.1509
X36.2032 Y39.1423 Z-1.1552
X36.3305 Y39.1983 Z-1.16
X36.4164 Y39.2503 Z-1.1635
X36.5011 Y39.317 Z-1.1673
X36.6105 Y39.4297 Z-1.1728
X36.6397 Y39.4676 Z-1.1744
X36.6755 Y39.5219 Z-1.1767
X36.7277 Y39.6199 Z-1.1806
X36.7595 Y39.6999 Z-1.1836
X36.7934 Y39.8278 Z-1.1882
X36.8087 Y39.9494 Z-1.1925
X36.8099 Y60.0337 Z-1.8939
X36.7954 Y60.1613 Z-1.8983
X36.7656 Y60.2796 Z-1.9026
X36.717 Y60.3995 Z-1.9071
X36.6462 Y60.5211 Z-1.912
X36.5912 Y60.5923 Z-1.9152
X36.5054 Y60.6797 Z-1.9194
X36.4288 Y60.7409 Z-1.9229
X36.3276 Y60.803 Z-1.927
X36.2032 Y60.8577 Z-1.9318
X36.0849 Y60.891 Z-1.9361
X35.9662 Y60.9076 Z-1.9402
X35.8472 Y60.9085 Z-1.9444
X35.7155 Y60.8921 Z-1.949
X35.6678 Y60.8808 Z-1.9507
X35.544 Y60.8372 Z-1.9553
X35.4243 Y60.7757 Z-1.96
X35.3425 Y60.7194 Z-1.9635
X35.2454 Y60.633 Z-1.968
X35.1923 Y60.5732 Z-1.9708
X35.1286 Y60.4837 Z-1.9747
X35.0864 Y60.4081 Z-1.9777
X35.0342 Y60.2794 Z-1.9825
X35.0045 Y60.1613 Z-1.9868
X34.9899 Y60.0335 Z-1.9913
Y59.7837 Z-2
X34.9913 Y39.9493 F3500
X35.0066 Y39.8279
X35.0379 Y39.7098
X35.0918 Y39.5817
X35.1421 Y39.4947
X35.1836 Y39.4378
X35.2724 Y39.341
X35.362 Y39.2654
X35.4334 Y39.2174
X35.4732 Y39.1953
X35.6105 Y39.1375
X35.7287 Y39.1063
X35.8472 Y39.0915
X35.9662 Y39.0924
X36.085 Y39.1091
X36.2032 Y39.1423
X36.3305 Y39.1983
X36.4164 Y39.2503
X36.5011 Y39.317
X36.6105 Y39.4297
X36.6397 Y39.4676
X36.6755 Y39.5219
X36.7277 Y39.6199
X36.7595 Y39.6999
X36.7934 Y39.8278
X36.8087 Y39.9494
X36.8099 Y60.0337
X36.7954 Y60.1613
X36.7656 Y60.2796
X36.717 Y60.3995
X36.6462 Y60.5211
X36.5912 Y60.5923
X36.5054 Y60.6797
X36.4288 Y60.7409
X36.3276 Y60.803
X36.2032 Y60.8577
X36.0849 Y60.891
X35.9662 Y60.9076
X35.8472 Y60.9085
X35.7155 Y60.8921
X35.6678 Y60.8808
X35.544 Y60.8372
X35.4243 Y60.7757
X35.3425 Y60.7194
X35.2454 Y60.633
X35.1923 Y60.5732
X35.1286 Y60.4837
X35.0864 Y60.4081
X35.0342 Y60.2794
X35.0045 Y60.1613
X34.9899 Y60.0335
Y59.7837
X34.9975 Y59.7562
X35.018 Y59.7363
X35.1535 Y59.6621
X35.1714 Y59.6463
X35.1807 Y59.6243
X36.6187 Y51.6749
X36.7071 Y51.4916
X36.7261 Y51.4703
X36.7534 Y51.4617
X36.7812 Y51.4682
X36.8018 Y51.488
X36.8094 Y51.5156
X36.8099 Y60.0337 Z-2.2975 F1200
X36.7954 Y60.1613 Z-2.3019
X36.7656 Y60.2796 Z-2.3062
X36.717 Y60.3995 Z-2.3107
X36.6462 Y60.5211 Z-2.3156
X36.5912 Y60.5923 Z-2.3188
X36.5054 Y60.6797 Z-2.3231
X36.4288 Y60.7409 Z-2.3265
X36.3276 Y60.803 Z-2.3306
X36.2032 Y60.8577 Z-2.3354
X36.0849 Y60.891 Z-2.3397
X35.9662 Y60.9076 Z-2.3438
X35.8472 Y60.9085 Z-2.348
X35.7155 Y60.8921 Z-2.3526
X35.6678 Y60.8808 Z-2.3543
X35.544 Y60.8372 Z-2.3589
X35.4243 Y60.7757 Z-2.3636
X35.3425 Y60.7194 Z-2.3671
X35.2454 Y60.633 Z-2.3716
X35.1923 Y60.5732 Z-2.3744
X35.1286 Y60.4837 Z-2.3783
X35.0864 Y60.4081 Z-2.3813
X35.0342 Y60.2794 Z-2.3861
X35.0045 Y60.1613 Z-2.3904
X34.9899 Y60.0335 Z-2.3949
X34.9913 Y39.9493 Z-3.0962
X35.0066 Y39.8279 Z-3.1005
X35.0379 Y39.7098 Z-3.1048
X35.0918 Y39.5817 Z-3.1096
X35.1421 Y39.4947 Z-3.1131
X35.1836 Y39.4378 Z-3.1156
X35.2724 Y39.341 Z-3.1202
X35.362 Y39.2654 Z-3.1243
X35.4334 Y39.2174 Z-3.1273
X35.4732 Y39.1953 Z-3.1289
X35.6105 Y39.1375 Z-3.1341
X35.7287 Y39.1063 Z-3.1383
X35.8472 Y39.0915 Z-3.1425
X35.9662 Y39.0924 Z-3.1467
X36.085 Y39.1091 Z-3.1509
X36.2032 Y39.1423 Z-3.1552
X36.3305 Y39.1983 Z-3.16
X36.4164 Y39.2503 Z-3.1635
X36.5011 Y39.317 Z-3.1673
X36.6105 Y39.4297 Z-3.1728
X36.6397 Y39.4676 Z-3.1744
X36.6755 Y39.5219 Z-3.1767
X36.7277 Y39.6199 Z-3.1806
X36.7595 Y39.6999 Z-3.1836
X36.7934 Y39.8278 Z-3.1882
X36.8087 Y39.9494 Z-3.1925
X36.8099 Y60.0337 Z-3.8939
X36.7954 Y60.1613 Z-3.8983
X36.7656 Y60.2796 Z-3.9026
X36.717 Y60.3995 Z-3.9071
X36.6462 Y60.5211 Z-3.912
X36.5912 Y60.5923 Z-3.9152
X36.5054 Y60.6797 Z-3.9194
X36.4288 Y60.7409 Z-3.9229
X36.3276 Y60.803 Z-3.927
X36.2032 Y60.8577 Z-3.9318
X36.0849 Y60.891 Z-3.9361
X35.9662 Y60.9076 Z-3.9402
X35.8472 Y60.9085 Z-3.9444
X35.7155 Y60.8921 Z-3.949
X35.6678 Y60.8808 Z-3.9507
X35.544 Y60.8372 Z-3.9553
X35.4243 Y60.7757 Z-3.96
X35.3425 Y60.7194 Z-3.9635
X35.2454 Y60.633 Z-3.968
X35.1923 Y60.5732 Z-3.9708
X35.1286 Y60.4837 Z-3.9747
X35.0864 Y60.4081 Z-3.9777
X35.0342 Y60.2794 Z-3.9825
X35.0045 Y60.1613 Z-3.9868
X34.9899 Y60.0335 Z-3.9913
Y59.7837 Z-4
X34.9913 Y39.9493 F3500
X35.0066 Y39.8279
X35.0379 Y39.7098
X35.0918 Y39.5817
X35.1421 Y39.4947
X35.1836 Y39.4378
X35.2724 Y39.341
X35.362 Y39.2654
X35.4334 Y39.2174
X35.4732 Y39.1953
X35.6105 Y39.1375
X35.7287 Y39.1063
X35.8472 Y39.0915
X35.9662 Y39.0924
X36.085 Y39.1091
X36.2032 Y39.1423
X36.3305 Y39.1983
X36.4164 Y39.2503
X36.5011 Y39.317
X36.6105 Y39.4297
X36.6397 Y39.4676
X36.6755 Y39.5219
X36.7277 Y39.6199
X36.7595 Y39.6999
X36.7934 Y39.8278
X36.8087 Y39.9494
X36.8099 Y60.0337
X36.7954 Y60.1613
X36.7656 Y60.2796
X36.717 Y60.3995
X36.6462 Y60.5211
X36.5912 Y60.5923
X36.5054 Y60.6797
X36.4288 Y60.7409
X36.3276 Y60.803
X36.2032 Y60.8577
X36.0849 Y60.891
X35.9662 Y60.9076
X35.8472 Y60.9085
X35.7155 Y60.8921
X35.6678 Y60.8808
X35.544 Y60.8372
X35.4243 Y60.7757
X35.3425 Y60.7194
X35.2454 Y60.633
X35.1923 Y60.5732
X35.1286 Y60.4837
X35.0864 Y60.4081
X35.0342 Y60.2794
X35.0045 Y60.1613
X34.9899 Y60.0335
Y59.7837
X34.9975 Y59.7562
X35.018 Y59.7363
X35.1535 Y59.6621
X35.1714 Y59.6463
X35.1807 Y59.6243
X36.6187 Y51.6749
X36.7071 Y51.4916
X36.7261 Y51.4703
X36.7534 Y51.4617
X36.7812 Y51.4682
X36.8018 Y51.488
X36.8094 Y51.5156
X36.8099 Y60.0337 Z-4.2975 F1200
X36.7954 Y60.1613 Z-4.3019
X36.7656 Y60.2796 Z-4.3062
X36.717 Y60.3995 Z-4.3107
X36.6462 Y60.5211 Z-4.3156
X36.5912 Y60.5923 Z-4.3188
X36.5054 Y60.6797 Z-4.3231
X36.4288 Y60.7409 Z-4.3265
X36.3276 Y60.803 Z-4.3306
X36.2032 Y60.8577 Z-4.3354
X36.0849 Y60.891 Z-4.3397
X35.9662 Y60.9076 Z-4.3438
X35.8472 Y60.9085 Z-4.348
X35.7155 Y60.8921 Z-4.3526
X35.6678 Y60.8808 Z-4.3543
X35.544 Y60.8372 Z-4.3589
X35.4243 Y60.7757 Z-4.3636
X35.3425 Y60.7194 Z-4.3671
X35.2454 Y60.633 Z-4.3716
X35.1923 Y60.5732 Z-4.3744
X35.1286 Y60.4837 Z-4.3783
X35.0864 Y60.4081 Z-4.3813
X35.0342 Y60.2794 Z-4.3861
X35.0045 Y60.1613 Z-4.3904
X34.9899 Y60.0335 Z-4.3949
X34.9913 Y39.9493 Z-5.0962
X35.0066 Y39.8279 Z-5.1005
X35.0379 Y39.7098 Z-5.1048
X35.0918 Y39.5817 Z-5.1096
X35.1421 Y39.4947 Z-5.1131
X35.1836 Y39.4378 Z-5.1156
X35.2724 Y39.341 Z-5.1202
X35.362 Y39.2654 Z-5.1243
X35.4334 Y39.2174 Z-5.1273
X35.4732 Y39.1953 Z-5.1289
X35.6105 Y39.1375 Z-5.1341
X35.7287 Y39.1063 Z-5.1383
X35.8472 Y39.0915 Z-5.1425
X35.9662 Y39.0924 Z-5.1467
X36.085 Y39.1091 Z-5.1509
X36.2032 Y39.1423 Z-5.1552
X36.3305 Y39.1983 Z-5.16
X36.4164 Y39.2503 Z-5.1635
X36.5011 Y39.317 Z-5.1673
X36.6105 Y39.4297 Z-5.1728
X36.6397 Y39.4676 Z-5.1744
X36.6755 Y39.5219 Z-5.1767
X36.7277 Y39.6199 Z-5.1806
X36.7595 Y39.6999 Z-5.1836
X36.7934 Y39.8278 Z-5.1882
X36.8087 Y39.9494 Z-5.1925
X36.8099 Y60.0337 Z-5.8939
X36.7954 Y60.1613 Z-5.8983
X36.7656 Y60.2796 Z-5.9026
X36.717 Y60.3995 Z-5.9071
X36.6462 Y60.5211 Z-5.912
X36.5912 Y60.5923 Z-5.9152
X36.5054 Y60.6797 Z-5.9194
X36.4288 Y60.7409 Z-5.9229
X36.3276 Y60.803 Z-5.927
X36.2032 Y60.8577 Z-5.9318
X36.0849 Y60.891 Z-5.9361
X35.9662 Y60.9076 Z-5.9402
X35.8472 Y60.9085 Z-5.9444
X35.7155 Y60.8921 Z-5.949
X35.6678 Y60.8808 Z-5.9507
X35.544 Y60.8372 Z-5.9553
X35.4243 Y60.7757 Z-5.96
X35.3425 Y60.7194 Z-5.9635
X35.2454 Y60.633 Z-5.968
X35.1923 Y60.5732 Z-5.9708
X35.1286 Y60.4837 Z-5.9747
X35.0864 Y60.4081 Z-5.9777
X35.0342 Y60.2794 Z-5.9825
X35.0045 Y60.1613 Z-5.9868
X34.9899 Y60.0335 Z-5.9913
Y59.7837 Z-6
X34.9913 Y39.9493 F3500
X35.0066 Y39.8279
X35.0379 Y39.7098
X35.0918 Y39.5817
X35.1421 Y39.4947
X35.1836 Y39.4378
X35.2724 Y39.341
X35.362 Y39.2654
X35.4334 Y39.2174
X35.4732 Y39.1953
X35.6105 Y39.1375
X35.7287 Y39.1063
X35.8472 Y39.0915
X35.9662 Y39.0924
X36.085 Y39.1091
X36.2032 Y39.1423
X36.3305 Y39.1983
X36.4164 Y39.2503
X36.5011 Y39.317
X36.6105 Y39.4297
X36.6397 Y39.4676
X36.6755 Y39.5219
X36.7277 Y39.6199
X36.7595 Y39.6999
X36.7934 Y39.8278
X36.8087 Y39.9494
X36.8099 Y60.0337
X36.7954 Y60.1613
X36.7656 Y60.2796
X36.717 Y60.3995
X36.6462 Y60.5211
X36.5912 Y60.5923
X36.5054 Y60.6797
X36.4288 Y60.7409
X36.3276 Y60.803
X36.2032 Y60.8577
X36.0849 Y60.891
X35.9662 Y60.9076
X35.8472 Y60.9085
X35.7155 Y60.8921
X35.6678 Y60.8808
X35.544 Y60.8372
X35.4243 Y60.7757
X35.3425 Y60.7194
X35.2454 Y60.633
X35.1923 Y60.5732
X35.1286 Y60.4837
X35.0864 Y60.4081
X35.0342 Y60.2794
X35.0045 Y60.1613
X34.9899 Y60.0335
Y59.7837
X34.9975 Y59.7562
X35.018 Y59.7363
X35.1535 Y59.6621
X35.1714 Y59.6463
X35.1807 Y59.6243
X36.6187 Y51.6749
X36.7071 Y51.4916
X36.7261 Y51.4703
X36.7534 Y51.4617
X36.7812 Y51.4682
X36.8018 Y51.488
X36.8094 Y51.5156
X36.8099 Y60.0337 Z-6.2975 F1200
X36.7954 Y60.1613 Z-6.3019
X36.7656 Y60.2796 Z-6.3062
X36.717 Y60.3995 Z-6.3107
X36.6462 Y60.5211 Z-6.3156
X36.5912 Y60.5923 Z-6.3188
X36.5054 Y60.6797 Z-6.3231
X36.4288 Y60.7409 Z-6.3265
X36.3276 Y60.803 Z-6.3306
X36.2032 Y60.8577 Z-6.3354
X36.0849 Y60.891 Z-6.3397
X35.9662 Y60.9076 Z-6.3438
X35.8472 Y60.9085 Z-6.348
X35.7155 Y60.8921 Z-6.3526
X35.6678 Y60.8808 Z-6.3543
X35.544 Y60.8372 Z-6.3589
X35.4243 Y60.7757 Z-6.3636
X35.3425 Y60.7194 Z-6.3671
X35.2454 Y60.633 Z-6.3716
X35.1923 Y60.5732 Z-6.3744
X35.1286 Y60.4837 Z-6.3783
X35.0864 Y60.4081 Z-6.3813
X35.0342 Y60.2794 Z-6.3861
X35.0045 Y60.1613 Z-6.3904
X34.9899 Y60.0335 Z-6.3949
X34.9913 Y39.9493 Z-7.0962
X35.0066 Y39.8279 Z-7.1005
X35.0379 Y39.7098 Z-7.1048
X35.0918 Y39.5817 Z-7.1096
X35.1421 Y39.4947 Z-7.1131
X35.1836 Y39.4378 Z-7.1156
X35.2724 Y39.341 Z-7.1202
X35.362 Y39.2654 Z-7.1243
X35.4334 Y39.2174 Z-7.1273
X35.4732 Y39.1953 Z-7.1289
X35.6105 Y39.1375 Z-7.1341
X35.7287 Y39.1063 Z-7.1383
X35.8472 Y39.0915 Z-7.1425
X35.9662 Y39.0924 Z-7.1467
X36.085 Y39.1091 Z-7.1509
X36.2032 Y39.1423 Z-7.1552
X36.3305 Y39.1983 Z-7.16
X36.4164 Y39.2503 Z-7.1635
X36.5011 Y39.317 Z-7.1673
X36.6105 Y39.4297 Z-7.1728
X36.6397 Y39.4676 Z-7.1744
X36.6755 Y39.5219 Z-7.1767
X36.7277 Y39.6199 Z-7.1806
X36.7595 Y39.6999 Z-7.1836
X36.7934 Y39.8278 Z-7.1882
X36.8087 Y39.9494 Z-7.1925
X36.8099 Y60.0337 Z-7.8939
X36.7954 Y60.1613 Z-7.8983
X36.7656 Y60.2796 Z-7.9026
X36.717 Y60.3995 Z-7.9071
X36.6462 Y60.5211 Z-7.912
X36.5912 Y60.5923 Z-7.9152
X36.5054 Y60.6797 Z-7.9194
X36.4288 Y60.7409 Z-7.9229
X36.3276 Y60.803 Z-7.927
X36.2032 Y60.8577 Z-7.9318
X36.0849 Y60.891 Z-7.9361
X35.9662 Y60.9076 Z-7.9402
X35.8472 Y60.9085 Z-7.9444
X35.7155 Y60.8921 Z-7.949
X35.6678 Y60.8808 Z-7.9507
X35.544 Y60.8372 Z-7.9553
X35.4243 Y60.7757 Z-7.96
X35.3425 Y60.7194 Z-7.9635
X35.2454 Y60.633 Z-7.968
X35.1923 Y60.5732 Z-7.9708
X35.1286 Y60.4837 Z-7.9747
X35.0864 Y60.4081 Z-7.9777
X35.0342 Y60.2794 Z-7.9825
X35.0045 Y60.1613 Z-7.9868
X34.9899 Y60.0335 Z-7.9913
Y59.7837 Z-8
X34.9913 Y39.9493 F3500
X35.0066 Y39.8279
X35.0379 Y39.7098
X35.0918 Y39.5817
X35.1421 Y39.4947
X35.1836 Y39.4378
X35.2724 Y39.341
X35.362 Y39.2654
X35.4334 Y39.2174
X35.4732 Y39.1953
X35.6105 Y39.1375
X35.7287 Y39.1063
X35.8472 Y39.0915
X35.9662 Y39.0924
X36.085 Y39.1091
X36.2032 Y39.1423
X36.3305 Y39.1983
X36.4164 Y39.2503
X36.5011 Y39.317
X36.6105 Y39.4297
X36.6397 Y39.4676
X36.6755 Y39.5219
X36.7277 Y39.6199
X36.7595 Y39.6999
X36.7934 Y39.8278
X36.8087 Y39.9494
X36.8099 Y60.0337
X36.7954 Y60.1613
X36.7656 Y60.2796
X36.717 Y60.3995
X36.6462 Y60.5211
X36.5912 Y60.5923
X36.5054 Y60.6797
X36.4288 Y60.7409
X36.3276 Y60.803
X36.2032 Y60.8577
X36.0849 Y60.891
X35.9662 Y60.9076
X35.8472 Y60.9085
X35.7155 Y60.8921
X35.6678 Y60.8808
X35.544 Y60.8372
X35.4243 Y60.7757
X35.3425 Y60.7194
X35.2454 Y60.633
X35.1923 Y60.5732
X35.1286 Y60.4837
X35.0864 Y60.4081
X35.0342 Y60.2794
X35.0045 Y60.1613
X34.9899 Y60.0335
Y59.7837
X34.9975 Y59.7562
X35.018 Y59.7363
X35.1535 Y59.6621
X35.1714 Y59.6463
X35.1807 Y59.6243
X36.6187 Y51.6749
X36.7071 Y51.4916
X36.7261 Y51.4703
X36.7534 Y51.4617
X36.7812 Y51.4682
X36.8018 Y51.488
X36.8094 Y51.5156
X36.8099 Y60.0337 Z-8.2975 F1200
X36.7954 Y60.1613 Z-8.3019
X36.7656 Y60.2796 Z-8.3062
X36.717 Y60.3995 Z-8.3107
X36.6462 Y60.5211 Z-8.3156
X36.5912 Y60.5923 Z-8.3188
X36.5054 Y60.6797 Z-8.3231
X36.4288 Y60.7409 Z-8.3265
X36.3276 Y60.803 Z-8.3306
X36.2032 Y60.8577 Z-8.3354
X36.0849 Y60.891 Z-8.3397
X35.9662 Y60.9076 Z-8.3438
X35.8472 Y60.9085 Z-8.348
X35.7155 Y60.8921 Z-8.3526
X35.6678 Y60.8808 Z-8.3543
X35.544 Y60.8372 Z-8.3589
X35.4243 Y60.7757 Z-8.3636
X35.3425 Y60.7194 Z-8.3671
X35.2454 Y60.633 Z-8.3716
X35.1923 Y60.5732 Z-8.3744
X35.1286 Y60.4837 Z-8.3783
X35.0864 Y60.4081 Z-8.3813
X35.0342 Y60.2794 Z-8.3861
X35.0045 Y60.1613 Z-8.3904
X34.9899 Y60.0335 Z-8.3949
X34.9913 Y39.9493 Z-9.0962
X35.0066 Y39.8279 Z-9.1005
X35.0379 Y39.7098 Z-9.1048
X35.0918 Y39.5817 Z-9.1096
X35.1421 Y39.4947 Z-9.1131
X35.1836 Y39.4378 Z-9.1156
X35.2724 Y39.341 Z-9.1202
X35.362 Y39.2654 Z-9.1243
X35.4334 Y39.2174 Z-9.1273
X35.4732 Y39.1953 Z-9.1289
X35.6105 Y39.1375 Z-9.1341
X35.7287 Y39.1063 Z-9.1383
X35.8472 Y39.0915 Z-9.1425
X35.9662 Y39.0924 Z-9.1467
X36.085 Y39.1091 Z-9.1509
X36.2032 Y39.1423 Z-9.1552
X36.3305 Y39.1983 Z-9.16
X36.4164 Y39.2503 Z-9.1635
X36.5011 Y39.317 Z-9.1673
X36.6105 Y39.4297 Z-9.1728
X36.6397 Y39.4676 Z-9.1744
X36.6755 Y39.5219 Z-9.1767
X36.7277 Y39.6199 Z-9.1806
X36.7595 Y39.6999 Z-9.1836
X36.7934 Y39.8278 Z-9.1882
X36.8087 Y39.9494 Z-9.1925
X36.8099 Y60.0337 Z-9.8939
X36.7954 Y60.1613 Z-9.8983
X36.7656 Y60.2796 Z-9.9026
X36.717 Y60.3995 Z-9.9071
X36.6462 Y60.5211 Z-9.912
X36.5912 Y60.5923 Z-9.9152
X36.5054 Y60.6797 Z-9.9194
X36.4288 Y60.7409 Z-9.9229
X36.3276 Y60.803 Z-9.927
X36.2032 Y60.8577 Z-9.9318
X36.0849 Y60.891 Z-9.9361
X35.9662 Y60.9076 Z-9.9402
X35.8472 Y60.9085 Z-9.9444
X35.7155 Y60.8921 Z-9.949
X35.6678 Y60.8808 Z-9.9507
X35.544 Y60.8372 Z-9.9553
X35.4243 Y60.7757 Z-9.96
X35.3425 Y60.7194 Z-9.9635
X35.2454 Y60.633 Z-9.968
X35.1923 Y60.5732 Z-9.9708
X35.1286 Y60.4837 Z-9.9747
X35.0864 Y60.4081 Z-9.9777
X35.0342 Y60.2794 Z-9.9825
X35.0045 Y60.1613 Z-9.9868
X34.9899 Y60.0335 Z-9.9913
Y59.7837 Z-10
X34.9913 Y39.9493 F3500
X35.0066 Y39.8279
X35.0379 Y39.7098
X35.0918 Y39.5817
X35.1421 Y39.4947
X35.1836 Y39.4378
X35.2724 Y39.341
X35.362 Y39.2654
X35.4334 Y39.2174
X35.4732 Y39.1953
X35.6105 Y39.1375
X35.7287 Y39.1063
X35.8472 Y39.0915
X35.9662 Y39.0924
X36.085 Y39.1091
X36.2032 Y39.1423
X36.3305 Y39.1983
X36.4164 Y39.2503
X36.5011 Y39.317
X36.6105 Y39.4297
X36.6397 Y39.4676
X36.6755 Y39.5219
X36.7277 Y39.6199
X36.7595 Y39.6999
X36.7934 Y39.8278
X36.8087 Y39.9494
X36.8099 Y60.0337
X36.7954 Y60.1613
X36.7656 Y60.2796
X36.717 Y60.3995
X36.6462 Y60.5211
X36.5912 Y60.5923
X36.5054 Y60.6797
X36.4288 Y60.7409
X36.3276 Y60.803
X36.2032 Y60.8577
X36.0849 Y60.891
X35.9662 Y60.9076
X35.8472 Y60.9085
X35.7155 Y60.8921
X35.6678 Y60.8808
X35.544 Y60.8372
X35.4243 Y60.7757
X35.3425 Y60.7194
X35.2454 Y60.633
X35.1923 Y60.5732
X35.1286 Y60.4837
X35.0864 Y60.4081
X35.0342 Y60.2794
X35.0045 Y60.1613
X34.9899 Y60.0335
Y59.7837
X34.9975 Y59.7562
X35.018 Y59.7363
X35.1535 Y59.6621
X35.1714 Y59.6463
X35.1807 Y59.6243
X36.6187 Y51.6749
X36.7071 Y51.4916
X36.7261 Y51.4703
X36.7534 Y51.4617
X36.7812 Y51.4682
X36.8018 Y51.488
X36.8094 Y51.5156
X36.8099 Y60.0337 Z-10.2975 F1200
X36.7954 Y60.1613 Z-10.3019
X36.7656 Y60.2796 Z-10.3062
X36.717 Y60.3995 Z-10.3107
X36.6462 Y60.5211 Z-10.3156
X36.5912 Y60.5923 Z-10.3188
X36.5054 Y60.6797 Z-10.3231
X36.4288 Y60.7409 Z-10.3265
X36.3276 Y60.803 Z-10.3306
X36.2032 Y60.8577 Z-10.3354
X36.0849 Y60.891 Z-10.3397
X35.9662 Y60.9076 Z-10.3438
X35.8472 Y60.9085 Z-10.348
X35.7155 Y60.8921 Z-10.3526
X35.6678 Y60.8808 Z-10.3543
X35.544 Y60.8372 Z-10.3589
X35.4243 Y60.7757 Z-10.3636
X35.3425 Y60.7194 Z-10.3671
X35.2454 Y60.633 Z-10.3716
X35.1923 Y60.5732 Z-10.3744
X35.1286 Y60.4837 Z-10.3783
X35.0864 Y60.4081 Z-10.3813
X35.0342 Y60.2794 Z-10.3861
X35.0045 Y60.1613 Z-10.3904
X34.9899 Y60.0335 Z-10.3949
X34.9913 Y39.9493 Z-11.0962
X35.0066 Y39.8279 Z-11.1005
X35.0379 Y39.7098 Z-11.1048
X35.0918 Y39.5817 Z-11.1096
X35.1421 Y39.4947 Z-11.1131
X35.1836 Y39.4378 Z-11.1156
X35.2724 Y39.341 Z-11.1202
X35.362 Y39.2654 Z-11.1243
X35.4334 Y39.2174 Z-11.1273
X35.4732 Y39.1953 Z-11.1289
X35.6105 Y39.1375 Z-11.1341
X35.7287 Y39.1063 Z-11.1383
X35.8472 Y39.0915 Z-11.1425
X35.9662 Y39.0924 Z-11.1467
X36.085 Y39.1091 Z-11.1509
X36.2032 Y39.1423 Z-11.1552
X36.3305 Y39.1983 Z-11.16
X36.4164 Y39.2503 Z-11.1635
X36.5011 Y39.317 Z-11.1673
X36.6105 Y39.4297 Z-11.1728
X36.6397 Y39.4676 Z-11.1744
X36.6755 Y39.5219 Z-11.1767
X36.7277 Y39.6199 Z-11.1806
X36.7595 Y39.6999 Z-11.1836
X36.7934 Y39.8278 Z-11.1882
X36.8087 Y39.9494 Z-11.1925
X36.8099 Y60.0337 Z-11.8939
X36.7954 Y60.1613 Z-11.8983
X36.7656 Y60.2796 Z-11.9026
X36.717 Y60.3995 Z-11.9071
X36.6462 Y60.5211 Z-11.912
X36.5912 Y60.5923 Z-11.9152
X36.5054 Y60.6797 Z-11.9194
X36.4288 Y60.7409 Z-11.9229
X36.3276 Y60.803 Z-11.927
X36.2032 Y60.8577 Z-11.9318
X36.0849 Y60.891 Z-11.9361
X35.9662 Y60.9076 Z-11.9402
X35.8472 Y60.9085 Z-11.9444
X35.7155 Y60.8921 Z-11.949
X35.6678 Y60.8808 Z-11.9507
X35.544 Y60.8372 Z-11.9553
X35.4243 Y60.7757 Z-11.96
X35.3425 Y60.7194 Z-11.9635
X35.2454 Y60.633 Z-11.968
X35.1923 Y60.5732 Z-11.9708
X35.1286 Y60.4837 Z-11.9747
X35.0864 Y60.4081 Z-11.9777
X35.0342 Y60.2794 Z-11.9825
X35.0045 Y60.1613 Z-11.9868
X34.9899 Y60.0335 Z-11.9913
Y59.7837 Z-12
X34.9913 Y39.9493 F3500
X35.0066 Y39.8279
X35.0379 Y39.7098
X35.0918 Y39.5817
X35.1421 Y39.4947
X35.1836 Y39.4378
X35.2724 Y39.341
X35.362 Y39.2654
X35.4334 Y39.2174
X35.4732 Y39.1953
X35.6105 Y39.1375
X35.7287 Y39.1063
X35.8472 Y39.0915
X35.9662 Y39.0924
X36.085 Y39.1091
X36.2032 Y39.1423
X36.3305 Y39.1983
X36.4164 Y39.2503
X36.5011 Y39.317
X36.6105 Y39.4297
X36.6397 Y39.4676
X36.6755 Y39.5219
X36.7277 Y39.6199
X36.7595 Y39.6999
X36.7934 Y39.8278
X36.8087 Y39.9494
X36.8099 Y60.0337
X36.7954 Y60.1613
X36.7656 Y60.2796
X36.717 Y60.3995
X36.6462 Y60.5211
X36.5912 Y60.5923
X36.5054 Y60.6797
X36.4288 Y60.7409
X36.3276 Y60.803
X36.2032 Y60.8577
X36.0849 Y60.891
X35.9662 Y60.9076
X35.8472 Y60.9085
X35.7155 Y60.8921
X35.6678 Y60.8808
X35.544 Y60.8372
X35.4243 Y60.7757
X35.3425 Y60.7194
X35.2454 Y60.633
X35.1923 Y60.5732
X35.1286 Y60.4837
X35.0864 Y60.4081
X35.0342 Y60.2794
X35.0045 Y60.1613
X34.9899 Y60.0335
Y59.7837
X34.9966 Y59.7576
X35.015 Y59.7381
X35.1268 Y59.6673
X35.1452 Y59.6478
X35.1519 Y59.6217
X35.152 Y57.1117
X35.1453 Y57.0857
X35.1269 Y57.0661
X35.0152 Y56.9954
X34.9968 Y56.9758
X34.9901 Y56.9498
X34.9913 Y39.9493 Z-12.5937 F1200
X35.0066 Y39.8279 Z-12.5979
X35.0379 Y39.7098 Z-12.6022
X35.0918 Y39.5817 Z-12.6071
X35.1421 Y39.4947 Z-12.6106
X35.1836 Y39.4378 Z-12.613
X35.2724 Y39.341 Z-12.6176
X35.362 Y39.2654 Z-12.6217
X35.4334 Y39.2174 Z-12.6247
X35.4732 Y39.1953 Z-12.6263
X35.6105 Y39.1375 Z-12.6315
X35.7287 Y39.1063 Z-12.6358
X35.8472 Y39.0915 Z-12.64
X35.9662 Y39.0924 Z-12.6441
X36.085 Y39.1091 Z-12.6483
X36.2032 Y39.1423 Z-12.6526
X36.3305 Y39.1983 Z-12.6574
X36.4164 Y39.2503 Z-12.6609
X36.5011 Y39.317 Z-12.6647
X36.6105 Y39.4297 Z-12.6702
X36.6397 Y39.4676 Z-12.6719
X36.6755 Y39.5219 Z-12.6741
X36.7277 Y39.6199 Z-12.678
X36.7595 Y39.6999 Z-12.681
X36.7934 Y39.8278 Z-12.6856
X36.8087 Y39.9494 Z-12.6899
X36.8099 Y60.0337 Z-13.3913
X36.7954 Y60.1613 Z-13.3958
X36.7657 Y60.2789 Z-13.4
X36.7656 Y60.2796 F3500
X36.717 Y60.3995
X36.6462 Y60.5211
X36.5912 Y60.5923
X36.5054 Y60.6797
X36.4288 Y60.7409
X36.3276 Y60.803
X36.2032 Y60.8577
X36.0849 Y60.891
X35.9662 Y60.9076
X35.8472 Y60.9085
X35.7155 Y60.8921
X35.6678 Y60.8808
X35.544 Y60.8372
X35.4243 Y60.7757
X35.3425 Y60.7194
X35.2454 Y60.633
X35.1923 Y60.5732
X35.1286 Y60.4837
X35.0864 Y60.4081
X35.0342 Y60.2794
X35.0045 Y60.1613
X34.9899 Y60.0335
X34.9913 Y39.9493
X35.0066 Y39.8279
X35.0379 Y39.7098
X35.0918 Y39.5817
X35.1421 Y39.4947
X35.1836 Y39.4378
X35.2724 Y39.341
X35.362 Y39.2654
X35.4334 Y39.2174
X35.4732 Y39.1953
X35.6105 Y39.1375
X35.7287 Y39.1063
X35.8472 Y39.0915
X35.9662 Y39.0924
X36.085 Y39.1091
X36.2032 Y39.1423
X36.3305 Y39.1983
X36.4164 Y39.2503
X36.5011 Y39.317
X36.6105 Y39.4297
X36.6397 Y39.4676
X36.6755 Y39.5219
X36.7277 Y39.6199
X36.7595 Y39.6999
X36.7934 Y39.8278
X36.8087 Y39.9494
X36.8099 Y60.0337
X36.7954 Y60.1613
X36.7657 Y60.2789
X36.7656 Y60.2796
X36.7407 Y60.3409 Z-13.3929
X36.717 Y60.3995 Z-13.3721
X36.6894 Y60.4469 Z-13.3406
X36.6655 Y60.488 Z-13.2988
X36.6462 Y60.5211 Z-13.2484
X36.6305 Y60.5414 Z-13.1963
X36.6209 Y60.5539 Z-13.1404
X36.6177 Y60.5581 Z-13.0825
G0 Z5
X395.7178 Y80.756
Z2.4173
G1 X395.7035 Y80.76 Z2.3213 F1200
X395.6618 Y80.7711 Z2.2343
X395.596 Y80.786 Z2.1644
X395.5118 Y80.8006 Z2.1182
X395.417 Y80.8112 Z2.1
G3 X395.6762 Y80.7674 Z1.7783 I-0.1207 J-1.5033
X395.9238 Y80.6793 Z1.4566 I-0.3799 J-1.4595
X396.1524 Y80.5495 Z1.1349 I-0.6276 J-1.3713
X396.355 Y80.382 Z0.8132 I-0.8562 J-1.2415
X396.5254 Y80.1818 Z0.4914 I-1.0588 J-1.074
X396.6585 Y79.9551 Z0.1697 I-1.2292 J-0.8738
X396.7502 Y79.7087 Z-0.152 I-1.3622 J-0.6471
X396.7977 Y79.4501 Z-0.4737 I-1.4539 J-0.4007
X396.7996 Y79.1873 Z-0.7954 I-1.5014 J-0.1422
X396.7558 Y78.928 Z-1.1171 I-1.5033 J0.1207
X396.6676 Y78.6804 Z-1.4388 I-1.4595 J0.3799
X396.5378 Y78.4518 Z-1.7605 I-1.3714 J0.6276
X394.2473 Y78.2244 Z-2 I-1.2415 J0.8562
G2 X394.6684 Y77.791 I-6.8721 J-7.0983 F3500
X395.0822 Y77.2783 I-3.9643 J-3.6227
G1 X395.4741 Y76.7266
G3 X396.1854 Y76.9536 I0.3195 J0.227
G1 X396.1853 Y79.225
G3 X395.222 Y80.1883 I-0.9633
G1 X392.9554 Y80.1882
G3 X392.7248 Y79.475 J-0.3939
G2 X393.7397 Y78.6828 I-10.1285 J-14.0229
X394.2473 Y78.2244 I-6.3646 J-7.5567
G1 X394.2843 Y78.1924 Z-1.9922
X394.3259 Y78.1664 Z-1.9845
X394.3664 Y78.1487 Z-1.9619
X394.409 Y78.1368 Z-1.9394
X394.4788 Y78.1304 Z-1.8691
X394.5237 Y78.1344 Z-1.7806
X394.5389 Y78.1373 Z-1.6825
G0 Z5
X396.7544 Y10.2822
Z2.4173
G1 X396.7585 Y10.2964 Z2.3213 F1200
X396.7696 Y10.3382 Z2.2343
X396.7845 Y10.404 Z2.1644
X396.7992 Y10.4882 Z2.1182
X396.8098 Y10.583 Z2.1
G3 X396.7659 Y10.3238 Z1.7783 I-1.5032 J0.1214
X396.6777 Y10.0762 Z1.4566 I-1.4593 J0.3806
X396.5477 Y9.8476 Z1.1349 I-1.371 J0.6282
X396.3801 Y9.6451 Z0.8132 I-1.2411 J0.8568
X396.1799 Y9.4748 Z0.4914 I-1.0735 J1.0593
X395.9531 Y9.3419 Z0.1697 I-0.8732 J1.2296
X395.7066 Y9.2503 Z-0.152 I-0.6465 J1.3625
X395.4481 Y9.2029 Z-0.4737 I-0.4 J1.4541
X395.1852 Y9.2012 Z-0.7954 I-0.1415 J1.5015
X394.926 Y9.2451 Z-1.1171 I0.1214 J1.5032
X394.6784 Y9.3334 Z-1.4388 I0.3806 J1.4593
X394.4498 Y9.4633 Z-1.7605 I0.6282 J1.371
X394.2236 Y11.7539 Z-2 I0.8568 J1.2411
G2 X393.7861 Y11.3288 I-7.2886 J7.063 F3500
X393.2788 Y10.9186 I-3.6071 J3.9424
G1 X392.7275 Y10.5261
G3 X392.955 Y9.8146 I0.2274 J-0.3194
G1 X395.2247
G3 X396.1879 Y10.7779 J0.9632
G1 X396.1878 Y13.0439
G3 X395.4748 Y13.2741 I-0.3936
G2 X394.6804 Y12.2581 I-13.4056 J9.6632
X394.2236 Y11.7539 I-7.7455 J6.5589
G1 X394.1915 Y11.7169 Z-1.9922
X394.1655 Y11.6754 Z-1.9845
X394.1477 Y11.6349 Z-1.9619
X394.1358 Y11.5923 Z-1.9394
X394.1293 Y11.5225 Z-1.8691
X394.1333 Y11.4776 Z-1.7806
X394.1361 Y11.4623 Z-1.6825
G0 Z5
X10.2822 Y9.244
Z2.4173
G1 X10.2965 Y9.2399 Z2.3213 F1200
X10.3382 Y9.2288 Z2.2343
X10.404 Y9.2139 Z2.1644
X10.4882 Y9.1993 Z2.1182
X10.583 Y9.1887 Z2.1
G3 X10.3238 Y9.2325 Z1.7783 I0.1207 J1.5033
X10.0762 Y9.3206 Z1.4566 I0.3799 J1.4595
X9.8476 Y9.4505 Z1.1349 I0.6276 J1.3713
X9.645 Y9.618 Z0.8132 I0.8562 J1.2415
X9.4746 Y9.8182 Z0.4914 I1.0588 J1.074
X9.3415 Y10.0449 Z0.1697 I1.2292 J0.8738
X9.2498 Y10.2913 Z-0.152 I1.3622 J0.6471
X9.2023 Y10.5498 Z-0.4737 I1.4539 J0.4007
X9.2005 Y10.8127 Z-0.7954 I1.5014 J0.1422
X9.2443 Y11.0719 Z-1.1171 I1.5033 J-0.1207
X9.3324 Y11.3196 Z-1.4388 I1.4595 J-0.3799
X9.4622 Y11.5482 Z-1.7605 I1.3713 J-0.6276
X11.7527 Y11.7755 Z-2 I1.2415 J-0.8562
G2 X11.3321 Y12.2084 I6.8705 J7.0967 F3500
X10.9179 Y12.7216 I3.966 J3.6248
G1 X10.526 Y13.2733
G3 X9.8146 Y13.0463 I-0.3195 J-0.227
G1 X9.8147 Y10.775
G3 X10.778 Y9.8117 I0.9633
G1 X13.0445 Y9.8118
G3 X13.2752 Y10.525 J0.3939
G2 X12.2605 Y11.3169 I10.1334 J14.0296
X11.7527 Y11.7755 I6.3627 J7.5553
G1 X11.7157 Y11.8076 Z-1.9922
X11.6741 Y11.8336 Z-1.9845
X11.6336 Y11.8512 Z-1.9619
X11.591 Y11.8631 Z-1.9394
X11.5212 Y11.8696 Z-1.8691
X11.4763 Y11.8655 Z-1.7806
X11.461 Y11.8627 Z-1.6825
G0 Z5
X9.2456 Y79.7179
Z2.4173
G1 X9.2415 Y79.7036 Z2.3213 F1200
X9.2304 Y79.6618 Z2.2343
X9.2155 Y79.596 Z2.1644
X9.2009 Y79.5119 Z2.1182
X9.1902 Y79.417 Z2.1
G3 X9.2341 Y79.6762 Z1.7783 I1.5032 J-0.1214
X9.3224 Y79.9239 Z1.4566 I1.4593 J-0.3806
X9.4523 Y80.1524 Z1.1349 I1.371 J-0.6282
X9.6199 Y80.3549 Z0.8132 I1.2411 J-0.8568
X9.8202 Y80.5252 Z0.4914 I1.0735 J-1.0593
X10.047 Y80.6582 Z0.1697 I0.8732 J-1.2296
X10.2934 Y80.7497 Z-0.152 I0.6465 J-1.3625
X10.552 Y80.7971 Z-0.4737 I0.4 J-1.4541
X10.8148 Y80.7988 Z-0.7954 I0.1414 J-1.5015
X11.074 Y80.7549 Z-1.1171 I-0.1214 J-1.5032
X11.3217 Y80.6667 Z-1.4388 I-0.3806 J-1.4593
X11.5502 Y80.5367 Z-1.7605 I-0.6282 J-1.371
X11.7764 Y78.2461 Z-2 I-0.8568 J-1.2411
G2 X12.2142 Y78.6714 I7.2894 J-7.0639 F3500
X12.7212 Y79.0814 I3.6056 J-3.9412
G1 X13.2725 Y79.4739
G3 X13.045 Y80.1854 I-0.2274 J0.3194
G1 X10.7754
G3 X9.8122 Y79.2221 J-0.9632
G1 Y76.9562
G3 X10.5253 Y76.726 I0.3937
G2 X11.3198 Y77.7421 I13.4018 J-9.6606
X11.7764 Y78.2461 I7.7461 J-6.5599
X13.229 Y78.5123 I0.9127 J-0.8845
G3 X14.7032 Y78.5984 I0.6577 J1.4019
G2 X20.2586 Y80.1822 I5.5553 J-8.9511
G1 X385.8699 Y80.1798
G2 X392.3127 Y77.8753 I-0.0001 J-10.1583
X395.9277 Y72.0658 I-6.7525 J-8.2314
X396.1821 Y69.8131 I-9.4523 J-2.208
G1 X396.1793 Y20.1219
G2 X393.8467 Y13.6499 I-10.1464 J0.0006
X387.982 Y10.0538 I-8.1997 J6.7922
X386.8683 Y9.8738 I-2.0329 J9.0444
X385.7415 Y9.8178 I-1.1267 J11.3065
G1 X20.1301 Y9.8201
G2 X13.6874 Y12.1247 I0.0001 J10.1584
X10.0723 Y17.9342 I6.7524 J8.2314
X9.8179 Y20.1869 I9.4523 J2.208
G1 X9.8207 Y69.8781
G2 X12.9057 Y77.1918 I10.2134 J-0.0006
X14.7032 Y78.5984 I7.3528 J-7.5445
X17.4304 Y78.3823 I1.2168 J-1.9606
G3 X20.0073 Y77.4639 I2.4681 J2.8506
G2 X20.2584 Y77.4676 I0.2512 J-8.695
G1 X385.8699 Y77.4652
G2 X391.2535 Y75.2128 I-0.0001 J-7.5601
X393.4674 Y69.8133 I-5.4764 J-5.3991
G1 X393.4647 Y20.122
G2 X391.7272 Y15.346 I-7.4341 J0.0004
X387.3866 Y12.7023 I-6.0807 J5.0985
X386.5688 Y12.5719 I-1.4442 J6.4254
X385.7416 Y12.5324 I-0.8273 J8.6581
G1 X20.1301 Y12.5348
G2 X15.3745 Y14.2513 J7.446
X12.7157 Y18.5517 I5.0676 J6.1052
X12.5772 Y19.364 I6.6337 J1.5496
X12.5325 Y20.1867 I7.5528 J0.8223
G1 X12.5353 Y69.878
G2 X14.273 Y74.6541 I7.4341 J-0.0004
X18.6137 Y77.2978 I6.0806 J-5.0987
X19.4314 Y77.4281 I1.4438 J-6.4251
X20.0073 Y77.4639 I0.8271 J-8.6593
X22.0922 Y76.1234 I0.0634 J-2.193
G3 X24.1576 Y74.7529 I2.0653 J0.871
G1 X385.8699 Y74.7506
G2 X388.9384 Y73.622 J-4.7356
X390.6408 Y70.8308 I-3.3856 J-3.9797
X390.726 Y70.3253 I-4.0013 J-0.9347
X390.7528 Y69.8134 I-4.871 J-0.5116
G1 X390.75 Y20.1222
G2 X389.6076 Y17.0421 I-4.7241 J0.0003
X386.7913 Y15.3509 I-3.9624 J3.4078
X386.2693 Y15.2699 I-0.8618 J3.8343
X385.7416 Y15.2471 I-0.5278 J6.0807
G1 X20.1301 Y15.2494
G2 X16.6661 Y16.7067 J4.8459
X15.2472 Y20.1866 I3.5571 J3.4796
G1 X15.25 Y69.8778
G2 X16.3924 Y72.958 I4.7241 J-0.0003
X19.2089 Y74.6492 I3.9623 J-3.4079
X19.7308 Y74.7301 I0.8616 J-3.834
X20.2585 Y74.7529 I0.5277 J-6.0821
G1 X24.1576
G2 X26.3066 Y73.3202 J-2.3282
G3 X28.4557 Y71.8874 I2.1491 J0.8954
G1 X385.8699 Y71.8852
G2 X386.0356 Y71.8719 J-1.0438
G1 X386.2256 Y71.8414
G2 X386.4142 Y71.7926 I-0.1657 J-1.0305
G1 X386.5995 Y71.7258
G2 X386.7535 Y71.6557 I-0.3542 J-0.9818
G1 X386.877 Y71.5868
G2 X387.0114 Y71.4976 I-0.5082 J-0.9117
G1 X387.1541 Y71.3861
G2 X387.282 Y71.2677 I-0.6426 J-0.8225
G1 X387.3949 Y71.1442
G2 X387.4923 Y71.0198 I-0.7705 J-0.7041
G1 X387.5749 Y70.8963
G2 X387.6599 Y70.7424 I-0.8679 J-0.5798
G1 X387.7427 Y70.5571
G2 X387.8062 Y70.3687 I-0.9529 J-0.4259
G1 X387.8505 Y70.179
G2 X387.8749 Y70.0193 I-1.0164 J-0.2374
G1 X387.8845 Y69.8914
X387.8874 Y69.8136
X387.8846 Y20.1223
G2 X387.8699 Y19.9481 I-1.0438 J0.0001
G1 X387.8374 Y19.7563
G2 X387.7867 Y19.5668 I-1.0291 J0.1743
G1 X387.7178 Y19.3815
G2 X387.6457 Y19.2275 I-0.9783 J0.3637
G1 X387.5752 Y19.104
G2 X387.4919 Y18.9798 I-0.9063 J0.5177
G1 X387.3956 Y18.8563
G2 X387.2771 Y18.7281 I-0.8231 J0.6419
G1 X387.1351 Y18.5982
G2 X387.0008 Y18.4941 I-0.7046 J0.7701
G1 X386.8773 Y18.4135
G2 X386.7234 Y18.3306 I-0.5702 J0.8742
G1 X386.5381 Y18.25
G2 X386.3506 Y18.1887 I-0.4164 J0.9571
G1 X386.1629 Y18.1466
G2 X385.9809 Y18.1222 I-0.2289 J1.0183
G1 X385.7884 Y18.1135
X385.7415 Y18.1125
X20.1302 Y18.1148
G2 X19.9646 Y18.1281 J1.0438
G1 X19.7745 Y18.1586
G2 X19.5859 Y18.2073 I0.1656 J1.0305
G1 X19.4006 Y18.2742
G2 X19.2466 Y18.3443 I0.3542 J0.9818
G1 X19.123 Y18.4132
G2 X18.9886 Y18.5023 I0.5082 J0.9117
G1 X18.8459 Y18.6138
G2 X18.7181 Y18.7322 I0.6426 J0.8225
G1 X18.6052 Y18.8557
G2 X18.5077 Y18.9801 I0.7704 J0.7042
G1 X18.4252 Y19.1036
G2 X18.3402 Y19.2575 I0.8679 J0.5798
G1 X18.2573 Y19.4429
G2 X18.1938 Y19.6313 I0.9529 J0.4259
G1 X18.1495 Y19.821
G2 X18.1251 Y19.9807 I1.0164 J0.2374
G1 X18.1155 Y20.1086
X18.1126 Y20.1864
X18.1154 Y69.8777
G2 X18.1301 Y70.0519 I1.0438 J-0.0001
G1 X18.1625 Y70.2437
G2 X18.2133 Y70.4332 I1.0291 J-0.1743
G1 X18.2822 Y70.6185
G2 X18.3543 Y70.7726 I0.9783 J-0.3638
G1 X18.4249 Y70.8961
G2 X18.5081 Y71.0203 I0.9063 J-0.5178
G1 X18.6045 Y71.1438
G2 X18.723 Y71.272 I0.823 J-0.6419
G1 X18.8649 Y71.4018
G2 X18.9992 Y71.506 I0.7045 J-0.7701
G1 X19.1228 Y71.5865
G2 X19.2767 Y71.6694 I0.5702 J-0.8742
G1 X19.462 Y71.7501
G2 X19.6495 Y71.8113 I0.4163 J-0.9571
G1 X19.8372 Y71.8535
G2 X20.0192 Y71.8778 I0.2288 J-1.0184
G1 X20.2117 Y71.8864
X20.2585 Y71.8875
X28.4557 Y71.8874
X28.5045 Y71.8912 Z-1.9922
X28.5522 Y71.9025 Z-1.9845
X28.5933 Y71.9188 Z-1.9619
X28.6317 Y71.9407 Z-1.9394
X28.6854 Y71.9858 Z-1.8691
X28.7141 Y72.0205 Z-1.7806
X28.7229 Y72.0334 Z-1.6825
G0 Z5
X29.0403 Y77.7276
Z3
G1 Z-1.6825 F3500
G19 G3 Y78.0451 Z-2 J0.3175
G1 Y80.9086
G17 G3 X28.7228 Y81.2261 I-0.3175
G1 X12.5894 Y81.226
X10.9721
X9.7154
G3 X8.7715 Y80.282 J-0.9439
G1 X8.7741 Y9.7151
G3 X9.7181 Y8.7711 I0.944
G1 X396.2846 Y8.774
G3 X397.2285 Y9.718 J0.9439
G1 X397.2259 Y80.2849
G3 X396.2819 Y81.2289 I-0.944
G1 X28.7228 Y81.2261
G2 X27.4224 Y82.0931 J1.4088
G3 X26.1219 Y82.96 I-1.3004 J-0.5419
G1 X8.0007 Y82.9599
G3 X7.0375 Y81.9966 J-0.9632
G1 X7.0403 Y8.0004
G3 X8.0036 Y7.0372 I0.9633
G1 X397.9993 Y7.0401
G3 X398.9625 Y8.0034 J0.9632
G1 X398.9597 Y81.9995
G3 X397.9965 Y82.9628 I-0.9633
G1 X26.1219 Y82.96
G2 X24.3664 Y84.1303 J1.9018
G3 X22.611 Y85.3006 I-1.7555 J-0.7315
G1 X5.66 Y85.3005
G3 X4.6968 Y84.3372 J-0.9632
G1 X4.6997 Y5.6598
G3 X5.663 Y4.6966 I0.9633
G1 X400.34 Y4.6995
G3 X401.3032 Y5.6628 J0.9632
G1 X401.3003 Y84.3402
G3 X400.337 Y85.3034 I-0.9633
G1 X22.611 Y85.3006
G2 X20.8555 Y86.4709 J1.9018
G3 X19.1 Y87.6412 I-1.7555 J-0.7315
G1 X3.3193 Y87.6411
G3 X2.3561 Y86.6779 J-0.9632
G1 X2.3592 Y3.3191
G3 X3.3225 Y2.3559 I0.9633
G1 X402.6808 Y2.3589
G3 X403.644 Y3.3221 J0.9632
G1 X403.6408 Y86.6809
G3 X402.6776 Y87.6441 I-0.9633
G1 X19.1 Y87.6412
G2 X17.3332 Y88.8191 J1.914
G3 X15.5664 Y89.9969 I-1.7668 J-0.7362
G1 X0.0083 Y89.9968
X0.0005 Y89.9823
X0.0036 Y0.0058
X0.0397 Y0.0001
X405.9917 Y0.0032
X405.9995 Y0.0177
X405.9965 Y89.9942
X405.9603 Y89.9998
X15.5664 Y89.9969
X15.5219 Y89.9905
X15.481 Y89.972
X15.4469 Y89.9427
X15.4224 Y89.905
X12.586 Y83.7917
X12.5667 Y83.7602
X12.5407 Y83.7341
X12.5155 Y83.7091
X12.4966 Y83.6791
X12.4847 Y83.6456
X11.2142 Y78.1633
X11.2104 Y78.1175
X11.2199 Y78.0726
X11.2418 Y78.0322
X11.2744 Y77.9999
X11.3149 Y77.9782
X11.3599 Y77.969
X11.4057 Y77.973
X11.4483 Y77.99
G3 X11.2101 Y77.8788 Z-2.3217 I-0.7549 J1.3056 F1200
X10.9563 Y77.8106 Z-2.6434 I-0.5167 J1.4168
X10.6944 Y77.7875 Z-2.9651 I-0.2629 J1.485
X10.4325 Y77.8102 Z-3.2868 I-0.001 J1.5081
X10.1785 Y77.8781 Z-3.6086 I0.2609 J1.4854
X9.9402 Y77.989 Z-3.9303 I0.5149 J1.4175
X11.7764 Y78.2461 Z-4 I0.7532 J1.3066
G2 X12.2142 Y78.6714 I7.2894 J-7.0639 F3500
X12.7212 Y79.0814 I3.6056 J-3.9412
G1 X13.2725 Y79.4739
G3 X13.045 Y80.1854 I-0.2274 J0.3194
G1 X10.7754
G3 X9.8122 Y79.2221 J-0.9632
G1 Y76.9562
G3 X10.5253 Y76.726 I0.3937
G2 X11.3198 Y77.7421 I13.4018 J-9.6606
X11.7764 Y78.2461 I7.7461 J-6.5599
G1 X11.8085 Y78.2831 Z-3.9922
X11.8346 Y78.3247 Z-3.9845
X11.8523 Y78.3652 Z-3.9619
X11.8642 Y78.4077 Z-3.9394
X11.8707 Y78.4775 Z-3.8691
X11.8668 Y78.5224 Z-3.7806
X11.8639 Y78.5377 Z-3.6825
G0 Z5
X10.2822 Y9.244
Z0.4173
G1 X10.2965 Y9.2399 Z0.3213 F1200
X10.3382 Y9.2288 Z0.2343
X10.404 Y9.2139 Z0.1644
X10.4882 Y9.1993 Z0.1182
X10.583 Y9.1887 Z0.1
G3 X10.3238 Y9.2325 Z-0.2217 I0.1207 J1.5033
X10.0762 Y9.3206 Z-0.5434 I0.3799 J1.4595
X9.8476 Y9.4505 Z-0.8651 I0.6276 J1.3713
X9.645 Y9.618 Z-1.1868 I0.8562 J1.2415
X9.4746 Y9.8182 Z-1.5086 I1.0588 J1.074
X9.3415 Y10.0449 Z-1.8303 I1.2292 J0.8738
X9.2498 Y10.2913 Z-2.152 I1.3622 J0.6471
X9.2023 Y10.5498 Z-2.4737 I1.4539 J0.4007
X9.2005 Y10.8127 Z-2.7954 I1.5014 J0.1422
X9.2443 Y11.0719 Z-3.1171 I1.5033 J-0.1207
X9.3324 Y11.3196 Z-3.4388 I1.4595 J-0.3799
X9.4622 Y11.5482 Z-3.7605 I1.3713 J-0.6276
X11.7527 Y11.7755 Z-4 I1.2415 J-0.8562
G2 X11.3321 Y12.2084 I6.8705 J7.0967 F3500
X10.9179 Y12.7216 I3.966 J3.6248
G1 X10.526 Y13.2733
G3 X9.8146 Y13.0463 I-0.3195 J-0.227
G1 X9.8147 Y10.775
G3 X10.778 Y9.8117 I0.9633
G1 X13.0445 Y9.8118
G3 X13.2752 Y10.525 J0.3939
G2 X12.2605 Y11.3169 I10.1334 J14.0296
X11.7527 Y11.7755 I6.3627 J7.5553
G1 X11.7157 Y11.8076 Z-3.9922
X11.6741 Y11.8336 Z-3.9845
X11.6336 Y11.8512 Z-3.9619
X11.591 Y11.8631 Z-3.9394
X11.5212 Y11.8696 Z-3.8691
X11.4763 Y11.8655 Z-3.7806
X11.461 Y11.8627 Z-3.6825
G0 Z5
X396.7544 Y10.2822
Z0.4173
G1 X396.7585 Y10.2964 Z0.3213 F1200
X396.7696 Y10.3382 Z0.2343
X396.7845 Y10.404 Z0.1644
X396.7992 Y10.4882 Z0.1182
X396.8098 Y10.583 Z0.1
G3 X396.7659 Y10.3238 Z-0.2217 I-1.5032 J0.1214
X396.6777 Y10.0762 Z-0.5434 I-1.4593 J0.3806
X396.5477 Y9.8476 Z-0.8651 I-1.371 J0.6282
X396.3801 Y9.6451 Z-1.1868 I-1.2411 J0.8568
X396.1799 Y9.4748 Z-1.5086 I-1.0735 J1.0593
X395.9531 Y9.3419 Z-1.8303 I-0.8732 J1.2296
X395.7066 Y9.2503 Z-2.152 I-0.6465 J1.3625
X395.4481 Y9.2029 Z-2.4737 I-0.4 J1.4541
X395.1852 Y9.2012 Z-2.7954 I-0.1415 J1.5015
X394.926 Y9.2451 Z-3.1171 I0.1214 J1.5032
X394.6784 Y9.3334 Z-3.4388 I0.3806 J1.4593
X394.4498 Y9.4633 Z-3.7605 I0.6282 J1.371
X394.2236 Y11.7539 Z-4 I0.8568 J1.2411
G2 X393.7861 Y11.3288 I-7.2886 J7.063 F3500
X393.2788 Y10.9186 I-3.6071 J3.9424
G1 X392.7275 Y10.5261
G3 X392.955 Y9.8146 I0.2274 J-0.3194
G1 X395.2247
G3 X396.1879 Y10.7779 J0.9632
G1 X396.1878 Y13.0439
G3 X395.4748 Y13.2741 I-0.3936
G2 X394.6804 Y12.2581 I-13.4056 J9.6632
X394.2236 Y11.7539 I-7.7455 J6.5589
G1 X394.1915 Y11.7169 Z-3.9922
X394.1655 Y11.6754 Z-3.9845
X394.1477 Y11.6349 Z-3.9619
X394.1358 Y11.5923 Z-3.9394
X394.1293 Y11.5225 Z-3.8691
X394.1333 Y11.4776 Z-3.7806
X394.1361 Y11.4623 Z-3.6825
G0 Z5
X395.7178 Y80.756
Z0.4173
G1 X395.7035 Y80.76 Z0.3213 F1200
X395.6618 Y80.7711 Z0.2343
X395.596 Y80.786 Z0.1644
X395.5118 Y80.8006 Z0.1182
X395.417 Y80.8112 Z0.1
G3 X395.6762 Y80.7674 Z-0.2217 I-0.1207 J-1.5033
X395.9238 Y80.6793 Z-0.5434 I-0.3799 J-1.4595
X396.1524 Y80.5495 Z-0.8651 I-0.6276 J-1.3713
X396.355 Y80.382 Z-1.1868 I-0.8562 J-1.2415
X396.5254 Y80.1818 Z-1.5086 I-1.0588 J-1.074
X396.6585 Y79.9551 Z-1.8303 I-1.2292 J-0.8738
X396.7502 Y79.7087 Z-2.152 I-1.3622 J-0.6471
X396.7977 Y79.4501 Z-2.4737 I-1.4539 J-0.4007
X396.7996 Y79.1873 Z-2.7954 I-1.5014 J-0.1422
X396.7558 Y78.928 Z-3.1171 I-1.5033 J0.1207
X396.6676 Y78.6804 Z-3.4388 I-1.4595 J0.3799
X396.5378 Y78.4518 Z-3.7605 I-1.3714 J0.6276
X394.2473 Y78.2244 Z-4 I-1.2415 J0.8562
G2 X394.6684 Y77.791 I-6.8721 J-7.0983 F3500
X395.0822 Y77.2783 I-3.9643 J-3.6227
G1 X395.4741 Y76.7266
G3 X396.1854 Y76.9536 I0.3195 J0.227
G1 X396.1853 Y79.225
G3 X395.222 Y80.1883 I-0.9633
G1 X392.9554 Y80.1882
G3 X392.7248 Y79.475 J-0.3939
G2 X393.7397 Y78.6828 I-10.1285 J-14.0229
X394.2473 Y78.2244 I-6.3646 J-7.5567
X394.5177 Y76.753 I-0.8957 J-0.9252
G3 X394.6055 Y75.2594 I1.4211 J-0.6658
G2 X395.9277 Y72.0658 I-9.0453 J-5.6155
X396.1821 Y69.8131 I-9.4523 J-2.208
G1 X396.1793 Y20.1219
G2 X393.8467 Y13.6499 I-10.1464 J0.0006
X387.982 Y10.0538 I-8.1997 J6.7922
X386.8683 Y9.8738 I-2.0329 J9.0444
X385.7415 Y9.8178 I-1.1267 J11.3065
G1 X20.1301 Y9.8201
G2 X13.6874 Y12.1247 I0.0001 J10.1584
X10.0723 Y17.9342 I6.7524 J8.2314
X9.8179 Y20.1869 I9.4523 J2.208
G1 X9.8207 Y69.8781
G2 X12.9057 Y77.1918 I10.2134 J-0.0006
X20.2586 Y80.1822 I7.3528 J-7.5445
G1 X385.8699 Y80.1798
G2 X392.3127 Y77.8753 I-0.0001 J-10.1583
X394.6055 Y75.2594 I-6.7525 J-8.2314
X394.3813 Y72.5704 I-1.9226 J-1.1935
G3 X393.4643 Y70.0327 I2.763 J-2.4329
G2 X393.4674 Y69.8133 I-7.6872 J-0.219
G1 X393.4647 Y20.122
G2 X391.7272 Y15.346 I-7.4341 J0.0004
X387.3866 Y12.7023 I-6.0807 J5.0985
X386.5688 Y12.5719 I-1.4442 J6.4254
X385.7416 Y12.5324 I-0.8273 J8.6581
G1 X20.1301 Y12.5348
G2 X15.3745 Y14.2513 J7.446
X12.7157 Y18.5517 I5.0676 J6.1052
X12.5772 Y19.364 I6.6337 J1.5496
X12.5325 Y20.1867 I7.5528 J0.8223
G1 X12.5353 Y69.878
G2 X14.273 Y74.6541 I7.4341 J-0.0004
X18.6137 Y77.2978 I6.0806 J-5.0987
X19.4314 Y77.4281 I1.4438 J-6.4251
X20.2584 Y77.4676 I0.8271 J-8.6593
G1 X385.8699 Y77.4652
G2 X391.2535 Y75.2128 I-0.0001 J-7.5601
X393.4643 Y70.0327 I-5.4764 J-5.3991
X392.1233 Y67.9484 I-2.1931 J-0.0625
G3 X390.7526 Y65.8834 I0.8703 J-2.0651
G1 X390.75 Y20.1222
G2 X389.6076 Y17.0421 I-4.7241 J0.0003
X386.7913 Y15.3509 I-3.9624 J3.4078
X386.2693 Y15.2699 I-0.8618 J3.8343
X385.7416 Y15.2471 I-0.5278 J6.0807
G1 X20.1301 Y15.2494
G2 X16.6661 Y16.7067 J4.8459
X15.2472 Y20.1866 I3.5571 J3.4796
G1 X15.25 Y69.8778
G2 X16.3924 Y72.958 I4.7241 J-0.0003
X19.2089 Y74.6492 I3.9623 J-3.4079
