%
(Made in : Autodesk CAM Post Processor)
(G Code optimized for OpenBuilds OX CNC 1000 x 750 with GRBL V0.9j controller)

(Program Name : 1001)
(1 Operation :)
(1 : Adaptive1)
(  Tool : Flat End Mill 3 Flutes, Diam = 3.175mm, Len = 20mm)
(  Spindle : RPM = 30000, set router dial to 6)
(  Machining time : 29 min 21 sec)

G90 G94
G17
G21

(Operation 1 of 1 : Adaptive1)

G53 G0 Z5
G54
S30000 M3
G4 P1.0
X-0.3115 Y-3.6663
Z6
Z5
Z-1.365
G1 Z-1.6825 F3500
X-0.3095 Y-3.6586 Z-1.7532
X-0.3037 Y-3.6358 Z-1.8203
X-0.2943 Y-3.5992 Z-1.8805
X-0.2818 Y-3.5505 Z-1.9307
X-0.2669 Y-3.4922 Z-1.9686
X-0.2502 Y-3.4272 Z-1.992
X-0.2327 Y-3.3587 Z-2
G3 X0.0159 Y-1.6303 I-7.8522 J2.0113
G1 Y-1.4803
X-0.1317 Y-0.7573
X-0.2114 Y-0.0238
X-0.254 Y0.7127
X-0.2765 Y1.4502
X-0.2884 Y2.1879
X-0.2947 Y2.9257
X-0.298 Y3.6635
X-0.3006 Y5.1392
X-0.3016 Y11.0417
Y48.6702
Y88.5123
X-0.2681 Y88.6936
X-0.1176 Y89.0304
X0.1271 Y89.3066
X0.7178 Y89.7486
X1.4108 Y90.0018
X2.1353 Y90.1413
X2.8693 Y90.2166
X3.606 Y90.2567
X4.3435 Y90.2779
X5.0813 Y90.2892
X5.8191 Y90.2951
X6.5569 Y90.2982
X8.0325 Y90.3007
X9.5081 Y90.3014
X59.6796 Y90.3016
X109.851
X160.0224
X210.1938
X260.3653
X310.5367
X360.7081
X404.6081
X404.9582 Y90.1853
X405.2481 Y89.9572
X405.714 Y89.3851
X405.9824 Y88.6978
X406.1308 Y87.9751
X406.2109 Y87.2416
X406.2537 Y86.505
X406.2764 Y85.7676
X406.2883 Y85.0299
X406.2946 Y84.2921
X406.2979 Y83.5543
X406.3006 Y82.0786
X406.3016 Y76.1761
Y34.1207
Y1.4723
X406.2636 Y1.2918
X406.1078 Y0.9574
X405.8606 Y0.6836
X405.2668 Y0.2457
X404.5729 Y-0.005
X403.8481 Y-0.143
X403.114 Y-0.2175
X402.3773 Y-0.2572
X401.6398 Y-0.2782
X400.902 Y-0.2893
X400.1642 Y-0.2951
X399.4265 Y-0.2982
X397.9508 Y-0.3007
X391.3105 Y-0.3016
X389.097
X338.9256
X288.7542
X238.5827
X188.4113
X138.2399
X88.0685
X37.897
X2.8508
X2.6686 Y-0.2732
X2.3261 Y-0.1361
X2.0405 Y0.0974
X1.5769 Y0.6714
X1.305 Y1.3573
X1.1519 Y2.079
X1.0676 Y2.812
X1.0217 Y3.5484
X0.997 Y4.2858
X0.9837 Y5.0235
X0.9766 Y5.7613
X0.9728 Y6.4991
X0.9696 Y7.9747
X0.9684 Y12.4016
Y14.6151
Y64.7865
Y86.9209
X1.0435 Y87.2821
X1.216 Y87.6082
X1.4566 Y87.8878
X2.0299 Y88.3523
X2.7094 Y88.6397
X3.4275 Y88.8094
X4.1588 Y88.907
X4.8946 Y88.9622
X5.6317 Y88.9932
X6.3693 Y89.0104
X7.1071 Y89.02
X7.8449 Y89.0252
X8.5827 Y89.0281
X10.0583 Y89.0306
X15.9608 Y89.0316
X28.5037
X78.6751
X128.8466
X179.018
X229.1894
X279.3608
X329.5323
X379.7037
X402.9449
X403.3054 Y88.9535
X403.6293 Y88.7769
X404.1823 Y88.2884
X404.5355 Y87.6406
X404.7478 Y86.9341
X404.8715 Y86.2067
X404.942 Y85.4722
X404.9818 Y84.7355
X405.0041 Y83.998
X405.0164 Y83.2603
X405.0233 Y82.5225
X405.027 Y81.7847
X405.0302 Y80.3091
X405.0316 Y76.62
Y62.6015
Y12.4301
Y3.2074
X404.9934 Y2.8405
X404.8532 Y2.4993
X404.6334 Y2.203
X404.0867 Y1.7075
X403.4173 Y1.3973
X402.7029 Y1.2126
X401.9729 Y1.1058
X401.2376 Y1.0451
X400.5005 Y1.011
X399.763 Y0.9919
X399.0252 Y0.9814
X398.2874 Y0.9755
X397.5496 Y0.9723
X396.074 Y0.9695
X390.9093 Y0.9684
X365.0858
X314.9143
X264.7429
X214.5715
X164.4001
X114.2286
X64.0572
X13.8858
X4.2942
X3.9387 Y1.0671
X3.6215 Y1.2554
X3.0802 Y1.7568
X2.7333 Y2.408
X2.5235 Y3.1153
X2.4005 Y3.8428
X2.3298 Y4.5772
X2.2896 Y5.3139
X2.267 Y6.0514
X2.2543 Y6.7891
X2.2472 Y7.5269
X2.2433 Y8.2647
X2.2399 Y9.7403
X2.2384 Y13.4294
Y40.7286
Y85.3664
X2.2801 Y85.7329
X2.4063 Y86.0795
X2.6097 Y86.3873
X3.1268 Y86.9136
X3.7808 Y87.2551
X4.4882 Y87.4649
X5.2153 Y87.5899
X5.9495 Y87.6631
X6.6861 Y87.7054
X7.4235 Y87.7297
X8.1612 Y87.7436
X8.899 Y87.7514
X9.6368 Y87.7559
X10.3746 Y87.7584
X11.8502 Y87.7606
X18.4906 Y87.7616
X56.8569
X107.0284
X157.1998
X207.3712
X257.5426
X307.7141
X357.8855
X401.4166
X401.7832 Y87.7208
X402.1264 Y87.5855
X402.4293 Y87.3749
X402.945 Y86.8472
X403.2767 Y86.1882
X403.4789 Y85.4786
X403.5987 Y84.7506
X403.6684 Y84.0161
X403.7086 Y83.2793
X403.7316 Y82.5419
X403.7447 Y81.8042
X403.7521 Y81.0664
X403.7563 Y80.3286
X403.7586 Y79.5908
X403.7611 Y77.3773
X403.7616 Y31.6328
Y4.3336
X403.6497 Y3.9821
X403.4581 Y3.6669
X402.9578 Y3.1246
X402.3109 Y2.7698
X401.6064 Y2.5506
X400.8803 Y2.4194
X400.1465 Y2.3425
X399.4101 Y2.2979
X398.6727 Y2.2722
X397.935 Y2.2576
X397.1973 Y2.2492
X396.4595 Y2.2445
X395.7216 Y2.2418
X394.246 Y2.2395
X388.3435 Y2.2384
X381.7032
X331.5317
X281.3603
X231.1889
X181.0175
X130.846
X80.6746
X30.5032
X5.7864
X5.4232 Y2.303
X5.0879 Y2.457
X4.7944 Y2.6805
X4.2957 Y3.2242
X3.9767 Y3.8895
X3.7822 Y4.6012
X3.6667 Y5.3299
X3.5993 Y6.0646
X3.5603 Y6.8014
X3.5379 Y7.5389
X3.5251 Y8.2766
X3.5179 Y9.0144
X3.5137 Y9.7522
X3.5114 Y10.49
X3.5089 Y12.7034
X3.5084 Y26.7219
Y76.8933
Y84.2715
X3.6037 Y84.6279
X3.7783 Y84.9529
X4.2503 Y85.5199
X4.8831 Y85.8994
X5.5812 Y86.1381
X6.3046 Y86.2833
X7.0373 Y86.3699
X7.7734 Y86.421
X8.5106 Y86.4508
X9.2482 Y86.4681
X9.9859 Y86.4781
X10.7237 Y86.4839
X11.4615 Y86.4872
X12.9372 Y86.4902
X16.6262 Y86.4915
X45.401 Y86.4916
X95.5724
X145.7439
X195.9153
X246.0867
X296.2581
X346.4296
X396.601
X400.2901
X400.646 Y86.3945
X400.9698 Y86.2177
X401.5335 Y85.7417
X401.9092 Y85.1068
X402.1448 Y84.4076
X402.2878 Y83.6837
X402.3728 Y82.9508
X402.4228 Y82.2147
X402.4519 Y81.4775
X402.4688 Y80.7398
X402.4785 Y80.0021
X402.4841 Y79.2643
X402.4873 Y78.5265
X402.4902 Y77.0509
X402.4916 Y72.624
Y40.8979
Y5.8517
X402.4315 Y5.4877
X402.2849 Y5.1492
X402.0686 Y4.8504
X401.5354 Y4.3403
X400.8765 Y4.0085
X400.1676 Y3.8039
X399.4401 Y3.6812
X398.7058 Y3.6087
X397.9692 Y3.5663
X397.2318 Y3.5417
X396.4941 Y3.5275
X395.7564 Y3.5193
X395.0186 Y3.5146
X394.2808 Y3.5119
X392.8051 Y3.5095
X388.3782 Y3.5084
X338.2068
X288.0354
X237.864
X187.6925
X137.5211
X87.3497
X37.1782
X6.9278
X6.5768 Y3.6219
X6.2599 Y3.8108
X5.7102 Y4.3029
X5.3452 Y4.9441
X5.1165 Y5.6456
X4.9775 Y6.3702
X4.8948 Y7.1034
X4.846 Y7.8396
X4.8175 Y8.5768
X4.8009 Y9.3144
X4.7914 Y10.0522
X4.7858 Y10.79
X4.7826 Y11.5278
X4.7798 Y13.0034
X4.7784 Y17.4303
Y22.595
Y72.7665
Y83.0959
X4.8989 Y83.4445
X5.0932 Y83.7581
X5.5959 Y84.2982
X6.24 Y84.6581
X6.9423 Y84.8843
X7.6671 Y85.022
X8.4003 Y85.1044
X9.1365 Y85.1531
X9.8738 Y85.1817
X10.6114 Y85.1984
X11.3491 Y85.2082
X12.0869 Y85.2139
X12.8247 Y85.2171
X14.3004 Y85.2201
X17.9894 Y85.2215
X43.813 Y85.2216
X93.9844
X144.1558
X194.3273
X244.4987
X294.6701
X344.8416
X395.013
X398.702
X399.0695 Y85.1895
X399.4221 Y85.0809
X399.74 Y84.8936
X400.2881 Y84.3997
X400.653 Y83.7585
X400.882 Y83.0571
X401.0211 Y82.3325
X401.1041 Y81.5994
X401.1531 Y80.8632
X401.1818 Y80.126
X401.1985 Y79.3883
X401.2083 Y78.6506
X401.2139 Y77.9128
X401.2172 Y77.175
X401.2202 Y75.6993
X401.2215 Y72.0103
X401.2216 Y39.5464
Y7.0825
X401.1414 Y6.7225
X400.9811 Y6.3902
X400.7567 Y6.0974
X400.2117 Y5.6
X399.5491 Y5.2754
X398.8394 Y5.074
X398.1116 Y4.9524
X397.3773 Y4.8801
X396.6408 Y4.8376
X395.9034 Y4.8128
X395.1657 Y4.7983
X394.4279 Y4.7899
X393.6901 Y4.785
X392.9523 Y4.7822
X391.4767 Y4.7796
X386.312 Y4.7784
X384.0985
X333.9271
X283.7557
X233.5843
X183.4128
X133.2414
X83.07
X32.8986
X8.5507
X8.1836 Y4.8149
X7.8327 Y4.9288
X7.5174 Y5.1203
X6.9741 Y5.6196
X6.6128 Y6.2628
X6.386 Y6.9649
X6.2481 Y7.6897
X6.1657 Y8.4229
X6.1169 Y9.1591
X6.0883 Y9.8964
X6.0716 Y10.634
X6.0618 Y11.3718
X6.0562 Y12.1096
X6.0529 Y12.8474
X6.0499 Y14.323
X6.0485 Y18.0121
X6.0484 Y29.8171
Y79.9885
Y81.4642
X6.0886 Y81.8309
X6.2078 Y82.18
X6.4031 Y82.493
X6.9071 Y83.0318
X7.5522 Y83.39
X8.2549 Y83.6149
X8.9799 Y83.7519
X9.7131 Y83.834
X10.4493 Y83.8826
X11.1866 Y83.9113
X11.9242 Y83.9281
X12.6619 Y83.9379
X13.3997 Y83.9436
X14.1375 Y83.947
X15.6132 Y83.9501
X19.3022 Y83.9515
X53.9795 Y83.9516
X104.151
X154.3224
X204.4938
X254.6653
X304.8367
X355.0081
X397.8014
X398.1507 Y83.833
X398.4655 Y83.6406
X399.0103 Y83.143
X399.3747 Y82.5015
X399.6048 Y81.8005
X399.7455 Y81.0762
X399.83 Y80.3433
X399.8802 Y79.6072
X399.9098 Y78.8699
X399.9272 Y78.1323
X399.9374 Y77.3946
X399.9434 Y76.6568
X399.9468 Y75.919
X399.95 Y74.4434
X399.9515 Y70.7543
X399.9516 Y27.2232
Y8.7778
X399.9485 Y8.4089
X399.876 Y8.0472
X399.7257 Y7.7103
X399.5079 Y7.4126
X398.9734 Y6.904
X398.3157 Y6.5695
X397.6082 Y6.3604
X396.8814 Y6.2333
X396.1475 Y6.1572
X395.4111 Y6.1122
X394.6737 Y6.0857
X393.9361 Y6.0701
X393.1983 Y6.061
X392.4605 Y6.0557
X391.7227 Y6.0526
X390.2471 Y6.0498
X385.8202 Y6.0484
X369.5883
X319.4168
X269.2454
X219.074
X168.9026
X118.7311
X68.5597
X18.3883
X9.5345
X9.1809 Y6.1535
X8.8593 Y6.3343
X8.2987 Y6.8139
X7.9211 Y7.4478
X7.6818 Y8.1458
X7.5349 Y8.8688
X7.4465 Y9.6013
X7.3938 Y10.3372
X7.3626 Y11.0744
X7.3443 Y11.812
X7.3335 Y12.5497
X7.3272 Y13.2875
X7.3235 Y14.0253
X7.3201 Y15.5009
X7.3186 Y18.4522
X7.3184 Y46.4892
Y80.4287
X7.4164 Y80.7843
X7.5909 Y81.1094
X8.0604 Y81.6785
X8.69 Y82.0632
X9.3861 Y82.3078
X10.1084 Y82.4583
X10.8406 Y82.5492
X11.5764 Y82.6035
X12.3135 Y82.6357
X13.0511 Y82.6546
X13.7888 Y82.6658
X14.5266 Y82.6724
X15.2644 Y82.6762
X16.74 Y82.6798
X19.6913 Y82.6814
X22.6425 Y82.6816
X72.8139
X122.9854
X173.1568
X223.3282
X273.4997
X323.6711
X373.8425
X395.977
X396.3459 Y82.6774
X396.7071 Y82.6026
X397.0413 Y82.4463
X397.336 Y82.2245
X397.8405 Y81.6861
X398.1703 Y81.0261
X398.3755 Y80.3174
X398.5001 Y79.5902
X398.5746 Y78.8561
X398.6187 Y78.1196
X398.6448 Y77.3823
X398.6601 Y76.6446
X398.669 Y75.9069
X398.6743 Y75.1691
X398.6773 Y74.4313
X398.6802 Y72.9556
X398.6816 Y68.5287
Y55.9859
X398.6812 Y9.5035
X398.5635 Y9.1539
X398.3742 Y8.8373
X397.8848 Y8.2851
X397.247 Y7.9141
X396.5478 Y7.6786
X395.8244 Y7.5337
X395.0918 Y7.4462
X394.3558 Y7.3939
X393.6187 Y7.3628
X392.881 Y7.3445
X392.1433 Y7.3337
X391.4055 Y7.3273
X390.6677 Y7.3236
X389.1921 Y7.3202
X386.2408 Y7.3186
X345.661 Y7.3184
X295.4896
X245.3181
X195.1467
X144.9753
X94.8039
X44.6324
X11.0619
X10.6958 Y7.364
X10.3492 Y7.4904
X10.0385 Y7.6892
X9.5038 Y8.1976
X9.148 Y8.844
X8.9244 Y9.5472
X8.7881 Y10.2723
X8.7064 Y11.0055
X8.6578 Y11.7418
X8.6291 Y12.479
X8.6123 Y13.2166
X8.6023 Y13.9544
X8.5965 Y14.6922
X8.5931 Y15.43
X8.59 Y16.9056
X8.5885 Y20.5947
X8.5884 Y22.8081
Y72.9796
Y78.8821
X8.6257 Y79.2491
X8.7389 Y79.6002
X8.9279 Y79.917
X9.4229 Y80.4641
X10.0634 Y80.8304
X10.764 Y81.0616
X11.4882 Y81.2031
X12.221 Y81.2882
X12.9571 Y81.3389
X13.6943 Y81.3688
X14.4319 Y81.3865
X15.1697 Y81.3969
X15.9075 Y81.403
X16.6453 Y81.4066
X18.1209 Y81.4099
X21.81 Y81.4115
X52.0604 Y81.4116
X102.2318
X152.4032
X202.5747
X252.7461
X302.9175
X353.089
X395.1444
X395.5003 Y81.3143
X395.8263 Y81.1417
X396.3991 Y80.6767
X396.7864 Y80.0487
X397.033 Y79.3533
X397.185 Y78.6313
X397.2769 Y77.8993
X397.332 Y77.1635
X397.3647 Y76.4264
X397.384 Y75.6888
X397.3954 Y74.9511
X397.4021 Y74.2133
X397.406 Y73.4755
X397.4097 Y71.9999
X397.4114 Y69.0486
X397.4116 Y24.0419
Y10.7612
X397.2951 Y10.4112
X397.1046 Y10.0953
X396.6103 Y9.5475
X395.9709 Y9.1793
X395.271 Y8.9458
X394.5473 Y8.8022
X393.8146 Y8.7154
X393.0786 Y8.6635
X392.3415 Y8.6327
X391.6039 Y8.6145
X390.8661 Y8.6037
X390.1284 Y8.5974
X389.3906 Y8.5937
X387.9149 Y8.5902
X384.9637 Y8.5886
X361.3536 Y8.5884
X311.1822
X261.0107
X210.8393
X160.6679
X110.4964
X60.325
X12.367
X12.001 Y8.634
X11.652 Y8.7537
X11.3383 Y8.9478
X10.796 Y9.4481
X10.4337 Y10.0908
X10.2051 Y10.7923
X10.0651 Y11.5168
X9.9808 Y12.2497
X9.9306 Y12.9859
X9.9009 Y13.7231
X9.8834 Y14.4607
X9.873 Y15.1984
X9.867 Y15.9362
X9.8634 Y16.674
X9.8601 Y18.1496
X9.8585 Y21.8387
X9.8584 Y60.2051
Y77.9127
X9.9638 Y78.2662
X10.1441 Y78.5881
X10.6221 Y79.1501
X11.2547 Y79.5297
X11.9519 Y79.7712
X12.6746 Y79.9199
X13.4069 Y80.0098
X14.1427 Y80.0636
X14.8799 Y80.0956
X15.6174 Y80.1145
X16.3552 Y80.1257
X17.093 Y80.1322
X17.8308 Y80.1361
X19.3064 Y80.1397
X22.2576 Y80.1414
X41.4408 Y80.1416
X91.6123
X141.7837
X191.9551
X242.1265
X292.298
X342.4694
X392.6408
X393.3786
X393.7476 Y80.1403
X394.1108 Y80.0762
X394.4497 Y79.9303
X394.7503 Y79.7166
X395.2677 Y79.1905
X395.6077 Y78.5357
X395.8204 Y77.8292
X395.9502 Y77.1029
X396.0282 Y76.3692
X396.0746 Y75.6329
X396.1021 Y74.8956
X396.1184 Y74.1579
X396.128 Y73.4202
X396.1336 Y72.6824
X396.1369 Y71.9446
X396.14 Y70.4689
X396.1415 Y66.7799
X396.1416 Y32.1026
Y12.1815
X396.0605 Y11.8217
X395.8994 Y11.4898
X395.4494 Y10.9051
X394.8285 Y10.5066
X394.136 Y10.2519
X393.4152 Y10.0945
X392.6836 Y9.9991
X391.948 Y9.9418
X391.2109 Y9.9077
X390.4734 Y9.8875
X389.7357 Y9.8755
X388.9979 Y9.8685
X388.2601 Y9.8643
X387.5223 Y9.8619
X386.0467 Y9.8596
X380.882 Y9.8584
X366.8635
X316.692
X266.5206
X216.3492
X166.1777
X116.0063
X65.8349
X15.6635
X13.45
X13.0911 Y9.9437
X12.76 Y10.1063
X12.1758 Y10.557
X11.7774 Y11.178
X11.5226 Y11.8704
X11.3649 Y12.5912
X11.2693 Y13.3228
X11.2119 Y14.0583
X11.1778 Y14.7954
X11.1575 Y15.5329
X11.1455 Y16.2706
X11.1385 Y17.0084
X11.1343 Y17.7462
X11.1319 Y18.484
X11.1296 Y19.9597
X11.1284 Y25.1244
Y56.8504
Y76.4025
X11.1764 Y76.7683
X11.3055 Y77.1138
X11.5062 Y77.4234
X12.0165 Y77.9563
X12.6634 Y78.3111
X13.3667 Y78.5343
X14.0918 Y78.6705
X14.825 Y78.7524
X15.5612 Y78.8012
X16.2985 Y78.8301
X17.0361 Y78.8472
X17.7738 Y78.8573
X18.5116 Y78.8632
X19.2494 Y78.8667
X20.7251 Y78.8699
X24.4141 Y78.8715
X40.6461 Y78.8716
X90.8175
X140.9889
X191.1604
X241.3318
X291.5032
X341.6747
X391.8461
X392.5839
X392.9408 Y78.7782
X393.2685 Y78.6088
X393.8452 Y78.1486
X394.2364 Y77.523
X394.486 Y76.8287
X394.6402 Y76.1072
X394.7337 Y75.3754
X394.7898 Y74.6397
X394.8232 Y73.9026
X394.843 Y73.1651
X394.8548 Y72.4273
X394.8617 Y71.6896
X394.8658 Y70.9518
X394.8696 Y69.4761
X394.8714 Y66.5249
X394.8716 Y30.3719
Y13.4022
X394.7798 Y13.0449
X394.6093 Y12.7177
X394.1435 Y12.1456
X393.5163 Y11.7569
X392.8213 Y11.5093
X392.0995 Y11.3566
X391.3675 Y11.2642
X390.6317 Y11.2089
X389.8947 Y11.176
X389.1571 Y11.1565
X388.4194 Y11.1449
X387.6816 Y11.1381
X386.9438 Y11.1341
X385.4681 Y11.1304
X382.5169 Y11.1286
X362.5959 Y11.1284
X312.4245
X262.253
X212.0816
X161.9102
X111.7387
X61.5673
X15.085
X14.7163 Y11.1429
X14.3564 Y11.2239
X14.0247 Y11.3852
X13.4417 Y11.8375
X13.044 Y12.4589
X12.79 Y13.1516
X12.6331 Y13.8726
X12.5381 Y14.6043
X12.4812 Y15.3399
X12.4474 Y16.0769
X12.4273 Y16.8145
X12.4154 Y17.5522
X12.4084 Y18.29
X12.4043 Y19.0278
X12.4019 Y19.7656
X12.3996 Y21.2412
X12.3984 Y26.4059
Y64.0345
Y75.1017
X12.4469 Y75.4674
X12.5693 Y75.8154
X12.7656 Y76.1278
X13.2687 Y76.6674
X13.9125 Y77.0278
X14.6143 Y77.2554
X15.3389 Y77.3948
X16.0719 Y77.4789
X16.808 Y77.529
X17.5452 Y77.5588
X18.2828 Y77.5764
X19.0205 Y77.5868
X19.7583 Y77.5929
X20.4961 Y77.5965
X21.9718 Y77.5999
X24.923 Y77.6014
X50.7466 Y77.6016
X100.918
X151.0894
X201.2608
X251.4323
X301.6037
X351.7751
X390.8793
X391.2481 Y77.5933
X391.6096 Y77.5197
X391.9445 Y77.365
X392.5359 Y76.9237
X392.9407 Y76.3069
X393.2 Y75.6162
X393.3605 Y74.896
X393.4579 Y74.1647
X393.5163 Y73.4292
X393.5511 Y72.6922
X393.5717 Y71.9546
X393.584 Y71.2169
X393.5912 Y70.4791
X393.5955 Y69.7413
X393.598 Y69.0035
X393.6004 Y67.5279
X393.6016 Y62.3632
Y17.3565
Y15.143
X393.5988 Y14.7741
X393.5307 Y14.4116
X393.3809 Y14.0744
X393.1641 Y13.776
X392.6341 Y13.2627
X391.9773 Y12.9265
X391.2701 Y12.7161
X390.5435 Y12.5879
X389.8098 Y12.5108
X389.0734 Y12.4649
X388.3361 Y12.4376
X387.5984 Y12.4215
X386.8607 Y12.412
X386.1229 Y12.4064
X385.3851 Y12.4031
X383.9095 Y12.4
X380.2204 Y12.3985
X347.0187 Y12.3984
X296.8473
X246.6758
X196.5044
X146.333
X96.1616
X45.9901
X16.4775
X16.1086 Y12.4002
X15.7438 Y12.455
X15.4012 Y12.5917
X15.0954 Y12.7982
X14.568 Y13.3141
X14.2192 Y13.9643
X14.0004 Y14.6689
X13.8666 Y15.3944
X13.7861 Y16.1278
X13.738 Y16.8641
X13.7095 Y17.6014
X13.6926 Y18.339
X13.6827 Y19.0767
X13.6768 Y19.8145
X13.6733 Y20.5523
X13.6701 Y22.028
X13.6685 Y25.717
X13.6684 Y31.6196
Y73.675
X13.6906 Y74.0433
X13.7818 Y74.4007
X13.9505 Y74.7288
X14.4111 Y75.3051
X15.0366 Y75.6965
X15.7309 Y75.9462
X16.4524 Y76.1004
X17.1843 Y76.1939
X17.9199 Y76.2499
X18.657 Y76.2833
X19.3946 Y76.3031
X20.1323 Y76.3148
X20.8701 Y76.3217
X21.6079 Y76.3258
X23.0835 Y76.3296
X26.0347 Y76.3314
X71.0415 Y76.3316
X121.2129
X171.3843
X221.5558
X271.7272
X321.8986
X372.07
X389.7776
X390.1448 Y76.2967
X390.4971 Y76.1872
X390.816 Y76.0017
X391.3685 Y75.5127
X391.7399 Y74.8752
X391.9743 Y74.1756
X392.118 Y73.4519
X392.2047 Y72.7192
X392.2565 Y71.9832
X392.2872 Y71.246
X392.3054 Y70.5084
X392.3162 Y69.7707
X392.3225 Y69.0329
X392.3263 Y68.2951
X392.3298 Y66.8195
X392.3314 Y63.8682
X392.3316 Y44.685
X392.3314 Y15.9102
X392.2266 Y15.5565
X392.0478 Y15.2339
X391.5737 Y14.6685
X390.9424 Y14.2867
X390.2457 Y14.0436
X389.5233 Y13.8935
X388.7912 Y13.8026
X388.0554 Y13.748
X387.3183 Y13.7155
X386.5807 Y13.6962
X385.843 Y13.6848
X385.1052 Y13.6781
X384.3674 Y13.6741
X382.8918 Y13.6704
X379.9405 Y13.6686
X371.8245 Y13.6684
X321.6531
X271.4817
X221.3103
X171.1388
X120.9674
X70.796
X20.6245
X17.6733
X17.3045 Y13.6761
X16.9429 Y13.7493
X16.6071 Y13.902
X16.3094 Y14.1199
X15.801 Y14.6546
X15.4657 Y15.3118
X15.2555 Y16.0191
X15.1273 Y16.7457
X15.0504 Y17.4795
X15.0045 Y18.2159
X14.9774 Y18.9532
X14.9614 Y19.6908
X14.9519 Y20.4286
X14.9463 Y21.1664
X14.9431 Y21.9042
X14.94 Y23.3798
X14.9385 Y27.0689
X14.9384 Y59.5327
X14.9385 Y72.8134
X15.04 Y73.1681
X15.2173 Y73.4916
X15.6916 Y74.0567
X16.322 Y74.4401
X17.0181 Y74.6846
X17.7404 Y74.8354
X18.4725 Y74.9269
X19.2083 Y74.9816
X19.9454 Y75.0143
X20.6829 Y75.0336
X21.4207 Y75.0451
X22.1584 Y75.0519
X22.8963 Y75.0559
X24.3719 Y75.0596
X27.3231 Y75.0614
X50.9332 Y75.0616
X101.1046
X151.2761
X201.4475
X251.6189
X301.7903
X351.9618
X388.8525
X389.2045 Y74.9512
X389.524 Y74.7668
X390.0805 Y74.2824
X390.456 Y73.6472
X390.6947 Y72.9491
X390.8417 Y72.2261
X390.9307 Y71.4936
X390.984 Y70.7578
X391.0157 Y70.0206
X391.0345 Y69.2831
X391.0456 Y68.5453
X391.0522 Y67.8075
X391.0561 Y67.0697
X391.0597 Y65.5941
X391.0614 Y62.6428
X391.0616 Y17.6361
X391.05 Y17.2674
X390.9705 Y16.9072
X390.8107 Y16.5747
X390.3618 Y15.9891
X389.7415 Y15.5895
X389.0494 Y15.3339
X388.3287 Y15.1759
X387.5972 Y15.08
X386.8616 Y15.0225
X386.1246 Y14.9882
X385.3871 Y14.9679
X384.6493 Y14.9558
X383.9115 Y14.9487
X383.1737 Y14.9444
X382.4359 Y14.942
X380.9603 Y14.9396
X375.7956 Y14.9384
X336.6914
X286.52
X236.3485
X186.1771
X136.0057
X85.8343
X35.6628
X18.6931
X18.3283 Y14.9934
X17.9826 Y15.1222
X17.6727 Y15.3223
X17.1368 Y15.8294
X16.7793 Y16.4748
X16.5534 Y17.1772
X16.4147 Y17.9019
X16.331 Y18.6349
X16.281 Y19.3711
X16.2513 Y20.1083
X16.2337 Y20.8459
X16.2233 Y21.5836
X16.2172 Y22.3214
X16.2136 Y23.0592
X16.2102 Y24.5348
X16.2086 Y27.4861
X16.2084 Y47.4071
Y71.3861
X16.2713 Y71.7496
X16.4158 Y72.089
X16.6282 Y72.3907
X17.1527 Y72.9096
X17.8062 Y73.252
X18.5121 Y73.4666
X19.2382 Y73.5976
X19.9718 Y73.6764
X20.7081 Y73.7234
X21.4454 Y73.7513
X22.1831 Y73.7678
X22.9208 Y73.7776
X23.6586 Y73.7834
X24.3964 Y73.7868
X25.872 Y73.7899
X29.5611 Y73.7915
X41.3662 Y73.7916
X91.5376
X141.709
X191.8804
X242.0519
X292.2233
X342.3947
X387.4014
X387.7644 Y73.7258
X388.1026 Y73.5784
X388.4027 Y73.3638
X388.918 Y72.8358
X389.2578 Y72.1809
X389.4703 Y71.4743
X389.5999 Y70.748
X389.6779 Y70.0143
X389.7243 Y69.2779
X389.7519 Y68.5406
X389.7682 Y67.803
X389.7778 Y67.0653
X389.7835 Y66.3275
X389.7868 Y65.5897
X389.7899 Y64.114
X389.7915 Y60.4249
X389.7916 Y19.1073
X389.79 Y18.3695
X389.67 Y18.0207
X389.4778 Y17.7057
X388.9802 Y17.161
X388.3396 Y16.7949
X387.6393 Y16.5629
X386.9153 Y16.4205
X386.1825 Y16.3346
X385.4465 Y16.2832
X384.7093 Y16.2526
X383.9717 Y16.2345
X383.2339 Y16.2238
X382.4962 Y16.2175
X381.7584 Y16.2138
X380.2827 Y16.2102
X377.3315 Y16.2086
X341.1785 Y16.2084
X291.0071
X240.8357
X190.6643
X140.4928
X90.3214
X40.15
X20.229
X19.8602 Y16.2167
X19.4983 Y16.2886
X19.1617 Y16.4396
X18.8627 Y16.6557
X18.3511 Y17.1873
X18.0126 Y17.8429
X17.8001 Y18.5494
X17.6703 Y19.2757
X17.5922 Y20.0094
X17.5457 Y20.7458
X17.5181 Y21.483
X17.5018 Y22.2207
X17.4922 Y22.9584
X17.4865 Y23.6962
X17.4832 Y24.434
X17.48 Y25.9097
X17.4785 Y29.5987
X17.4784 Y45.0929
Y70.1786
X17.5586 Y70.5386
X17.7169 Y70.8719
X17.9385 Y71.1668
X18.4785 Y71.6695
X19.1378 Y72.0007
X19.8459 Y72.2082
X20.5728 Y72.3347
X21.3066 Y72.4108
X22.0431 Y72.4561
X22.7804 Y72.483
X23.518 Y72.4988
X24.2558 Y72.5082
X24.9936 Y72.5137
X25.7314 Y72.517
X27.207 Y72.52
X30.8961 Y72.5215
X41.9633 Y72.5216
X92.1348
X142.3062
X192.4776
X242.649
X292.8205
X342.9919
X385.7852
X386.154 Y72.5149
X386.5157 Y72.4422
X386.8517 Y72.2899
X387.1496 Y72.0723
X387.658 Y71.5376
X387.9933 Y70.8804
X388.2036 Y70.1732
X388.332 Y69.4466
X388.4091 Y68.7129
X388.4551 Y67.9765
X388.4824 Y67.2392
X388.4985 Y66.5015
X388.508 Y65.7638
X388.5136 Y65.026
X388.5169 Y64.2882
X388.52 Y62.8125
X388.5215 Y59.1235
X388.5216 Y20.0193
X388.4859 Y19.6521
X388.3744 Y19.3004
X388.186 Y18.9832
X387.6933 Y18.4341
X387.0538 Y18.0661
X386.3536 Y17.8333
X385.6298 Y17.6906
X384.897 Y17.6045
X384.161 Y17.553
X383.4238 Y17.5225
X382.6862 Y17.5044
X381.9485 Y17.4937
X381.2107 Y17.4874
X380.4729 Y17.4837
X378.9973 Y17.4802
X376.046 Y17.4786
X335.4662 Y17.4784
X285.2947
X235.1233
X184.9519
X134.7805
X84.609
X34.4376
X21.1569
X20.7947 Y17.5484
X20.4553 Y17.6929
X20.1539 Y17.9056
X20.0929 Y17.9677
X19.9873 Y18.0567
X19.867 Y18.1246
X19.7363 Y18.169
X19.6387 Y18.1922
X19.4711 Y18.2488
X19.4054 Y18.2732
X19.3034 Y18.3189
X19.1357 Y18.4069
X19.0796 Y18.4408
X18.968 Y18.5164
X18.8539 Y18.6083
X18.8003 Y18.6528
X18.6326 Y18.8226
X18.5375 Y18.9435
X18.465 Y19.0445
X18.4253 Y19.111
X18.3293 Y19.2786
X18.257 Y19.4462
X18.1988 Y19.6137
X18.1572 Y19.7813
X18.1285 Y19.9489
X18.122 Y20.1164
X18.1138 Y20.4516
X18.1125 Y20.6191
Y69.716
X18.1147 Y69.8836
X18.1296 Y70.059
X18.1616 Y70.2187
X18.2327 Y70.491
X18.2365 Y70.5015
X18.4863 Y70.9875
X18.4945 Y71.0013
X18.5375 Y71.0565
X18.6326 Y71.175
X18.866 Y71.3917
X18.968 Y71.4836
X19.0936 Y71.5687
X19.1077 Y71.5766
X19.5968 Y71.7957
X19.9741 Y71.8629
X20.1418 Y71.8867
X20.4772 Y71.8875
X385.3552
X385.8582 Y71.8841
X386.0259 Y71.8711
X386.1936 Y71.8477
X386.3613 Y71.8078
X386.529 Y71.7511
X386.5946 Y71.7268
X386.6967 Y71.6811
X386.8643 Y71.5931
X386.9204 Y71.5592
X387.032 Y71.4835
X387.1461 Y71.3917
X387.1997 Y71.3471
X387.3674 Y71.1773
X387.4625 Y71.0565
X387.5351 Y70.9554
X387.5747 Y70.889
X387.6707 Y70.7214
X387.743 Y70.5538
X387.8011 Y70.3863
X387.8428 Y70.2187
X387.8715 Y70.0511
X387.878 Y69.8836
X387.8862 Y69.5484
X387.8875 Y69.3809
Y20.6191
X387.8862 Y20.4516
X387.878 Y20.1164
X387.8715 Y19.9489
X387.8428 Y19.7813
X387.8011 Y19.6137
X387.743 Y19.4462
X387.6707 Y19.2786
X387.5747 Y19.111
X387.5351 Y19.0446
X387.4661 Y18.9435
X387.3674 Y18.8213
X387.326 Y18.7759
X387.1997 Y18.6529
X387.032 Y18.5155
X386.9236 Y18.4408
X386.8643 Y18.4108
X386.4032 Y18.2043
X386.0259 Y18.1371
X385.8582 Y18.1133
X385.5229 Y18.1125
X20.6448
X20.1418 Y18.1159
X19.9741 Y18.1288
X19.8064 Y18.1523
X19.7363 Y18.169
G3 X19.3698 Y17.9503 I-0.0627 J-0.3112
G1 X19.3628 Y17.9035 Z-1.9964
X19.356 Y17.8577 Z-1.9858
X19.3706 Y17.8002 Z-1.96
X19.3837 Y17.749 Z-1.9227
X19.3946 Y17.7061 Z-1.8755
X19.4148 Y17.6766 Z-1.8165
X19.4273 Y17.6584 Z-1.7512
X19.4315 Y17.6522 Z-1.6826
G0 Z5
X69.6749 Y50.8798
Z2.5
G3 X69.8462 Y51.0791 Z2.1783 I1.2249 J-0.8799 F1200
X70.0496 Y51.2457 Z1.8566 I1.0535 J-1.0792
X70.2789 Y51.3744 Z1.5349 I0.8501 J-1.2457
X70.527 Y51.4613 Z1.2132 I0.6208 J-1.3744
X70.7864 Y51.5038 Z0.8914 I0.3727 J-1.4613
X71.0493 Y51.5006 Z0.5697 I0.1133 J-1.5039
X71.3076 Y51.4519 Z0.248 I-0.1496 J-1.5007
X71.5535 Y51.359 Z-0.0737 I-0.4079 J-1.4519
X71.7796 Y51.2248 Z-0.3954 I-0.6538 J-1.359
X71.9789 Y51.0534 Z-0.7171 I-0.8799 J-1.2249
X72.1454 Y50.85 Z-1.0388 I-1.0792 J-1.0535
X72.2741 Y50.6208 Z-1.3605 I-1.2457 J-0.8501
X72.3611 Y50.3727 Z-1.6822 I-1.3744 J-0.6208
X72.4078 Y49.9999 Z-2 I-1.4613 J-0.3727
X69.3916 I-1.5081
X72.4078 I1.5081
G1 X72.4271 Y50.7375 F3500
X72.449 Y50.8271
X72.4643 Y50.9763
X72.4518 Y51.1258
X72.4163 Y51.2715
X72.3614 Y51.4111
X72.2899 Y51.543
X72.2041 Y51.666
X72.106 Y51.7795
X71.9973 Y51.8828
X71.8794 Y51.9757
X71.7538 Y52.0577
X71.6217 Y52.1287
X71.4832 Y52.1891
X71.3365 Y52.2395
X71.1825 Y52.2788
X71.0225 Y52.3063
X70.8575 Y52.3212
X70.6888 Y52.3228
X70.5179 Y52.3106
X70.346 Y52.2844
X70.1747 Y52.244
X70.0051 Y52.1893
X69.8389 Y52.1205
X69.6772 Y52.0378
X69.5214 Y51.9417
X69.3729 Y51.8326
X69.2326 Y51.7112
X69.1019 Y51.5781
X68.9817 Y51.4343
X68.8729 Y51.2807
X68.7764 Y51.1182
X68.6931 Y50.948
X68.6234 Y50.7711
X68.5681 Y50.5887
X68.5274 Y50.402
X68.5019 Y50.2124
X68.4916 Y50.0209
X68.4967 Y49.829
X68.5172 Y49.6378
X68.5531 Y49.4487
X68.604 Y49.2629
X68.6698 Y49.0817
X68.75 Y48.9061
X68.844 Y48.7375
X68.9514 Y48.5768
X69.0713 Y48.4252
X69.2031 Y48.2837
X69.3459 Y48.1532
X69.4988 Y48.0344
X69.6607 Y47.9284
X69.8307 Y47.8356
X70.0076 Y47.7567
X70.1903 Y47.6923
X70.3776 Y47.6428
X70.5683 Y47.6084
X70.7611 Y47.5894
X70.9549 Y47.586
X71.1484 Y47.5982
X71.3403 Y47.6258
X71.5294 Y47.6688
X71.7144 Y47.7268
X71.8941 Y47.7994
X72.0675 Y47.8863
X72.2333 Y47.9868
X72.3906 Y48.1003
X72.5382 Y48.226
X72.6753 Y48.3632
X72.8009 Y48.511
X72.9143 Y48.6683
X73.0187 Y48.841
X73.1299 Y49.0634
X73.2769 Y49.4279
X73.3841 Y49.771
X73.448 Y50.0535
X73.4847 Y50.3091
X73.4993 Y50.5462
X73.4952 Y50.7694
X73.4741 Y50.9825
X73.4366 Y51.1896
X73.3829 Y51.392
X73.3133 Y51.5889
X73.2282 Y51.7793
X73.1281 Y51.9623
X73.0132 Y52.1373
X72.8837 Y52.3038
X72.7396 Y52.4611
X72.5815 Y52.6081
X72.41 Y52.7435
X72.2256 Y52.8665
X72.029 Y52.9759
X71.8212 Y53.0707
X71.6032 Y53.1495
X71.3766 Y53.2115
X71.1425 Y53.2556
X70.9028 Y53.2812
X70.6588 Y53.2875
X70.4125 Y53.2741
X70.1655 Y53.2405
X69.9197 Y53.1868
X69.6771 Y53.1129
X69.4394 Y53.0191
X69.2083 Y52.9057
X68.9856 Y52.7733
X68.7729 Y52.6224
X68.5719 Y52.4541
X68.3841 Y52.2692
X68.2109 Y52.0688
X68.0537 Y51.8543
X67.9136 Y51.627
X67.7919 Y51.3883
X67.6893 Y51.1399
X67.6068 Y50.8833
X67.545 Y50.6202
X67.5044 Y50.3525
X67.4854 Y50.0818
X67.4881 Y49.81
X67.5128 Y49.5388
X67.5591 Y49.2701
X67.627 Y49.0058
X67.716 Y48.7474
X67.8255 Y48.4968
X67.9549 Y48.2555
X68.1033 Y48.0253
X68.2698 Y47.8076
X68.4534 Y47.6038
X68.6528 Y47.4154
X68.8668 Y47.2434
X69.094 Y47.0892
X69.3329 Y46.9536
X69.582 Y46.8376
X69.8397 Y46.742
X70.1042 Y46.6673
X70.374 Y46.6141
X70.6472 Y46.5827
X70.922 Y46.5734
X71.1968 Y46.5861
X71.4697 Y46.6209
X71.7389 Y46.6774
X72.0028 Y46.7554
X72.2596 Y46.8543
X72.5076 Y46.9735
X72.7452 Y47.1122
X72.971 Y47.2695
X73.1846 Y47.4455
X73.391 Y47.6454
X73.6052 Y47.889
X73.8071 Y48.1598
X73.9934 Y48.4567
X74.1581 Y48.773
X74.2955 Y49.0982
X74.4034 Y49.4245
X74.4823 Y49.7483
X74.5335 Y50.0682
X74.5583 Y50.3846
X74.5577 Y50.6971
X74.5323 Y51.0047
X74.4828 Y51.306
X74.41 Y51.6
X74.3143 Y51.8855
X74.1963 Y52.1616
X74.0567 Y52.4271
X73.8961 Y52.6808
X73.7151 Y52.9215
X73.5145 Y53.1479
X73.295 Y53.3588
X73.0577 Y53.5527
X72.8036 Y53.7283
X72.534 Y53.8842
X72.2504 Y54.0191
X71.9543 Y54.1318
X71.6474 Y54.2211
X71.3316 Y54.2861
X71.009 Y54.3259
X70.6818 Y54.3397
X70.3522 Y54.3271
X70.0223 Y54.2879
X69.6944 Y54.2219
X69.3707 Y54.1291
X69.0536 Y54.0099
X68.7453 Y53.8649
X68.4479 Y53.6946
X68.1637 Y53.5
X67.8948 Y53.2821
X67.643 Y53.0423
X67.4104 Y52.782
X67.1986 Y52.5027
X67.0092 Y52.2064
X66.8437 Y51.8948
X66.7033 Y51.5699
X66.5891 Y51.234
X66.5021 Y50.8892
X66.4429 Y50.5377
X66.412 Y50.182
X66.4098 Y49.8244
X66.4363 Y49.4672
X66.4915 Y49.1128
X66.575 Y48.7636
X66.6864 Y48.422
X66.825 Y48.09
X66.9899 Y47.77
X67.1801 Y47.464
X67.3944 Y47.1742
X67.6314 Y46.9023
X67.8895 Y46.6502
X68.1672 Y46.4195
X68.4625 Y46.2117
X68.7737 Y46.0283
X69.0987 Y45.8704
X69.4355 Y45.7391
X69.7817 Y45.6352
X70.1352 Y45.5594
X70.4938 Y45.5122
X70.855 Y45.494
X71.2165 Y45.5048
X71.5761 Y45.5446
X71.9313 Y45.6131
X72.28 Y45.7099
X72.6197 Y45.8344
X72.9487 Y45.9859
X73.267 Y46.1647
X73.5792 Y46.3748
X73.8828 Y46.6166
X74.1749 Y46.8903
X74.4513 Y47.1945
X74.707 Y47.5259
X74.9372 Y47.8797
X75.1383 Y48.2508
X75.3081 Y48.635
X75.4454 Y49.0285
X75.5498 Y49.4282
X75.6211 Y49.8313
X75.6595 Y50.2351
X75.6653 Y50.6373
X75.639 Y51.0356
X75.5813 Y51.4279
X75.4926 Y51.8124
X75.3739 Y52.1871
X75.2258 Y52.5502
X75.0492 Y52.8999
X74.845 Y53.2344
X74.6143 Y53.552
X74.3581 Y53.8508
X74.0778 Y54.1292
X73.7747 Y54.3852
X73.4504 Y54.6173
X73.1067 Y54.8237
X72.7453 Y55.003
X72.3684 Y55.1535
X71.9783 Y55.2741
X71.5773 Y55.3635
X71.168 Y55.4208
X70.753 Y55.4452
X70.3349 Y55.4362
X69.9166 Y55.3934
X69.5008 Y55.3167
X69.0903 Y55.2064
X68.688 Y55.0627
X68.2966 Y54.8864
X67.919 Y54.6782
X67.5577 Y54.4395
X67.2154 Y54.1714
X66.8944 Y53.8756
X66.5973 Y53.5539
X66.326 Y53.2082
X66.0826 Y52.8408
X65.869 Y52.4541
X65.6866 Y52.0504
X65.5368 Y51.6324
X65.4208 Y51.2028
X65.3395 Y50.7644
X65.2936 Y50.3202
X65.2835 Y49.8731
X65.3093 Y49.426
X65.371 Y48.9818
X65.4682 Y48.5435
X65.6005 Y48.1141
X65.7669 Y47.6963
X65.9665 Y47.2928
X66.1979 Y46.9064
X66.4598 Y46.5397
X66.7504 Y46.1949
X67.0679 Y45.8744
X67.4103 Y45.5804
X67.7753 Y45.3146
X68.1605 Y45.079
X68.5635 Y44.8749
X68.9817 Y44.7038
X69.4124 Y44.5668
X69.8528 Y44.4648
X70.3 Y44.3985
X70.7511 Y44.3682
X71.2033 Y44.3743
X71.6536 Y44.4166
X72.0991 Y44.4949
X72.5375 Y44.609
X72.9676 Y44.7585
X73.3882 Y44.9439
X73.7974 Y45.1651
X74.1931 Y45.422
X74.5742 Y45.7153
X74.9372 Y46.0445
X75.2778 Y46.4071
X75.5913 Y46.8
X75.874 Y47.2192
X76.1226 Y47.6605
X76.3348 Y48.12
X76.5089 Y48.5936
X76.6438 Y49.0775
X76.739 Y49.5681
X76.7941 Y50.0621
X76.8094 Y50.5561
X76.7851 Y51.0472
X76.7217 Y51.5326
X76.62 Y52.0096
X76.4807 Y52.4756
X76.3048 Y52.928
X76.0934 Y53.3644
X75.8475 Y53.7825
X75.5687 Y54.1799
X75.2583 Y54.5543
X74.918 Y54.9035
X74.5496 Y55.2253
X74.155 Y55.5175
X73.7366 Y55.7783
X73.2966 Y56.0056
X72.8377 Y56.1977
X72.3626 Y56.3532
X71.8742 Y56.4706
X71.3755 Y56.5488
X70.8698 Y56.5868
X70.3602 Y56.5842
X69.8501 Y56.5405
X69.3429 Y56.4556
X68.842 Y56.3297
X68.3507 Y56.1633
X67.8725 Y55.9572
X67.4105 Y55.7125
X66.9681 Y55.4304
X66.5484 Y55.1127
X66.1542 Y54.7612
X65.7884 Y54.3781
X65.4536 Y53.9656
X65.1523 Y53.5266
X64.8865 Y53.0636
X64.6582 Y52.5798
X64.4691 Y52.0781
X64.3206 Y51.562
X64.2138 Y51.0348
X64.1496 Y50.4998
X64.1285 Y49.9607
X64.1508 Y49.421
X64.2164 Y48.8842
X64.3249 Y48.3538
X64.4758 Y47.8335
X64.6682 Y47.3265
X64.9007 Y46.8362
X65.1721 Y46.3659
X65.4804 Y45.9186
X65.8239 Y45.4974
X66.2002 Y45.1048
X66.6069 Y44.7437
X67.0415 Y44.4162
X67.5011 Y44.1245
X67.9828 Y43.8706
X68.4833 Y43.6562
X68.9996 Y43.4825
X69.5283 Y43.3509
X70.0659 Y43.262
X70.6089 Y43.2166
X71.154 Y43.215
X71.6976 Y43.2571
X72.237 Y43.3428
X72.7698 Y43.472
X73.2934 Y43.6446
X73.8054 Y43.8602
X74.3036 Y44.1189
X74.7852 Y44.4205
X75.2468 Y44.764
X75.6843 Y45.1477
X76.0934 Y45.5692
X76.47 Y46.0254
X76.8102 Y46.5125
X77.111 Y47.0265
X77.3696 Y47.5632
X77.5841 Y48.1184
X77.753 Y48.6877
X77.8753 Y49.267
X77.9504 Y49.8523
X77.9783 Y50.4396
X77.9589 Y51.0252
X77.8929 Y51.6055
X77.7807 Y52.1772
X77.6234 Y52.7368
X77.422 Y53.2812
X77.1777 Y53.8073
X76.892 Y54.3121
X76.5665 Y54.7926
X76.203 Y55.246
X75.8035 Y55.6697
X75.3703 Y56.0608
X74.9057 Y56.4169
X74.4126 Y56.7356
X73.8936 Y57.0146
X73.3519 Y57.252
X72.7907 Y57.4459
X72.2135 Y57.5947
X71.6239 Y57.6971
X71.0256 Y57.7521
X70.4225 Y57.7589
X69.8184 Y57.7171
X69.2172 Y57.6266
X68.6231 Y57.4877
X68.04 Y57.3008
X67.4718 Y57.067
X66.9224 Y56.7873
X66.3956 Y56.4635
X65.8949 Y56.0974
X65.424 Y55.6911
X64.986 Y55.2472
X64.5841 Y54.7684
X64.2211 Y54.2577
X63.8995 Y53.7184
X63.6218 Y53.1539
X63.3898 Y52.5679
X63.2053 Y51.9642
X63.0696 Y51.3466
X62.9838 Y50.7194
X62.9486 Y50.0864
X62.9644 Y49.452
X63.031 Y48.8202
X63.1483 Y48.1952
X63.3154 Y47.5812
X63.5315 Y46.9821
X63.7951 Y46.4019
X64.1047 Y45.8444
X64.4581 Y45.3133
X64.8532 Y44.812
X65.2875 Y44.3438
X65.7581 Y43.9119
X66.262 Y43.519
X66.796 Y43.1677
X67.3566 Y42.8603
X67.9402 Y42.5988
X68.543 Y42.385
X69.1611 Y42.2202
X69.7905 Y42.1055
X70.4273 Y42.0417
X71.0675 Y42.0292
X71.7076 Y42.0682
X72.3441 Y42.1587
X72.9736 Y42.3004
X73.5931 Y42.4933
X74.1994 Y42.7371
X74.7889 Y43.031
X75.3575 Y43.3741
X75.9012 Y43.7649
X76.4158 Y44.2015
X76.897 Y44.6813
X77.3407 Y45.2011
X77.7429 Y45.7572
X78.1002 Y46.3454
X78.4095 Y46.9612
X78.6685 Y47.5999
X78.8751 Y48.2566
X79.028 Y48.9264
X79.1265 Y49.6048
X79.1701 Y50.2872
X79.1588 Y50.9692
X79.093 Y51.6464
X78.9732 Y52.3148
X78.8006 Y52.9703
X78.5761 Y53.6092
X78.3012 Y54.2276
X77.9776 Y54.8219
X77.6071 Y55.3886
X77.192 Y55.9243
X76.7346 Y56.4256
X76.2375 Y56.8895
X75.7035 Y57.3129
X75.1359 Y57.6931
X74.538 Y58.0274
X73.9132 Y58.3135
X73.2655 Y58.5492
X72.5988 Y58.7329
X71.9172 Y58.8628
X71.225 Y58.9379
X70.5267 Y58.9573
X69.8268 Y58.9205
X69.1297 Y58.8272
X68.4402 Y58.6779
X67.7628 Y58.473
X67.1019 Y58.2137
X66.4621 Y57.9012
X65.8478 Y57.5374
X65.263 Y57.1243
X64.7119 Y56.6645
X64.1983 Y56.1608
X63.7257 Y55.6162
X63.2976 Y55.0344
X62.9167 Y54.4189
X62.5859 Y53.7737
X62.3076 Y53.1029
X62.0836 Y52.4109
X61.9156 Y51.7023
X61.8049 Y50.9815
X61.7524 Y50.2534
X61.7585 Y49.5226
X61.8233 Y48.794
X61.9464 Y48.0724
X62.1272 Y47.3625
X62.3645 Y46.6689
X62.657 Y45.9961
X63.0026 Y45.3487
X63.3993 Y44.7308
X63.8445 Y44.1465
X64.3353 Y43.5995
X64.8687 Y43.0936
X65.441 Y42.632
X66.0488 Y42.2177
X66.688 Y41.8534
X67.3544 Y41.5415
X68.0439 Y41.2841
X68.752 Y41.0828
X69.474 Y40.9389
X70.2055 Y40.8535
X70.9421 Y40.827
X71.6792 Y40.8597
X72.4113 Y40.9515
X73.1337 Y41.1015
X73.8418 Y41.3087
X74.5312 Y41.5715
X75.1978 Y41.8878
X75.8375 Y42.2553
X76.4468 Y42.6715
X77.022 Y43.1335
X77.5602 Y43.6383
X78.0583 Y44.1826
X78.5137 Y44.7631
X78.924 Y45.3763
X79.287 Y46.0186
X79.6007 Y46.6864
X79.8633 Y47.3759
X80.0733 Y48.0832
X80.2295 Y48.8043
X80.3308 Y49.5352
X80.3761 Y50.2716
X80.3647 Y51.0093
X80.2966 Y51.744
X80.1722 Y52.4712
X79.9925 Y53.1868
X79.7586 Y53.8866
X79.472 Y54.5664
X79.1342 Y55.2224
X78.7473 Y55.8507
X78.3136 Y56.4475
X77.8356 Y57.0096
X77.3162 Y57.5336
X76.7584 Y58.0166
X76.1656 Y58.4558
X75.5413 Y58.849
X74.889 Y59.1939
X74.2127 Y59.4887
X73.5161 Y59.732
X72.8033 Y59.9225
X72.0782 Y60.0587
X71.3448 Y60.1394
X70.6074 Y60.1641
X69.8702 Y60.1335
X69.1373 Y60.0484
X68.4127 Y59.9094
X67.7003 Y59.7176
X67.0038 Y59.4743
X66.3268 Y59.1809
X65.6729 Y58.8391
X65.0454 Y58.4509
X64.4476 Y58.0185
X63.883 Y57.5435
X63.3557 Y57.0275
X62.8678 Y56.474
X62.4215 Y55.8865
X62.0185 Y55.2684
X61.6609 Y54.6231
X61.3501 Y53.954
X61.0876 Y53.2644
X60.8747 Y52.558
X60.7123 Y51.8383
X60.6029 Y51.1086
X60.548 Y50.3728
X60.5465 Y49.635
X60.5978 Y48.899
X60.7011 Y48.1684
X60.8558 Y47.447
X61.0609 Y46.7383
X61.3152 Y46.0457
X61.6176 Y45.3727
X61.9679 Y44.7233
X62.3652 Y44.1016
X62.8064 Y43.5103
X63.2886 Y42.9518
X63.809 Y42.4288
X64.3648 Y41.9436
X64.9533 Y41.4986
X65.5716 Y41.0959
X66.2165 Y40.7375
X66.8858 Y40.427
X67.5761 Y40.1666
X68.2834 Y39.9565
X69.0038 Y39.797
X69.7336 Y39.6887
X70.4692 Y39.6317
X71.207 Y39.6263
X71.9434 Y39.6724
X72.6747 Y39.77
X73.3969 Y39.9211
X74.1063 Y40.124
X74.7996 Y40.3764
X75.4736 Y40.6764
X76.1255 Y41.022
X76.7522 Y41.4113
X77.3511 Y41.8423
X77.9196 Y42.3126
X78.4548 Y42.8204
X78.953 Y43.3646
X79.4125 Y43.9419
X79.8319 Y44.5489
X80.21 Y45.1825
X80.5452 Y45.8398
X80.8362 Y46.5178
X81.0818 Y47.2135
X81.2809 Y47.924
X81.4323 Y48.6461
X81.5328 Y49.377
X81.5823 Y50.1132
X81.5814 Y50.851
X81.5304 Y51.587
X81.43 Y52.318
X81.2807 Y53.0405
X81.0833 Y53.7514
X80.8388 Y54.4476
X80.5478 Y55.1256
X80.2097 Y55.7814
X79.8269 Y56.4121
X79.402 Y57.0153
X78.9374 Y57.5885
X78.4355 Y58.1292
X77.8985 Y58.6353
X77.3291 Y59.1045
X76.7298 Y59.5348
X76.103 Y59.924
X75.4506 Y60.2687
X74.7762 Y60.5678
X74.0831 Y60.821
X73.3748 Y61.0275
X72.6543 Y61.1865
X71.9249 Y61.2972
X71.1897 Y61.3593
X70.452 Y61.3727
X69.715 Y61.3374
X68.9822 Y61.2517
X68.2568 Y61.1168
X67.5419 Y60.9343
X66.8404 Y60.7056
X66.1552 Y60.4322
X65.4889 Y60.1153
X64.8442 Y59.7564
X64.2237 Y59.3572
X63.6301 Y58.919
X63.0674 Y58.4419
X62.5385 Y57.9274
X62.0447 Y57.3792
X61.5876 Y56.8
X61.1685 Y56.1928
X60.7889 Y55.5601
X60.45 Y54.9048
X60.153 Y54.2293
X59.8991 Y53.5366
X59.6895 Y52.8292
X59.5277 Y52.1093
X59.4141 Y51.3803
X59.3485 Y50.6454
X59.3302 Y49.9078
X59.3589 Y49.1706
X59.434 Y48.4366
X59.555 Y47.7088
X59.7212 Y46.9899
X59.9319 Y46.2828
X60.1877 Y45.5908
X60.4886 Y44.9171
X60.833 Y44.2646
X61.2189 Y43.6358
X61.6442 Y43.0329
X62.1069 Y42.4581
X62.6047 Y41.9135
X63.1355 Y41.4011
X63.6972 Y40.9227
X64.2878 Y40.4805
X64.906 Y40.0777
X65.5491 Y39.7161
X66.2144 Y39.3971
X66.8988 Y39.1215
X67.5994 Y38.8901
X68.3132 Y38.7033
X69.0373 Y38.5616
X69.7687 Y38.4652
X70.5048 Y38.4144
X71.2426 Y38.4107
X71.9791 Y38.455
X72.7112 Y38.5469
X73.4358 Y38.6858
X74.1501 Y38.8704
X74.8515 Y39.0995
X75.5372 Y39.3717
X76.205 Y39.6856
X76.8523 Y40.0396
X77.4769 Y40.4324
X78.0756 Y40.8636
X78.6461 Y41.3314
X79.1863 Y41.834
X79.6943 Y42.3691
X80.1686 Y42.9342
X80.608 Y43.5269
X81.011 Y44.1449
X81.3767 Y44.7858
X81.7037 Y45.4472
X81.9911 Y46.1267
X82.2363 Y46.8226
X82.4383 Y47.5322
X82.5961 Y48.253
X82.7093 Y48.982
X82.7775 Y49.7167
X82.801 Y50.4541
X82.7798 Y51.1916
X82.7142 Y51.9265
X82.6047 Y52.6562
X82.4516 Y53.3779
X82.2539 Y54.0888
X82.0125 Y54.786
X81.7281 Y55.4668
X81.402 Y56.1286
X81.036 Y56.7693
X80.6851 Y57.3044
X80.6791 Y57.3129
X80.5486 Y57.4837
X80.1378 Y57.9864
X79.9872 Y58.1539
X79.6692 Y58.4949
X79.5015 Y58.6687
X78.977 Y59.1593
X78.8308 Y59.2828
X78.3676 Y59.662
X78.3278 Y59.6934
X78.1416 Y59.8296
X77.8247 Y60.0574
X77.657 Y60.1707
X77.4894 Y60.2811
X77.3217 Y60.3863
X77.154 Y60.4879
X76.6509 Y60.7729
X76.4833 Y60.8611
X76.1479 Y61.0257
X75.9802 Y61.1036
X75.4772 Y61.3221
X75.1418 Y61.4514
X74.9741 Y61.5119
X74.8064 Y61.5683
X74.4711 Y61.6755
X74.3034 Y61.7275
X73.8003 Y61.8617
X73.6326 Y61.8999
X73.2973 Y61.9724
X73.123 Y62.008
X72.9619 Y62.0351
X72.6265 Y62.0894
X72.1235 Y62.149
X71.9558 Y62.1647
X71.4528 Y62.1992
X70.9497 Y62.2111
X70.782 Y62.2097
X70.4467 Y62.2015
X70.279 Y62.1954
X69.7759 Y62.1596
X69.6083 Y62.1411
X69.2729 Y62.1014
X69.1052 Y62.0785
X68.7698 Y62.024
X68.6022 Y61.9941
X68.0991 Y61.8849
X67.9191 Y61.8404
X67.5961 Y61.7538
X67.4284 Y61.7076
X66.9253 Y61.5461
X66.7576 Y61.4873
X66.59 Y61.4255
X66.3638 Y61.3377
X66.2546 Y61.2929
X65.7515 Y61.0736
X65.4162 Y60.9105
X65.2485 Y60.8255
X65.0808 Y60.7345
X64.5778 Y60.4482
X64.3913 Y60.3323
X64.2424 Y60.2361
X64.0747 Y60.1255
X63.8911 Y59.9972
X63.5717 Y59.7673
X63.4316 Y59.662
X62.9009 Y59.2262
X62.823 Y59.1593
X62.2862 Y58.6566
X62.2302 Y58.6004
X61.9694 Y58.3215
X61.7272 Y58.0614
X61.6622 Y57.9864
X61.2241 Y57.4503
X61.1226 Y57.3161
X60.8828 Y56.981
X60.7665 Y56.8134
X60.5534 Y56.4866
X60.4448 Y56.3107
X60.1594 Y55.808
X60.069 Y55.6404
X59.9833 Y55.4729
X59.8214 Y55.1377
X59.6028 Y54.635
X59.5358 Y54.4675
X59.4714 Y54.2999
X59.4083 Y54.1324
X59.3796 Y54.0512
X59.3505 Y53.9648
X59.1895 Y53.4621
X59.1436 Y53.2945
X59.0442 Y52.9232
X59.013 Y52.7918
X58.9043 Y52.2891
X58.8456 Y51.954
X58.8197 Y51.7864
X58.7976 Y51.6189
X58.7579 Y51.2837
X58.7399 Y51.1162
X58.704 Y50.6135
X58.6984 Y50.4459
X58.6901 Y50.1108
X58.6892 Y49.9432
X58.7008 Y49.4405
X58.7356 Y48.9378
X58.7518 Y48.7702
X58.7908 Y48.4351
X58.8115 Y48.2675
X58.8373 Y48.1
X58.865 Y47.9324
X58.8946 Y47.7648
X58.929 Y47.5973
X59.001 Y47.2621
X59.0442 Y47.0785
X59.1733 Y46.5919
X59.3327 Y46.0892
X59.3892 Y45.9216
X59.4505 Y45.754
X59.5473 Y45.5018
X59.58 Y45.4189
X59.7976 Y44.9162
X59.8826 Y44.7353
X59.9573 Y44.5811
X60.0503 Y44.3956
X60.1298 Y44.246
X60.4128 Y43.7433
X60.5534 Y43.5135
X60.6211 Y43.4081
X60.7306 Y43.2406
X60.8447 Y43.073
X61.084 Y42.7379
X61.2084 Y42.5703
X61.6174 Y42.0676
X61.7272 Y41.9386
X62.0743 Y41.5649
X62.2327 Y41.3973
X62.4067 Y41.2298
X62.7637 Y40.8946
X62.9009 Y40.7738
X63.404 Y40.3607
X63.5849 Y40.2244
X63.907 Y39.9916
X64.0523 Y39.8892
X64.3054 Y39.7217
X64.5778 Y39.5518
X65.1632 Y39.219
X65.2485 Y39.1745
X65.4956 Y39.0514
X65.7515 Y38.9264
X66.2546 Y38.7071
X66.4223 Y38.6393
X66.59 Y38.574
X66.7576 Y38.513
X66.9253 Y38.4539
X67.4284 Y38.2924
X67.5961 Y38.2462
X67.9314 Y38.1563
X68.0991 Y38.115
X68.6022 Y38.0059
X69.1052 Y37.9218
X69.2729 Y37.8986
X69.6083 Y37.8589
X69.7759 Y37.8404
X70.279 Y37.8046
X70.4467 Y37.7985
X70.782 Y37.7903
X70.9497 Y37.7889
X71.4528 Y37.8008
X71.9558 Y37.8353
X72.1235 Y37.851
X72.6265 Y37.9106
X73.1296 Y37.9943
X73.2973 Y38.0273
X73.6326 Y38.1
X73.8003 Y38.1383
X74.3034 Y38.2725
X74.4711 Y38.3245
X74.8064 Y38.4317
X74.9741 Y38.4883
X75.1418 Y38.5492
X75.3095 Y38.6124
X75.4772 Y38.6779
X75.9802 Y38.8964
X76.1479 Y38.9746
X76.4833 Y39.1394
X76.6367 Y39.219
X77.154 Y39.5121
X77.2257 Y39.5541
X77.4946 Y39.7217
X77.7481 Y39.8892
X77.8247 Y39.9427
X78.215 Y40.2244
X78.3278 Y40.3066
X78.4955 Y40.4426
X78.8428 Y40.7271
X78.9985 Y40.8596
X79.5015 Y41.3313
X79.5673 Y41.3973
X79.6692 Y41.504
X80.0376 Y41.9
X80.1826 Y42.0676
X80.5916 Y42.5703
X80.6753 Y42.6819
X81.0107 Y43.1507
X81.1791 Y43.4081
X81.2847 Y43.5757
X81.3872 Y43.7433
X81.6814 Y44.2658
X81.7592 Y44.4135
X81.8491 Y44.5948
X81.9237 Y44.7486
X82.0024 Y44.9162
X82.2201 Y45.4189
X82.3522 Y45.7603
X82.4106 Y45.9216
X82.4674 Y46.0892
X82.6267 Y46.5919
X82.76 Y47.0946
X82.799 Y47.2621
X82.871 Y47.5973
X82.9055 Y47.7648
X82.9356 Y47.9324
X82.9885 Y48.2675
X83.0092 Y48.4351
X83.0482 Y48.7702
X83.0644 Y48.9378
X83.0992 Y49.4405
X83.1108 Y49.9432
X83.1099 Y50.1108
X83.1016 Y50.4459
X83.096 Y50.6135
X83.0601 Y51.1162
X83.0421 Y51.2837
X83.0024 Y51.6189
X82.9801 Y51.7864
X82.9537 Y51.954
X82.9259 Y52.1216
X82.8957 Y52.2891
X82.787 Y52.7918
X82.7461 Y52.9594
X82.6564 Y53.2945
X82.6105 Y53.4621
X82.4495 Y53.9648
X82.3913 Y54.1324
X82.3522 Y54.2396
X82.2643 Y54.4675
X82.1973 Y54.635
X81.9786 Y55.1377
X81.8164 Y55.4729
X81.7312 Y55.6404
X81.6814 Y55.7358
X81.3552 Y56.3107
X81.2515 Y56.4783
X81.1784 Y56.5929
X81.0107 Y56.8483
X80.917 Y56.981
X80.6791 Y57.3129
G3 X80.4279 Y57.4365 I-0.2514 J-0.1939
G1 X80.4277
G3 X80.2591 Y57.3881 J-0.3175
G1 X80.2216 Y57.3488 Z-1.995
X80.1852 Y57.3107 Z-1.9808
X80.1511 Y57.2749 Z-1.9578
X80.1382 Y57.2274 Z-1.9224
X80.1274 Y57.1872 Z-1.8782
X80.1189 Y57.1559 Z-1.827
X80.1131 Y57.1345 Z-1.7705
X80.1102 Y57.1238 Z-1.7109
Y57.1226 Z-1.6825
G0 Z5
X137.6364 Y58.8799
Z2.5
G3 X137.8078 Y59.0792 Z2.1783 I1.2249 J-0.8799 F1200
X138.0112 Y59.2457 Z1.8566 I1.0535 J-1.0792
X138.2405 Y59.3744 Z1.5349 I0.8501 J-1.2457
X138.4886 Y59.4613 Z1.2132 I0.6208 J-1.3744
X138.748 Y59.5039 Z0.8914 I0.3727 J-1.4613
X139.0109 Y59.5007 Z0.5697 I0.1133 J-1.5039
X139.2692 Y59.4519 Z0.248 I-0.1496 J-1.5007
X139.5151 Y59.359 Z-0.0737 I-0.4079 J-1.4519
X139.7412 Y59.2249 Z-0.3954 I-0.6538 J-1.359
X139.9405 Y59.0535 Z-0.7171 I-0.8799 J-1.2249
X140.107 Y58.8501 Z-1.0388 I-1.0792 J-1.0535
X140.2357 Y58.6208 Z-1.3605 I-1.2457 J-0.8501
X140.3226 Y58.3727 Z-1.6822 I-1.3744 J-0.6208
X140.3694 Y58 Z-2 I-1.4613 J-0.3727
X137.3532 I-1.5081
X140.3694 I1.5081
G1 X140.3887 Y58.7376 F3500
X140.4106 Y58.8272
X140.4259 Y58.9764
X140.4134 Y59.1259
X140.3779 Y59.2716
X140.323 Y59.4112
X140.2515 Y59.543
X140.1657 Y59.6661
X140.0676 Y59.7796
X139.9588 Y59.8829
X139.841 Y59.9757
X139.7154 Y60.0577
X139.5833 Y60.1288
X139.4448 Y60.1891
X139.2981 Y60.2395
X139.1441 Y60.2789
X138.9841 Y60.3064
X138.8191 Y60.3212
X138.6504 Y60.3228
X138.4795 Y60.3107
X138.3076 Y60.2845
X138.1362 Y60.244
X137.9667 Y60.1894
X137.8005 Y60.1206
X137.6388 Y60.0379
X137.483 Y59.9418
X137.3344 Y59.8326
X137.1942 Y59.7112
X137.0635 Y59.5782
X136.9432 Y59.4344
X136.8345 Y59.2808
X136.738 Y59.1183
X136.6546 Y58.948
X136.585 Y58.7711
X136.5296 Y58.5888
X136.489 Y58.4021
X136.4635 Y58.2124
X136.4532 Y58.021
X136.4583 Y57.829
X136.4788 Y57.6379
X136.5147 Y57.4488
X136.5656 Y57.263
X136.6314 Y57.0817
X136.7116 Y56.9062
X136.8056 Y56.7375
X136.913 Y56.5769
X137.0329 Y56.4253
X137.1647 Y56.2838
X137.3075 Y56.1532
X137.4604 Y56.0345
X137.6223 Y55.9284
X137.7923 Y55.8356
X137.9691 Y55.7568
X138.1518 Y55.6924
X138.3392 Y55.6428
X138.5299 Y55.6084
X138.7227 Y55.5895
X138.9165 Y55.5861
X139.11 Y55.5982
X139.3019 Y55.6259
X139.4909 Y55.6688
X139.6759 Y55.7268
X139.8557 Y55.7995
X140.0291 Y55.8864
X140.1949 Y55.9868
X140.3522 Y56.1003
X140.4998 Y56.2261
X140.6369 Y56.3633
X140.7625 Y56.511
X140.8759 Y56.6684
X140.9803 Y56.841
X141.0915 Y57.0634
X141.2385 Y57.4279
X141.3457 Y57.7711
X141.4096 Y58.0535
X141.4462 Y58.3092
X141.4609 Y58.5463
X141.4568 Y58.7695
X141.4357 Y58.9825
X141.3982 Y59.1896
X141.3445 Y59.392
X141.2749 Y59.5889
X141.1898 Y59.7794
X141.0897 Y59.9623
X140.9748 Y60.1373
X140.8453 Y60.3039
X140.7012 Y60.4612
X140.5431 Y60.6081
X140.3716 Y60.7436
X140.1872 Y60.8666
X139.9906 Y60.976
X139.7828 Y61.0707
X139.5648 Y61.1496
X139.3382 Y61.2115
X139.1041 Y61.2557
X138.8643 Y61.2813
X138.6204 Y61.2876
X138.3741 Y61.2741
X138.1271 Y61.2406
X137.8813 Y61.1869
X137.6387 Y61.113
X137.401 Y61.0192
X137.1699 Y60.9058
X136.9472 Y60.7733
X136.7345 Y60.6225
X136.5335 Y60.4541
X136.3457 Y60.2692
X136.1725 Y60.0689
X136.0153 Y59.8544
X135.8752 Y59.6271
X135.7534 Y59.3884
X135.6509 Y59.14
X135.5684 Y58.8834
X135.5066 Y58.6203
X135.466 Y58.3525
X135.447 Y58.0818
X135.4497 Y57.81
X135.4744 Y57.5389
X135.5207 Y57.2702
X135.5886 Y57.0058
X135.6776 Y56.7474
X135.7871 Y56.4968
X135.9164 Y56.2556
X136.0649 Y56.0254
X136.2314 Y55.8076
X136.415 Y55.6039
X136.6144 Y55.4154
X136.8284 Y55.2435
X137.0556 Y55.0892
X137.2945 Y54.9537
X137.5436 Y54.8377
X137.8012 Y54.7421
X138.0658 Y54.6674
X138.3356 Y54.6142
X138.6087 Y54.5828
X138.8836 Y54.5734
X139.1584 Y54.5862
X139.4313 Y54.6209
X139.7005 Y54.6775
X139.9644 Y54.7554
X140.2211 Y54.8543
X140.4692 Y54.9735
X140.7068 Y55.1122
X140.9326 Y55.2696
X141.1462 Y55.4456
X141.3526 Y55.6454
X141.5668 Y55.8891
X141.7687 Y56.1598
X141.955 Y56.4568
X142.1197 Y56.7731
X142.2571 Y57.0982
X142.365 Y57.4246
X142.4439 Y57.7483
X142.4951 Y58.0683
X142.5199 Y58.3847
X142.5193 Y58.6972
X142.4939 Y59.0048
X142.4444 Y59.3061
X142.3716 Y59.6
X142.2758 Y59.8856
X142.1579 Y60.1617
X142.0183 Y60.4272
X141.8577 Y60.6809
X141.6767 Y60.9216
X141.4761 Y61.148
X141.2566 Y61.3588
X141.0193 Y61.5527
X140.7652 Y61.7283
X140.4956 Y61.8842
X140.212 Y62.0191
X139.9159 Y62.1318
X139.609 Y62.2212
X139.2932 Y62.2862
X138.9706 Y62.3259
X138.6434 Y62.3398
X138.3138 Y62.3272
X137.9839 Y62.288
X137.656 Y62.2219
X137.3323 Y62.1292
X137.0152 Y62.01
X136.7069 Y61.8649
X136.4095 Y61.6946
X136.1253 Y61.5
X135.8564 Y61.2822
X135.6046 Y61.0423
X135.372 Y60.782
X135.1602 Y60.5028
X134.9708 Y60.2064
X134.8053 Y59.8948
X134.6649 Y59.57
X134.5507 Y59.234
X134.4637 Y58.8892
X134.4045 Y58.5378
X134.3736 Y58.1821
X134.3714 Y57.8244
X134.3979 Y57.4673
X134.4531 Y57.1129
X134.5366 Y56.7637
X134.648 Y56.422
X134.7866 Y56.0901
X134.9515 Y55.7701
X135.1417 Y55.4641
X135.356 Y55.1742
X135.5929 Y54.9023
X135.8511 Y54.6502
X136.1288 Y54.4195
X136.4241 Y54.2118
X136.7353 Y54.0284
X137.0603 Y53.8705
X137.397 Y53.7392
X137.7433 Y53.6353
X138.0968 Y53.5595
X138.4554 Y53.5123
X138.8166 Y53.4941
X139.1781 Y53.5048
X139.5377 Y53.5446
X139.8929 Y53.6131
X140.2415 Y53.7099
X140.5813 Y53.8344
X140.9103 Y53.986
X141.2286 Y54.1648
X141.5408 Y54.3748
X141.8444 Y54.6166
X142.1365 Y54.8903
X142.4129 Y55.1946
X142.6686 Y55.526
X142.8988 Y55.8797
X143.0999 Y56.2509
X143.2697 Y56.6351
X143.407 Y57.0285
X143.5114 Y57.4282
X143.5827 Y57.8313
X143.6211 Y58.2351
X143.6269 Y58.6373
X143.6006 Y59.0356
X143.5428 Y59.428
X143.4542 Y59.8125
X143.3354 Y60.1872
X143.1873 Y60.5503
X143.0108 Y60.9
X142.8066 Y61.2345
X142.5759 Y61.5521
X142.3197 Y61.8509
X142.0394 Y62.1292
X141.7363 Y62.3853
X141.412 Y62.6173
X141.0683 Y62.8238
X140.7069 Y63.003
X140.33 Y63.1536
X139.9399 Y63.2742
X139.5389 Y63.3636
X139.1296 Y63.4209
X138.7146 Y63.4453
X138.2965 Y63.4362
X137.8782 Y63.3934
X137.4624 Y63.3168
X137.0519 Y63.2064
X136.6496 Y63.0627
X136.2582 Y62.8864
X135.8806 Y62.6783
X135.5193 Y62.4395
X135.1769 Y62.1714
X134.856 Y61.8756
X134.5589 Y61.5539
X134.2876 Y61.2083
X134.0442 Y60.8409
X133.8306 Y60.4541
X133.6481 Y60.0504
X133.4984 Y59.6324
X133.3824 Y59.2028
X133.3011 Y58.7645
X133.2552 Y58.3203
X133.2451 Y57.8732
X133.2709 Y57.426
X133.3326 Y56.9819
X133.4298 Y56.5436
X133.5621 Y56.1141
X133.7285 Y55.6963
X133.9281 Y55.2929
X134.1595 Y54.9065
X134.4214 Y54.5397
X134.712 Y54.195
X135.0295 Y53.8745
X135.3719 Y53.5804
X135.7368 Y53.3147
X136.1221 Y53.079
X136.5251 Y52.875
X136.9433 Y52.7039
X137.374 Y52.5669
X137.8144 Y52.4649
X138.2616 Y52.3985
X138.7127 Y52.3683
X139.1649 Y52.3743
X139.6152 Y52.4167
X140.0607 Y52.495
X140.4991 Y52.609
X140.9292 Y52.7586
X141.3498 Y52.944
X141.759 Y53.1651
X142.1547 Y53.422
X142.5358 Y53.7154
X142.8988 Y54.0445
X143.2394 Y54.4072
X143.5529 Y54.8
X143.8356 Y55.2192
X144.0842 Y55.6606
X144.2964 Y56.1201
X144.4705 Y56.5937
X144.6054 Y57.0776
X144.7005 Y57.5682
X144.7557 Y58.0621
X144.771 Y58.5562
X144.7467 Y59.0473
X144.6833 Y59.5327
X144.5816 Y60.0097
X144.4423 Y60.4756
X144.2664 Y60.928
X144.0549 Y61.3645
X143.8091 Y61.7826
X143.5303 Y62.18
X143.2199 Y62.5544
X142.8796 Y62.9036
X142.5112 Y63.2253
X142.1166 Y63.5176
X141.6982 Y63.7783
X141.2582 Y64.0056
X140.7993 Y64.1978
X140.3242 Y64.3532
X139.8358 Y64.4706
X139.3371 Y64.5488
X138.8314 Y64.5869
X138.3218 Y64.5843
X137.8117 Y64.5406
X137.3045 Y64.4557
X136.8036 Y64.3298
X136.3123 Y64.1634
X135.8341 Y63.9573
X135.3721 Y63.7126
X134.9297 Y63.4305
X134.5099 Y63.1128
X134.1158 Y62.7613
X133.75 Y62.3781
X133.4152 Y61.9657
X133.1139 Y61.5266
X132.8481 Y61.0637
X132.6198 Y60.5798
X132.4307 Y60.0782
X132.2822 Y59.5621
X132.1754 Y59.0348
X132.1112 Y58.4999
X132.0901 Y57.9608
X132.1124 Y57.421
X132.178 Y56.8842
X132.2865 Y56.3539
X132.4374 Y55.8335
X132.6298 Y55.3265
X132.8623 Y54.8363
X133.1337 Y54.366
X133.442 Y53.9187
X133.7855 Y53.4974
X134.1618 Y53.1049
X134.5685 Y52.7437
X135.0031 Y52.4162
X135.4627 Y52.1246
X135.9444 Y51.8707
X136.4449 Y51.6562
X136.9612 Y51.4826
X137.4899 Y51.3509
X138.0275 Y51.2621
X138.5705 Y51.2167
X139.1155 Y51.215
X139.6592 Y51.2571
X140.1986 Y51.3429
X140.7314 Y51.4721
X141.255 Y51.6446
X141.767 Y51.8603
X142.2651 Y52.119
X142.7468 Y52.4205
X143.2084 Y52.764
X143.6459 Y53.1478
X144.055 Y53.5693
X144.4315 Y54.0254
X144.7718 Y54.5125
X145.0726 Y55.0265
X145.3312 Y55.5633
X145.5457 Y56.1184
X145.7146 Y56.6878
X145.8369 Y57.2671
X145.912 Y57.8523
X145.9398 Y58.4396
X145.9205 Y59.0252
X145.8545 Y59.6056
X145.7423 Y60.1772
X145.585 Y60.7368
X145.3836 Y61.2812
X145.1393 Y61.8073
X144.8536 Y62.3121
X144.5281 Y62.7927
X144.1646 Y63.2461
X143.7651 Y63.6697
X143.3319 Y64.0608
X142.8673 Y64.4169
X142.3741 Y64.7356
X141.8551 Y65.0147
X141.3134 Y65.2521
X140.7523 Y65.4459
X140.1751 Y65.5947
X139.5855 Y65.6972
X138.9872 Y65.7521
X138.384 Y65.7589
X137.7799 Y65.7171
X137.1788 Y65.6267
X136.5847 Y65.4877
X136.0016 Y65.3009
X135.4334 Y65.067
X134.884 Y64.7874
X134.3572 Y64.4636
X133.8565 Y64.0975
X133.3856 Y63.6912
X132.9476 Y63.2473
X132.5457 Y62.7685
X132.1827 Y62.2578
X131.8611 Y61.7185
X131.5834 Y61.154
X131.3514 Y60.568
X131.1669 Y59.9642
X131.0312 Y59.3467
X130.9454 Y58.7194
X130.9102 Y58.0865
X130.9259 Y57.452
X130.9926 Y56.8203
X131.1099 Y56.1953
X131.277 Y55.5812
X131.4931 Y54.9822
X131.7567 Y54.402
X132.0663 Y53.8445
X132.4197 Y53.3133
X132.8148 Y52.812
X133.2491 Y52.3439
X133.7197 Y51.9119
X134.2236 Y51.519
X134.7576 Y51.1677
X135.3182 Y50.8603
X135.9018 Y50.5989
X136.5046 Y50.385
X137.1227 Y50.2202
X137.7521 Y50.1056
X138.3889 Y50.0418
X139.0291 Y50.0293
X139.6692 Y50.0683
X140.3056 Y50.1587
X140.9352 Y50.3005
X141.5547 Y50.4934
X142.161 Y50.7371
X142.7505 Y51.031
X143.3191 Y51.3742
X143.8628 Y51.765
X144.3774 Y52.2016
X144.8586 Y52.6813
X145.3022 Y53.2011
X145.7045 Y53.7572
X146.0618 Y54.3455
X146.3711 Y54.9613
X146.6301 Y55.6
X146.8367 Y56.2566
X146.9896 Y56.9265
X147.0881 Y57.6049
X147.1317 Y58.2873
X147.1204 Y58.9692
X147.0546 Y59.6464
X146.9348 Y60.3148
X146.7621 Y60.9704
X146.5376 Y61.6092
X146.2628 Y62.2276
X145.9392 Y62.822
X145.5687 Y63.3887
X145.1536 Y63.9243
X144.6962 Y64.4257
X144.1991 Y64.8895
X143.6651 Y65.313
X143.0975 Y65.6931
X142.4996 Y66.0274
X141.8748 Y66.3135
X141.7257 Y66.3678
X141.6432 Y66.3925
X141.5583 Y66.4075
X141.4723 Y66.4125
X136.8491
X136.3321 Y66.3866
X135.9986 Y66.3429
X135.591 Y66.2557
X135.1575 Y66.1258
X134.6944 Y65.9455
X134.1869 Y65.6993
X133.6601 Y65.3892
X133.1327 Y65.0186
X132.6218 Y64.5946
X132.137 Y64.1215
X131.6825 Y63.6006
X131.2633 Y63.0339
X130.886 Y62.4277
X130.5561 Y61.7882
X130.4448 Y61.5221
X130.4132 Y61.4297
X130.394 Y61.3339
X130.3875 Y61.2364
G3 X130.8862 Y60.9757 I0.3175
G1 X130.9632 Y61.0292
X137.6216 Y65.6576
G3 X137.6027 Y66.1912 I-0.1812 J0.2607
X136.8491 Y66.4125 I-0.8088 J-1.3603
G1 X134.3339
X134.081 Y66.3998
X133.8628 Y66.3712
X133.6254 Y66.3204
X133.3611 Y66.2413
X133.0451 Y66.1182
X132.7233 Y65.9621
X132.342 Y65.7376
X131.9398 Y65.455
X131.5238 Y65.1098
X131.0751 Y64.6719
X130.6227 Y64.1534
X130.5328 Y64.0319
X130.4533 Y63.8965
X130.4041 Y63.7474
X130.3875 Y63.5912
G3 X130.8849 Y63.3409 I0.3173 J0.0111
G1 X130.9724 Y63.4011
X134.5029 Y65.8337
G3 X134.3339 Y66.4125 I-0.1801 J0.2614
G1 X132.4893
X132.3165 Y66.4038
X132.1388 Y66.3805
X131.9462 Y66.3394
X131.7354 Y66.2762
X131.4793 Y66.1765
X131.2251 Y66.0531
X130.9169 Y65.8717
X130.7025 Y65.721
X130.5708 Y65.6027
X130.4709 Y65.4564
X130.4087 Y65.2907
X130.3875 Y65.1149
G3 X130.8571 Y64.8473 I0.3173 J0.0111
G1 X130.979 Y64.914
X132.6305 Y65.8166
G3 X132.4893 Y66.4125 I-0.1523 J0.2786
G1 X130.9802
X130.9295
X130.8941
X130.7443 Y66.405
X130.602 Y66.3442
X130.4874 Y66.2402
X130.4132 Y66.1044
X130.3875 Y65.9518
G3 X130.5246 Y65.6149 I0.5278 J0.0184
X130.8941 Y66.4125 I0.3529 J0.3209
G1 X130.7287
X130.6868 Y66.4106
X130.6448 Y66.4032
X130.5992 Y66.3882
X130.5536 Y66.3647
X130.5154 Y66.3368
X130.4772 Y66.3007
X130.4546 Y66.2748
X130.4364 Y66.2489
X130.4218 Y66.223
X130.4101 Y66.1971
X130.3967 Y66.1552
X130.3893 Y66.1133
X130.3875 Y66.0295
Y55.808
X130.4099 Y55.3598
X130.4514 Y55.0432
X130.5334 Y54.6598
X130.6514 Y54.266
X130.8322 Y53.802
X131.0732 Y53.3052
X131.3608 Y52.8167
X131.7214 Y52.3034
X132.1474 Y51.7901
X132.6308 Y51.2946
X133.1644 Y50.8291
X133.7418 Y50.4019
X134.3571 Y50.019
X135.0047 Y49.6849
X135.1005 Y49.6448
X135.193 Y49.6132
X135.2888 Y49.5939
X135.3863 Y49.5875
G3 X135.624 Y50.102 I-0.0111 J0.3173
G1 X135.5712 Y50.1686
X130.961 Y55.9849
X130.9536 Y55.9942
G3 X130.3875 Y55.808 I-0.2488 J-0.1972
G1 Y53.2945
X130.395 Y53.1447
X130.4272 Y52.9222
X130.4784 Y52.6975
X130.5645 Y52.4235
X130.6864 Y52.1227
X130.8547 Y51.7873
X131.0786 Y51.4183
X131.3836 Y50.9963
X131.7298 Y50.5904
X132.1759 Y50.1454
X132.6255 Y49.7636
X132.77 Y49.6676
X132.9328 Y49.6078
X133.105 Y49.5875
G3 X133.3531 Y50.0881 I-0.0111 J0.3173
G1 X133.2941 Y50.1717
X130.9641 Y53.4668
G3 X130.3875 Y53.2945 I-0.2592 J-0.1833
G1 Y51.6189
X130.3974 Y51.4219
X130.4199 Y51.2499
X130.4623 Y51.0518
X130.5232 Y50.8483
X130.6194 Y50.6013
X130.7458 Y50.3408
X130.919 Y50.0467
X131.0203 Y49.9025
X131.1387 Y49.7708
X131.2849 Y49.6709
X131.4507 Y49.6087
X131.6265 Y49.5875
G3 X131.8954 Y50.0545 I-0.0111 J0.3173
G1 X131.8285 Y50.1796
X130.9848 Y51.7575
G3 X130.3875 Y51.6189 I-0.28 J-0.1497
G1 Y50.1108
Y50.0829
Y50.0406
X130.395 Y49.8908
X130.4487 Y49.7696
X130.5388 Y49.6722
X130.6555 Y49.6093
X130.7863 Y49.5875
G3 X131.09 Y49.7082 I-0.0169 J0.485
X130.3875 Y50.0406 I-0.2796 J0.3177
G1 X130.388 Y49.9013
X130.393 Y49.8594
X130.4039 Y49.8175
X130.4213 Y49.7756
X130.4447 Y49.7364
X130.4772 Y49.6971
X130.5101 Y49.6675
X130.5429 Y49.6422
X130.5758 Y49.6227
X130.6087 Y49.6081
X130.6448 Y49.5968
X130.6868 Y49.5894
X130.7287 Y49.5875
X141.3765
X141.629 Y49.6001
X141.9606 Y49.6436
X142.298 Y49.7158
X142.7146 Y49.8406
X143.1513 Y50.0106
X143.6272 Y50.2415
X144.1491 Y50.5488
X144.689 Y50.9281
X145.2238 Y51.372
X145.7325 Y51.8683
X146.2147 Y52.421
X146.6535 Y53.0141
X147.0447 Y53.6397
X147.3869 Y54.2934
X147.6785 Y54.9711
X147.9181 Y55.6689
X148.1044 Y56.3828
X148.2363 Y57.1088
X148.313 Y57.8426
X148.334 Y58.5801
X148.299 Y59.3171
X148.2081 Y60.0493
X148.0617 Y60.7724
X147.8606 Y61.4823
X147.6059 Y62.1748
X147.2991 Y62.8458
X146.9419 Y63.4914
X146.5364 Y64.1077
X146.0845 Y64.691
X145.589 Y65.2377
X145.0528 Y65.7445
X144.4794 Y66.2088
X144.3745 Y66.2812
X144.244 Y66.3532
X144.1017 Y66.3975
X143.9535 Y66.4125
X141.4723
G3 X141.2955 Y65.8392 I0.0111 J-0.3173
G1 X141.3525 Y65.7974 Z-1.992
X141.4066 Y65.7577 Z-1.9686
X141.4552 Y65.7221 Z-1.9307
X141.4957 Y65.6924 Z-1.8805
X141.5262 Y65.67 Z-1.8203
X141.5451 Y65.6561 Z-1.7531
X141.5515 Y65.6514 Z-1.6825
G0 Z5
X140.3501 Y49.9711
Z-1.365
G1 Z-1.6825 F3500
X140.3569 Y49.967 Z-1.7532
X140.3771 Y49.955 Z-1.8203
X140.4096 Y49.9357 Z-1.8805
X140.4528 Y49.91 Z-1.9307
X140.5046 Y49.8792 Z-1.9686
X140.5623 Y49.8449 Z-1.992
X140.623 Y49.8088 Z-2
G3 X141.3765 Y49.5875 I0.8088 J1.3603
G1 X143.5564
X143.8171 Y49.6006
X144.0349 Y49.6291
X144.257 Y49.6766
X144.5212 Y49.7558
X144.8282 Y49.8753
X145.1499 Y50.0314
X145.5301 Y50.2552
X145.9323 Y50.5378
X146.3581 Y50.8912
X146.822 Y51.3439
X147.2922 Y51.8828
X147.731 Y52.4759
X148.1232 Y53.1009
X148.4676 Y53.7534
X148.7644 Y54.4289
X149.0138 Y55.1232
X149.2158 Y55.8329
X149.3699 Y56.5544
X149.4756 Y57.2846
X149.5326 Y58.0202
X149.5406 Y58.758
X149.4994 Y59.4946
X149.407 Y60.2266
X149.2638 Y60.9504
X149.0715 Y61.6627
X148.8315 Y62.3604
X148.5452 Y63.0404
X148.214 Y63.6997
X147.8393 Y64.3353
X147.4228 Y64.9443
X146.9661 Y65.5238
X146.4695 Y66.0695
X146.3251 Y66.2075
X146.174 Y66.3189
X145.9997 Y66.3887
X145.8134 Y66.4125
X143.9535
G3 X143.7767 Y65.8392 I0.0111 J-0.3173
G1 X143.8337 Y65.7974 Z-1.992
X143.8878 Y65.7577 Z-1.9686
X143.9363 Y65.7221 Z-1.9307
X143.9769 Y65.6924 Z-1.8805
X144.0074 Y65.67 Z-1.8203
X144.0263 Y65.6561 Z-1.7531
X144.0327 Y65.6514 Z-1.6825
G0 Z5
X142.53 Y49.9711
Z-1.365
G1 Z-1.6825 F3500
X142.5368 Y49.967 Z-1.7532
X142.557 Y49.955 Z-1.8203
X142.5895 Y49.9357 Z-1.8805
X142.6327 Y49.91 Z-1.9307
X142.6844 Y49.8792 Z-1.9686
X142.7421 Y49.8449 Z-1.992
X142.8029 Y49.8088 Z-2
G3 X143.5564 Y49.5875 I0.8088 J1.3603
G1 X145.4009
X145.5636 Y49.5956
X145.7413 Y49.6189
X145.9342 Y49.6602
X146.1451 Y49.7234
X146.4019 Y49.8234
X146.6596 Y49.9484
X146.9677 Y50.1298
X147.2943 Y50.3592
X147.6725 Y50.6732
X148.0444 Y51.036
X148.4593 Y51.5116
X148.8839 Y52.0854
X149.2737 Y52.7118
X149.6159 Y53.3654
X149.9129 Y54.0408
X150.1645 Y54.7344
X150.3709 Y55.4428
X150.5331 Y56.1626
X150.6514 Y56.8908
X150.726 Y57.6249
X150.7566 Y58.362
X150.743 Y59.0997
X150.6847 Y59.8352
X150.5814 Y60.5658
X150.4338 Y61.2887
X150.2411 Y62.0009
X150.0041 Y62.6996
X149.7249 Y63.3826
X149.4049 Y64.0474
X149.0456 Y64.6918
X148.6482 Y65.3135
X148.214 Y65.91
X148.0209 Y66.1436
X147.86 Y66.2886
X147.6641 Y66.3808
X147.4499 Y66.4125
X145.8134
G3 X145.6367 Y65.8392 I0.0111 J-0.3173
G1 X145.6937 Y65.7974 Z-1.992
X145.7478 Y65.7577 Z-1.9686
X145.7963 Y65.7221 Z-1.9307
X145.8368 Y65.6924 Z-1.8805
X145.8673 Y65.67 Z-1.8203
X145.8863 Y65.6561 Z-1.7532
X145.8927 Y65.6514 Z-1.6825
G0 Z5
X144.3745 Y49.9711
Z-1.365
G1 Z-1.6825 F3500
X144.3813 Y49.967 Z-1.7532
X144.4015 Y49.955 Z-1.8203
X144.434 Y49.9357 Z-1.8805
X144.4772 Y49.91 Z-1.9307
X144.529 Y49.8792 Z-1.9686
X144.5866 Y49.8449 Z-1.992
X144.6474 Y49.8088 Z-2
G3 X145.4009 Y49.5875 I0.8088 J1.3603
G1 X147.0023
X147.1521 Y49.595
X147.3031 Y49.616
X147.4815 Y49.6557
X147.6841 Y49.7181
X147.8929 Y49.8013
X148.146 Y49.9266
X148.4031 Y50.0807
X148.7024 Y50.2945
X149.0176 Y50.5605
X149.3791 Y50.9188
X149.7289 Y51.3262
X150.1156 Y51.8577
X150.5005 Y52.4872
X150.835 Y53.1448
X151.1237 Y53.8238
X151.3689 Y54.5197
X151.5725 Y55.2289
X151.7348 Y55.9486
X151.8552 Y56.6765
X151.9346 Y57.41
X151.9735 Y58.1468
X151.9719 Y58.8846
X151.9299 Y59.6213
X151.8475 Y60.3545
X151.7248 Y61.082
X151.5618 Y61.8016
X151.3588 Y62.5109
X151.117 Y63.208
X150.8367 Y63.8905
X150.518 Y64.5559
X150.1628 Y65.2026
X149.7725 Y65.8287
X149.5786 Y66.1012
X149.4143 Y66.2682
X149.2062 Y66.3755
X148.975 Y66.4125
X147.4499
G3 X147.2731 Y65.8392 I0.0111 J-0.3173
G1 X147.3301 Y65.7974 Z-1.992
X147.3842 Y65.7577 Z-1.9686
X147.4327 Y65.7221 Z-1.9307
X147.4733 Y65.6924 Z-1.8805
X147.5038 Y65.67 Z-1.8203
X147.5227 Y65.6561 Z-1.7532
X147.5291 Y65.6514 Z-1.6825
G0 Z5
X145.9758 Y49.9711
Z-1.365
G1 Z-1.6825 F3500
X145.9827 Y49.967 Z-1.7532
X146.0029 Y49.955 Z-1.8203
X146.0354 Y49.9357 Z-1.8805
X146.0786 Y49.91 Z-1.9307
X146.1303 Y49.8792 Z-1.9686
X146.188 Y49.8449 Z-1.992
X146.2487 Y49.8088 Z-2
G3 X147.0023 Y49.5875 I0.8088 J1.3603
G1 X148.4192
X148.6033 Y49.5967
X148.752 Y49.6162
X148.9248 Y49.6537
X149.1016 Y49.7071
X149.3036 Y49.7865
X149.5305 Y49.8973
X149.7641 Y50.0357
X150.046 Y50.2349
X150.3174 Y50.4614
X150.6494 Y50.7871
X150.9674 Y51.1536
X151.321 Y51.6343
X151.6908 Y52.2321
X152.0273 Y52.8887
X152.3158 Y53.5678
X152.561 Y54.2637
X152.7657 Y54.9725
X152.93 Y55.6918
X153.0546 Y56.419
X153.1408 Y57.1518
X153.1893 Y57.888
X153.2005 Y58.6258
X153.1747 Y59.3631
X153.1119 Y60.0983
X153.0123 Y60.8293
X152.876 Y61.5544
X152.7033 Y62.2718
X152.4947 Y62.9795
X152.2505 Y63.6757
X151.9701 Y64.3581
X151.6542 Y65.0249
X151.3045 Y65.6746
X151.0542 Y66.0799
X151.0318 Y66.1104
X150.8681 Y66.2726
X150.6624 Y66.3767
X150.4348 Y66.4125
X148.975
G3 X148.7982 Y65.8392 I0.0111 J-0.3173
G1 X148.8552 Y65.7974 Z-1.992
X148.9093 Y65.7577 Z-1.9686
X148.9578 Y65.7221 Z-1.9307
X148.9984 Y65.6924 Z-1.8805
X149.0289 Y65.67 Z-1.8203
X149.0478 Y65.6561 Z-1.7531
X149.0542 Y65.6514 Z-1.6825
G0 Z5
X147.3928 Y49.9711
Z-1.365
G1 Z-1.6825 F3500
X147.3996 Y49.967 Z-1.7532
X147.4198 Y49.955 Z-1.8203
X147.4523 Y49.9357 Z-1.8805
X147.4955 Y49.91 Z-1.9307
X147.5473 Y49.8792 Z-1.9686
X147.6049 Y49.8449 Z-1.992
X147.6657 Y49.8088 Z-2
G3 X148.4192 Y49.5875 I0.8088 J1.3603
G1 X149.8529
X150.0028 Y49.595
X150.1516 Y49.6145
X150.3079 Y49.6482
X150.4791 Y49.6998
X150.6795 Y49.7783
X150.8783 Y49.8752
X151.115 Y50.0151
X151.3591 Y50.1872
X151.6329 Y50.4153
X151.9247 Y50.701
X152.2458 Y51.0704
X152.5645 Y51.5027
X152.9121 Y52.0635
X153.2493 Y52.7198
X153.5358 Y53.3997
X153.7782 Y54.0966
X153.9799 Y54.8063
X154.1431 Y55.5258
X154.269 Y56.2528
X154.3579 Y56.9853
X154.411 Y57.7212
X154.429 Y58.4588
X154.4126 Y59.1964
X154.3619 Y59.9325
X154.2773 Y60.6654
X154.1589 Y61.3937
X154.0069 Y62.1157
X153.8218 Y62.8299
X153.6037 Y63.5347
X153.3525 Y64.2285
X153.0687 Y64.9095
X152.7526 Y65.5762
X152.537 Y65.9673
X152.4623 Y66.0803
X152.3438 Y66.2188
X152.1951 Y66.3242
X152.0252 Y66.3901
X151.8443 Y66.4125
X150.4348
G3 X150.258 Y65.8392 I0.0111 J-0.3173
G1 X150.315 Y65.7974 Z-1.992
X150.3691 Y65.7577 Z-1.9686
X150.4177 Y65.7221 Z-1.9307
X150.4582 Y65.6924 Z-1.8805
X150.4887 Y65.67 Z-1.8203
X150.5076 Y65.6561 Z-1.7532
X150.514 Y65.6514 Z-1.6825
G0 Z5
X148.8264 Y49.9711
Z-1.365
G1 Z-1.6825 F3500
X148.8333 Y49.967 Z-1.7532
X148.8535 Y49.955 Z-1.8203
X148.886 Y49.9357 Z-1.8805
X148.9292 Y49.91 Z-1.9307
X148.9809 Y49.8792 Z-1.9686
X149.0386 Y49.8449 Z-1.992
X149.0993 Y49.8088 Z-2
G3 X149.8529 Y49.5875 I0.8088 J1.3603
G1 X151.2698
X151.4196 Y49.595
X151.5676 Y49.6197
X151.7236 Y49.6593
X151.9088 Y49.7225
X152.0944 Y49.803
X152.3087 Y49.9172
X152.537 Y50.0636
X152.7824 Y50.2502
X153.0572 Y50.4964
X153.3387 Y50.7927
X153.6474 Y51.1749
X153.9801 Y51.662
X154.3056 Y52.2321
X154.6188 Y52.9002
X154.8816 Y53.5896
X155.1009 Y54.2941
X155.2811 Y55.0095
X155.4246 Y55.7333
X155.5328 Y56.4631
X155.6071 Y57.1972
X155.6482 Y57.9338
X155.6569 Y58.6716
X155.6335 Y59.409
X155.5783 Y60.1448
X155.4917 Y60.8775
X155.3734 Y61.6058
X155.2232 Y62.3281
X155.0416 Y63.0432
X154.8291 Y63.7498
X154.5859 Y64.4464
X154.3125 Y65.1317
X154.0472 Y65.7148
X153.8676 Y66.0379
X153.838 Y66.0824
X153.7195 Y66.2201
X153.5711 Y66.3248
X153.4017 Y66.3902
X153.2214 Y66.4125
X151.8443
G3 X151.6676 Y65.8392 I0.0111 J-0.3173
G1 X151.7245 Y65.7974 Z-1.992
X151.7787 Y65.7577 Z-1.9686
X151.8272 Y65.7221 Z-1.9307
X151.8677 Y65.6924 Z-1.8805
X151.8982 Y65.67 Z-1.8203
X151.9172 Y65.6561 Z-1.7531
X151.9236 Y65.6514 Z-1.6825
G0 Z5
X150.2434 Y49.9711
Z-1.365
G1 Z-1.6825 F3500
X150.2502 Y49.967 Z-1.7532
X150.2704 Y49.955 Z-1.8203
X150.3029 Y49.9357 Z-1.8805
X150.3461 Y49.91 Z-1.9307
X150.3979 Y49.8792 Z-1.9686
X150.4555 Y49.8449 Z-1.992
X150.5163 Y49.8088 Z-2
G3 X151.2698 Y49.5875 I0.8088 J1.3603
G1 X152.6113
X152.7611 Y49.595
X152.9089 Y49.6208
X153.061 Y49.6603
X153.2326 Y49.7199
X153.4292 Y49.8064
X153.6258 Y49.9125
X153.8609 Y50.0649
X154.0946 Y50.2446
X154.3646 Y50.4892
X154.6336 Y50.7753
X154.9453 Y51.1654
X155.238 Y51.5989
X155.5582 Y52.1665
X155.8679 Y52.8362
X156.1262 Y53.5273
X156.3408 Y54.2332
X156.5166 Y54.9498
X156.6567 Y55.6742
X156.7632 Y56.4043
X156.8375 Y57.1383
X156.8801 Y57.8749
X156.8914 Y58.6126
X156.872 Y59.3502
X156.8227 Y60.0864
X156.7437 Y60.8199
X156.635 Y61.5497
X156.4969 Y62.2745
X156.3295 Y62.993
X156.1332 Y63.7043
X155.9083 Y64.407
X155.6548 Y65.0999
X155.4139 Y65.6684
X155.2432 Y65.9954
X155.1988 Y66.0661
X155.0804 Y66.2102
X154.9299 Y66.3201
X154.7566 Y66.389
X154.5717 Y66.4125
X153.2214
G3 X153.0447 Y65.8392 I0.0111 J-0.3173
G1 X153.1017 Y65.7974 Z-1.992
X153.1558 Y65.7577 Z-1.9686
X153.2043 Y65.7221 Z-1.9307
X153.2448 Y65.6924 Z-1.8805
X153.2753 Y65.67 Z-1.8203
X153.2943 Y65.6561 Z-1.7532
X153.3007 Y65.6514 Z-1.6825
G0 Z5
X151.5848 Y49.9711
Z-1.365
G1 Z-1.6825 F3500
X151.5917 Y49.967 Z-1.7532
X151.6118 Y49.955 Z-1.8203
X151.6444 Y49.9357 Z-1.8805
X151.6876 Y49.91 Z-1.9307
X151.7393 Y49.8792 Z-1.9686
X151.797 Y49.8449 Z-1.992
X151.8577 Y49.8088 Z-2
G3 X152.6113 Y49.5875 I0.8088 J1.3603
G1 X153.8773
X154.0271 Y49.595
X154.1756 Y49.616
X154.3241 Y49.6504
X154.4845 Y49.7015
X154.6742 Y49.7793
X154.863 Y49.875
X155.0812 Y50.0086
X155.3059 Y50.1725
X155.5543 Y50.386
X155.8178 Y50.6523
X156.1014 Y50.989
X156.3907 Y51.3947
X156.7037 Y51.9178
X157.0207 Y52.5595
X157.2934 Y53.2451
X157.519 Y53.9476
X157.7036 Y54.6619
X157.8515 Y55.3848
X157.9658 Y56.1137
X158.0486 Y56.8468
X158.1008 Y57.5828
X158.1235 Y58.3203
X158.1172 Y59.058
X158.0825 Y59.795
X158.0197 Y60.5302
X157.9291 Y61.2624
X157.8108 Y61.9907
X157.6651 Y62.714
X157.4922 Y63.4312
X157.2923 Y64.1415
X157.0656 Y64.8436
X156.8154 Y65.511
X156.6426 Y65.8789
X156.5508 Y66.0394
X156.4332 Y66.1939
X156.2795 Y66.3125
X156.1002 Y66.3871
X155.9077 Y66.4125
X154.5717
G3 X154.3949 Y65.8392 I0.0111 J-0.3173
G1 X154.4519 Y65.7974 Z-1.992
X154.506 Y65.7577 Z-1.9686
X154.5545 Y65.7221 Z-1.9307
X154.5951 Y65.6924 Z-1.8805
X154.6256 Y65.67 Z-1.8203
X154.6445 Y65.6561 Z-1.7531
X154.6509 Y65.6514 Z-1.6825
G0 Z5
X152.8508 Y49.9711
Z-1.365
G1 Z-1.6825 F3500
X152.8577 Y49.967 Z-1.7532
X152.8779 Y49.955 Z-1.8203
X152.9104 Y49.9357 Z-1.8805
X152.9536 Y49.91 Z-1.9307
X153.0053 Y49.8792 Z-1.9686
X153.063 Y49.8449 Z-1.992
X153.1237 Y49.8088 Z-2
G3 X153.8773 Y49.5875 I0.8088 J1.3603
G1 X155.2188
X155.3686 Y49.595
X155.5164 Y49.6203
X155.67 Y49.661
X155.8432 Y49.7222
X156.02 Y49.8011
X156.2292 Y49.9154
X156.4343 Y50.0499
X156.6737 Y50.236
X156.9175 Y50.4591
X157.1903 Y50.7523
X157.4655 Y51.1003
X157.7714 Y51.5586
X158.0675 Y52.09
X158.3735 Y52.7608
X158.6249 Y53.4544
X158.831 Y54.1629
X158.9984 Y54.8815
X159.1311 Y55.6072
X159.232 Y56.3381
X159.3029 Y57.0725
X159.345 Y57.8091
X159.3591 Y58.5468
X159.3461 Y59.2845
X159.3063 Y60.0213
X159.24 Y60.7561
X159.1475 Y61.4881
X159.0291 Y62.2163
X158.8844 Y62.9398
X158.7135 Y63.6576
X158.5171 Y64.3688
X158.293 Y65.0717
X158.0954 Y65.5911
X157.9392 Y65.9195
X157.8681 Y66.0425
X157.7504 Y66.1958
X157.597 Y66.3134
X157.4184 Y66.3873
X157.2268 Y66.4125
X155.9077
G3 X155.731 Y65.8392 I0.0111 J-0.3173
G1 X155.7879 Y65.7974 Z-1.992
X155.842 Y65.7577 Z-1.9686
X155.8906 Y65.7221 Z-1.9307
X155.9311 Y65.6924 Z-1.8805
X155.9616 Y65.67 Z-1.8203
X155.9805 Y65.6561 Z-1.7532
X155.987 Y65.6514 Z-1.6825
G0 Z5
X154.1923 Y49.9711
Z-1.365
G1 Z-1.6825 F3500
X154.1991 Y49.967 Z-1.7532
X154.2193 Y49.955 Z-1.8203
X154.2518 Y49.9357 Z-1.8805
X154.2951 Y49.91 Z-1.9307
X154.3468 Y49.8792 Z-1.9686
X154.4045 Y49.8449 Z-1.992
X154.4652 Y49.8088 Z-2
G3 X155.2188 Y49.5875 I0.8088 J1.3603
G1 X156.468
X156.6178 Y49.595
X156.7662 Y49.6171
X156.912 Y49.6521
X157.0732 Y49.705
X157.2556 Y49.7815
X157.4398 Y49.8769
X157.6589 Y50.0136
X157.8748 Y50.1737
X158.1239 Y50.3917
X158.3716 Y50.6462
X158.6561 Y50.9899
X158.9273 Y51.377
X159.2262 Y51.8862
X159.5291 Y52.5126
X159.7959 Y53.2005
X160.0142 Y53.9053
X160.1913 Y54.6215
X160.3322 Y55.3458
X160.4408 Y56.0756
X160.5195 Y56.8092
X160.5701 Y57.5452
X160.5938 Y58.2827
X160.5912 Y59.0205
X160.5631 Y59.7578
X160.5098 Y60.4937
X160.4315 Y61.2273
X160.3286 Y61.9579
X160.2009 Y62.6846
X160.0487 Y63.4065
X159.872 Y64.1229
X159.6695 Y64.8324
X159.4543 Y65.4599
X159.294 Y65.8282
X159.191 Y66.0209
X159.0742 Y66.1825
X158.9185 Y66.3071
X158.7352 Y66.3857
X158.5376 Y66.4125
X157.2268
G3 X157.05 Y65.8392 I0.0111 J-0.3173
G1 X157.107 Y65.7974 Z-1.992
X157.1611 Y65.7577 Z-1.9686
X157.2096 Y65.7221 Z-1.9307
X157.2502 Y65.6924 Z-1.8805
X157.2807 Y65.67 Z-1.8203
X157.2996 Y65.6561 Z-1.7532
X157.306 Y65.6514 Z-1.6825
G0 Z5
X155.4415 Y49.9711
Z-1.365
G1 Z-1.6825 F3500
X155.4484 Y49.967 Z-1.7532
X155.4686 Y49.955 Z-1.8203
X155.5011 Y49.9357 Z-1.8805
X155.5443 Y49.91 Z-1.9307
X155.596 Y49.8792 Z-1.9686
X155.6537 Y49.8449 Z-1.992
X155.7144 Y49.8088 Z-2
G3 X156.468 Y49.5875 I0.8088 J1.3603
G1 X157.734
X157.8838 Y49.595
X158.0324 Y49.6159
X158.1784 Y49.6503
X158.3467 Y49.7049
X158.515 Y49.775
X158.7092 Y49.8748
X158.9116 Y50.0003
X159.1316 Y50.1626
X159.3726 Y50.3721
X159.6202 Y50.625
X159.8935 Y50.9533
X160.1731 Y51.3499
X160.4568 Y51.8301
X160.7547 Y52.4417
X161.0236 Y53.1288
X161.2427 Y53.8333
X161.4204 Y54.5494
X161.5622 Y55.2735
X161.672 Y56.0031
X161.7526 Y56.7365
X161.8056 Y57.4724
X161.8321 Y58.2097
X161.833 Y58.9475
X161.8092 Y59.6849
X161.7612 Y60.4212
X161.6894 Y61.1555
X161.594 Y61.8871
X161.4753 Y62.6153
X161.3332 Y63.3394
X161.1676 Y64.0583
X160.9758 Y64.7708
X160.7698 Y65.4073
X160.612 Y65.7877
X160.4846 Y66.036
X160.4689 Y66.0614
X160.3507 Y66.2073
X160.1995 Y66.3188
X160.0252 Y66.3887
X159.8389 Y66.4125
X158.5376
G3 X158.3609 Y65.8392 I0.0111 J-0.3173
G1 X158.4178 Y65.7974 Z-1.992
X158.472 Y65.7577 Z-1.9686
X158.5205 Y65.7221 Z-1.9307
X158.561 Y65.6924 Z-1.8805
X158.5915 Y65.67 Z-1.8203
X158.6105 Y65.6561 Z-1.7532
X158.6169 Y65.6514 Z-1.6825
G0 Z5
X156.7076 Y49.9711
Z-1.365
G1 Z-1.6825 F3500
X156.7144 Y49.967 Z-1.7532
X156.7346 Y49.955 Z-1.8203
X156.7671 Y49.9357 Z-1.8805
X156.8103 Y49.91 Z-1.9307
X156.862 Y49.8792 Z-1.9686
X156.9197 Y49.8449 Z-1.992
X156.9805 Y49.8088 Z-2
G3 X157.734 Y49.5875 I0.8088 J1.3603
G1 X158.9833
X159.14 Y49.5953
X159.2887 Y49.6148
X159.4349 Y49.6483
X159.6001 Y49.7008
X159.765 Y49.7683
X159.9583 Y49.8662
X160.1574 Y49.988
X160.3764 Y50.1475
X160.6099 Y50.3481
X160.8563 Y50.5969
X161.1218 Y50.9118
X161.3999 Y51.3013
X161.6776 Y51.7651
X161.9716 Y52.3595
X162.2446 Y53.045
X162.4665 Y53.7486
X162.6463 Y54.4642
X162.7901 Y55.1879
X162.902 Y55.9172
X162.985 Y56.6503
X163.0409 Y57.386
X163.0704 Y58.1232
X163.0751 Y58.861
X163.0558 Y59.5986
X163.0132 Y60.3352
X162.9479 Y61.0701
X162.8599 Y61.8026
X162.7497 Y62.5322
X162.6172 Y63.258
X162.4617 Y63.9792
X162.2804 Y64.6944
X162.0733 Y65.371
X161.9265 Y65.7413
X161.7988 Y66.0005
X161.7684 Y66.0514
X161.6504 Y66.2012
X161.498 Y66.3159
X161.3214 Y66.3879
X161.1323 Y66.4125
X159.8389
G3 X159.6622 Y65.8392 I0.0111 J-0.3173
G1 X159.7191 Y65.7974 Z-1.992
X159.7733 Y65.7577 Z-1.9686
X159.8218 Y65.7221 Z-1.9307
X159.8623 Y65.6924 Z-1.8805
X159.8928 Y65.67 Z-1.8203
X159.9117 Y65.6561 Z-1.7531
X159.9182 Y65.6514 Z-1.6825
G0 Z5
X157.9568 Y49.9711
Z-1.365
G1 Z-1.6825 F3500
X157.9636 Y49.967 Z-1.7532
X157.9838 Y49.955 Z-1.8203
X158.0163 Y49.9357 Z-1.8805
X158.0595 Y49.91 Z-1.9307
X158.1113 Y49.8792 Z-1.9686
X158.169 Y49.8449 Z-1.992
X158.2297 Y49.8088 Z-2
G3 X158.9833 Y49.5875 I0.8088 J1.3603
G1 X160.3247
X160.4745 Y49.595
X160.6221 Y49.6221
X160.78 Y49.6662
X160.9399 Y49.725
X161.1219 Y49.8091
X161.3198 Y49.9206
X161.5258 Y50.0597
X161.7583 Y50.2453
X161.9892 Y50.4622
X162.2554 Y50.7559
X162.5129 Y51.0906
X162.7959 Y51.5267
X163.0898 Y52.071
X163.3792 Y52.728
X163.6214 Y53.4249
X163.8169 Y54.1364
X163.9737 Y54.8573
X164.0973 Y55.5847
X164.1912 Y56.3165
X164.2578 Y57.0513
X164.2986 Y57.788
X164.3151 Y58.5257
X164.3081 Y59.2634
X164.2785 Y60.0007
X164.2268 Y60.7367
X164.1534 Y61.4708
X164.0584 Y62.2025
X163.9421 Y62.9311
X163.804 Y63.6558
X163.6422 Y64.3757
X163.4517 Y65.0885
X163.288 Y65.561
X163.1469 Y65.8822
X163.071 Y66.0231
X162.9541 Y66.1838
X162.7986 Y66.3077
X162.6158 Y66.3858
X162.4188 Y66.4125
X161.1323
G3 X160.9555 Y65.8392 I0.0111 J-0.3173
G1 X161.0125 Y65.7974 Z-1.992
X161.0666 Y65.7577 Z-1.9686
X161.1151 Y65.7221 Z-1.9307
X161.1557 Y65.6924 Z-1.8805
X161.1862 Y65.67 Z-1.8203
X161.2051 Y65.6561 Z-1.7531
X161.2115 Y65.6514 Z-1.6825
G0 Z5
X159.2982 Y49.9711
Z-1.365
G1 Z-1.6825 F3500
X159.3051 Y49.967 Z-1.7532
X159.3253 Y49.955 Z-1.8203
X159.3578 Y49.9357 Z-1.8805
X159.401 Y49.91 Z-1.9307
X159.4527 Y49.8792 Z-1.9686
X159.5104 Y49.8449 Z-1.992
X159.5712 Y49.8088 Z-2
G3 X160.3247 Y49.5875 I0.8088 J1.3603
G1 X161.4985
X161.6607 Y49.5956
X161.8094 Y49.6151
X161.9557 Y49.6484
X162.1084 Y49.6968
X162.2857 Y49.769
X162.4614 Y49.8576
X162.6677 Y49.9834
X162.8768 Y50.1351
X163.1096 Y50.3345
X163.3541 Y50.5806
X163.6162 Y50.8905
X163.8843 Y51.2648
X164.1749 Y51.7482
X164.4525 Y52.3073
X164.7266 Y52.9923
X164.9473 Y53.6964
X165.125 Y54.4124
X165.2668 Y55.1365
X165.3771 Y55.866
X165.4592 Y56.5993
X165.5153 Y57.3349
X165.547 Y58.0721
X165.5555 Y58.8098
X165.5417 Y59.5475
X165.5063 Y60.2845
X165.4498 Y61.0201
X165.3725 Y61.7539
X165.2745 Y62.4852
X165.1558 Y63.2134
X165.0155 Y63.9377
X164.851 Y64.657
X164.6615 Y65.312
X164.5135 Y65.7032
X164.3912 Y65.9615
X164.3452 Y66.0414
X164.2275 Y66.1951
X164.074 Y66.313
X163.8952 Y66.3872
X163.7032 Y66.4125
X162.4188
G3 X162.2421 Y65.8392 I0.0111 J-0.3173
G1 X162.299 Y65.7974 Z-1.992
X162.3531 Y65.7577 Z-1.9686
X162.4017 Y65.7221 Z-1.9307
X162.4422 Y65.6924 Z-1.8805
X162.4727 Y65.67 Z-1.8203
X162.4916 Y65.6561 Z-1.7532
X162.4981 Y65.6514 Z-1.6825
G0 Z5
X160.472 Y49.9711
Z-1.365
G1 Z-1.6825 F3500
X160.4789 Y49.967 Z-1.7532
X160.4991 Y49.955 Z-1.8203
X160.5316 Y49.9357 Z-1.8805
X160.5748 Y49.91 Z-1.9307
X160.6265 Y49.8792 Z-1.9686
X160.6842 Y49.8449 Z-1.992
X160.7449 Y49.8088 Z-2
G3 X161.4985 Y49.5875 I0.8088 J1.3603
G1 X162.84
X162.9898 Y49.595
X163.1372 Y49.6225
X163.2949 Y49.6669
X163.4529 Y49.7253
X163.6363 Y49.8105
X163.8283 Y49.9192
X164.0361 Y50.06
X164.2667 Y50.2449
X164.4998 Y50.4647
X164.7581 Y50.7508
X165.0187 Y51.0908
X165.2939 Y51.5168
X165.582 Y52.0528
X165.8674 Y52.7042
X166.1083 Y53.4016
X166.3017 Y54.1136
X166.4561 Y54.8351
X166.5774 Y55.5629
X166.6697 Y56.2949
X166.7357 Y57.0298
X166.7772 Y57.7664
X166.7959 Y58.504
X166.7926 Y59.2418
X166.7681 Y59.9792
X166.7231 Y60.7157
X166.6579 Y61.4506
X166.5728 Y62.1835
X166.4676 Y62.9138
X166.3418 Y63.6408
X166.1927 Y64.3633
X166.0112 Y65.0785
X165.8585 Y65.5355
X165.7206 Y65.8593
X165.6385 Y66.0158
X165.522 Y66.1794
X165.3658 Y66.3056
X165.1814 Y66.3853
X164.9824 Y66.4125
X163.7032
G3 X163.5265 Y65.8392 I0.0111 J-0.3173
G1 X163.5834 Y65.7974 Z-1.992
X163.6375 Y65.7577 Z-1.9686
X163.6861 Y65.7221 Z-1.9307
X163.7266 Y65.6924 Z-1.8805
X163.7571 Y65.67 Z-1.8203
X163.7761 Y65.6561 Z-1.7532
X163.7825 Y65.6514 Z-1.6825
G0 Z5
X161.8135 Y49.9711
Z-1.365
G1 Z-1.6825 F3500
X161.8203 Y49.967 Z-1.7532
X161.8405 Y49.955 Z-1.8203
X161.873 Y49.9357 Z-1.8805
X161.9162 Y49.91 Z-1.9307
X161.968 Y49.8792 Z-1.9686
X162.0257 Y49.8449 Z-1.992
X162.0864 Y49.8088 Z-2
G3 X162.84 Y49.5875 I0.8088 J1.3603
G1 X164.0137
X164.1684 Y49.5952
X164.3171 Y49.6147
X164.4634 Y49.6481
X164.6157 Y49.6965
X164.7927 Y49.7688
X164.9679 Y49.8574
X165.1736 Y49.9831
X165.3805 Y50.1336
X165.6124 Y50.3326
X165.8533 Y50.5755
X166.1141 Y50.8845
X166.378 Y51.2538
X166.6656 Y51.7333
X166.9398 Y52.2869
X167.2132 Y52.9722
X167.4324 Y53.6767
X167.6083 Y54.3932
X167.7482 Y55.1177
X167.8571 Y55.8474
X167.9385 Y56.5807
X167.9948 Y57.3164
X168.0279 Y58.0534
X168.0391 Y58.7912
X168.0293 Y59.5289
X167.9992 Y60.2661
X167.9494 Y61.0023
X167.8801 Y61.7368
X167.7915 Y62.4693
X167.6833 Y63.1991
X167.5539 Y63.9255
X167.3992 Y64.6469
X167.2195 Y65.2926
X167.0759 Y65.6838
X166.9565 Y65.9426
X166.9046 Y66.0349
X166.7871 Y66.1911
X166.6329 Y66.3112
X166.4526 Y66.3867
X166.2589 Y66.4125
X164.9824
G3 X164.8057 Y65.8392 I0.0111 J-0.3173
G1 X164.8627 Y65.7974 Z-1.992
X164.9168 Y65.7577 Z-1.9686
X164.9653 Y65.7221 Z-1.9307
X165.0058 Y65.6924 Z-1.8805
X165.0363 Y65.67 Z-1.8203
X165.0553 Y65.6561 Z-1.7531
X165.0617 Y65.6514 Z-1.6825
G0 Z5
X162.9873 Y49.9711
Z-1.365
G1 Z-1.6825 F3500
X162.9941 Y49.967 Z-1.7532
X163.0143 Y49.955 Z-1.8203
X163.0468 Y49.9357 Z-1.8805
X163.09 Y49.91 Z-1.9307
X163.1418 Y49.8792 Z-1.9686
X163.1995 Y49.8449 Z-1.992
X163.2602 Y49.8088 Z-2
G3 X164.0137 Y49.5875 I0.8088 J1.3603
G1 X165.2798
X165.4296 Y49.595
X165.5782 Y49.6154
X165.7243 Y49.6503
X165.8805 Y49.7012
X166.0489 Y49.7715
X166.2412 Y49.8705
X166.4321 Y49.9891
X166.6585 Y50.1563
X166.8776 Y50.3472
X167.1338 Y50.6094
X167.3757 Y50.9004
X167.6597 Y51.304
X167.9212 Y51.7475
X168.2006 Y52.3222
X168.4688 Y53.0095
X168.6846 Y53.7151
X168.8578 Y54.4323
X168.9957 Y55.1571
X169.1029 Y55.8871
X169.1831 Y56.6205
X169.2388 Y57.3562
X169.2717 Y58.0933
X169.2832 Y58.831
X169.2743 Y59.5688
X169.2457 Y60.306
X169.1977 Y61.0423
X169.1306 Y61.777
X169.0445 Y62.5098
X168.939 Y63.2401
X168.8121 Y63.9669
X168.6565 Y64.6881
X168.489 Y65.2974
X168.3509 Y65.6774
X168.2302 Y65.9413
X168.179 Y66.0329
X168.0617 Y66.1899
X167.9072 Y66.3106
X167.7265 Y66.3866
X167.5322 Y66.4125
X166.2589
G3 X166.0822 Y65.8392 I0.0111 J-0.3173
G1 X166.1391 Y65.7974 Z-1.992
X166.1932 Y65.7577 Z-1.9686
X166.2418 Y65.7221 Z-1.9307
X166.2823 Y65.6924 Z-1.8805
X166.3128 Y65.67 Z-1.8203
X166.3317 Y65.6561 Z-1.7532
X166.3382 Y65.6514 Z-1.6825
G0 Z5
X164.2533 Y49.9711
Z-1.365
G1 Z-1.6825 F3500
X164.2601 Y49.967 Z-1.7532
X164.2803 Y49.955 Z-1.8203
X164.3128 Y49.9357 Z-1.8805
X164.356 Y49.91 Z-1.9307
X164.4078 Y49.8792 Z-1.9686
X164.4655 Y49.8449 Z-1.992
X164.5262 Y49.8088 Z-2
G3 X165.2798 Y49.5875 I0.8088 J1.3603
G1 X166.529
X166.6788 Y49.595
X166.8274 Y49.6156
X166.9733 Y49.6502
X167.131 Y49.7016
X167.2965 Y49.7707
X167.4913 Y49.8711
X167.6828 Y49.9901
X167.9048 Y50.1541
X168.1235 Y50.3447
X168.3735 Y50.6007
X168.6187 Y50.8958
X168.9002 Y51.296
X169.1595 Y51.7358
X169.4404 Y52.3141
X169.7085 Y53.0014
X169.9242 Y53.707
X170.0976 Y54.4242
X170.2356 Y55.149
X170.3433 Y55.8789
X170.4242 Y56.6123
X170.4808 Y57.3479
X170.515 Y58.0849
X170.5283 Y58.8226
X170.5215 Y59.5604
X170.4951 Y60.2977
X170.4496 Y61.0341
X170.3856 Y61.7692
X170.303 Y62.5024
X170.2011 Y63.2331
X170.0769 Y63.9604
X169.9246 Y64.6823
X169.7606 Y65.2886
X169.6242 Y65.6686
X169.5044 Y65.9335
X169.4509 Y66.0302
X169.3337 Y66.1882
X169.179 Y66.3098
X168.9977 Y66.3864
X168.8026 Y66.4125
X167.5322
G3 X167.3555 Y65.8392 I0.0111 J-0.3173
G1 X167.4125 Y65.7974 Z-1.992
X167.4666 Y65.7577 Z-1.9686
X167.5151 Y65.7221 Z-1.9307
X167.5556 Y65.6924 Z-1.8805
X167.5861 Y65.67 Z-1.8203
X167.6051 Y65.6561 Z-1.7531
X167.6115 Y65.6514 Z-1.6825
G0 Z5
X165.5025 Y49.9711
Z-1.365
G1 Z-1.6825 F3500
X165.5094 Y49.967 Z-1.7532
X165.5295 Y49.955 Z-1.8203
X165.5621 Y49.9357 Z-1.8805
X165.6053 Y49.91 Z-1.9307
X165.657 Y49.8792 Z-1.9686
X165.7147 Y49.8449 Z-1.992
X165.7754 Y49.8088 Z-2
G3 X166.529 Y49.5875 I0.8088 J1.3603
G1 X167.795
X167.9448 Y49.595
X168.0931 Y49.6174
X168.2401 Y49.6543
X168.3968 Y49.7073
X168.566 Y49.7801
X168.7621 Y49.8839
X168.9545 Y50.0064
X169.1801 Y50.1771
X169.3965 Y50.3699
X169.653 Y50.6383
X169.894 Y50.935
X170.1759 Y51.3454
X170.4398 Y51.8046
X170.7187 Y52.395
X170.9792 Y53.0853
X171.1888 Y53.7927
X171.3572 Y54.5111
X171.4912 Y55.2366
X171.5956 Y55.967
X171.6738 Y56.7007
X171.7283 Y57.4365
X171.761 Y58.1736
X171.7732 Y58.9113
X171.7658 Y59.649
X171.7394 Y60.3864
X171.6946 Y61.1228
X171.6316 Y61.858
X171.5501 Y62.5913
X171.4486 Y63.3221
X171.3242 Y64.0493
X171.1706 Y64.771
X171.0091 Y65.3471
X170.8747 Y65.711
X170.7588 Y65.9612
X170.7164 Y66.0362
X170.5989 Y66.1919
X170.4448 Y66.3115
X170.2648 Y66.3868
X170.0714 Y66.4125
X168.8026
G3 X168.6259 Y65.8392 I0.0111 J-0.3173
G1 X168.6829 Y65.7974 Z-1.992
X168.737 Y65.7577 Z-1.9686
X168.7855 Y65.7221 Z-1.9307
X168.826 Y65.6924 Z-1.8805
X168.8565 Y65.67 Z-1.8203
X168.8755 Y65.6561 Z-1.7532
X168.8819 Y65.6514 Z-1.6825
G0 Z5
X166.7685 Y49.9711
Z-1.365
G1 Z-1.6825 F3500
X166.7754 Y49.967 Z-1.7532
X166.7955 Y49.955 Z-1.8203
X166.8281 Y49.9357 Z-1.8805
X166.8713 Y49.91 Z-1.9307
X166.923 Y49.8792 Z-1.9686
X166.9807 Y49.8449 Z-1.992
X167.0414 Y49.8088 Z-2
G3 X167.795 Y49.5875 I0.8088 J1.3603
G1 X169.0442
X169.194 Y49.595
X169.3423 Y49.618
X169.4877 Y49.6546
X169.6491 Y49.7096
X169.8145 Y49.7812
X170.0098 Y49.8851
X170.2039 Y50.0094
X170.425 Y50.1773
X170.6479 Y50.3769
X170.8963 Y50.6379
X171.1455 Y50.946
X171.4252 Y51.3551
X171.6859 Y51.811
X171.967 Y52.4094
X172.226 Y53.1003
X172.4345 Y53.808
X172.602 Y54.5266
X172.7354 Y55.2522
X172.8395 Y55.9827
X172.9176 Y56.7163
X172.9725 Y57.4521
X173.0058 Y58.1892
X173.019 Y58.9269
X173.013 Y59.6647
X172.9884 Y60.4021
X172.9456 Y61.1386
X172.8847 Y61.8739
X172.8053 Y62.6075
X172.7059 Y63.3386
X172.5835 Y64.0661
X172.4306 Y64.788
X172.2732 Y65.352
X172.1412 Y65.7108
X172.0255 Y65.9613
X171.9837 Y66.0354
X171.8662 Y66.1914
X171.7121 Y66.3113
X171.5319 Y66.3868
X171.3383 Y66.4125
X170.0714
G3 X169.8947 Y65.8392 I0.0111 J-0.3173
G1 X169.9516 Y65.7974 Z-1.992
X170.0058 Y65.7577 Z-1.9686
X170.0543 Y65.7221 Z-1.9307
X170.0948 Y65.6924 Z-1.8805
X170.1253 Y65.67 Z-1.8203
X170.1442 Y65.6561 Z-1.7531
X170.1507 Y65.6514 Z-1.6825
G0 Z5
X168.0178 Y49.9711
Z-1.365
G1 Z-1.6825 F3500
X168.0246 Y49.967 Z-1.7532
X168.0448 Y49.955 Z-1.8203
X168.0773 Y49.9357 Z-1.8805
X168.1205 Y49.91 Z-1.9307
X168.1723 Y49.8792 Z-1.9686
X168.2299 Y49.8449 Z-1.992
X168.2907 Y49.8088 Z-2
G3 X169.0442 Y49.5875 I0.8088 J1.3603
G1 X170.3102
X170.4601 Y49.595
X170.6079 Y49.6203
X170.7553 Y49.6597
X170.918 Y49.7177
X171.0871 Y49.7937
X171.2861 Y49.9032
X171.481 Y50.0317
X171.7075 Y50.2088
X171.9282 Y50.4118
X172.1834 Y50.6877
X172.4298 Y51.0011
X172.7124 Y51.4269
X172.9764 Y51.9038
X173.2562 Y52.5217
X173.5056 Y53.216
X173.7064 Y53.926
X173.8677 Y54.646
X173.996 Y55.3725
X174.0959 Y56.1036
X174.1705 Y56.8376
X174.2225 Y57.5736
X174.2535 Y58.3107
X174.2648 Y59.0485
X174.2574 Y59.7862
X174.2319 Y60.5236
X174.1886 Y61.2602
X174.1275 Y61.9954
X174.048 Y62.729
X173.948 Y63.46
X173.8235 Y64.1872
X173.6668 Y64.9082
X173.5132 Y65.4273
X173.381 Y65.7705
X173.2675 Y66.0064
X173.2447 Y66.0453
X173.1269 Y66.1975
X172.9738 Y66.3142
X172.7959 Y66.3875
X172.605 Y66.4125
X171.3383
G3 X171.1616 Y65.8392 I0.0111 J-0.3173
G1 X171.2185 Y65.7974 Z-1.992
X171.2726 Y65.7577 Z-1.9686
X171.3212 Y65.7221 Z-1.9307
X171.3617 Y65.6924 Z-1.8805
X171.3922 Y65.67 Z-1.8203
X171.4111 Y65.6561 Z-1.7532
X171.4176 Y65.6514 Z-1.6825
G0 Z5
X169.2838 Y49.9711
Z-1.365
G1 Z-1.6825 F3500
X169.2906 Y49.967 Z-1.7532
X169.3108 Y49.955 Z-1.8203
X169.3433 Y49.9357 Z-1.8805
X169.3865 Y49.91 Z-1.9307
X169.4383 Y49.8792 Z-1.9686
X169.4959 Y49.8449 Z-1.992
X169.5567 Y49.8088 Z-2
G3 X170.3102 Y49.5875 I0.8088 J1.3603
G1 X171.5595
X171.7093 Y49.595
X171.857 Y49.6211
X172.0018 Y49.6601
X172.1692 Y49.7202
X172.3355 Y49.7955
X172.5294 Y49.9027
X172.7321 Y50.0372
X172.9506 Y50.2088
X173.1821 Y50.4229
X173.4265 Y50.6883
X173.6846 Y51.0183
X173.9584 Y51.4331
X174.2245 Y51.9166
X174.5066 Y52.5436
X174.7543 Y53.2386
X174.9538 Y53.9489
X175.1142 Y54.6691
X175.2418 Y55.3958
X175.3412 Y56.1269
X175.4158 Y56.8609
X175.4679 Y57.5969
X175.4994 Y58.334
X175.5115 Y59.0717
X175.5053 Y59.8095
X175.4812 Y60.5469
X175.4395 Y61.2836
X175.3801 Y62.019
X175.302 Y62.7527
X175.2033 Y63.4838
X175.0799 Y64.2113
X174.9228 Y64.9322
X174.7716 Y65.4422
X174.6422 Y65.7771
X174.5294 Y66.0113
X174.5093 Y66.0457
X174.3914 Y66.1977
X174.2384 Y66.3143
X174.0605 Y66.3875
X173.8698 Y66.4125
X172.605
G3 X172.4283 Y65.8392 I0.0111 J-0.3173
G1 X172.4853 Y65.7974 Z-1.992
X172.5394 Y65.7577 Z-1.9686
X172.5879 Y65.7221 Z-1.9307
X172.6284 Y65.6924 Z-1.8805
X172.6589 Y65.67 Z-1.8203
X172.6779 Y65.6561 Z-1.7532
X172.6843 Y65.6514 Z-1.6825
G0 Z5
X170.533 Y49.9711
Z-1.365
G1 Z-1.6825 F3500
X170.5398 Y49.967 Z-1.7532
X170.56 Y49.955 Z-1.8203
X170.5925 Y49.9357 Z-1.8805
X170.6358 Y49.91 Z-1.9307
X170.6875 Y49.8792 Z-1.9686
X170.7452 Y49.8449 Z-1.992
X170.8059 Y49.8088 Z-2
G3 X171.5595 Y49.5875 I0.8088 J1.3603
G1 X172.7333
X172.8909 Y49.5954
X173.0396 Y49.6149
X173.1859 Y49.6481
X173.343 Y49.6986
X173.5111 Y49.7679
X173.6906 Y49.8594
X173.8964 Y49.9861
X174.0983 Y50.134
X174.3351 Y50.3386
X174.5602 Y50.5671
X174.8283 Y50.887
X175.076 Y51.236
X175.3542 Y51.7033
X175.6385 Y52.2822
X175.9095 Y52.9684
X176.1271 Y53.6734
X176.3015 Y54.3903
X176.4407 Y55.1149
X176.5502 Y55.8445
X176.6339 Y56.5776
X176.6947 Y57.3129
X176.7345 Y58.0496
X176.7548 Y58.7872
X176.7567 Y59.525
X176.7408 Y60.2626
X176.7076 Y60.9997
X176.657 Y61.7358
X176.5882 Y62.4704
X176.4998 Y63.2029
X176.3884 Y63.9322
X176.2481 Y64.6566
X176.086 Y65.2808
X175.9579 Y65.6495
X175.8382 Y65.9215
X175.783 Y66.0236
X175.6661 Y66.1842
X175.5107 Y66.3079
X175.328 Y66.3859
X175.1311 Y66.4125
X173.8698
G3 X173.6931 Y65.8392 I0.0111 J-0.3173
G1 X173.75 Y65.7974 Z-1.992
X173.8041 Y65.7577 Z-1.9686
X173.8527 Y65.7221 Z-1.9307
X173.8932 Y65.6924 Z-1.8805
X173.9237 Y65.67 Z-1.8203
X173.9426 Y65.6561 Z-1.7531
X173.9491 Y65.6514 Z-1.6825
G0 Z5
X171.7068 Y49.9711
Z-1.365
G1 Z-1.6825 F3500
X171.7136 Y49.967 Z-1.7532
X171.7338 Y49.955 Z-1.8203
X171.7663 Y49.9357 Z-1.8805
X171.8095 Y49.91 Z-1.9307
X171.8613 Y49.8792 Z-1.9686
X171.919 Y49.8449 Z-1.992
X171.9797 Y49.8088 Z-2
G3 X172.7333 Y49.5875 I0.8088 J1.3603
G1 X173.9993
X174.1491 Y49.595
X174.2976 Y49.6159
X174.4438 Y49.6515
X174.5999 Y49.7031
X174.7684 Y49.7742
X174.957 Y49.8723
X175.1475 Y49.9918
X175.3715 Y50.1587
X175.5864 Y50.3474
X175.842 Y50.6111
X176.0824 Y50.9027
X176.3645 Y51.3073
X176.6261 Y51.755
X176.9043 Y52.3332
X177.1697 Y53.0216
X177.3831 Y53.7279
X177.5547 Y54.4455
X177.692 Y55.1704
X177.8 Y55.9003
X177.8827 Y56.6334
X177.9426 Y57.3688
X177.982 Y58.1056
X178.0021 Y58.8431
X178.0041 Y59.5809
X177.9887 Y60.3186
X177.9561 Y61.0557
X177.9063 Y61.7918
X177.8381 Y62.5265
X177.7499 Y63.259
X177.6384 Y63.9883
X177.4959 Y64.7123
X177.3423 Y65.2962
X177.212 Y65.6675
X177.0974 Y65.9256
X177.0429 Y66.0257
X176.9258 Y66.1855
X176.7706 Y66.3085
X176.5884 Y66.386
X176.3921 Y66.4125
X175.1311
G3 X174.9544 Y65.8392 I0.0111 J-0.3173
G1 X175.0114 Y65.7974 Z-1.992
X175.0655 Y65.7577 Z-1.9686
X175.114 Y65.7221 Z-1.9307
X175.1545 Y65.6924 Z-1.8805
X175.185 Y65.67 Z-1.8203
X175.204 Y65.6561 Z-1.7532
X175.2104 Y65.6514 Z-1.6825
G0 Z5
X172.9728 Y49.9711
Z-1.365
G1 Z-1.6825 F3500
X172.9796 Y49.967 Z-1.7532
X172.9998 Y49.955 Z-1.8203
X173.0323 Y49.9357 Z-1.8805
X173.0755 Y49.91 Z-1.9307
X173.1273 Y49.8792 Z-1.9686
X173.185 Y49.8449 Z-1.992
X173.2457 Y49.8088 Z-2
G3 X173.9993 Y49.5875 I0.8088 J1.3603
G1 X175.2485
X175.3983 Y49.595
X175.5467 Y49.6169
X175.6923 Y49.6528
X175.8496 Y49.7055
X176.0161 Y49.7765
X176.2114 Y49.879
X176.4026 Y50
X176.6257 Y50.1676
X176.8434 Y50.3603
X177.0947 Y50.6217
X177.3383 Y50.9196
X177.6196 Y51.3263
X177.8788 Y51.7741
X178.1587 Y52.3618
X178.4214 Y53.0512
X178.6329 Y53.7581
X178.8032 Y54.476
X178.9396 Y55.2011
X179.0471 Y55.931
X179.1295 Y56.6642
X179.1894 Y57.3996
X179.229 Y58.1363
X179.2496 Y58.8739
X179.2524 Y59.6117
X179.2379 Y60.3493
X179.2065 Y61.0865
X179.1575 Y61.8227
X179.0902 Y62.5574
X179.0028 Y63.29
X178.8914 Y64.0194
X178.7487 Y64.7433
X178.5968 Y65.3141
X178.4673 Y65.6798
X178.3535 Y65.9343
X178.3024 Y66.0275
X178.1853 Y66.1866
X178.0303 Y66.309
X177.8484 Y66.3862
X177.6526 Y66.4125
X176.3921
G3 X176.2154 Y65.8392 I0.0111 J-0.3173
G1 X176.2724 Y65.7974 Z-1.992
X176.3265 Y65.7577 Z-1.9686
X176.375 Y65.7221 Z-1.9307
X176.4155 Y65.6924 Z-1.8805
X176.446 Y65.67 Z-1.8203
X176.465 Y65.6561 Z-1.7532
X176.4714 Y65.6514 Z-1.6825
G0 Z5
X174.222 Y49.9711
Z-1.365
G1 Z-1.6825 F3500
X174.2289 Y49.967 Z-1.7532
X174.2491 Y49.955 Z-1.8203
X174.2816 Y49.9357 Z-1.8805
X174.3248 Y49.91 Z-1.9307
X174.3765 Y49.8792 Z-1.9686
X174.4342 Y49.8449 Z-1.992
X174.4949 Y49.8088 Z-2
G3 X175.2485 Y49.5875 I0.8088 J1.3603
G1 X176.5145
X176.6643 Y49.595
X176.8123 Y49.6193
X176.96 Y49.658
X177.1192 Y49.7138
X177.2888 Y49.789
X177.4868 Y49.8965
X177.6802 Y50.0227
X177.9069 Y50.1981
X178.1247 Y50.3965
X178.3814 Y50.671
X178.6238 Y50.9761
X178.9053 Y51.3955
X179.1703 Y51.8685
X179.4496 Y52.4768
X179.7026 Y53.1699
X179.9065 Y53.879
X180.0708 Y54.5982
X180.2023 Y55.3242
X180.3058 Y56.0548
X180.3849 Y56.7883
X180.4421 Y57.5239
X180.4794 Y58.2608
X180.4982 Y58.9984
X180.4993 Y59.7362
X180.4835 Y60.4738
X180.4507 Y61.2109
X180.4006 Y61.947
X180.3323 Y62.6817
X180.2433 Y63.4141
X180.1291 Y64.143
X179.9814 Y64.8659
X179.8318 Y65.393
X179.7019 Y65.7417
X179.5902 Y65.9807
X179.5576 Y66.0381
X179.44 Y66.1931
X179.2861 Y66.3121
X179.1066 Y66.387
X178.9137 Y66.4125
X177.6526
G3 X177.4759 Y65.8392 I0.0111 J-0.3173
G1 X177.5329 Y65.7974 Z-1.992
X177.587 Y65.7577 Z-1.9686
X177.6355 Y65.7221 Z-1.9307
X177.6761 Y65.6924 Z-1.8805
X177.7065 Y65.67 Z-1.8203
X177.7255 Y65.6561 Z-1.7532
X177.7319 Y65.6514 Z-1.6825
G0 Z5
X175.488 Y49.9711
Z-1.365
G1 Z-1.6825 F3500
X175.4949 Y49.967 Z-1.7532
X175.5151 Y49.955 Z-1.8203
X175.5476 Y49.9357 Z-1.8805
X175.5908 Y49.91 Z-1.9307
X175.6425 Y49.8792 Z-1.9686
X175.7002 Y49.8449 Z-1.992
X175.7609 Y49.8088 Z-2
G3 X176.5145 Y49.5875 I0.8088 J1.3603
G1 X177.7637
X177.9136 Y49.595
X178.0614 Y49.6202
X178.2064 Y49.6586
X178.3719 Y49.7171
X178.5374 Y49.791
X178.732 Y49.8975
X178.9311 Y50.0282
X179.1507 Y50.199
X179.379 Y50.4081
X179.625 Y50.6728
X179.8796 Y50.9952
X180.156 Y51.4095
X180.4201 Y51.8841
X180.7025 Y52.504
X180.9535 Y53.1978
X181.156 Y53.9073
X181.3193 Y54.6268
X181.4501 Y55.3529
X181.5532 Y56.0835
X181.6322 Y56.8171
X181.6895 Y57.5527
X181.7271 Y58.2895
X181.7463 Y59.0271
X181.7482 Y59.7649
X181.7332 Y60.5026
X181.7014 Y61.2397
X181.6522 Y61.9759
X181.5845 Y62.7106
X181.4957 Y63.443
X181.3814 Y64.1719
X181.2323 Y64.8945
X181.0848 Y65.4109
X180.9574 Y65.7509
X180.8459 Y65.9884
X180.8168 Y66.0393
X180.6992 Y66.1938
X180.5455 Y66.3124
X180.3662 Y66.387
X180.1736 Y66.4125
X178.9137
G3 X178.737 Y65.8392 I0.0111 J-0.3173
G1 X178.7939 Y65.7974 Z-1.992
X178.848 Y65.7577 Z-1.9686
X178.8966 Y65.7221 Z-1.9307
X178.9371 Y65.6924 Z-1.8805
X178.9676 Y65.67 Z-1.8203
X178.9865 Y65.6561 Z-1.7531
X178.993 Y65.6514 Z-1.6825
G0 Z5
X176.7373 Y49.9711
Z-1.365
G1 Z-1.6825 F3500
X176.7441 Y49.967 Z-1.7532
X176.7643 Y49.955 Z-1.8203
X176.7968 Y49.9357 Z-1.8805
X176.84 Y49.91 Z-1.9307
X176.8918 Y49.8792 Z-1.9686
X176.9495 Y49.8449 Z-1.992
X177.0102 Y49.8088 Z-2
G3 X177.7637 Y49.5875 I0.8088 J1.3603
G1 X178.9375
X179.1031 Y49.5958
X179.2518 Y49.6153
X179.3981 Y49.6485
X179.5571 Y49.6996
X179.722 Y49.7676
X179.9037 Y49.8603
X180.1071 Y49.9855
X180.3116 Y50.1354
X180.5459 Y50.338
X180.7733 Y50.5689
X181.0387 Y50.8855
X181.2901 Y51.2399
X181.5661 Y51.7038
X181.8507 Y52.2835
X182.1216 Y52.9697
X182.3397 Y53.6746
X182.5155 Y54.3911
X182.6566 Y55.1153
X182.7683 Y55.8446
X182.8549 Y56.5774
X182.9193 Y57.3124
X182.9636 Y58.0488
X182.9894 Y58.7862
X182.9977 Y59.524
X182.9891 Y60.2617
X182.9639 Y60.9991
X182.9216 Y61.7357
X182.8612 Y62.4711
X182.7807 Y63.2045
X182.6763 Y63.9349
X182.5414 Y64.6602
X182.3875 Y65.2676
X182.2615 Y65.6374
X182.1436 Y65.9095
X182.0849 Y66.0198
X181.9682 Y66.1818
X181.8124 Y66.3068
X181.6289 Y66.3856
X181.431 Y66.4125
X180.1736
G3 X179.9969 Y65.8392 I0.0111 J-0.3173
G1 X180.0539 Y65.7974 Z-1.992
X180.108 Y65.7577 Z-1.9686
X180.1565 Y65.7221 Z-1.9307
X180.197 Y65.6924 Z-1.8805
X180.2275 Y65.67 Z-1.8203
X180.2465 Y65.6561 Z-1.7532
X180.2529 Y65.6514 Z-1.6825
G0 Z5
X177.9111 Y49.9711
Z-1.365
G1 Z-1.6825 F3500
X177.9179 Y49.967 Z-1.7532
X177.9381 Y49.955 Z-1.8203
X177.9706 Y49.9357 Z-1.8805
X178.0138 Y49.91 Z-1.9307
X178.0656 Y49.8792 Z-1.9686
X178.1232 Y49.8449 Z-1.992
X178.184 Y49.8088 Z-2
G3 X178.9375 Y49.5875 I0.8088 J1.3603
G1 X180.2035
X180.3533 Y49.595
X180.502 Y49.6152
X180.6479 Y49.6499
X180.8038 Y49.7007
X180.9708 Y49.7704
X181.1602 Y49.8679
X181.3491 Y49.9853
X181.5722 Y50.1501
X181.7866 Y50.3369
X182.04 Y50.5962
X182.2812 Y50.8865
X182.5636 Y51.2878
X182.8237 Y51.7289
X183.1045 Y52.3065
X183.3728 Y52.9938
X183.589 Y53.6992
X183.7637 Y54.416
X183.9041 Y55.1404
X184.0156 Y55.8697
X184.1022 Y56.6024
X184.1669 Y57.3374
X184.2115 Y58.0739
X184.2378 Y58.8112
X184.2467 Y59.549
X184.2389 Y60.2867
X184.2145 Y61.0241
X184.1729 Y61.7608
X184.1131 Y62.4962
X184.0329 Y63.2296
X183.9286 Y63.96
X183.7928 Y64.6852
X183.644 Y65.27
X183.5157 Y65.6454
X183.4018 Y65.9077
X183.3417 Y66.0204
X183.2249 Y66.1822
X183.0692 Y66.307
X182.8858 Y66.3856
X182.6881 Y66.4125
X181.431
G3 X181.2542 Y65.8392 I0.0111 J-0.3173
G1 X181.3112 Y65.7974 Z-1.992
X181.3653 Y65.7577 Z-1.9686
X181.4138 Y65.7221 Z-1.9307
X181.4544 Y65.6924 Z-1.8805
X181.4849 Y65.67 Z-1.8203
X181.5038 Y65.6561 Z-1.7531
X181.5102 Y65.6514 Z-1.6825
G0 Z5
X179.177 Y49.9711
Z-1.365
G1 Z-1.6825 F3500
X179.1839 Y49.967 Z-1.7532
X179.2041 Y49.955 Z-1.8203
X179.2366 Y49.9357 Z-1.8805
X179.2798 Y49.91 Z-1.9307
X179.3316 Y49.8792 Z-1.9686
X179.3892 Y49.8449 Z-1.992
X179.45 Y49.8088 Z-2
G3 X180.2035 Y49.5875 I0.8088 J1.3603
G1 X181.4528
X181.6026 Y49.595
X181.7511 Y49.616
X181.8969 Y49.6514
X182.0522 Y49.7026
X182.2189 Y49.7729
X182.4133 Y49.874
X182.6038 Y49.9933
X182.827 Y50.1596
X183.0427 Y50.3489
X183.295 Y50.6091
X183.537 Y50.9026
X183.8187 Y51.3062
X184.0791 Y51.7515
X184.3602 Y52.3357
X184.6259 Y53.024
X184.8402 Y53.73
X185.0135 Y54.4472
X185.1531 Y55.1717
X185.2641 Y55.9011
X185.3505 Y56.6338
X185.4151 Y57.3688
X185.4599 Y58.1052
X185.4865 Y58.8426
X185.4959 Y59.5803
X185.4886 Y60.3181
X185.4648 Y61.0555
X185.4237 Y61.7922
X185.3642 Y62.5276
X185.2841 Y63.2611
X185.1795 Y63.9914
X185.0429 Y64.7165
X184.8945 Y65.291
X184.7666 Y65.6608
X184.6537 Y65.9182
X184.5974 Y66.0228
X184.4805 Y66.1837
X184.325 Y66.3077
X184.1421 Y66.3858
X183.945 Y66.4125
X182.6881
G3 X182.5113 Y65.8392 I0.0111 J-0.3173
G1 X182.5683 Y65.7974 Z-1.992
X182.6224 Y65.7577 Z-1.9686
X182.6709 Y65.7221 Z-1.9307
X182.7115 Y65.6924 Z-1.8805
X182.742 Y65.67 Z-1.8203
X182.7609 Y65.6561 Z-1.7531
X182.7673 Y65.6514 Z-1.6825
G0 Z5
X180.4263 Y49.9711
Z-1.365
G1 Z-1.6825 F3500
X180.4331 Y49.967 Z-1.7532
X180.4533 Y49.955 Z-1.8203
X180.4858 Y49.9357 Z-1.8805
X180.5291 Y49.91 Z-1.9307
X180.5808 Y49.8792 Z-1.9686
X180.6385 Y49.8449 Z-1.992
X180.6992 Y49.8088 Z-2
G3 X181.4528 Y49.5875 I0.8088 J1.3603
G1 X182.7188
X182.8686 Y49.595
X183.0167 Y49.6185
X183.1644 Y49.6565
X183.3216 Y49.7108
X183.4914 Y49.7852
X183.6882 Y49.8909
X183.8811 Y50.0155
X184.1075 Y50.189
X184.3245 Y50.3849
X184.5817 Y50.6575
X184.8232 Y50.9587
X185.1047 Y51.3741
X185.3713 Y51.8449
X185.6519 Y52.4489
X185.9081 Y53.1408
X186.1149 Y53.849
X186.2824 Y54.5676
X186.4173 Y55.2929
X186.5245 Y56.0229
X186.6078 Y56.756
X186.6697 Y57.4912
X186.7123 Y58.2278
X186.737 Y58.9652
X186.7446 Y59.703
X186.7357 Y60.4408
X186.7101 Y61.1781
X186.6673 Y61.9147
X186.6062 Y62.65
X186.5242 Y63.3832
X186.4163 Y64.1131
X186.2742 Y64.8371
X186.1271 Y65.3703
X185.9987 Y65.7226
X185.888 Y65.9641
X185.8492 Y66.0334
X185.7318 Y66.1902
X185.5774 Y66.3108
X185.3969 Y66.3866
X185.2027 Y66.4125
X183.945
G3 X183.7683 Y65.8392 I0.0111 J-0.3173
G1 X183.8253 Y65.7974 Z-1.992
X183.8794 Y65.7577 Z-1.9686
X183.9279 Y65.7221 Z-1.9307
X183.9684 Y65.6924 Z-1.8805
X183.9989 Y65.67 Z-1.8203
X184.0179 Y65.6561 Z-1.7531
X184.0243 Y65.6514 Z-1.6825
G0 Z5
X181.6923 Y49.9711
Z-1.365
G1 Z-1.6825 F3500
X181.6991 Y49.967 Z-1.7532
X181.7193 Y49.955 Z-1.8203
X181.7518 Y49.9357 Z-1.8805
X181.7951 Y49.91 Z-1.9307
X181.8468 Y49.8792 Z-1.9686
X181.9045 Y49.8449 Z-1.992
X181.9652 Y49.8088 Z-2
G3 X182.7188 Y49.5875 I0.8088 J1.3603
G1 X183.968
X184.1178 Y49.595
X184.2658 Y49.6193
X184.411 Y49.657
X184.575 Y49.7141
X184.7403 Y49.7871
X184.9353 Y49.8926
X185.1322 Y50.0206
X185.3525 Y50.1904
X185.5791 Y50.3961
X185.8262 Y50.6595
X186.0796 Y50.9773
X186.3577 Y51.3902
X186.6218 Y51.8597
X186.9057 Y52.4755
X187.1599 Y53.1681
X187.3655 Y53.8767
X187.532 Y54.5955
X187.6663 Y55.321
X187.7732 Y56.051
X187.8563 Y56.7841
X187.9183 Y57.5194
X187.9611 Y58.2559
