%
(Made in : Autodesk CAM Post Processor)
(G Code optimized for OpenBuilds OX CNC 1000 x 750 with GRBL V0.9j controller)

(Program Name : 1001)
(1 Operation :)
(1 : Pocket1)
(  Tool : Flat End Mill 3 Flutes, Diam = 3.175mm, Len = 20mm)
(  Spindle : RPM = 30000, set router dial to 6)
(  Machining time : 16 min 29 sec)

G90 G94
G17
G21

(Operation 1 of 1 : Pocket1)

G53 G0 Z5
G54
S30000 M3
G4 P1.0
X187.7543 Y36.8269
Z6
Z3
G1 Z2.4173 F1200
X187.7674 Y36.8339 Z2.3213
X187.8051 Y36.855 Z2.2343
X187.8628 Y36.8901 Z2.1644
X187.9334 Y36.9382 Z2.1182
X188.0089 Y36.9965 Z2.1
G3 X187.7922 Y36.8476 Z1.7783 I-0.9589 J1.164
X187.553 Y36.7387 Z1.4566 I-0.7422 J1.3128
X187.2984 Y36.673 Z1.1349 I-0.503 J1.4218
X187.0364 Y36.6524 Z0.8132 I-0.2484 J1.4875
X186.7747 Y36.6777 Z0.4914 I0.0136 J1.5081
X186.5214 Y36.748 Z0.1697 I0.2753 J1.4828
X186.2842 Y36.8613 Z-0.152 I0.5286 J1.4124
X186.0702 Y37.014 Z-0.4737 I0.7659 J1.2992
X185.886 Y37.2016 Z-0.7954 I0.9798 J1.1465
X185.7372 Y37.4183 Z-1.1171 I1.164 J0.9589
X185.6282 Y37.6575 Z-1.4388 I1.3128 J0.7422
X185.5625 Y37.9121 Z-1.7605 I1.4218 J0.503
X187.05 Y39.6686 Z-2 I1.4875 J0.2484
G1 X186.9098 F3500
G3 X186.3814 Y39.1402 J-0.5285
G1 Y31.1594
G3 X187.7186 I0.6686
G1 Y39.1402
G3 X187.1902 Y39.6686 I-0.5284
G1 X187.05
G2 X186.2124 Y40.3821 J0.8484
G3 X185.1325 Y40.5924 I-0.5786 J-0.0932
X184.9932 Y40.0935 I0.824 J-0.4989
G1 Y29.9065
G3 X185.9565 Y28.9432 I0.9632
G1 X188.1436
G3 X189.1068 Y29.9065 J0.9632
G1 Y40.0935
G3 X188.1436 Y41.0568 I-0.9632
G1 X185.9565
G3 X185.1325 Y40.5924 J-0.9632
G2 X183.6889 Y39.331 I-2.7023 J1.636
G3 X182.6375 Y37.728 I0.6964 J-1.603
G1 Y26.5875
X191.4625
Y43.4125
X182.6375
Y37.728
X182.6439 Y37.6834
X182.6626 Y37.6424
X182.692 Y37.6082
X182.7298 Y37.5838
X182.773 Y37.5709
X182.8181 Y37.5707
X185.5893 Y37.9555
X185.6255 Y37.9656
X185.6582 Y37.9839
X187.5121 Y39.33
X187.5439 Y39.3607
X187.5661 Y39.3991
X187.5767 Y39.442
X187.5752 Y39.4862
X187.5614 Y39.5283
X187.5366 Y39.5649
X187.5027 Y39.5933
X187.4622 Y39.6112
G3 X187.7079 Y39.5176 Z-2.3217 I-0.4122 J-1.4507 F1200
X187.9335 Y39.3827 Z-2.6434 I-0.6579 J-1.3571
X188.1324 Y39.2107 Z-2.9651 I-0.8835 J-1.2222
X188.2983 Y39.0068 Z-3.2868 I-1.0823 J-1.0502
X188.4263 Y38.7772 Z-3.6086 I-1.2483 J-0.8463
X188.5125 Y38.5288 Z-3.9303 I-1.3763 J-0.6167
X187.05 Y39.6686 Z-4 I-1.4624 J-0.3684
G1 X186.9098 F3500
G3 X186.3814 Y39.1402 J-0.5285
G1 Y31.1594
G3 X187.7186 I0.6686
G1 Y39.1402
G3 X187.1902 Y39.6686 I-0.5284
G1 X187.05
G2 X186.2124 Y40.3821 J0.8484
G3 X185.1325 Y40.5924 I-0.5786 J-0.0932
X184.9932 Y40.0935 I0.824 J-0.4989
G1 Y29.9065
G3 X185.9565 Y28.9432 I0.9632
G1 X188.1436
G3 X189.1068 Y29.9065 J0.9632
G1 Y40.0935
G3 X188.1436 Y41.0568 I-0.9632
G1 X185.9565
G3 X185.1325 Y40.5924 J-0.9632
G2 X183.6889 Y39.331 I-2.7023 J1.636
G3 X182.6375 Y37.728 I0.6964 J-1.603
G1 Y26.5875
X191.4625
Y43.4125
X182.6375
Y37.728
X182.6439 Y37.6834
X182.6626 Y37.6424
X182.692 Y37.6082
X182.7298 Y37.5838
X182.773 Y37.5709
X182.8181 Y37.5707
X185.5893 Y37.9555
X185.6255 Y37.9656
X185.6582 Y37.9839
X187.5121 Y39.33
X187.5439 Y39.3607
X187.5661 Y39.3991
X187.5767 Y39.442
X187.5752 Y39.4862
X187.5614 Y39.5283
X187.5366 Y39.5649
X187.5027 Y39.5933
X187.4622 Y39.6112
G3 X187.7079 Y39.5176 Z-4.3217 I-0.4122 J-1.4507 F1200
X187.9335 Y39.3827 Z-4.6434 I-0.6579 J-1.3571
X188.1324 Y39.2107 Z-4.9651 I-0.8835 J-1.2222
X188.2983 Y39.0068 Z-5.2868 I-1.0823 J-1.0502
X188.4263 Y38.7772 Z-5.6086 I-1.2483 J-0.8463
X188.5125 Y38.5288 Z-5.9303 I-1.3763 J-0.6167
X187.05 Y39.6686 Z-6 I-1.4624 J-0.3684
G1 X186.9098 F3500
G3 X186.3814 Y39.1402 J-0.5285
G1 Y31.1594
G3 X187.7186 I0.6686
G1 Y39.1402
G3 X187.1902 Y39.6686 I-0.5284
G1 X187.05
G2 X186.2124 Y40.3821 J0.8484
G3 X185.1325 Y40.5924 I-0.5786 J-0.0932
X184.9932 Y40.0935 I0.824 J-0.4989
G1 Y29.9065
G3 X185.9565 Y28.9432 I0.9632
G1 X188.1436
G3 X189.1068 Y29.9065 J0.9632
G1 Y40.0935
G3 X188.1436 Y41.0568 I-0.9632
G1 X185.9565
G3 X185.1325 Y40.5924 J-0.9632
G2 X183.6889 Y39.331 I-2.7023 J1.636
G3 X182.6375 Y37.728 I0.6964 J-1.603
G1 Y26.5875
X191.4625
Y43.4125
X182.6375
Y37.728
X182.6413 Y37.6791 Z-5.9922
X182.6525 Y37.6314 Z-5.9845
X182.6689 Y37.5903 Z-5.9619
X182.6908 Y37.5519 Z-5.9394
X182.7359 Y37.4982 Z-5.8691
X182.7706 Y37.4695 Z-5.7806
X182.7835 Y37.4608 Z-5.6825
G0 Z5
X187.1572 Y35.1771
Z-3
G1 Z-8 F1200
X187.1377 Y35.1888 F3500
X187.1069 Y35.2008
X187.0668 Y35.2095
X187.0251 Y35.2075
X186.9943 Y35.2012
X186.9638 Y35.1896
X186.9164 Y35.1615
X186.9101 Y35.1564
X186.8947 Y35.14
X186.8652 Y35.0958
X186.8477 Y35.0558
X186.8423 Y35.0185
X186.844 Y34.9686
X186.8499 Y34.9406
X186.8614 Y34.9113
X186.8838 Y34.8742
X186.9091 Y34.8453
X186.9205 Y34.8358
X186.9638 Y34.8102
X186.9881 Y34.801
X187.044 Y34.7903
X187.0597 Y34.7897
X187.109 Y34.7998
X187.1381 Y34.8111
X187.1851 Y34.8395
X187.2172 Y34.876
X187.2386 Y34.9113
X187.2507 Y34.9424
X187.2576 Y34.9736
X187.2598 Y35.0124
X187.2509 Y35.0565
X187.24 Y35.0859
X187.217 Y35.1252
X187.2016 Y35.1437
X187.1767 Y35.1653
X187.1572 Y35.1771
X187.1377 Y35.1888 Z-7.9992
X187.1069 Y35.2008 Z-7.9951
X187.0668 Y35.2095 Z-7.9849
X187.0251 Y35.2075 Z-7.9682
X186.9943 Y35.2012 Z-7.9507
X186.9638 Y35.1896 Z-7.927
X186.9384 Y35.1746 Z-7.8992
X186.9164 Y35.1615 Z-7.8679
X186.9101 Y35.1564 Z-7.8562
X186.8947 Y35.14 Z-7.8155
X186.8826 Y35.1218 Z-7.7506
X186.8785 Y35.1157 Z-7.6825
G0 Z5
X187.1571 Y35.177
Z-5
G1 Z-10 F1200
X187.1377 Y35.1887 F3500
X187.1069 Y35.2007
X187.0668 Y35.2094
X187.0251 Y35.2074
X186.9943 Y35.2011
X186.9638 Y35.1895
X186.9164 Y35.1614
X186.9102 Y35.1564
X186.8948 Y35.1399
X186.8653 Y35.0957
X186.8478 Y35.0558
X186.8424 Y35.018
X186.844 Y34.9691
X186.8501 Y34.9405
X186.8615 Y34.9114
X186.8839 Y34.8743
X186.9092 Y34.8453
X186.9205 Y34.8359
X186.9639 Y34.8103
X186.9879 Y34.8012
X187.0453 Y34.7902
X187.0584 Y34.7897
X187.1092 Y34.8
X187.1381 Y34.8112
X187.185 Y34.8396
X187.2171 Y34.876
X187.2385 Y34.9114
X187.2507 Y34.9424
X187.2574 Y34.9736
X187.2597 Y35.0124
X187.2508 Y35.0565
X187.2399 Y35.0859
X187.2169 Y35.1252
X187.2015 Y35.1436
X187.1767 Y35.1652
X187.1571 Y35.177
X187.1377 Y35.1887 Z-9.9992
X187.1069 Y35.2007 Z-9.9951
X187.0668 Y35.2094 Z-9.9849
X187.0251 Y35.2074 Z-9.9682
X186.9943 Y35.2011 Z-9.9507
X186.9638 Y35.1895 Z-9.927
X186.9385 Y35.1745 Z-9.8993
X186.9164 Y35.1614 Z-9.8681
X186.9102 Y35.1564 Z-9.8564
X186.8948 Y35.1399 Z-9.8159
X186.8826 Y35.1217 Z-9.7508
X186.8785 Y35.1155 Z-9.6825
G0 Z5
X187.1571 Y35.177
Z-7
G1 Z-12 F1200
X187.1377 Y35.1887 F3500
X187.1069 Y35.2007
X187.0668 Y35.2094
X187.0251 Y35.2074
X186.9943 Y35.2011
X186.9638 Y35.1895
X186.9164 Y35.1614
X186.9102 Y35.1564
X186.8948 Y35.1399
X186.8653 Y35.0957
X186.8478 Y35.0558
X186.8424 Y35.018
X186.844 Y34.9691
X186.8501 Y34.9405
X186.8615 Y34.9114
X186.8839 Y34.8743
X186.9092 Y34.8453
X186.9205 Y34.8359
X186.9639 Y34.8103
X186.9879 Y34.8012
X187.0453 Y34.7902
X187.0584 Y34.7897
X187.1092 Y34.8
X187.1381 Y34.8112
X187.185 Y34.8396
X187.2171 Y34.876
X187.2385 Y34.9114
X187.2507 Y34.9424
X187.2574 Y34.9736
X187.2597 Y35.0124
X187.2508 Y35.0565
X187.2399 Y35.0859
X187.2169 Y35.1252
X187.2015 Y35.1436
X187.1767 Y35.1652
X187.1571 Y35.177
X187.1377 Y35.1887 Z-11.9992
X187.1069 Y35.2007 Z-11.9951
X187.0668 Y35.2094 Z-11.9849
X187.0251 Y35.2074 Z-11.9682
X186.9943 Y35.2011 Z-11.9507
X186.9638 Y35.1895 Z-11.927
X186.9385 Y35.1745 Z-11.8993
X186.9164 Y35.1614 Z-11.8681
X186.9102 Y35.1564 Z-11.8564
X186.8948 Y35.1399 Z-11.8159
X186.8826 Y35.1217 Z-11.7508
X186.8785 Y35.1155 Z-11.6825
G0 Z5
X187.0112 Y34.7967
Z-3
G1 Z-9 F1200
Z-13.4
X187.0453 Y34.7902 F3500
X187.0584 Y34.7897
X187.1092 Y34.8
X187.1381 Y34.8112
X187.185 Y34.8396
X187.2171 Y34.876
X187.2385 Y34.9114
X187.2507 Y34.9424
X187.2574 Y34.9736
X187.2597 Y35.0124
X187.2508 Y35.0565
X187.2399 Y35.0859
X187.2169 Y35.1252
X187.2015 Y35.1436
X187.1767 Y35.1652
X187.1377 Y35.1887
X187.1069 Y35.2007
X187.0668 Y35.2094
X187.0251 Y35.2074
X186.9943 Y35.2011
X186.9638 Y35.1895
X186.9164 Y35.1614
X186.9102 Y35.1564
X186.8948 Y35.1399
X186.8653 Y35.0957
X186.8478 Y35.0558
X186.8424 Y35.018
X186.844 Y34.9691
X186.8501 Y34.9405
X186.8615 Y34.9114
X186.8839 Y34.8743
X186.9092 Y34.8453
X186.9205 Y34.8359
X186.9639 Y34.8103
X186.9879 Y34.8012
X187.0112 Y34.7967
X187.0453 Y34.7902 Z-13.3981
X187.0584 Y34.7897 Z-13.3964
X187.1092 Y34.8 Z-13.384
X187.1381 Y34.8112 Z-13.3719
X187.185 Y34.8396 Z-13.3402
X187.2171 Y34.876 Z-13.297
X187.2385 Y34.9114 Z-13.2406
X187.2457 Y34.9297 Z-13.1998
X187.2507 Y34.9424 Z-13.1567
X187.2521 Y34.9489 Z-13.1198
X187.2525 Y34.951 Z-13.0825
G0 Z5
X232.7818 Y52.8152
Z2.4173
G1 X232.7687 Y52.8082 Z2.3213 F1200
X232.731 Y52.7871 Z2.2343
X232.6734 Y52.752 Z2.1644
X232.6028 Y52.704 Z2.1182
X232.5272 Y52.6457 Z2.1
G3 X232.7439 Y52.7945 Z1.7783 I0.9589 J-1.164
X232.9832 Y52.9034 Z1.4566 I0.7422 J-1.3128
X233.2377 Y52.9692 Z1.1349 I0.503 J-1.4218
X233.4998 Y52.9897 Z0.8132 I0.2484 J-1.4875
X233.7615 Y52.9644 Z0.4914 I-0.0136 J-1.5081
X234.0148 Y52.8941 Z0.1697 I-0.2753 J-1.4828
X234.252 Y52.7809 Z-0.152 I-0.5286 J-1.4124
X234.466 Y52.6281 Z-0.4737 I-0.7659 J-1.2992
X234.6502 Y52.4406 Z-0.7954 I-0.9798 J-1.1465
X234.799 Y52.2239 Z-1.1171 I-1.164 J-0.9589
X234.9079 Y51.9846 Z-1.4388 I-1.3128 J-0.7422
X234.9737 Y51.7301 Z-1.7605 I-1.4218 J-0.503
X233.4861 Y49.9735 Z-2 I-1.4875 J-0.2484
G1 X260.7987 F3500
G3 X261.3272 Y50.502 J0.5285
G1 Y50.598
G3 X260.7987 Y51.1265 I-0.5285
G1 X233.4293
G3 X232.9084 Y50.5087 J-0.5285
G1 X232.9241 Y50.4157
G3 X233.4455 Y49.9735 I0.5214 J0.0863
G1 X233.4861
G2 X234.3869 Y49.373 J-0.9758
G3 X235.2877 Y48.7725 I0.9008 J0.3753
G1 X261.5651
G3 X262.5283 Y49.7357 J0.9632
G1 X262.5282 Y51.3642
G3 X261.5649 Y52.3275 I-0.9633
G1 X232.1794
G3 X231.4857 Y51.438 J-0.7152
G2 X231.6713 Y50.5907 I-13.7152 J-3.4474
X231.8135 Y49.7351 I-21.0438 J-3.9362
G3 X232.9261 Y48.7725 I1.1126 J0.1618
G1 X235.2877
G2 X236.9017 Y47.6965 J-1.7485
G3 X238.5158 Y46.6205 I1.614 J0.6725
G1 X263.7459
G3 X264.6804 Y47.5551 J0.9345
G1 X264.6801 Y53.5163
G3 X263.7169 Y54.4795 I-0.9633
G1 X228.9292
G3 X228.4046 Y53.6394 J-0.5838
G2 X229.8188 Y47.5821 I-12.5138 J-6.1153
G3 X230.7822 Y46.6205 I0.9634 J0.0018
G1 X238.5158
G2 X240.0253 Y45.6141 J-1.6353
G3 X241.5348 Y44.6078 I1.5095 J0.629
G1 X266.1271
G3 X266.877 Y45.5051 J0.762
G2 X266.5612 Y50.5129 I21.4269 J3.8654
G3 X266.6927 Y55.529 I-95.3843 J5.012
X265.7295 Y56.4922 I-0.9633
G1 X224.8764
G3 X224.5452 Y55.7281 J-0.4538
G2 X226.6677 Y52.7114 I-9.663 J-9.0538
X227.7968 Y49.2 I-10.157 J-5.203
X227.869 Y47.3857 I-8.2569 J-1.2375
G3 X227.8064 Y45.571 I26.162 J-1.8116
X228.7698 Y44.6078 I0.9634 J0.0001
G1 X241.5348
G2 X242.8803 Y43.7108 J-1.4577
G3 X244.2259 Y42.8137 I1.3455 J0.5606
G1 X268.7084
G3 X269.2762 Y43.6694 J0.6162
G2 X268.7453 Y45.1052 I15.7417 J6.6373
X268.4405 Y46.6055 I6.7043 J2.143
G1 X268.4867 Y57.323
G3 X267.5234 Y58.2863 I-0.9633
G1 X139.0864
G3 Y57.7132 J-0.2865
G1 X215.8976 Y57.8449
G2 X222.6249 Y55.2749 I-0.0005 J-10.0908
X226.045 Y48.9374 I-7.0766 J-7.9107
X226.1247 Y46.3566 I-10.8539 J-1.6268
G3 X226.0125 Y43.777 I29.5228 J-2.5761
X226.9759 Y42.8137 I0.9634 J0.0001
G1 X244.2259
G2 X245.4534 Y41.9954 J-1.3298
G3 X246.6808 Y41.1771 I1.2275 J0.5115
G1 X271.9001
G3 X272.2518 Y41.9463 J0.465
G2 X271.0026 Y43.6937 I8.7836 J7.5999
X270.2057 Y45.6884 I6.2906 J3.6695
X269.9881 Y47.5578 I7.9032 J1.8676
G1 X270.1233 Y58.9597
G3 X269.16 Y59.9229 I-0.9633
G1 X137.8403
G3 X136.8771 Y58.9597 J-0.9632
G1 Y57.04
G3 X137.8403 Y56.0766 I0.9633
G1 X215.8976 Y56.2083
G2 X221.5568 Y54.0348 I-0.0004 J-8.4555
X224.4265 Y48.6948 I-6.0099 J-6.6708
X224.5231 Y45.4166 I-13.6264 J-2.0423
G3 X224.3761 Y42.1403 I36.3317 J-3.272
X225.3395 Y41.1771 I0.9634 J0.0001
G1 X246.6808
G2 X248.0257 Y40.2805 J-1.457
G3 X249.3706 Y39.3839 I1.3449 J0.5604
G1 X275.0529
G3 X276.0161 Y40.3471 J0.9632
G1 Y40.7747
G3 X275.5199 Y41.6101 I-0.9512
G2 X273.2556 Y43.4745 I3.7112 J6.814
X271.9485 Y46.1002 I4.957 J4.1059
X271.7813 Y47.5579 I6.0747 J1.4355
G1 X271.9164 Y60.7529
G3 X270.9531 Y61.7161 I-0.9633
G1 X136.0471
G3 X135.0839 Y60.7529 J-0.9632
G1 Y55.2469
G3 X136.0471 Y54.2836 I0.9633
G1 X215.8975 Y54.4151
G2 X220.3865 Y52.6761 I-0.0004 J-6.6645
X222.6531 Y48.429 I-4.8421 J-5.3125
X222.7684 Y44.3868 I-16.6667 J-2.498
G3 X222.5831 Y40.3472 I43.8436 J-4.0345
X223.5465 Y39.3839 I0.9634 J0.0001
G1 X249.3706
G2 X251.1261 Y38.2136 J-1.9018
G3 X252.8816 Y37.0432 I1.7555 J0.7315
G1 X277.3935
G3 X278.3568 Y38.0065 J0.9632
G1 Y42.1209
G3 X277.4595 Y43.3351 I-1.2703
G2 X275.2049 Y44.7798 I1.4649 J4.768
X274.1367 Y47.2353 I3.1847 J2.8455
G1 X274.257 Y63.0935
G3 X273.2937 Y64.0568 I-0.9633
G1 X133.7065
G3 X132.7432 Y63.0935 J-0.9632
G1 Y52.9063
G3 X133.7065 Y51.943 I0.9633
G1 X215.8973 Y52.0744
G2 X218.8589 Y50.9027 I-0.0002 J-4.3291
X220.3383 Y48.0821 I-3.3208 J-3.54
X220.3773 Y47.5585 I-3.4962 J-0.524
X220.31 Y42.7825 I-168.088 J-0.0196
G3 X220.2427 Y38.0065 I168.0207 J-4.7564
X221.2061 Y37.0432 I0.9634 J0.0001
G1 X252.8816
G2 X254.6484 Y35.8654 J-1.914
G3 X256.4152 Y34.6875 I1.7668 J0.7362
G1 X280.7125
Y45.5129
X278.65 Y45.5137
G2 X278.5039 Y45.524 I0.0004 J1.0438
G1 X278.3114 Y45.5513
G2 X278.1179 Y45.5979 I0.1465 J1.0334
G1 X277.9254 Y45.6642
G2 X277.7484 Y45.7443 I0.34 J0.9868
G1 X277.5877 Y45.836
G2 X277.4281 Y45.9479 I0.517 J0.9067
G1 X277.2721 Y46.0807
G2 X277.1477 Y46.2063 I0.6766 J0.7948
G1 X277.0525 Y46.3203
G2 X276.964 Y46.4433 I0.801 J0.6692
G1 X276.8832 Y46.5749
G2 X276.8109 Y46.7156 I0.8894 J0.5462
G1 X276.748 Y46.8648
G2 X276.6939 Y47.0303 I0.9618 J0.4055
G1 X276.6511 Y47.2115
G2 X276.6275 Y47.3562 I1.0158 J0.24
G1 X276.6177 Y47.4628
X276.6134 Y47.5581
X276.6126 Y66.4125
X130.3875
Y49.5875
X215.8972 Y49.583
G2 X216.0914 Y49.5647 I-0.0001 J-1.0438
G1 X216.2839 Y49.5283
G2 X216.4775 Y49.4718 I-0.1943 J-1.0255
G1 X216.67 Y49.3947
G2 X216.8299 Y49.3142 I-0.3878 J-0.969
G1 X216.9582 Y49.2351
G2 X217.0904 Y49.1385 I-0.5477 J-0.8885
G1 X217.2243 Y49.0236
G2 X217.3391 Y48.9083 I-0.6799 J-0.7919
G1 X217.4356 Y48.7949
G2 X217.5385 Y48.6509 I-0.7947 J-0.6767
G1 X217.6432 Y48.4745
G2 X217.7298 Y48.2894 I-0.8976 J-0.5326
G1 X217.7976 Y48.0975
G2 X217.8456 Y47.9047 I-0.9842 J-0.3475
G1 X217.8744 Y47.7128
G2 X217.8859 Y47.5582 I-1.0322 J-0.1547
G1 X217.8874 Y34.6875
X256.4152
X256.4641 Y34.6913 Z-1.9922
X256.5117 Y34.7025 Z-1.9845
X256.5528 Y34.7189 Z-1.9619
X256.5912 Y34.7408 Z-1.9394
X256.645 Y34.7859 Z-1.8691
X256.6736 Y34.8206 Z-1.7806
X256.6824 Y34.8335 Z-1.6825
G0 Z5
X232.7818 Y52.8152
Z0.4173
G1 X232.7687 Y52.8082 Z0.3213 F1200
X232.731 Y52.7871 Z0.2343
X232.6734 Y52.752 Z0.1644
X232.6028 Y52.704 Z0.1182
X232.5272 Y52.6457 Z0.1
G3 X232.7439 Y52.7945 Z-0.2217 I0.9589 J-1.164
X232.9832 Y52.9034 Z-0.5434 I0.7422 J-1.3128
X233.2377 Y52.9692 Z-0.8651 I0.503 J-1.4218
X233.4998 Y52.9897 Z-1.1868 I0.2484 J-1.4875
X233.7615 Y52.9644 Z-1.5086 I-0.0136 J-1.5081
X234.0148 Y52.8941 Z-1.8303 I-0.2753 J-1.4828
X234.252 Y52.7809 Z-2.152 I-0.5286 J-1.4124
X234.466 Y52.6281 Z-2.4737 I-0.7659 J-1.2992
X234.6502 Y52.4406 Z-2.7954 I-0.9798 J-1.1465
X234.799 Y52.2239 Z-3.1171 I-1.164 J-0.9589
X234.9079 Y51.9846 Z-3.4388 I-1.3128 J-0.7422
X234.9737 Y51.7301 Z-3.7605 I-1.4218 J-0.503
X233.4861 Y49.9735 Z-4 I-1.4875 J-0.2484
G1 X260.7987 F3500
G3 X261.3272 Y50.502 J0.5285
G1 Y50.598
G3 X260.7987 Y51.1265 I-0.5285
G1 X233.4293
G3 X232.9084 Y50.5087 J-0.5285
G1 X232.9241 Y50.4157
G3 X233.4455 Y49.9735 I0.5214 J0.0863
G1 X233.4861
G2 X234.3869 Y49.373 J-0.9758
G3 X235.2877 Y48.7725 I0.9008 J0.3753
G1 X261.5651
G3 X262.5283 Y49.7357 J0.9632
G1 X262.5282 Y51.3642
G3 X261.5649 Y52.3275 I-0.9633
G1 X232.1794
G3 X231.4857 Y51.438 J-0.7152
G2 X231.6713 Y50.5907 I-13.7152 J-3.4474
X231.8135 Y49.7351 I-21.0438 J-3.9362
G3 X232.9261 Y48.7725 I1.1126 J0.1618
G1 X235.2877
G2 X236.9017 Y47.6965 J-1.7485
G3 X238.5158 Y46.6205 I1.614 J0.6725
G1 X263.7459
G3 X264.6804 Y47.5551 J0.9345
G1 X264.6801 Y53.5163
G3 X263.7169 Y54.4795 I-0.9633
G1 X228.9292
G3 X228.4046 Y53.6394 J-0.5838
G2 X229.8188 Y47.5821 I-12.5138 J-6.1153
G3 X230.7822 Y46.6205 I0.9634 J0.0018
G1 X238.5158
G2 X240.0253 Y45.6141 J-1.6353
G3 X241.5348 Y44.6078 I1.5095 J0.629
G1 X266.1271
G3 X266.877 Y45.5051 J0.762
G2 X266.5612 Y50.5129 I21.4269 J3.8654
G3 X266.6927 Y55.529 I-95.3843 J5.012
X265.7295 Y56.4922 I-0.9633
G1 X224.8764
G3 X224.5452 Y55.7281 J-0.4538
G2 X226.6677 Y52.7114 I-9.663 J-9.0538
X227.7968 Y49.2 I-10.157 J-5.203
X227.869 Y47.3857 I-8.2569 J-1.2375
G3 X227.8064 Y45.571 I26.162 J-1.8116
X228.7698 Y44.6078 I0.9634 J0.0001
G1 X241.5348
G2 X242.8803 Y43.7108 J-1.4577
G3 X244.2259 Y42.8137 I1.3455 J0.5606
G1 X268.7084
G3 X269.2762 Y43.6694 J0.6162
G2 X268.7453 Y45.1052 I15.7417 J6.6373
X268.4405 Y46.6055 I6.7043 J2.143
G1 X268.4867 Y57.323
G3 X267.5234 Y58.2863 I-0.9633
G1 X139.0864
G3 Y57.7132 J-0.2865
G1 X215.8976 Y57.8449
G2 X222.6249 Y55.2749 I-0.0005 J-10.0908
X226.045 Y48.9374 I-7.0766 J-7.9107
X226.1247 Y46.3566 I-10.8539 J-1.6268
G3 X226.0125 Y43.777 I29.5228 J-2.5761
X226.9759 Y42.8137 I0.9634 J0.0001
G1 X244.2259
G2 X245.4534 Y41.9954 J-1.3298
G3 X246.6808 Y41.1771 I1.2275 J0.5115
G1 X271.9001
G3 X272.2518 Y41.9463 J0.465
G2 X271.0026 Y43.6937 I8.7836 J7.5999
X270.2057 Y45.6884 I6.2906 J3.6695
X269.9881 Y47.5578 I7.9032 J1.8676
G1 X270.1233 Y58.9597
G3 X269.16 Y59.9229 I-0.9633
G1 X137.8403
G3 X136.8771 Y58.9597 J-0.9632
G1 Y57.04
G3 X137.8403 Y56.0766 I0.9633
G1 X215.8976 Y56.2083
G2 X221.5568 Y54.0348 I-0.0004 J-8.4555
X224.4265 Y48.6948 I-6.0099 J-6.6708
X224.5231 Y45.4166 I-13.6264 J-2.0423
G3 X224.3761 Y42.1403 I36.3317 J-3.272
X225.3395 Y41.1771 I0.9634 J0.0001
G1 X246.6808
G2 X248.0257 Y40.2805 J-1.457
G3 X249.3706 Y39.3839 I1.3449 J0.5604
G1 X275.0529
G3 X276.0161 Y40.3471 J0.9632
G1 Y40.7747
G3 X275.5199 Y41.6101 I-0.9512
G2 X273.2556 Y43.4745 I3.7112 J6.814
X271.9485 Y46.1002 I4.957 J4.1059
X271.7813 Y47.5579 I6.0747 J1.4355
G1 X271.9164 Y60.7529
G3 X270.9531 Y61.7161 I-0.9633
G1 X136.0471
G3 X135.0839 Y60.7529 J-0.9632
G1 Y55.2469
G3 X136.0471 Y54.2836 I0.9633
G1 X215.8975 Y54.4151
G2 X220.3865 Y52.6761 I-0.0004 J-6.6645
X222.6531 Y48.429 I-4.8421 J-5.3125
X222.7684 Y44.3868 I-16.6667 J-2.498
G3 X222.5831 Y40.3472 I43.8436 J-4.0345
X223.5465 Y39.3839 I0.9634 J0.0001
G1 X249.3706
G2 X251.1261 Y38.2136 J-1.9018
G3 X252.8816 Y37.0432 I1.7555 J0.7315
G1 X277.3935
G3 X278.3568 Y38.0065 J0.9632
G1 Y42.1209
G3 X277.4595 Y43.3351 I-1.2703
G2 X275.2049 Y44.7798 I1.4649 J4.768
X274.1367 Y47.2353 I3.1847 J2.8455
G1 X274.257 Y63.0935
G3 X273.2937 Y64.0568 I-0.9633
G1 X133.7065
G3 X132.7432 Y63.0935 J-0.9632
G1 Y52.9063
G3 X133.7065 Y51.943 I0.9633
G1 X215.8973 Y52.0744
G2 X218.8589 Y50.9027 I-0.0002 J-4.3291
X220.3383 Y48.0821 I-3.3208 J-3.54
X220.3773 Y47.5585 I-3.4962 J-0.524
X220.31 Y42.7825 I-168.088 J-0.0196
G3 X220.2427 Y38.0065 I168.0207 J-4.7564
X221.2061 Y37.0432 I0.9634 J0.0001
G1 X252.8816
G2 X254.6484 Y35.8654 J-1.914
G3 X256.4152 Y34.6875 I1.7668 J0.7362
G1 X280.7125
Y45.5129
X278.65 Y45.5137
G2 X278.5039 Y45.524 I0.0004 J1.0438
G1 X278.3114 Y45.5513
G2 X278.1179 Y45.5979 I0.1465 J1.0334
G1 X277.9254 Y45.6642
G2 X277.7484 Y45.7443 I0.34 J0.9868
G1 X277.5877 Y45.836
G2 X277.4281 Y45.9479 I0.517 J0.9067
G1 X277.2721 Y46.0807
G2 X277.1477 Y46.2063 I0.6766 J0.7948
G1 X277.0525 Y46.3203
G2 X276.964 Y46.4433 I0.801 J0.6692
G1 X276.8832 Y46.5749
G2 X276.8109 Y46.7156 I0.8894 J0.5462
G1 X276.748 Y46.8648
G2 X276.6939 Y47.0303 I0.9618 J0.4055
G1 X276.6511 Y47.2115
G2 X276.6275 Y47.3562 I1.0158 J0.24
G1 X276.6177 Y47.4628
X276.6134 Y47.5581
X276.6126 Y66.4125
X130.3875
Y49.5875
X215.8972 Y49.583
G2 X216.0914 Y49.5647 I-0.0001 J-1.0438
G1 X216.2839 Y49.5283
G2 X216.4775 Y49.4718 I-0.1943 J-1.0255
G1 X216.67 Y49.3947
G2 X216.8299 Y49.3142 I-0.3878 J-0.969
G1 X216.9582 Y49.2351
G2 X217.0904 Y49.1385 I-0.5477 J-0.8885
G1 X217.2243 Y49.0236
G2 X217.3391 Y48.9083 I-0.6799 J-0.7919
G1 X217.4356 Y48.7949
G2 X217.5385 Y48.6509 I-0.7947 J-0.6767
G1 X217.6432 Y48.4745
G2 X217.7298 Y48.2894 I-0.8976 J-0.5326
G1 X217.7976 Y48.0975
G2 X217.8456 Y47.9047 I-0.9842 J-0.3475
G1 X217.8744 Y47.7128
G2 X217.8859 Y47.5582 I-1.0322 J-0.1547
G1 X217.8874 Y34.6875
X256.4152
X256.4641 Y34.6913 Z-3.9922
X256.5117 Y34.7025 Z-3.9845
X256.5528 Y34.7189 Z-3.9619
X256.5912 Y34.7408 Z-3.9394
X256.645 Y34.7859 Z-3.8691
X256.6736 Y34.8206 Z-3.7806
X256.6824 Y34.8335 Z-3.6825
G0 Z5
X232.7818 Y52.8152
Z3
G1 Z-1.5827 F1200
X232.7687 Y52.8082 Z-1.6787
X232.731 Y52.7871 Z-1.7657
X232.6734 Y52.752 Z-1.8356
X232.6028 Y52.704 Z-1.8818
X232.5272 Y52.6457 Z-1.9
G3 X232.7439 Y52.7945 Z-2.2217 I0.9589 J-1.164
X232.9832 Y52.9034 Z-2.5434 I0.7422 J-1.3128
X233.2377 Y52.9692 Z-2.8651 I0.503 J-1.4218
X233.4998 Y52.9897 Z-3.1868 I0.2484 J-1.4875
X233.7615 Y52.9644 Z-3.5086 I-0.0136 J-1.5081
X234.0148 Y52.8941 Z-3.8303 I-0.2753 J-1.4828
X234.252 Y52.7809 Z-4.152 I-0.5286 J-1.4124
X234.466 Y52.6281 Z-4.4737 I-0.7659 J-1.2992
X234.6502 Y52.4406 Z-4.7954 I-0.9798 J-1.1465
X234.799 Y52.2239 Z-5.1171 I-1.164 J-0.9589
X234.9079 Y51.9846 Z-5.4388 I-1.3128 J-0.7422
X234.9737 Y51.7301 Z-5.7605 I-1.4218 J-0.503
X233.4861 Y49.9735 Z-6 I-1.4875 J-0.2484
G1 X260.7987 F3500
G3 X261.3272 Y50.502 J0.5285
G1 Y50.598
G3 X260.7987 Y51.1265 I-0.5285
G1 X233.4293
G3 X232.9084 Y50.5087 J-0.5285
G1 X232.9241 Y50.4157
G3 X233.4455 Y49.9735 I0.5214 J0.0863
G1 X233.4861
G2 X234.3869 Y49.373 J-0.9758
G3 X235.2877 Y48.7725 I0.9008 J0.3753
G1 X261.5651
G3 X262.5283 Y49.7357 J0.9632
G1 X262.5282 Y51.3642
G3 X261.5649 Y52.3275 I-0.9633
G1 X232.1794
G3 X231.4857 Y51.438 J-0.7152
G2 X231.6713 Y50.5907 I-13.7152 J-3.4474
X231.8135 Y49.7351 I-21.0438 J-3.9362
G3 X232.9261 Y48.7725 I1.1126 J0.1618
G1 X235.2877
G2 X236.9017 Y47.6965 J-1.7485
G3 X238.5158 Y46.6205 I1.614 J0.6725
G1 X263.7459
G3 X264.6804 Y47.5551 J0.9345
G1 X264.6801 Y53.5163
G3 X263.7169 Y54.4795 I-0.9633
G1 X228.9292
G3 X228.4046 Y53.6394 J-0.5838
G2 X229.8188 Y47.5821 I-12.5138 J-6.1153
G3 X230.7822 Y46.6205 I0.9634 J0.0018
G1 X238.5158
G2 X240.0253 Y45.6141 J-1.6353
G3 X241.5348 Y44.6078 I1.5095 J0.629
G1 X266.1271
G3 X266.877 Y45.5051 J0.762
G2 X266.5612 Y50.5129 I21.4269 J3.8654
G3 X266.6927 Y55.529 I-95.3843 J5.012
X265.7295 Y56.4922 I-0.9633
G1 X224.8764
G3 X224.5452 Y55.7281 J-0.4538
G2 X226.6677 Y52.7114 I-9.663 J-9.0538
X227.7968 Y49.2 I-10.157 J-5.203
X227.869 Y47.3857 I-8.2569 J-1.2375
G3 X227.8064 Y45.571 I26.162 J-1.8116
X228.7698 Y44.6078 I0.9634 J0.0001
G1 X241.5348
G2 X242.8803 Y43.7108 J-1.4577
G3 X244.2259 Y42.8137 I1.3455 J0.5606
G1 X268.7084
G3 X269.2762 Y43.6694 J0.6162
G2 X268.7453 Y45.1052 I15.7417 J6.6373
X268.4405 Y46.6055 I6.7043 J2.143
G1 X268.4867 Y57.323
G3 X267.5234 Y58.2863 I-0.9633
G1 X139.0864
G3 Y57.7132 J-0.2865
G1 X215.8976 Y57.8449
G2 X222.6249 Y55.2749 I-0.0005 J-10.0908
X226.045 Y48.9374 I-7.0766 J-7.9107
X226.1247 Y46.3566 I-10.8539 J-1.6268
G3 X226.0125 Y43.777 I29.5228 J-2.5761
X226.9759 Y42.8137 I0.9634 J0.0001
G1 X244.2259
G2 X245.4534 Y41.9954 J-1.3298
G3 X246.6808 Y41.1771 I1.2275 J0.5115
G1 X271.9001
G3 X272.2518 Y41.9463 J0.465
G2 X271.0026 Y43.6937 I8.7836 J7.5999
X270.2057 Y45.6884 I6.2906 J3.6695
X269.9881 Y47.5578 I7.9032 J1.8676
G1 X270.1233 Y58.9597
G3 X269.16 Y59.9229 I-0.9633
G1 X137.8403
G3 X136.8771 Y58.9597 J-0.9632
G1 Y57.04
G3 X137.8403 Y56.0766 I0.9633
G1 X215.8976 Y56.2083
G2 X221.5568 Y54.0348 I-0.0004 J-8.4555
X224.4265 Y48.6948 I-6.0099 J-6.6708
X224.5231 Y45.4166 I-13.6264 J-2.0423
G3 X224.3761 Y42.1403 I36.3317 J-3.272
X225.3395 Y41.1771 I0.9634 J0.0001
G1 X246.6808
G2 X248.0257 Y40.2805 J-1.457
G3 X249.3706 Y39.3839 I1.3449 J0.5604
G1 X275.0529
G3 X276.0161 Y40.3471 J0.9632
G1 Y40.7747
G3 X275.5199 Y41.6101 I-0.9512
G2 X273.2556 Y43.4745 I3.7112 J6.814
X271.9485 Y46.1002 I4.957 J4.1059
X271.7813 Y47.5579 I6.0747 J1.4355
G1 X271.9164 Y60.7529
G3 X270.9531 Y61.7161 I-0.9633
G1 X136.0471
G3 X135.0839 Y60.7529 J-0.9632
G1 Y55.2469
G3 X136.0471 Y54.2836 I0.9633
G1 X215.8975 Y54.4151
G2 X220.3865 Y52.6761 I-0.0004 J-6.6645
X222.6531 Y48.429 I-4.8421 J-5.3125
X222.7684 Y44.3868 I-16.6667 J-2.498
G3 X222.5831 Y40.3472 I43.8436 J-4.0345
X223.5465 Y39.3839 I0.9634 J0.0001
G1 X249.3706
G2 X251.1261 Y38.2136 J-1.9018
G3 X252.8816 Y37.0432 I1.7555 J0.7315
G1 X277.3935
G3 X278.3568 Y38.0065 J0.9632
G1 Y42.1209
G3 X277.4595 Y43.3351 I-1.2703
G2 X275.2049 Y44.7798 I1.4649 J4.768
X274.1367 Y47.2353 I3.1847 J2.8455
G1 X274.257 Y63.0935
G3 X273.2937 Y64.0568 I-0.9633
G1 X133.7065
G3 X132.7432 Y63.0935 J-0.9632
G1 Y52.9063
G3 X133.7065 Y51.943 I0.9633
G1 X215.8973 Y52.0744
G2 X218.8589 Y50.9027 I-0.0002 J-4.3291
X220.3383 Y48.0821 I-3.3208 J-3.54
X220.3773 Y47.5585 I-3.4962 J-0.524
X220.31 Y42.7825 I-168.088 J-0.0196
G3 X220.2427 Y38.0065 I168.0207 J-4.7564
X221.2061 Y37.0432 I0.9634 J0.0001
G1 X252.8816
G2 X254.6484 Y35.8654 J-1.914
G3 X256.4152 Y34.6875 I1.7668 J0.7362
G1 X280.7125
Y45.5129
X278.65 Y45.5137
G2 X278.5039 Y45.524 I0.0004 J1.0438
G1 X278.3114 Y45.5513
G2 X278.1179 Y45.5979 I0.1465 J1.0334
G1 X277.9254 Y45.6642
G2 X277.7484 Y45.7443 I0.34 J0.9868
G1 X277.5877 Y45.836
G2 X277.4281 Y45.9479 I0.517 J0.9067
G1 X277.2721 Y46.0807
G2 X277.1477 Y46.2063 I0.6766 J0.7948
G1 X277.0525 Y46.3203
G2 X276.964 Y46.4433 I0.801 J0.6692
G1 X276.8832 Y46.5749
G2 X276.8109 Y46.7156 I0.8894 J0.5462
G1 X276.748 Y46.8648
G2 X276.6939 Y47.0303 I0.9618 J0.4055
G1 X276.6511 Y47.2115
G2 X276.6275 Y47.3562 I1.0158 J0.24
G1 X276.6177 Y47.4628
X276.6134 Y47.5581
X276.6126 Y66.4125
X130.3875
Y49.5875
X215.8972 Y49.583
G2 X216.0914 Y49.5647 I-0.0001 J-1.0438
G1 X216.2839 Y49.5283
G2 X216.4775 Y49.4718 I-0.1943 J-1.0255
G1 X216.67 Y49.3947
G2 X216.8299 Y49.3142 I-0.3878 J-0.969
G1 X216.9582 Y49.2351
G2 X217.0904 Y49.1385 I-0.5477 J-0.8885
G1 X217.2243 Y49.0236
G2 X217.3391 Y48.9083 I-0.6799 J-0.7919
G1 X217.4356 Y48.7949
G2 X217.5385 Y48.6509 I-0.7947 J-0.6767
G1 X217.6432 Y48.4745
G2 X217.7298 Y48.2894 I-0.8976 J-0.5326
G1 X217.7976 Y48.0975
G2 X217.8456 Y47.9047 I-0.9842 J-0.3475
G1 X217.8744 Y47.7128
G2 X217.8859 Y47.5582 I-1.0322 J-0.1547
G1 X217.8874 Y34.6875
X256.4152
X256.4641 Y34.6913 Z-5.9922
X256.5117 Y34.7025 Z-5.9845
X256.5528 Y34.7189 Z-5.9619
X256.5912 Y34.7408 Z-5.9394
X256.645 Y34.7859 Z-5.8691
X256.6736 Y34.8206 Z-5.7806
X256.6824 Y34.8335 Z-5.6825
G0 Z5
X259.9691 Y58.1191
Z-3
G1 Z-8 F1200
X259.9538 Y58.1409 F3500
X259.9326 Y58.1622
X259.9254 Y58.1676
X259.8796 Y58.1924
X259.8487 Y58.2029
X259.8183 Y58.2081
X259.7875 Y58.2086
X259.7567 Y58.2042
X259.7217 Y58.1935
X259.6883 Y58.1772
X259.6742 Y58.1675
X259.6501 Y58.1457
X259.6287 Y58.1188
X259.6056 Y58.078
X259.6038 Y58.0732
X259.5928 Y58.0248
X259.591 Y57.9967
X259.5938 Y57.9663
X259.6014 Y57.9361
X259.6158 Y57.9031
X259.6439 Y57.8604
X259.6827 Y57.8281
X259.7154 Y57.8102
X259.7575 Y57.7962
X259.7975 Y57.7903
X259.8029 Y57.7904
X259.8455 Y57.7967
X259.8835 Y57.8094
X259.9254 Y57.832
X259.9329 Y57.8377
X259.9546 Y57.8594
X259.9776 Y57.8906
X259.999 Y57.9332
X260.0079 Y57.9776
X260.009 Y58.007
X260.0054 Y58.0382
X259.9968 Y58.0694
X259.983 Y58.0992
X259.9691 Y58.1191
X259.9538 Y58.1409 Z-7.9989
X259.9326 Y58.1622 Z-7.9949
X259.9254 Y58.1676 Z-7.9931
X259.8796 Y58.1924 Z-7.9774
X259.8487 Y58.2029 Z-7.9621
X259.8183 Y58.2081 Z-7.9432
X259.7875 Y58.2086 Z-7.9188
X259.7567 Y58.2042 Z-7.8866
X259.7217 Y58.1935 Z-7.8326
X259.6987 Y58.1822 Z-7.7692
X259.6883 Y58.1772 Z-7.7018
X259.6878 Y58.1768 Z-7.6825
G0 Z5
X259.9691 Y58.1191
Z-5
G1 Z-10 F1200
X259.9538 Y58.1409 F3500
X259.9326 Y58.1622
X259.9254 Y58.1676
X259.8796 Y58.1924
X259.8487 Y58.2029
X259.8183 Y58.2081
X259.7875 Y58.2086
X259.7567 Y58.2042
X259.7217 Y58.1935
X259.6883 Y58.1772
X259.6742 Y58.1675
X259.6501 Y58.1457
X259.6287 Y58.1188
X259.6056 Y58.078
X259.6038 Y58.0732
X259.5928 Y58.0248
X259.591 Y57.9967
X259.5938 Y57.9663
X259.6014 Y57.9361
X259.6158 Y57.9031
X259.6439 Y57.8604
X259.6827 Y57.8281
X259.7154 Y57.8102
X259.7575 Y57.7962
X259.7975 Y57.7903
X259.8029 Y57.7904
X259.8455 Y57.7967
X259.8835 Y57.8094
X259.9254 Y57.832
X259.9329 Y57.8377
X259.9546 Y57.8594
X259.9776 Y57.8906
X259.999 Y57.9332
X260.0079 Y57.9776
X260.009 Y58.007
X260.0054 Y58.0382
X259.9968 Y58.0694
X259.983 Y58.0992
X259.9691 Y58.1191
X259.9538 Y58.1409 Z-9.9989
X259.9326 Y58.1622 Z-9.9949
X259.9254 Y58.1676 Z-9.9931
X259.8796 Y58.1924 Z-9.9774
X259.8487 Y58.2029 Z-9.9621
X259.8183 Y58.2081 Z-9.9432
X259.7875 Y58.2086 Z-9.9188
X259.7567 Y58.2042 Z-9.8866
X259.7217 Y58.1935 Z-9.8326
X259.6987 Y58.1822 Z-9.7692
X259.6883 Y58.1772 Z-9.7018
X259.6878 Y58.1768 Z-9.6825
G0 Z5
X259.9691 Y58.1191
Z-7
G1 Z-12 F1200
X259.9538 Y58.1409 F3500
X259.9326 Y58.1622
X259.9254 Y58.1676
X259.8796 Y58.1924
X259.8487 Y58.2029
X259.8183 Y58.2081
X259.7875 Y58.2086
X259.7567 Y58.2042
X259.7217 Y58.1935
X259.6883 Y58.1772
X259.6742 Y58.1675
X259.6501 Y58.1457
X259.6287 Y58.1188
X259.6056 Y58.078
X259.6038 Y58.0732
X259.5928 Y58.0248
X259.591 Y57.9967
X259.5938 Y57.9663
X259.6014 Y57.9361
X259.6158 Y57.9031
X259.6439 Y57.8604
X259.6827 Y57.8281
X259.7154 Y57.8102
X259.7575 Y57.7962
X259.7975 Y57.7903
X259.8029 Y57.7904
X259.8455 Y57.7967
X259.8835 Y57.8094
X259.9254 Y57.832
X259.9329 Y57.8377
X259.9546 Y57.8594
X259.9776 Y57.8906
X259.999 Y57.9332
X260.0079 Y57.9776
X260.009 Y58.007
X260.0054 Y58.0382
X259.9968 Y58.0694
X259.983 Y58.0992
X259.9691 Y58.1191
X259.9538 Y58.1409 Z-11.9989
X259.9326 Y58.1622 Z-11.9949
X259.9254 Y58.1676 Z-11.9931
X259.8796 Y58.1924 Z-11.9774
X259.8487 Y58.2029 Z-11.9621
X259.8183 Y58.2081 Z-11.9432
X259.7875 Y58.2086 Z-11.9188
X259.7567 Y58.2042 Z-11.8866
X259.7217 Y58.1935 Z-11.8326
X259.6987 Y58.1822 Z-11.7692
X259.6883 Y58.1772 Z-11.7018
X259.6878 Y58.1768 Z-11.6825
G0 Z5
X259.9691 Y58.1191
Z-3
G1 Z-9 F1200
Z-13.4
X259.9538 Y58.1409 F3500
X259.9326 Y58.1622
X259.9254 Y58.1676
X259.8796 Y58.1924
X259.8487 Y58.2029
X259.8183 Y58.2081
X259.7875 Y58.2086
X259.7567 Y58.2042
X259.7217 Y58.1935
X259.6883 Y58.1772
X259.6742 Y58.1675
X259.6501 Y58.1457
X259.6287 Y58.1188
X259.6056 Y58.078
X259.6038 Y58.0732
X259.5928 Y58.0248
X259.591 Y57.9967
X259.5938 Y57.9663
X259.6014 Y57.9361
X259.6158 Y57.9031
X259.6439 Y57.8604
X259.6827 Y57.8281
X259.7154 Y57.8102
X259.7575 Y57.7962
X259.7975 Y57.7903
X259.8029 Y57.7904
X259.8455 Y57.7967
X259.8835 Y57.8094
X259.9254 Y57.832
X259.9329 Y57.8377
X259.9546 Y57.8594
X259.9776 Y57.8906
X259.999 Y57.9332
X260.0079 Y57.9776
X260.009 Y58.007
X260.0054 Y58.0382
X259.9968 Y58.0694
X259.983 Y58.0992
X259.9691 Y58.1191
X259.9538 Y58.1409 Z-13.3989
X259.9326 Y58.1622 Z-13.3949
X259.9254 Y58.1676 Z-13.3931
X259.8796 Y58.1924 Z-13.3774
X259.8487 Y58.2029 Z-13.3621
X259.8183 Y58.2081 Z-13.3432
X259.7875 Y58.2086 Z-13.3188
X259.7567 Y58.2042 Z-13.2866
X259.7217 Y58.1935 Z-13.2326
X259.6987 Y58.1822 Z-13.1692
X259.6883 Y58.1772 Z-13.1018
X259.6878 Y58.1768 Z-13.0825
G0 Z5
X272.0673 Y57.8421
Z-3
G1 Z-8 F1200
X272.0824 Y57.8293 F3500
X272.1179 Y57.8093
X272.1645 Y57.7934
X272.2073 Y57.7914
X272.249 Y57.7961
X272.2877 Y57.811
X272.3334 Y57.8384
X272.3415 Y57.8452
X272.3619 Y57.868
X272.3837 Y57.9017
X272.3988 Y57.9363
X272.4063 Y57.966
X272.409 Y57.9967
X272.4063 Y58.0392
X272.3931 Y58.079
X272.3751 Y58.1126
X272.3444 Y58.1516
X272.2977 Y58.1836
X272.2671 Y58.1975
X272.2233 Y58.2091
X272.2167 Y58.21
X272.2086 Y58.2102
X272.1641 Y58.2057
X272.1337 Y58.1977
X272.0898 Y58.178
X272.0793 Y58.1714
X272.0492 Y58.1457
X272.0355 Y58.13
X272.0222 Y58.1098
X272.0005 Y58.0618
X271.9949 Y58.0409
X271.991 Y58.007
X271.9924 Y57.9716
X271.9988 Y57.9371
X272.0112 Y57.9085
X272.0267 Y57.8826
X272.0435 Y57.8623
X272.0673 Y57.8421
X272.0824 Y57.8293 Z-7.9994
X272.1179 Y57.8093 Z-7.9942
X272.1645 Y57.7934 Z-7.9804
X272.2073 Y57.7914 Z-7.9609
X272.249 Y57.7961 Z-7.9334
X272.2877 Y57.811 Z-7.8949
X272.3132 Y57.8263 Z-7.8562
X272.3334 Y57.8384 Z-7.8133
X272.3415 Y57.8452 Z-7.7869
X272.3503 Y57.855 Z-7.7355
X272.3532 Y57.8583 Z-7.6825
G0 Z5
X272.3175 Y58.1701
Z-5
G1 Z-10 F1200
X272.2977 Y58.1836 F3500
X272.2671 Y58.1975
X272.2233 Y58.2091
X272.2167 Y58.21
X272.2086 Y58.2102
X272.1641 Y58.2057
X272.1337 Y58.1977
X272.0898 Y58.178
X272.0793 Y58.1714
X272.0492 Y58.1457
X272.0355 Y58.13
X272.0222 Y58.1098
X272.0005 Y58.0618
X271.9949 Y58.0409
X271.991 Y58.007
X271.9924 Y57.9716
X271.9988 Y57.9371
X272.0112 Y57.9085
X272.0267 Y57.8826
X272.0435 Y57.8623
X272.0824 Y57.8293
X272.1179 Y57.8093
X272.1645 Y57.7934
X272.2073 Y57.7914
X272.249 Y57.7961
X272.2877 Y57.811
X272.3334 Y57.8384
X272.3415 Y57.8452
X272.3619 Y57.868
X272.3837 Y57.9017
X272.3988 Y57.9363
X272.4063 Y57.966
X272.409 Y57.9967
X272.4063 Y58.0392
X272.3931 Y58.079
X272.3751 Y58.1126
X272.3444 Y58.1516
X272.3175 Y58.1701
X272.2977 Y58.1836 Z-9.9991
X272.2671 Y58.1975 Z-9.9947
X272.2233 Y58.2091 Z-9.9829
X272.2167 Y58.21 Z-9.9805
X272.2086 Y58.2102 Z-9.9774
X272.1641 Y58.2057 Z-9.9553
X272.1337 Y58.1977 Z-9.934
X272.0898 Y58.178 Z-9.8881
X272.0793 Y58.1714 Z-9.8726
X272.0626 Y58.1571 Z-9.8389
X272.0492 Y58.1457 Z-9.8026
X272.0407 Y58.136 Z-9.7642
X272.0355 Y58.13 Z-9.7244
X272.034 Y58.1277 Z-9.6825
G0 Z5
X272.3175 Y58.1701
Z-7
G1 Z-12 F1200
X272.2977 Y58.1836 F3500
X272.2671 Y58.1975
X272.2233 Y58.2091
X272.2167 Y58.21
X272.2086 Y58.2102
X272.1641 Y58.2057
X272.1337 Y58.1977
X272.0898 Y58.178
X272.0793 Y58.1714
X272.0492 Y58.1457
X272.0355 Y58.13
X272.0222 Y58.1098
X272.0005 Y58.0618
X271.9949 Y58.0409
X271.991 Y58.007
X271.9924 Y57.9716
X271.9988 Y57.9371
X272.0112 Y57.9085
X272.0267 Y57.8826
X272.0435 Y57.8623
X272.0824 Y57.8293
X272.1179 Y57.8093
X272.1645 Y57.7934
X272.2073 Y57.7914
X272.249 Y57.7961
X272.2877 Y57.811
X272.3334 Y57.8384
X272.3415 Y57.8452
X272.3619 Y57.868
X272.3837 Y57.9017
X272.3988 Y57.9363
X272.4063 Y57.966
X272.409 Y57.9967
X272.4063 Y58.0392
X272.3931 Y58.079
X272.3751 Y58.1126
X272.3444 Y58.1516
X272.3175 Y58.1701
X272.2977 Y58.1836 Z-11.9991
X272.2671 Y58.1975 Z-11.9947
X272.2233 Y58.2091 Z-11.9829
X272.2167 Y58.21 Z-11.9805
X272.2086 Y58.2102 Z-11.9774
X272.1641 Y58.2057 Z-11.9553
X272.1337 Y58.1977 Z-11.934
X272.0898 Y58.178 Z-11.8881
X272.0793 Y58.1714 Z-11.8726
X272.0626 Y58.1571 Z-11.8389
X272.0492 Y58.1457 Z-11.8026
X272.0407 Y58.136 Z-11.7642
X272.0355 Y58.13 Z-11.7244
X272.034 Y58.1277 Z-11.6825
G0 Z5
X272.307 Y57.8226
Z-3
G1 Z-9 F1200
Z-13.4
X272.3334 Y57.8384 F3500
X272.3415 Y57.8452
X272.3619 Y57.868
X272.3837 Y57.9017
X272.3988 Y57.9363
X272.4063 Y57.966
X272.409 Y57.9967
X272.4063 Y58.0392
X272.3931 Y58.079
X272.3751 Y58.1126
X272.3444 Y58.1516
X272.2977 Y58.1836
X272.2671 Y58.1975
X272.2233 Y58.2091
X272.2167 Y58.21
X272.2086 Y58.2102
X272.1641 Y58.2057
X272.1337 Y58.1977
X272.0898 Y58.178
X272.0793 Y58.1714
X272.0492 Y58.1457
X272.0355 Y58.13
X272.0222 Y58.1098
X272.0005 Y58.0618
X271.9949 Y58.0409
X271.991 Y58.007
X271.9924 Y57.9716
X271.9988 Y57.9371
X272.0112 Y57.9085
X272.0267 Y57.8826
X272.0435 Y57.8623
X272.0824 Y57.8293
X272.1179 Y57.8093
X272.1645 Y57.7934
X272.2073 Y57.7914
X272.249 Y57.7961
X272.2877 Y57.811
X272.307 Y57.8226
X272.3334 Y57.8384 Z-13.3985
X272.3415 Y57.8452 Z-13.3973
X272.3619 Y57.868 Z-13.3918
X272.3837 Y57.9017 Z-13.3796
X272.3988 Y57.9363 Z-13.3624
X272.4063 Y57.966 Z-13.3437
X272.409 Y57.9967 Z-13.3195
X272.4063 Y58.0392 Z-13.2731
X272.3989 Y58.0616 Z-13.2369
X272.3931 Y58.079 Z-13.1978
X272.3854 Y58.0933 Z-13.1412
X272.3828 Y58.0981 Z-13.0825
G0 Z5
X232.7818 Y52.8152
Z-3.5827
G1 X232.7687 Y52.8082 Z-3.6787 F1200
X232.731 Y52.7872 Z-3.7657
X232.6734 Y52.7521 Z-3.8356
X232.6028 Y52.704 Z-3.8818
X232.5272 Y52.6457 Z-3.9
G3 X232.7439 Y52.7945 Z-4.2217 I0.9589 J-1.164
X232.9832 Y52.9035 Z-4.5434 I0.7422 J-1.3128
X233.2377 Y52.9692 Z-4.8651 I0.503 J-1.4218
X233.4998 Y52.9897 Z-5.1868 I0.2484 J-1.4875
X233.7615 Y52.9645 Z-5.5086 I-0.0136 J-1.5081
X234.0148 Y52.8941 Z-5.8303 I-0.2753 J-1.4828
X234.252 Y52.7809 Z-6.152 I-0.5286 J-1.4124
X234.466 Y52.6282 Z-6.4737 I-0.7658 J-1.2992
X234.6502 Y52.4406 Z-6.7954 I-0.9798 J-1.1465
X234.799 Y52.2239 Z-7.1171 I-1.164 J-0.9589
X234.9079 Y51.9846 Z-7.4388 I-1.3128 J-0.7422
X234.9737 Y51.7301 Z-7.7605 I-1.4218 J-0.503
X233.4861 Y49.9736 Z-8 I-1.4875 J-0.2484
G1 X236.3987 F3500
G3 X236.9272 Y50.502 J0.5285
G1 Y50.598
G3 X236.3987 Y51.1264 I-0.5285
G1 X233.4293
G3 X232.9085 Y50.5087 J-0.5285
G1 X232.9241 Y50.4157
G3 X233.4455 Y49.9736 I0.5214 J0.0863
G1 X233.4861
G2 X234.3869 Y49.3731 J-0.9758
G3 X235.2876 Y48.7726 I0.9007 J0.3753
G1 X237.165
G3 X238.1282 Y49.7358 J0.9632
G1 X238.1281 Y51.3642
G3 X237.1648 Y52.3274 I-0.9633
G1 X232.1794
G3 X231.4858 Y51.4379 J-0.7152
G2 X231.6714 Y50.5907 I-13.7151 J-3.4473
X231.8135 Y49.7351 I-21.0448 J-3.9364
G3 X232.9261 Y48.7726 I1.1126 J0.1618
G1 X235.2876
G2 X236.9017 Y47.6965 J-1.7485
G3 X238.5157 Y46.6205 I1.614 J0.6725
G1 X239.3459
G3 X240.2803 Y47.5552 J0.9345
G1 X240.2801 Y53.5162
G3 X239.3168 Y54.4795 I-0.9633
G1 X228.9292
G3 X228.4047 Y53.6394 J-0.5838
G2 X229.2285 Y51.6158 I-14.4521 J-7.0624
X229.7344 Y49.4904 I-12.2306 J-4.0343
X229.8117 Y48.5378 I-6.9757 J-1.0455
X229.8189 Y47.5821 I-84.3892 J-1.112
G3 X230.7823 Y46.6205 I0.9634 J0.0018
G1 X238.5157
G2 X240.0252 Y45.6142 J-1.6353
G3 X241.5347 Y44.6078 I1.5095 J0.629
G1 X241.7201
G3 X242.4775 Y45.5067 J0.7685
G2 X242.1715 Y50.5139 I22.6425 J3.8967
G3 X242.2927 Y55.5289 I-103.5504 J5.0107
X241.3294 Y56.4922 I-0.9633
G1 X224.8765
G3 X224.5453 Y55.728 J-0.4538
G2 X226.6678 Y52.7114 I-9.6632 J-9.0538
X227.7968 Y49.2 I-10.157 J-5.203
X227.8691 Y47.3857 I-8.2569 J-1.2375
G3 X227.8064 Y45.5711 I26.1621 J-1.8116
X228.7698 Y44.6078 I0.9634 J0.0001
G1 X241.5347
G2 X242.8803 Y43.7108 J-1.4577
G3 X244.2258 Y42.8138 I1.3456 J0.5606
G1 X244.3096
G3 X244.8763 Y43.6621 J0.6134
G2 X244.3923 Y44.9705 I16.6123 J6.8881
X244.0821 Y46.3305 I7.278 J2.3753
X243.9016 Y51.8268 I27.2506 J3.646
G3 X244.0867 Y57.323 I-81.4316 J5.4927
X243.1234 Y58.2862 I-0.9633
G1 X151.0865
G3 X151.0864 Y57.7132 J-0.2865
G1 X215.8977 Y57.845
G2 X222.6249 Y55.2749 I-0.0006 J-10.0909
X226.0451 Y48.9374 I-7.0766 J-7.9107
X226.1248 Y46.3566 I-10.8538 J-1.6267
G3 X226.0126 Y43.777 I29.5226 J-2.5761
X226.976 Y42.8138 I0.9634 J0.0001
G1 X244.2258
G2 X245.453 Y41.9957 J-1.3294
G3 X246.6802 Y41.1775 I1.2272 J0.5113
G1 X247.4987
G3 X247.8518 Y41.9475 J0.466
G2 X246.4196 Y44.0845 I8.1298 J6.9971
X245.6553 Y46.541 I6.8331 J3.473
G1 X245.7228 Y58.9592
G3 X244.7595 Y59.9225 I-0.9633
G1 X149.8408
G3 X148.8775 Y58.9592 J-0.9632
G1 Y57.0403
G3 X149.8408 Y56.077 I0.9633
G1 X215.8976 Y56.2087
G2 X221.5571 Y54.0351 I-0.0005 J-8.456
X224.4269 Y48.6949 I-6.0103 J-6.6712
X224.5236 Y45.4169 I-13.6256 J-2.0422
G3 X224.3766 Y42.1408 I36.3298 J-3.2719
X225.3399 Y41.1775 I0.9634 J0.0001
G1 X246.6802
G2 X248.0254 Y40.2807 J-1.4573
G3 X249.3706 Y39.3839 I1.3452 J0.5605
G1 X275.1639
G3 X275.1641 Y40.8172 J0.7166
G1 X254.2026 Y40.6848
G2 X249.673 Y42.4601 I0.0011 J6.669
X247.4331 Y46.7789 I4.8804 J5.2714
G1 X247.5164 Y60.7529
G3 X246.5531 Y61.7161 I-0.9633
G1 X148.0471
G3 X147.0839 Y60.7529 J-0.9632
G1 Y55.2468
G3 X148.0471 Y54.2835 I0.9633
G1 X215.8975 Y54.4151
G2 X220.3865 Y52.6761 I-0.0004 J-6.6645
X222.6531 Y48.429 I-4.8421 J-5.3125
X222.7684 Y44.3868 I-16.6667 J-2.498
G3 X222.5831 Y40.3472 I43.8436 J-4.0345
X223.5465 Y39.3839 I0.9634 J0.0001
G1 X249.3706
G2 X251.1261 Y38.2136 J-1.9018
G3 X252.8816 Y37.0432 I1.7555 J0.7315
G1 X277.3935
G3 X278.3568 Y38.0065 J0.9632
G1 Y42.194
G3 X277.3935 Y43.1575 I-0.9634
X265.7982 Y43.0915 I-0.1608 J-990.5895
G2 X254.203 Y43.0255 I-11.4344 J990.5235
X251.2146 Y44.2214 I0.0007 J4.3334
X249.7531 Y47.0893 I3.3449 J3.5109
G1 X249.8569 Y63.0935
G3 X248.8937 Y64.0568 I-0.9633
G1 X145.7065
G3 X144.7432 Y63.0935 J-0.9632
G1 Y52.9063
G3 X145.7065 Y51.943 I0.9633
G1 X215.8974 Y52.0744
G2 X218.8589 Y50.9026 I-0.0003 J-4.3291
X220.3383 Y48.0821 I-3.3208 J-3.54
X220.3773 Y47.5585 I-3.4962 J-0.524
G1 X220.2427 Y38.0065
G3 X221.2061 Y37.0432 I0.9634 J0.0001
G1 X252.8816
G2 X254.6484 Y35.8654 J-1.914
G3 X256.4152 Y34.6875 I1.7668 J0.7362
G1 X280.7125
Y45.5127
X254.2034 Y45.517
G2 X254.0101 Y45.5351 I0.0002 J1.0438
G1 X253.8176 Y45.5714
G2 X253.624 Y45.6277 I0.1935 J1.0257
G1 X253.4315 Y45.7046
G2 X253.2716 Y45.785 I0.3871 J0.9693
G1 X253.1433 Y45.8639
G2 X253.0142 Y45.9577 I0.547 J0.8889
G1 X252.8858 Y46.0668
G2 X252.7627 Y46.1906 I0.6761 J0.7952
G1 X252.6465 Y46.329
G2 X252.5378 Y46.4854 I0.7992 J0.6713
G1 X252.4391 Y46.6594
G2 X252.3572 Y46.8432 I0.9079 J0.515
G1 X252.293 Y47.035
G2 X252.2482 Y47.2278 I0.9898 J0.3312
G1 X252.2226 Y47.4197
G2 X252.2133 Y47.5581 I1.0345 J0.1384
G1 X252.2125 Y66.4125
X142.3875
Y49.5874
X215.8972 Y49.583
G2 X216.0914 Y49.5647 I-0.0001 J-1.0438
G1 X216.2839 Y49.5283
G2 X216.4775 Y49.4718 I-0.1943 J-1.0255
G1 X216.67 Y49.3947
G2 X216.8299 Y49.3142 I-0.3878 J-0.969
G1 X216.9582 Y49.2351
G2 X217.0904 Y49.1385 I-0.5477 J-0.8885
G1 X217.2243 Y49.0236
G2 X217.3391 Y48.9083 I-0.6799 J-0.7919
G1 X217.4356 Y48.7949
G2 X217.5385 Y48.6509 I-0.7947 J-0.6767
G1 X217.6432 Y48.4745
G2 X217.7298 Y48.2894 I-0.8976 J-0.5326
G1 X217.7976 Y48.0975
G2 X217.8456 Y47.9047 I-0.9842 J-0.3475
G1 X217.8744 Y47.7128
G2 X217.8859 Y47.5582 I-1.0322 J-0.1547
G1 X217.8874 Y34.6875
X256.4152
X256.4641 Y34.6913 Z-7.9922
X256.5118 Y34.7025 Z-7.9845
X256.5529 Y34.7189 Z-7.9619
X256.5913 Y34.7408 Z-7.9394
X256.645 Y34.7859 Z-7.8691
X256.6737 Y34.8206 Z-7.7806
X256.6824 Y34.8335 Z-7.6825
G0 Z5
X150.0957 Y59.4662
Z-5.5827
G1 X150.0826 Y59.4592 Z-5.6787 F1200
X150.0449 Y59.4381 Z-5.7657
X149.9873 Y59.4031 Z-5.8356
X149.9166 Y59.355 Z-5.8818
X149.8411 Y59.2967 Z-5.9
G3 X150.0578 Y59.4455 Z-6.2217 I0.9589 J-1.164
X150.297 Y59.5545 Z-6.5434 I0.7422 J-1.3128
X150.5516 Y59.6202 Z-6.8651 I0.503 J-1.4218
X150.8137 Y59.6407 Z-7.1868 I0.2484 J-1.4875
X151.0753 Y59.6155 Z-7.5086 I-0.0136 J-1.5081
X151.3286 Y59.5451 Z-7.8303 I-0.2753 J-1.4828
X151.5659 Y59.4319 Z-8.152 I-0.5286 J-1.4124
X151.7798 Y59.2791 Z-8.4737 I-0.7659 J-1.2992
X151.964 Y59.0916 Z-8.7954 I-0.9798 J-1.1465
X152.1128 Y58.8749 Z-9.1171 I-1.164 J-0.9589
X152.2218 Y58.6356 Z-9.4388 I-1.3128 J-0.7422
X152.2875 Y58.3811 Z-9.7605 I-1.4218 J-0.503
X150.8 Y56.6245 Z-10 I-1.4875 J-0.2484
G1 X244.2122 F3500
G3 X245.1754 Y57.5878 J0.9632
G1 Y58.4122
G3 X244.2122 Y59.3755 I-0.9632
G1 X150.3878
G3 X149.4246 Y58.4122 J-0.9632
G1 Y57.5878
G3 X150.3878 Y56.6245 I0.9632
G1 X150.8
G2 X152.5555 Y55.4542 J-1.9018
G3 X154.311 Y54.2839 I1.7555 J0.7315
G1 X246.5529
G3 X247.5161 Y55.2471 J0.9632
G1 Y60.7529
G3 X246.5529 Y61.7161 I-0.9632
G1 X148.0471
G3 X147.0839 Y60.7529 J-0.9632
G1 Y55.2471
G3 X148.0471 Y54.2839 I0.9632
G1 X154.311
G2 X156.0665 Y53.1136 J-1.9018
G3 X157.822 Y51.9432 I1.7555 J0.7315
G1 X248.8935
G3 X249.8568 Y52.9065 J0.9632
G1 Y63.0935
G3 X248.8935 Y64.0568 I-0.9632
G1 X145.7065
G3 X144.7432 Y63.0935 J-0.9632
G1 Y52.9065
G3 X145.7065 Y51.9432 I0.9632
G1 X157.822
G2 X159.5888 Y50.7654 J-1.914
G3 X161.3556 Y49.5875 I1.7668 J0.7362
G1 X252.2125
Y66.4125
X142.3875
Y49.5875
X161.3556
X161.3992 Y49.5936
X161.4394 Y49.6114
X161.4732 Y49.6397
X161.498 Y49.6761
X161.5118 Y49.7179
X161.5136 Y49.7618
X161.5032 Y49.8046
X161.4815 Y49.8429
X160.4249 Y51.2191
X160.403 Y51.2424
X160.3768 Y51.2608
X150.5888 Y56.7648
X150.4128 Y56.7961
X150.3838 Y56.7933
X150.3598 Y56.7769
X150.3466 Y56.7508
X150.3476 Y56.7217
X150.3626 Y56.6967
X150.3878 Y56.682
G3 X150.1421 Y56.7756 Z-10.3217 I0.4122 J1.4507 F1200
X149.9165 Y56.9105 Z-10.6434 I0.6579 J1.3571
X149.7177 Y57.0824 Z-10.9651 I0.8835 J1.2222
X149.5517 Y57.2863 Z-11.2868 I1.0823 J1.0502
X149.4237 Y57.516 Z-11.6086 I1.2483 J0.8463
X149.3376 Y57.7643 Z-11.9303 I1.3763 J0.6167
X150.8 Y56.6245 Z-12 I1.4624 J0.3684
G1 X244.2122 F3500
G3 X245.1754 Y57.5878 J0.9632
G1 Y58.4122
G3 X244.2122 Y59.3755 I-0.9632
G1 X150.3878
G3 X149.4246 Y58.4122 J-0.9632
G1 Y57.5878
G3 X150.3878 Y56.6245 I0.9632
G1 X150.8
G2 X152.5555 Y55.4542 J-1.9018
G3 X154.311 Y54.2839 I1.7555 J0.7315
G1 X246.5529
G3 X247.5161 Y55.2471 J0.9632
G1 Y60.7529
G3 X246.5529 Y61.7161 I-0.9632
G1 X148.0471
G3 X147.0839 Y60.7529 J-0.9632
G1 Y55.2471
G3 X148.0471 Y54.2839 I0.9632
G1 X154.311
G2 X156.0665 Y53.1136 J-1.9018
G3 X157.822 Y51.9432 I1.7555 J0.7315
G1 X248.8935
G3 X249.8568 Y52.9065 J0.9632
G1 Y63.0935
G3 X248.8935 Y64.0568 I-0.9632
G1 X145.7065
G3 X144.7432 Y63.0935 J-0.9632
G1 Y52.9065
G3 X145.7065 Y51.9432 I0.9632
G1 X157.822
G2 X159.5888 Y50.7654 J-1.914
G3 X161.3556 Y49.5875 I1.7668 J0.7362
G1 X252.2125
Y66.4125
X142.3875
Y49.5875
X161.3556
X161.4048 Y49.5953
X161.4491 Y49.618
X161.4842 Y49.6533
X161.5067 Y49.6977
X161.5143 Y49.7469
X161.5063 Y49.7961
X161.4835 Y49.8403
X160.4428 Y51.2552
X160.4223 Y51.2781
X160.3978 Y51.2966
X149.645 Y57.8771
X149.3936 Y58.0134
X149.3678 Y58.0207
X149.3413 Y58.0164
X149.3191 Y58.0013
X149.3054 Y57.9783
X149.3028 Y57.9516
G3 X149.2941 Y58.2143 Z-12.3217 I1.4972 J0.1811 F1200
X149.3312 Y58.4746 Z-12.6434 I1.5059 J-0.0817
X149.4128 Y58.7245 Z-12.9651 I1.4689 J-0.3419
X149.5367 Y58.9564 Z-13.2868 I1.3872 J-0.5918
X150.8 Y56.6245 Z-13.4 I1.2633 J-0.8237
G1 X244.2122 F3500
G3 X245.1754 Y57.5878 J0.9632
G1 Y58.4122
G3 X244.2122 Y59.3755 I-0.9632
G1 X150.3878
G3 X149.4246 Y58.4122 J-0.9632
G1 Y57.5878
G3 X150.3878 Y56.6245 I0.9632
G1 X150.8
G2 X152.5555 Y55.4542 J-1.9018
G3 X154.311 Y54.2839 I1.7555 J0.7315
G1 X246.5529
G3 X247.5161 Y55.2471 J0.9632
G1 Y60.7529
G3 X246.5529 Y61.7161 I-0.9632
G1 X148.0471
G3 X147.0839 Y60.7529 J-0.9632
G1 Y55.2471
G3 X148.0471 Y54.2839 I0.9632
G1 X154.311
G2 X156.0665 Y53.1136 J-1.9018
G3 X157.822 Y51.9432 I1.7555 J0.7315
G1 X248.8935
G3 X249.8568 Y52.9065 J0.9632
G1 Y63.0935
G3 X248.8935 Y64.0568 I-0.9632
G1 X145.7065
G3 X144.7432 Y63.0935 J-0.9632
G1 Y52.9065
G3 X145.7065 Y51.9432 I0.9632
G1 X157.822
G2 X159.5888 Y50.7654 J-1.914
G3 X161.3556 Y49.5875 I1.7668 J0.7362
G1 X252.2125
Y66.4125
X142.3875
Y49.5875
X161.3556
X161.4044 Y49.5913 Z-13.3922
X161.4521 Y49.6025 Z-13.3845
X161.4932 Y49.6189 Z-13.3619
X161.5316 Y49.6408 Z-13.3394
X161.5853 Y49.6859 Z-13.2691
X161.614 Y49.7206 Z-13.1806
X161.6227 Y49.7335 Z-13.0825
G0 Z5
X134.8671 Y57.805
Z-3
G1 Z-8 F1200
X134.896 Y57.8151 F3500
X134.9146 Y57.8256
X134.946 Y57.8506
X134.967 Y57.8738
X134.9776 Y57.8897
X134.9955 Y57.9283
X135.0067 Y57.9711
X135.009 Y57.9967
X135.0074 Y58.0223
X134.9965 Y58.0695
X134.9873 Y58.0917
X134.9608 Y58.1341
X134.9511 Y58.1454
X134.9353 Y58.1594
X134.8909 Y58.1873
X134.8609 Y58.1996
X134.83 Y58.2067
X134.8122 Y58.208
X134.7454 Y58.2007
X134.7272 Y58.1952
X134.681 Y58.1725
X134.6718 Y58.1661
X134.6483 Y58.1449
X134.6406 Y58.1359
X134.606 Y58.0795
X134.5946 Y58.0382
X134.591 Y58.007
X134.5921 Y57.9776
X134.5984 Y57.946
X134.6099 Y57.9147
X134.6316 Y57.8772
X134.658 Y57.8454
X134.6711 Y57.835
X134.7168 Y57.8091
X134.7476 Y57.798
X134.775 Y57.7928
X134.8113 Y57.792
X134.8446 Y57.7971
X134.8671 Y57.805
X134.896 Y57.8151 Z-7.9985
X134.9146 Y57.8256 Z-7.9957
X134.946 Y57.8506 Z-7.9863
X134.967 Y57.8738 Z-7.975
X134.9776 Y57.8897 Z-7.9662
X134.9955 Y57.9283 Z-7.9404
X135.0067 Y57.9711 Z-7.902
X135.009 Y57.9967 Z-7.8716
X135.0074 Y58.0223 Z-7.8307
X135.0028 Y58.042 Z-7.7835
X135.0001 Y58.0541 Z-7.7337
X134.9991 Y58.0581 Z-7.6825
G0 Z5
X134.6205 Y57.8964
Z-5
G1 Z-10 F1200
X134.6316 Y57.8772 F3500
X134.658 Y57.8454
X134.6711 Y57.835
X134.7168 Y57.8091
X134.7476 Y57.798
X134.775 Y57.7928
X134.8113 Y57.792
X134.8446 Y57.7971
X134.896 Y57.8151
X134.9146 Y57.8256
X134.946 Y57.8506
X134.967 Y57.8738
X134.9776 Y57.8897
X134.9955 Y57.9283
X135.0067 Y57.9711
X135.009 Y57.9967
X135.0074 Y58.0223
X134.9965 Y58.0695
X134.9873 Y58.0917
X134.9608 Y58.1341
X134.9511 Y58.1454
X134.9353 Y58.1594
X134.8909 Y58.1873
X134.8609 Y58.1996
X134.83 Y58.2067
X134.8122 Y58.208
X134.7454 Y58.2007
X134.7272 Y58.1952
X134.681 Y58.1725
X134.6718 Y58.1661
X134.6483 Y58.1449
X134.6406 Y58.1359
X134.606 Y58.0795
X134.5946 Y58.0382
X134.591 Y58.007
X134.5921 Y57.9776
X134.5984 Y57.946
X134.6099 Y57.9147
X134.6205 Y57.8964
X134.6316 Y57.8772 Z-9.9992
X134.658 Y57.8454 Z-9.9936
X134.6711 Y57.835 Z-9.9897
X134.7168 Y57.8091 Z-9.9709
X134.7476 Y57.798 Z-9.9535
X134.775 Y57.7928 Z-9.9343
X134.8113 Y57.792 Z-9.9017
X134.8446 Y57.7971 Z-9.8599
X134.8726 Y57.8069 Z-9.8048
X134.8899 Y57.813 Z-9.7448
X134.8957 Y57.815 Z-9.6825
G0 Z5
X134.6205 Y57.8964
Z-7
G1 Z-12 F1200
X134.6316 Y57.8772 F3500
X134.658 Y57.8454
X134.6711 Y57.835
X134.7168 Y57.8091
X134.7476 Y57.798
X134.775 Y57.7928
X134.8113 Y57.792
X134.8446 Y57.7971
X134.896 Y57.8151
X134.9146 Y57.8256
X134.946 Y57.8506
X134.967 Y57.8738
X134.9776 Y57.8897
X134.9955 Y57.9283
X135.0067 Y57.9711
X135.009 Y57.9967
X135.0074 Y58.0223
X134.9965 Y58.0695
X134.9873 Y58.0917
X134.9608 Y58.1341
X134.9511 Y58.1454
X134.9353 Y58.1594
X134.8909 Y58.1873
X134.8609 Y58.1996
X134.83 Y58.2067
X134.8122 Y58.208
X134.7454 Y58.2007
X134.7272 Y58.1952
X134.681 Y58.1725
X134.6718 Y58.1661
X134.6483 Y58.1449
X134.6406 Y58.1359
X134.606 Y58.0795
X134.5946 Y58.0382
X134.591 Y58.007
X134.5921 Y57.9776
X134.5984 Y57.946
X134.6099 Y57.9147
X134.6205 Y57.8964
X134.6316 Y57.8772 Z-11.9992
X134.658 Y57.8454 Z-11.9936
X134.6711 Y57.835 Z-11.9897
X134.7168 Y57.8091 Z-11.9709
X134.7476 Y57.798 Z-11.9535
X134.775 Y57.7928 Z-11.9343
X134.8113 Y57.792 Z-11.9017
X134.8446 Y57.7971 Z-11.8599
X134.8726 Y57.8069 Z-11.8048
X134.8899 Y57.813 Z-11.7448
X134.8957 Y57.815 Z-11.6825
G0 Z5
X134.7765 Y58.2041
Z-3
G1 Z-9 F1200
Z-13.4
X134.7454 Y58.2007 F3500
X134.7272 Y58.1952
X134.681 Y58.1725
X134.6718 Y58.1661
X134.6483 Y58.1449
X134.6406 Y58.1359
X134.606 Y58.0795
X134.5946 Y58.0382
X134.591 Y58.007
X134.5921 Y57.9776
X134.5984 Y57.946
X134.6099 Y57.9147
X134.6316 Y57.8772
X134.658 Y57.8454
X134.6711 Y57.835
X134.7168 Y57.8091
X134.7476 Y57.798
X134.775 Y57.7928
X134.8113 Y57.792
X134.8446 Y57.7971
X134.896 Y57.8151
X134.9146 Y57.8256
X134.946 Y57.8506
X134.967 Y57.8738
X134.9776 Y57.8897
X134.9955 Y57.9283
X135.0067 Y57.9711
X135.009 Y57.9967
X135.0074 Y58.0223
X134.9965 Y58.0695
X134.9873 Y58.0917
X134.9608 Y58.1341
X134.9511 Y58.1454
X134.9353 Y58.1594
X134.8909 Y58.1873
X134.8609 Y58.1996
X134.83 Y58.2067
X134.8122 Y58.208
X134.7765 Y58.2041
X134.7454 Y58.2007 Z-13.3984
X134.7272 Y58.1952 Z-13.396
X134.681 Y58.1725 Z-13.3832
X134.6718 Y58.1661 Z-13.3792
X134.6483 Y58.1449 Z-13.3651
X134.6406 Y58.1359 Z-13.3588
X134.6225 Y58.1063 Z-13.336
X134.606 Y58.0795 Z-13.3088
X134.5946 Y58.0382 Z-13.2566
X134.591 Y58.007 Z-13.195
X134.5916 Y57.9916 Z-13.1397
X134.5918 Y57.9864 Z-13.0825
G0 Z5
X347.7043 Y40.3124
Z2.4173
G1 X347.7174 Y40.3194 Z2.3213 F1200
X347.7551 Y40.3405 Z2.2343
X347.8128 Y40.3756 Z2.1644
X347.8834 Y40.4237 Z2.1182
X347.9589 Y40.482 Z2.1
G3 X347.7422 Y40.3332 Z1.7783 I-0.9589 J1.164
X347.503 Y40.2242 Z1.4566 I-0.7422 J1.3128
X347.2484 Y40.1585 Z1.1349 I-0.503 J1.4218
X346.9864 Y40.1379 Z0.8132 I-0.2484 J1.4875
X346.7247 Y40.1632 Z0.4914 I0.0136 J1.5081
X346.4714 Y40.2335 Z0.1697 I0.2753 J1.4828
X346.2342 Y40.3468 Z-0.152 I0.5286 J1.4125
X346.0202 Y40.4995 Z-0.4737 I0.7658 J1.2992
X345.836 Y40.6871 Z-0.7954 I0.9798 J1.1465
X345.6872 Y40.9038 Z-1.1171 I1.164 J0.9589
X345.5782 Y41.143 Z-1.4388 I1.3128 J0.7422
X345.5125 Y41.3976 Z-1.7605 I1.4218 J0.503
X347 Y43.1541 Z-2 I1.4875 J0.2484
G1 X346.8744 F3500
G3 X346.3459 Y42.6257 J-0.5285
G1 Y42.3743
G3 X346.8744 Y41.8459 I0.5285
G1 X347.1257
G3 X347.6541 Y42.3743 J0.5285
G1 Y42.6257
G3 X347.1257 Y43.1541 I-0.5285
G1 X347
G2 X346.1806 Y43.8471 J0.8309
G3 X345.1266 Y44.0486 I-0.5645 J-0.095
X344.9872 Y43.5496 I0.8239 J-0.499
G1 Y41.4504
G3 X345.9504 Y40.4872 I0.9633
G1 X348.0496
G3 X349.0128 Y41.4504 J0.9632
G1 Y43.5496
G3 X348.0496 Y44.5128 I-0.9633
G1 X345.9504
G3 X345.1266 Y44.0486 J-0.9632
G2 X343.6915 Y42.795 I-2.6869 J1.6275
G3 X342.6465 Y41.2016 I0.6923 J-1.5934
G1 Y39.1098
G3 X343.6098 Y38.1465 I0.9632
G1 X350.3903
G3 X351.3535 Y39.1098 J0.9632
G1 Y45.8902
G3 X350.3903 Y46.8535 I-0.9632
G1 X343.6098
G3 X342.6465 Y45.8902 J-0.9632
G1 Y41.2016
G2 X341.4762 Y39.4461 I-1.9018
G3 X340.3059 Y37.6906 I0.7315 J-1.7555
G1 Y36.7691
G3 X341.2691 Y35.8059 I0.9632
G1 X352.7309
G3 X353.6942 Y36.7691 J0.9632
G1 Y48.2309
G3 X352.7309 Y49.1941 I-0.9632
G1 X341.2691
G3 X340.3059 Y48.2309 J-0.9632
G1 Y37.6906
G2 X338.9877 Y35.7614 I-2.0708
G3 X339.4197 Y33.4652 I0.432 J-1.1075
G1 X355.0716
G3 X356.0348 Y34.4284 J0.9632
G1 Y50.5716
G3 X355.0716 Y51.5348 I-0.9633
G1 X338.9285
G3 X337.9652 Y50.5716 J-0.9632
G1 Y34.4284
G3 X338.9285 Y33.4652 I0.9633
G1 X339.4197
G2 X341.1752 Y32.2949 J-1.9018
G3 X342.9307 Y31.1245 I1.7555 J0.7315
G1 X357.4122
G3 X358.3755 Y32.0878 J0.9632
G1 Y52.9122
G3 X357.4122 Y53.8755 I-0.9632
G1 X336.5878
G3 X335.6246 Y52.9122 J-0.9632
G1 Y32.0878
G3 X336.5878 Y31.1245 I0.9632
G1 X342.9307
G2 X344.6862 Y29.9542 J-1.9018
G3 X346.4417 Y28.7839 I1.7555 J0.7315
G1 X359.7529
G3 X360.7161 Y29.7471 J0.9632
G1 Y55.2529
G3 X359.7529 Y56.2161 I-0.9633
G1 X334.2472
G3 X333.2839 Y55.2529 J-0.9632
G1 Y29.7471
G3 X334.2472 Y28.7839 I0.9633
G1 X346.4417
G2 X348.1972 Y27.6136 J-1.9018
G3 X349.9527 Y26.4432 I1.7555 J0.7315
G1 X362.0935
G3 X363.0568 Y27.4065 J0.9632
G1 Y57.5935
G3 X362.0935 Y58.5568 I-0.9632
G1 X331.9065
G3 X330.9433 Y57.5935 J-0.9632
G1 Y27.4065
G3 X331.9065 Y26.4432 I0.9632
G1 X349.9527
G2 X351.7195 Y25.2654 J-1.914
G3 X353.4863 Y24.0875 I1.7668 J0.7362
G1 X365.4125
Y60.9125
X328.5875
Y24.0875
X353.4863
X353.5352 Y24.0913 Z-1.9922
X353.5829 Y24.1025 Z-1.9845
X353.6239 Y24.1189 Z-1.9619
X353.6624 Y24.1408 Z-1.9394
X353.716 Y24.1859 Z-1.8691
X353.7448 Y24.2206 Z-1.7806
X353.7534 Y24.2335 Z-1.6825
G0 Z5
X347.7043 Y40.3124
Z0.4173
G1 X347.7174 Y40.3194 Z0.3213 F1200
X347.7551 Y40.3405 Z0.2343
X347.8128 Y40.3756 Z0.1644
X347.8834 Y40.4237 Z0.1182
X347.9589 Y40.482 Z0.1
G3 X347.7422 Y40.3332 Z-0.2217 I-0.9589 J1.164
X347.503 Y40.2242 Z-0.5434 I-0.7422 J1.3128
X347.2484 Y40.1585 Z-0.8651 I-0.503 J1.4218
X346.9864 Y40.1379 Z-1.1868 I-0.2484 J1.4875
X346.7247 Y40.1632 Z-1.5086 I0.0136 J1.5081
X346.4714 Y40.2335 Z-1.8303 I0.2753 J1.4828
X346.2342 Y40.3468 Z-2.152 I0.5286 J1.4125
X346.0202 Y40.4995 Z-2.4737 I0.7658 J1.2992
X345.836 Y40.6871 Z-2.7954 I0.9798 J1.1465
X345.6872 Y40.9038 Z-3.1171 I1.164 J0.9589
X345.5782 Y41.143 Z-3.4388 I1.3128 J0.7422
X345.5125 Y41.3976 Z-3.7605 I1.4218 J0.503
X347 Y43.1541 Z-4 I1.4875 J0.2484
G1 X346.8744 F3500
G3 X346.3459 Y42.6257 J-0.5285
G1 Y42.3743
G3 X346.8744 Y41.8459 I0.5285
G1 X347.1257
G3 X347.6541 Y42.3743 J0.5285
G1 Y42.6257
G3 X347.1257 Y43.1541 I-0.5285
G1 X347
G2 X346.1806 Y43.8471 J0.8309
G3 X345.1266 Y44.0486 I-0.5645 J-0.095
X344.9872 Y43.5496 I0.8239 J-0.499
G1 Y41.4504
G3 X345.9504 Y40.4872 I0.9633
G1 X348.0496
G3 X349.0128 Y41.4504 J0.9632
G1 Y43.5496
G3 X348.0496 Y44.5128 I-0.9633
G1 X345.9504
G3 X345.1266 Y44.0486 J-0.9632
G2 X343.6915 Y42.795 I-2.6869 J1.6275
G3 X342.6465 Y41.2016 I0.6923 J-1.5934
G1 Y39.1098
G3 X343.6098 Y38.1465 I0.9632
G1 X350.3903
G3 X351.3535 Y39.1098 J0.9632
G1 Y45.8902
G3 X350.3903 Y46.8535 I-0.9632
G1 X343.6098
G3 X342.6465 Y45.8902 J-0.9632
G1 Y41.2016
G2 X341.4762 Y39.4461 I-1.9018
G3 X340.3059 Y37.6906 I0.7315 J-1.7555
G1 Y36.7691
G3 X341.2691 Y35.8059 I0.9632
G1 X352.7309
G3 X353.6942 Y36.7691 J0.9632
G1 Y48.2309
G3 X352.7309 Y49.1941 I-0.9632
G1 X341.2691
G3 X340.3059 Y48.2309 J-0.9632
G1 Y37.6906
G2 X338.9877 Y35.7614 I-2.0708
G3 X339.4197 Y33.4652 I0.432 J-1.1075
G1 X355.0716
G3 X356.0348 Y34.4284 J0.9632
G1 Y50.5716
G3 X355.0716 Y51.5348 I-0.9633
G1 X338.9285
G3 X337.9652 Y50.5716 J-0.9632
G1 Y34.4284
G3 X338.9285 Y33.4652 I0.9633
G1 X339.4197
G2 X341.1752 Y32.2949 J-1.9018
G3 X342.9307 Y31.1245 I1.7555 J0.7315
G1 X357.4122
G3 X358.3755 Y32.0878 J0.9632
G1 Y52.9122
G3 X357.4122 Y53.8755 I-0.9632
G1 X336.5878
G3 X335.6246 Y52.9122 J-0.9632
G1 Y32.0878
G3 X336.5878 Y31.1245 I0.9632
G1 X342.9307
G2 X344.6862 Y29.9542 J-1.9018
G3 X346.4417 Y28.7839 I1.7555 J0.7315
G1 X359.7529
G3 X360.7161 Y29.7471 J0.9632
G1 Y55.2529
G3 X359.7529 Y56.2161 I-0.9633
G1 X334.2472
G3 X333.2839 Y55.2529 J-0.9632
G1 Y29.7471
G3 X334.2472 Y28.7839 I0.9633
G1 X346.4417
G2 X348.1972 Y27.6136 J-1.9018
G3 X349.9527 Y26.4432 I1.7555 J0.7315
G1 X362.0935
G3 X363.0568 Y27.4065 J0.9632
G1 Y57.5935
G3 X362.0935 Y58.5568 I-0.9632
G1 X331.9065
G3 X330.9433 Y57.5935 J-0.9632
G1 Y27.4065
G3 X331.9065 Y26.4432 I0.9632
G1 X349.9527
G2 X351.7195 Y25.2654 J-1.914
G3 X353.4863 Y24.0875 I1.7668 J0.7362
G1 X365.4125
Y60.9125
X328.5875
Y24.0875
X353.4863
X353.5352 Y24.0913 Z-3.9922
X353.5829 Y24.1025 Z-3.9845
X353.6239 Y24.1189 Z-3.9619
X353.6624 Y24.1408 Z-3.9394
X353.716 Y24.1859 Z-3.8691
X353.7448 Y24.2206 Z-3.7806
X353.7534 Y24.2335 Z-3.6825
G0 Z5
X345.1343 Y42.297
Z3
G1 Z-1.5827 F1200
X345.1413 Y42.2839 Z-1.6787
X345.1624 Y42.2462 Z-1.7657
X345.1975 Y42.1886 Z-1.8356
X345.2455 Y42.1179 Z-1.8818
X345.3039 Y42.0424 Z-1.9
G3 X345.155 Y42.2591 Z-2.2217 I1.164 J0.9589
X345.0461 Y42.4983 Z-2.5434 I1.3128 J0.7422
X344.9804 Y42.7529 Z-2.8651 I1.4218 J0.503
X344.9598 Y43.0149 Z-3.1868 I1.4875 J0.2484
X344.9851 Y43.2766 Z-3.5086 I1.5081 J-0.0136
X345.0554 Y43.5299 Z-3.8303 I1.4828 J-0.2753
X345.1687 Y43.7671 Z-4.152 I1.4124 J-0.5286
X345.3214 Y43.9811 Z-4.4737 I1.2992 J-0.7658
X345.509 Y44.1653 Z-4.7954 I1.1465 J-0.9798
X345.7256 Y44.3141 Z-5.1171 I0.9589 J-1.164
X345.9649 Y44.4231 Z-5.4388 I0.7422 J-1.3128
X346.2194 Y44.4888 Z-5.7605 I0.503 J-1.4218
X347.976 Y43.0013 Z-6 I0.2484 J-1.4875
X346.0252 I-0.9754 F3500
X350.9922 I2.4835
X343.009 I-3.9916
X354.0085 I5.4998
X339.9927 I-7.0079
X357.0247 I8.516
X336.9765 I-10.0241
X360.041 I11.5323
X333.9602 I-13.0404
X360.041 I13.0404
G2 X361.3263 Y45.0528 I2.2798
G3 X362.3325 Y47.2546 I-0.8289 J1.7096
G1 X362.3273 Y47.2742
X362.1837 Y47.7571
X362.0247 Y48.2379
X361.8488 Y48.7182
X361.6552 Y49.1982
X361.4384 Y49.6885
X361.2111 Y50.1573
X360.9566 Y50.6416
X360.6848 Y51.1183
X360.3895 Y51.5968
X359.9908 Y52.1884
X359.7219 Y52.5572
X359.346 Y53.0387
X358.9395 Y53.5184
X358.498 Y53.9989
X358.0193 Y54.4789
X357.496 Y54.9588
X356.9168 Y55.4436
X356.6238 Y55.6719
X356.1407 Y56.0245
X355.5775 Y56.4018
X355.1765 Y56.6508
X354.6942 Y56.9285
X354.2126 Y57.1837
X353.731 Y57.4184
X353.2496 Y57.6333
X352.7407 Y57.8404
X352.2864 Y58.0078
X351.8042 Y58.1691
X351.2962 Y58.3208
X350.8407 Y58.4419
X350.3593 Y58.5533
X349.8772 Y58.6495
X349.3958 Y58.7304
X348.8787 Y58.8006
X348.4327 Y58.8474
X347.9505 Y58.8833
X347.468 Y58.9049
X346.9867 Y58.9122
X346.5056 Y58.9042
X346.0234 Y58.8817
X345.5411 Y58.8448
X345.06 Y58.7936
X344.5789 Y58.7266
X344.0967 Y58.6446
X343.6144 Y58.5474
X343.133 Y58.4352
X342.6519 Y58.3063
X342.1701 Y58.161
X341.688 Y57.9987
X341.2061 Y57.8195
X340.7263 Y57.6228
X340.1429 Y57.3584
X339.7634 Y57.1715
X339.2173 Y56.8788
X338.7988 Y56.6362
X338.3187 Y56.335
X337.7084 Y55.9169
X337.3546 Y55.6552
X336.8712 Y55.2714
X336.3893 Y54.8572
X335.9079 Y54.4084
X335.4261 Y53.9188
X334.9442 Y53.3848
X334.4627 Y52.7984
X333.9812 Y52.149
X333.4948 Y51.4148
X333.3178 Y51.1228
X333.0162 Y50.5916
X332.7899 Y50.1593
X332.5345 Y49.6288
X332.3469 Y49.203
X332.0535 Y48.4571
X331.8148 Y47.7537
X331.6738 Y47.2776
X331.5479 Y46.7968
X331.437 Y46.3169
X331.3431 Y45.8381
X331.264 Y45.3571
X331.199 Y44.8757
X331.1488 Y44.3971
X331.1151 Y43.9204
X331.0902 Y43.2575
Y42.7439
X331.1205 Y41.9917
X331.1575 Y41.5153
X331.2094 Y41.0361
X331.2771 Y40.5563
X331.3594 Y40.0753
X331.4564 Y39.5957
X331.5721 Y39.106
X331.6979 Y38.6353
X331.8427 Y38.158
X332.055 Y37.5384
X332.1845 Y37.1972
X332.3824 Y36.7141
X332.5976 Y36.2346
X332.8332 Y35.7548
X333.0873 Y35.278
X333.503 Y34.572
X333.6651 Y34.318
X333.9912 Y33.8368
X334.4626 Y33.2018
X334.9442 Y32.6152
X335.4261 Y32.0813
X335.9079 Y31.5916
X336.3893 Y31.1428
X336.8712 Y30.7286
X337.3528 Y30.3462
X337.8349 Y29.9929
X338.3166 Y29.6664
X338.7964 Y29.3653
X339.3805 Y29.031
X339.7581 Y28.8312
X340.335 Y28.5514
X340.7232 Y28.3785
X341.2061 Y28.1805
X341.688 Y28.0013
X342.1701 Y27.839
X342.6519 Y27.6937
X343.133 Y27.5648
X343.6144 Y27.4526
X344.0967 Y27.3554
X344.5789 Y27.2734
X345.06 Y27.2064
X345.5397 Y27.1553
X346.1249 Y27.1121
X346.5038 Y27.0958
X346.9867 Y27.0878
X347.468 Y27.0951
X347.9505 Y27.1167
X348.4324 Y27.1526
X348.9134 Y27.2033
X349.395 Y27.2695
X349.8772 Y27.3505
X350.3567 Y27.4462
X350.9781 Y27.5935
X351.32 Y27.6858
X351.8002 Y27.8297
X352.509 Y28.0725
X353.2534 Y28.3684
X353.731 Y28.5816
X354.2126 Y28.8163
X354.6942 Y29.0715
X355.1756 Y29.3486
X355.6567 Y29.6489
X356.1628 Y29.9914
X356.8127 Y30.4738
X357.3956 Y30.9536
X357.9248 Y31.4316
X358.55 Y32.0561
X359.0294 Y32.5842
X359.5105 Y33.1679
X360.0092 Y33.8375
X360.3325 Y34.3144
X360.6323 Y34.7929
X360.9582 Y35.3611
X361.1657 Y35.7526
X361.4394 Y36.3137
X361.6151 Y36.7083
X361.9204 Y37.473
X362.1575 Y38.1596
X362.3022 Y38.6354
X362.4303 Y39.1151
X362.5436 Y39.5955
X362.6406 Y40.0753
X362.723 Y40.5563
X362.7906 Y41.0361
X362.8424 Y41.5143
X362.8836 Y42.0585
X362.9034 Y42.4759
X362.9119 Y42.9559
X362.9056 Y43.4356
X362.8834 Y43.9458
X362.8513 Y44.3968
X362.801 Y44.8757
X362.7361 Y45.3571
X362.6569 Y45.8381
X362.5636 Y46.3138
X362.4001 Y47.0024
X362.3325 Y47.2546
X362.3153 Y47.2951
X362.2876 Y47.3294
X362.2515 Y47.3548
X362.2098 Y47.3692
X362.1658 Y47.3716
X362.1228 Y47.3618
X360.168 Y46.6187
X347.9167 Y42.7021
X347.8311 Y42.6672
X347.8073 Y42.6505
X347.7932 Y42.6251
X347.7915 Y42.5961
X347.8026 Y42.5692
X347.8243 Y42.5498
X347.8523 Y42.5418
X347.8809 Y42.5467
X347.9046 Y42.5636
X347.9186 Y42.5891
G3 X347.825 Y42.3434 Z-6.3217 I-1.4507 J0.4122 F1200
X347.6901 Y42.1178 Z-6.6434 I-1.3571 J0.6579
X347.5181 Y41.919 Z-6.9651 I-1.2222 J0.8835
X347.3142 Y41.753 Z-7.2868 I-1.0502 J1.0823
X347.0846 Y41.625 Z-7.6086 I-0.8463 J1.2483
X346.8362 Y41.5389 Z-7.9303 I-0.6167 J1.3763
X347.976 Y43.0013 Z-8 I-0.3684 J1.4624
X346.0252 I-0.9754 F3500
X350.9922 I2.4835
X343.009 I-3.9916
X354.0085 I5.4998
X339.9927 I-7.0079
X357.0247 I8.516
X336.9765 I-10.0241
X360.041 I11.5323
X333.9602 I-13.0404
X360.041 I13.0404
G2 X361.3263 Y45.0528 I2.2798
G3 X362.3325 Y47.2546 I-0.8289 J1.7096
G1 X362.3273 Y47.2742
X362.1837 Y47.7571
X362.0247 Y48.2379
X361.8488 Y48.7182
X361.6552 Y49.1982
X361.4384 Y49.6885
X361.2111 Y50.1573
X360.9566 Y50.6416
X360.6848 Y51.1183
X360.3895 Y51.5968
X359.9908 Y52.1884
X359.7219 Y52.5572
X359.346 Y53.0387
X358.9395 Y53.5184
X358.498 Y53.9989
X358.0193 Y54.4789
X357.496 Y54.9588
X356.9168 Y55.4436
X356.6238 Y55.6719
X356.1407 Y56.0245
X355.5775 Y56.4018
X355.1765 Y56.6508
X354.6942 Y56.9285
X354.2126 Y57.1837
X353.731 Y57.4184
X353.2496 Y57.6333
X352.7407 Y57.8404
X352.2864 Y58.0078
X351.8042 Y58.1691
X351.2962 Y58.3208
X350.8407 Y58.4419
X350.3593 Y58.5533
X349.8772 Y58.6495
X349.3958 Y58.7304
X348.8787 Y58.8006
X348.4327 Y58.8474
X347.9505 Y58.8833
X347.468 Y58.9049
X346.9867 Y58.9122
X346.5056 Y58.9042
X346.0234 Y58.8817
X345.5411 Y58.8448
X345.06 Y58.7936
X344.5789 Y58.7266
X344.0967 Y58.6446
X343.6144 Y58.5474
X343.133 Y58.4352
X342.6519 Y58.3063
X342.1701 Y58.161
X341.688 Y57.9987
X341.2061 Y57.8195
X340.7263 Y57.6228
X340.1429 Y57.3584
X339.7634 Y57.1715
X339.2173 Y56.8788
X338.7988 Y56.6362
X338.3187 Y56.335
X337.7084 Y55.9169
X337.3546 Y55.6552
X336.8712 Y55.2714
X336.3893 Y54.8572
X335.9079 Y54.4084
X335.4261 Y53.9188
X334.9442 Y53.3848
X334.4627 Y52.7984
X333.9812 Y52.149
X333.4948 Y51.4148
X333.3178 Y51.1228
X333.0162 Y50.5916
X332.7899 Y50.1593
X332.5345 Y49.6288
X332.3469 Y49.203
X332.0535 Y48.4571
X331.8148 Y47.7537
X331.6738 Y47.2776
X331.5479 Y46.7968
X331.437 Y46.3169
X331.3431 Y45.8381
X331.264 Y45.3571
X331.199 Y44.8757
X331.1488 Y44.3971
X331.1151 Y43.9204
X331.0902 Y43.2575
Y42.7439
X331.1205 Y41.9917
X331.1575 Y41.5153
X331.2094 Y41.0361
X331.2771 Y40.5563
X331.3594 Y40.0753
X331.4564 Y39.5957
X331.5721 Y39.106
X331.6979 Y38.6353
X331.8427 Y38.158
X332.055 Y37.5384
X332.1845 Y37.1972
X332.3824 Y36.7141
X332.5976 Y36.2346
X332.8332 Y35.7548
X333.0873 Y35.278
X333.503 Y34.572
X333.6651 Y34.318
X333.9912 Y33.8368
X334.4626 Y33.2018
X334.9442 Y32.6152
X335.4261 Y32.0813
X335.9079 Y31.5916
X336.3893 Y31.1428
X336.8712 Y30.7286
X337.3528 Y30.3462
X337.8349 Y29.9929
X338.3166 Y29.6664
X338.7964 Y29.3653
X339.3805 Y29.031
X339.7581 Y28.8312
X340.335 Y28.5514
X340.7232 Y28.3785
X341.2061 Y28.1805
X341.688 Y28.0013
X342.1701 Y27.839
X342.6519 Y27.6937
X343.133 Y27.5648
X343.6144 Y27.4526
X344.0967 Y27.3554
X344.5789 Y27.2734
X345.06 Y27.2064
X345.5397 Y27.1553
X346.1249 Y27.1121
X346.5038 Y27.0958
X346.9867 Y27.0878
X347.468 Y27.0951
X347.9505 Y27.1167
X348.4324 Y27.1526
X348.9134 Y27.2033
X349.395 Y27.2695
X349.8772 Y27.3505
X350.3567 Y27.4462
X350.9781 Y27.5935
X351.32 Y27.6858
X351.8002 Y27.8297
X352.509 Y28.0725
X353.2534 Y28.3684
X353.731 Y28.5816
X354.2126 Y28.8163
X354.6942 Y29.0715
X355.1756 Y29.3486
X355.6567 Y29.6489
X356.1628 Y29.9914
X356.8127 Y30.4738
X357.3956 Y30.9536
X357.9248 Y31.4316
X358.55 Y32.0561
X359.0294 Y32.5842
X359.5105 Y33.1679
X360.0092 Y33.8375
X360.3325 Y34.3144
X360.6323 Y34.7929
X360.9582 Y35.3611
X361.1657 Y35.7526
X361.4394 Y36.3137
X361.6151 Y36.7083
X361.9204 Y37.473
X362.1575 Y38.1596
X362.3022 Y38.6354
X362.4303 Y39.1151
X362.5436 Y39.5955
X362.6406 Y40.0753
X362.723 Y40.5563
X362.7906 Y41.0361
X362.8424 Y41.5143
X362.8836 Y42.0585
X362.9034 Y42.4759
X362.9119 Y42.9559
X362.9056 Y43.4356
X362.8834 Y43.9458
X362.8513 Y44.3968
X362.801 Y44.8757
X362.7361 Y45.3571
X362.6569 Y45.8381
X362.5636 Y46.3138
X362.4001 Y47.0024
X362.3325 Y47.2546
X362.3153 Y47.2951
X362.2876 Y47.3294
X362.2515 Y47.3548
X362.2098 Y47.3692
X362.1658 Y47.3716
X362.1228 Y47.3618
X360.168 Y46.6187
X347.9167 Y42.7021
X347.8311 Y42.6672
X347.8073 Y42.6505
X347.7932 Y42.6251
X347.7915 Y42.5961
X347.8026 Y42.5692
X347.8243 Y42.5498
X347.8523 Y42.5418
X347.8809 Y42.5467
X347.9046 Y42.5636
X347.9186 Y42.5891
G3 X347.825 Y42.3434 Z-8.3217 I-1.4507 J0.4122 F1200
X347.6901 Y42.1178 Z-8.6434 I-1.3571 J0.6579
X347.5181 Y41.919 Z-8.9651 I-1.2222 J0.8835
X347.3142 Y41.753 Z-9.2868 I-1.0502 J1.0823
X347.0846 Y41.625 Z-9.6086 I-0.8463 J1.2483
X346.8362 Y41.5389 Z-9.9303 I-0.6167 J1.3763
X347.976 Y43.0013 Z-10 I-0.3684 J1.4624
X346.0252 I-0.9754 F3500
X350.9922 I2.4835
X343.009 I-3.9916
X354.0085 I5.4998
X339.9927 I-7.0079
X357.0247 I8.516
X336.9765 I-10.0241
X360.041 I11.5323
X333.9602 I-13.0404
X360.041 I13.0404
G2 X361.3263 Y45.0528 I2.2798
G3 X362.3325 Y47.2546 I-0.8289 J1.7096
G1 X362.3273 Y47.2742
X362.1837 Y47.7571
X362.0247 Y48.2379
X361.8488 Y48.7182
X361.6552 Y49.1982
X361.4384 Y49.6885
X361.2111 Y50.1573
X360.9566 Y50.6416
X360.6848 Y51.1183
X360.3895 Y51.5968
X359.9908 Y52.1884
X359.7219 Y52.5572
X359.346 Y53.0387
X358.9395 Y53.5184
X358.498 Y53.9989
X358.0193 Y54.4789
X357.496 Y54.9588
X356.9168 Y55.4436
X356.6238 Y55.6719
X356.1407 Y56.0245
X355.5775 Y56.4018
X355.1765 Y56.6508
X354.6942 Y56.9285
X354.2126 Y57.1837
X353.731 Y57.4184
X353.2496 Y57.6333
X352.7407 Y57.8404
X352.2864 Y58.0078
X351.8042 Y58.1691
X351.2962 Y58.3208
X350.8407 Y58.4419
X350.3593 Y58.5533
X349.8772 Y58.6495
X349.3958 Y58.7304
X348.8787 Y58.8006
X348.4327 Y58.8474
X347.9505 Y58.8833
X347.468 Y58.9049
X346.9867 Y58.9122
X346.5056 Y58.9042
X346.0234 Y58.8817
X345.5411 Y58.8448
X345.06 Y58.7936
X344.5789 Y58.7266
X344.0967 Y58.6446
X343.6144 Y58.5474
X343.133 Y58.4352
X342.6519 Y58.3063
X342.1701 Y58.161
X341.688 Y57.9987
X341.2061 Y57.8195
X340.7263 Y57.6228
X340.1429 Y57.3584
X339.7634 Y57.1715
X339.2173 Y56.8788
X338.7988 Y56.6362
X338.3187 Y56.335
X337.7084 Y55.9169
X337.3546 Y55.6552
X336.8712 Y55.2714
X336.3893 Y54.8572
X335.9079 Y54.4084
X335.4261 Y53.9188
X334.9442 Y53.3848
X334.4627 Y52.7984
X333.9812 Y52.149
X333.4948 Y51.4148
X333.3178 Y51.1228
X333.0162 Y50.5916
X332.7899 Y50.1593
X332.5345 Y49.6288
X332.3469 Y49.203
X332.0535 Y48.4571
X331.8148 Y47.7537
X331.6738 Y47.2776
X331.5479 Y46.7968
X331.437 Y46.3169
X331.3431 Y45.8381
X331.264 Y45.3571
X331.199 Y44.8757
X331.1488 Y44.3971
X331.1151 Y43.9204
X331.0902 Y43.2575
Y42.7439
X331.1205 Y41.9917
X331.1575 Y41.5153
X331.2094 Y41.0361
X331.2771 Y40.5563
X331.3594 Y40.0753
X331.4564 Y39.5957
X331.5721 Y39.106
X331.6979 Y38.6353
X331.8427 Y38.158
X332.055 Y37.5384
X332.1845 Y37.1972
X332.3824 Y36.7141
X332.5976 Y36.2346
X332.8332 Y35.7548
X333.0873 Y35.278
X333.503 Y34.572
X333.6651 Y34.318
X333.9912 Y33.8368
X334.4626 Y33.2018
X334.9442 Y32.6152
X335.4261 Y32.0813
X335.9079 Y31.5916
X336.3893 Y31.1428
X336.8712 Y30.7286
X337.3528 Y30.3462
X337.8349 Y29.9929
X338.3166 Y29.6664
X338.7964 Y29.3653
X339.3805 Y29.031
X339.7581 Y28.8312
X340.335 Y28.5514
X340.7232 Y28.3785
X341.2061 Y28.1805
X341.688 Y28.0013
X342.1701 Y27.839
X342.6519 Y27.6937
X343.133 Y27.5648
X343.6144 Y27.4526
X344.0967 Y27.3554
X344.5789 Y27.2734
X345.06 Y27.2064
X345.5397 Y27.1553
X346.1249 Y27.1121
X346.5038 Y27.0958
X346.9867 Y27.0878
X347.468 Y27.0951
X347.9505 Y27.1167
X348.4324 Y27.1526
X348.9134 Y27.2033
X349.395 Y27.2695
X349.8772 Y27.3505
X350.3567 Y27.4462
X350.9781 Y27.5935
X351.32 Y27.6858
X351.8002 Y27.8297
X352.509 Y28.0725
X353.2534 Y28.3684
X353.731 Y28.5816
X354.2126 Y28.8163
X354.6942 Y29.0715
X355.1756 Y29.3486
X355.6567 Y29.6489
X356.1628 Y29.9914
X356.8127 Y30.4738
X357.3956 Y30.9536
X357.9248 Y31.4316
X358.55 Y32.0561
X359.0294 Y32.5842
X359.5105 Y33.1679
X360.0092 Y33.8375
X360.3325 Y34.3144
X360.6323 Y34.7929
X360.9582 Y35.3611
X361.1657 Y35.7526
X361.4394 Y36.3137
X361.6151 Y36.7083
X361.9204 Y37.473
X362.1575 Y38.1596
X362.3022 Y38.6354
X362.4303 Y39.1151
X362.5436 Y39.5955
X362.6406 Y40.0753
X362.723 Y40.5563
X362.7906 Y41.0361
X362.8424 Y41.5143
X362.8836 Y42.0585
X362.9034 Y42.4759
X362.9119 Y42.9559
X362.9056 Y43.4356
X362.8834 Y43.9458
X362.8513 Y44.3968
X362.801 Y44.8757
X362.7361 Y45.3571
X362.6569 Y45.8381
X362.5636 Y46.3138
X362.4001 Y47.0024
X362.3325 Y47.2546
X362.3153 Y47.2951
X362.2876 Y47.3294
X362.2515 Y47.3548
X362.2098 Y47.3692
X362.1658 Y47.3716
X362.1228 Y47.3618
X360.168 Y46.6187
X347.9167 Y42.7021
X347.8311 Y42.6672
X347.8073 Y42.6505
X347.7932 Y42.6251
X347.7915 Y42.5961
X347.8026 Y42.5692
X347.8243 Y42.5498
X347.8523 Y42.5418
X347.8809 Y42.5467
X347.9046 Y42.5636
X347.9186 Y42.5891
G3 X347.825 Y42.3434 Z-10.3217 I-1.4507 J0.4122 F1200
X347.6901 Y42.1178 Z-10.6434 I-1.3571 J0.6579
X347.5181 Y41.919 Z-10.9651 I-1.2222 J0.8835
X347.3142 Y41.753 Z-11.2868 I-1.0502 J1.0823
X347.0846 Y41.625 Z-11.6086 I-0.8463 J1.2483
X346.8362 Y41.5389 Z-11.9303 I-0.6167 J1.3763
X347.976 Y43.0013 Z-12 I-0.3684 J1.4624
X346.0252 I-0.9754 F3500
X350.9922 I2.4835
X343.009 I-3.9916
X354.0085 I5.4998
X339.9927 I-7.0079
X357.0247 I8.516
X336.9765 I-10.0241
X360.041 I11.5323
X333.9602 I-13.0404
X360.041 I13.0404
G2 X361.3263 Y45.0528 I2.2798
G3 X362.3325 Y47.2546 I-0.8289 J1.7096
G1 X362.3273 Y47.2742
X362.1837 Y47.7571
X362.0247 Y48.2379
X361.8488 Y48.7182
X361.6552 Y49.1982
X361.4384 Y49.6885
X361.2111 Y50.1573
X360.9566 Y50.6416
X360.6848 Y51.1183
X360.3895 Y51.5968
X359.9908 Y52.1884
X359.7219 Y52.5572
X359.346 Y53.0387
X358.9395 Y53.5184
X358.498 Y53.9989
X358.0193 Y54.4789
X357.496 Y54.9588
X356.9168 Y55.4436
X356.6238 Y55.6719
X356.1407 Y56.0245
X355.5775 Y56.4018
X355.1765 Y56.6508
X354.6942 Y56.9285
X354.2126 Y57.1837
X353.731 Y57.4184
X353.2496 Y57.6333
X352.7407 Y57.8404
X352.2864 Y58.0078
X351.8042 Y58.1691
X351.2962 Y58.3208
X350.8407 Y58.4419
X350.3593 Y58.5533
X349.8772 Y58.6495
X349.3958 Y58.7304
X348.8787 Y58.8006
X348.4327 Y58.8474
X347.9505 Y58.8833
X347.468 Y58.9049
X346.9867 Y58.9122
X346.5056 Y58.9042
X346.0234 Y58.8817
X345.5411 Y58.8448
X345.06 Y58.7936
X344.5789 Y58.7266
X344.0967 Y58.6446
X343.6144 Y58.5474
X343.133 Y58.4352
X342.6519 Y58.3063
X342.1701 Y58.161
X341.688 Y57.9987
X341.2061 Y57.8195
X340.7263 Y57.6228
X340.1429 Y57.3584
X339.7634 Y57.1715
X339.2173 Y56.8788
X338.7988 Y56.6362
X338.3187 Y56.335
X337.7084 Y55.9169
X337.3546 Y55.6552
X336.8712 Y55.2714
X336.3893 Y54.8572
X335.9079 Y54.4084
X335.4261 Y53.9188
X334.9442 Y53.3848
X334.4627 Y52.7984
X333.9812 Y52.149
X333.4948 Y51.4148
X333.3178 Y51.1228
X333.0162 Y50.5916
X332.7899 Y50.1593
X332.5345 Y49.6288
X332.3469 Y49.203
X332.0535 Y48.4571
X331.8148 Y47.7537
X331.6738 Y47.2776
X331.5479 Y46.7968
X331.437 Y46.3169
X331.3431 Y45.8381
X331.264 Y45.3571
X331.199 Y44.8757
X331.1488 Y44.3971
X331.1151 Y43.9204
X331.0902 Y43.2575
Y42.7439
X331.1205 Y41.9917
X331.1575 Y41.5153
X331.2094 Y41.0361
X331.2771 Y40.5563
X331.3594 Y40.0753
X331.4564 Y39.5957
X331.5721 Y39.106
X331.6979 Y38.6353
X331.8427 Y38.158
X332.055 Y37.5384
X332.1845 Y37.1972
X332.3824 Y36.7141
X332.5976 Y36.2346
X332.8332 Y35.7548
X333.0873 Y35.278
X333.503 Y34.572
X333.6651 Y34.318
X333.9912 Y33.8368
X334.4626 Y33.2018
X334.9442 Y32.6152
X335.4261 Y32.0813
X335.9079 Y31.5916
X336.3893 Y31.1428
X336.8712 Y30.7286
X337.3528 Y30.3462
X337.8349 Y29.9929
X338.3166 Y29.6664
X338.7964 Y29.3653
X339.3805 Y29.031
X339.7581 Y28.8312
X340.335 Y28.5514
X340.7232 Y28.3785
X341.2061 Y28.1805
X341.688 Y28.0013
X342.1701 Y27.839
X342.6519 Y27.6937
X343.133 Y27.5648
X343.6144 Y27.4526
X344.0967 Y27.3554
X344.5789 Y27.2734
X345.06 Y27.2064
X345.5397 Y27.1553
X346.1249 Y27.1121
X346.5038 Y27.0958
X346.9867 Y27.0878
X347.468 Y27.0951
X347.9505 Y27.1167
X348.4324 Y27.1526
X348.9134 Y27.2033
X349.395 Y27.2695
X349.8772 Y27.3505
X350.3567 Y27.4462
X350.9781 Y27.5935
X351.32 Y27.6858
X351.8002 Y27.8297
X352.509 Y28.0725
X353.2534 Y28.3684
X353.731 Y28.5816
X354.2126 Y28.8163
X354.6942 Y29.0715
X355.1756 Y29.3486
X355.6567 Y29.6489
X356.1628 Y29.9914
X356.8127 Y30.4738
X357.3956 Y30.9536
X357.9248 Y31.4316
X358.55 Y32.0561
X359.0294 Y32.5842
X359.5105 Y33.1679
X360.0092 Y33.8375
X360.3325 Y34.3144
X360.6323 Y34.7929
X360.9582 Y35.3611
X361.1657 Y35.7526
X361.4394 Y36.3137
X361.6151 Y36.7083
X361.9204 Y37.473
X362.1575 Y38.1596
X362.3022 Y38.6354
X362.4303 Y39.1151
X362.5436 Y39.5955
X362.6406 Y40.0753
X362.723 Y40.5563
X362.7906 Y41.0361
X362.8424 Y41.5143
X362.8836 Y42.0585
X362.9034 Y42.4759
X362.9119 Y42.9559
X362.9056 Y43.4356
X362.8834 Y43.9458
X362.8513 Y44.3968
X362.801 Y44.8757
X362.7361 Y45.3571
X362.6569 Y45.8381
X362.5636 Y46.3138
X362.4001 Y47.0024
X362.3325 Y47.2546
X362.3162 Y47.3008 Z-11.9922
X362.293 Y47.3439 Z-11.9845
X362.2666 Y47.3794 Z-11.9619
X362.2355 Y47.4108 Z-11.9394
X362.178 Y47.451 Z-11.8691
X362.137 Y47.4697 Z-11.7806
X362.1223 Y47.4748 Z-11.6825
G0 Z5
X345.3025 Y43.9586
Z-9.5827
G1 X345.2931 Y43.9471 Z-9.6787 F1200
X345.2665 Y43.913 Z-9.7657
X345.227 Y43.8584 Z-9.8356
X345.1804 Y43.7867 Z-9.8818
X345.1333 Y43.7037 Z-9.9
G3 X345.2756 Y43.9248 Z-10.2217 I1.3345 J-0.7024
X345.4541 Y44.1178 Z-10.5434 I1.1923 J-0.9235
X345.6633 Y44.2769 Z-10.8651 I1.0138 J-1.1165
X345.8971 Y44.3972 Z-11.1868 I0.8045 J-1.2756
X346.1481 Y44.4751 Z-11.5086 I0.5708 J-1.3959
X346.4089 Y44.5083 Z-11.8303 I0.3197 J-1.4738
X346.6715 Y44.4956 Z-12.152 I0.0589 J-1.507
X346.9279 Y44.4376 Z-12.4737 I-0.2036 J-1.4943
X347.1703 Y44.3358 Z-12.7954 I-0.46 J-1.4362
X347.3914 Y44.1936 Z-13.1171 I-0.7024 J-1.3345
X347.976 Y43.0013 Z-13.4 I-0.9235 J-1.1923
X346.0252 I-0.9754 F3500
X350.9922 I2.4835
X343.009 I-3.9916
X354.0085 I5.4998
X339.9927 I-7.0079
X357.0247 I8.516
X336.9765 I-10.0241
X360.041 I11.5323
X333.9602 I-13.0404
X360.041 I13.0404
G2 X361.3263 Y45.0528 I2.2798
G3 X362.3325 Y47.2546 I-0.8289 J1.7096
G1 X362.3273 Y47.2742
X362.1837 Y47.7571
X362.0247 Y48.2379
X361.8488 Y48.7182
X361.6552 Y49.1982
X361.4384 Y49.6885
X361.2111 Y50.1573
X360.9566 Y50.6416
X360.6848 Y51.1183
X360.3895 Y51.5968
X359.9908 Y52.1884
X359.7219 Y52.5572
X359.346 Y53.0387
X358.9395 Y53.5184
X358.498 Y53.9989
X358.0193 Y54.4789
X357.496 Y54.9588
X356.9168 Y55.4436
X356.6238 Y55.6719
X356.1407 Y56.0245
X355.5775 Y56.4018
X355.1765 Y56.6508
X354.6942 Y56.9285
X354.2126 Y57.1837
X353.731 Y57.4184
X353.2496 Y57.6333
X352.7407 Y57.8404
X352.2864 Y58.0078
X351.8042 Y58.1691
X351.2962 Y58.3208
X350.8407 Y58.4419
X350.3593 Y58.5533
X349.8772 Y58.6495
X349.3958 Y58.7304
X348.8787 Y58.8006
X348.4327 Y58.8474
X347.9505 Y58.8833
X347.468 Y58.9049
X346.9867 Y58.9122
X346.5056 Y58.9042
X346.0234 Y58.8817
X345.5411 Y58.8448
X345.06 Y58.7936
X344.5789 Y58.7266
X344.0967 Y58.6446
X343.6144 Y58.5474
X343.133 Y58.4352
X342.6519 Y58.3063
X342.1701 Y58.161
X341.688 Y57.9987
X341.2061 Y57.8195
X340.7263 Y57.6228
X340.1429 Y57.3584
X339.7634 Y57.1715
X339.2173 Y56.8788
X338.7988 Y56.6362
X338.3187 Y56.335
X337.7084 Y55.9169
X337.3546 Y55.6552
X336.8712 Y55.2714
X336.3893 Y54.8572
X335.9079 Y54.4084
X335.4261 Y53.9188
X334.9442 Y53.3848
X334.4627 Y52.7984
X333.9812 Y52.149
X333.4948 Y51.4148
X333.3178 Y51.1228
X333.0162 Y50.5916
X332.7899 Y50.1593
X332.5345 Y49.6288
X332.3469 Y49.203
X332.0535 Y48.4571
X331.8148 Y47.7537
X331.6738 Y47.2776
X331.5479 Y46.7968
X331.437 Y46.3169
X331.3431 Y45.8381
X331.264 Y45.3571
X331.199 Y44.8757
X331.1488 Y44.3971
X331.1151 Y43.9204
X331.0902 Y43.2575
Y42.7439
X331.1205 Y41.9917
X331.1575 Y41.5153
X331.2094 Y41.0361
X331.2771 Y40.5563
X331.3594 Y40.0753
X331.4564 Y39.5957
X331.5721 Y39.106
X331.6979 Y38.6353
X331.8427 Y38.158
X332.055 Y37.5384
X332.1845 Y37.1972
X332.3824 Y36.7141
X332.5976 Y36.2346
X332.8332 Y35.7548
X333.0873 Y35.278
X333.503 Y34.572
X333.6651 Y34.318
X333.9912 Y33.8368
X334.4626 Y33.2018
X334.9442 Y32.6152
X335.4261 Y32.0813
X335.9079 Y31.5916
X336.3893 Y31.1428
X336.8712 Y30.7286
X337.3528 Y30.3462
X337.8349 Y29.9929
X338.3166 Y29.6664
X338.7964 Y29.3653
X339.3805 Y29.031
X339.7581 Y28.8312
X340.335 Y28.5514
X340.7232 Y28.3785
X341.2061 Y28.1805
X341.688 Y28.0013
X342.1701 Y27.839
X342.6519 Y27.6937
X343.133 Y27.5648
X343.6144 Y27.4526
X344.0967 Y27.3554
X344.5789 Y27.2734
X345.06 Y27.2064
X345.5397 Y27.1553
X346.1249 Y27.1121
X346.5038 Y27.0958
X346.9867 Y27.0878
X347.468 Y27.0951
X347.9505 Y27.1167
X348.4324 Y27.1526
X348.9134 Y27.2033
X349.395 Y27.2695
X349.8772 Y27.3505
X350.3567 Y27.4462
X350.9781 Y27.5935
X351.32 Y27.6858
X351.8002 Y27.8297
X352.509 Y28.0725
X353.2534 Y28.3684
X353.731 Y28.5816
X354.2126 Y28.8163
X354.6942 Y29.0715
X355.1756 Y29.3486
X355.6567 Y29.6489
X356.1628 Y29.9914
X356.8127 Y30.4738
X357.3956 Y30.9536
X357.9248 Y31.4316
X358.55 Y32.0561
X359.0294 Y32.5842
X359.5105 Y33.1679
X360.0092 Y33.8375
X360.3325 Y34.3144
X360.6323 Y34.7929
X360.9582 Y35.3611
X361.1657 Y35.7526
X361.4394 Y36.3137
X361.6151 Y36.7083
X361.9204 Y37.473
X362.1575 Y38.1596
X362.3022 Y38.6354
X362.4303 Y39.1151
X362.5436 Y39.5955
X362.6406 Y40.0753
X362.723 Y40.5563
X362.7906 Y41.0361
X362.8424 Y41.5143
X362.8836 Y42.0585
X362.9034 Y42.4759
X362.9119 Y42.9559
X362.9056 Y43.4356
X362.8834 Y43.9458
X362.8513 Y44.3968
X362.801 Y44.8757
X362.7361 Y45.3571
X362.6569 Y45.8381
X362.5636 Y46.3138
X362.4001 Y47.0024
X362.3325 Y47.2546
X362.3162 Y47.3008 Z-13.3922
X362.293 Y47.3439 Z-13.3845
X362.2666 Y47.3794 Z-13.3619
X362.2355 Y47.4108 Z-13.3394
X362.178 Y47.451 Z-13.2691
X362.137 Y47.4697 Z-13.1806
X362.1223 Y47.4748 Z-13.0825
G0 Z5
X379.6731 Y62.7043
Z2.4173
G1 X379.6661 Y62.7174 Z2.3213 F1200
X379.645 Y62.7551 Z2.2343
X379.6099 Y62.8127 Z2.1644
X379.5618 Y62.8834 Z2.1182
X379.5035 Y62.9589 Z2.1
G3 X379.6524 Y62.7422 Z1.7783 I-1.164 J-0.9589
X379.7613 Y62.5029 Z1.4566 I-1.3129 J-0.7422
X379.827 Y62.2484 Z1.1349 I-1.4218 J-0.503
X379.8476 Y61.9863 Z0.8132 I-1.4875 J-0.2484
X379.8223 Y61.7247 Z0.4914 I-1.5081 J0.0137
X379.752 Y61.4714 Z0.1697 I-1.4828 J0.2753
X379.6387 Y61.2341 Z-0.152 I-1.4124 J0.5286
X379.486 Y61.0202 Z-0.4737 I-1.2992 J0.7659
X379.2984 Y60.836 Z-0.7954 I-1.1465 J0.9798
X379.0817 Y60.6871 Z-1.1171 I-0.9589 J1.164
X378.8425 Y60.5782 Z-1.4388 I-0.7422 J1.3128
X378.5879 Y60.5125 Z-1.7605 I-0.503 J1.4218
X376.8314 Y62 Z-2 I-0.2484 J1.4875
G1 Y54.1594 F3500
G3 X378.1687 I0.6686
G1 Y62.1402
G3 X377.6402 Y62.6686 I-0.5285
G1 X377.3599
G3 X376.8314 Y62.1402 J-0.5285
G1 Y62
G2 X376.1373 Y60.9589 I-1.1279
G3 X375.4433 Y59.9178 I0.4338 J-1.0411
G1 Y52.9065
G3 X376.4065 Y51.9432 I0.9632
G1 X378.5936
G3 X379.5568 Y52.9065 J0.9632
G1 Y63.0935
G3 X378.5936 Y64.0568 I-0.9632
G1 X376.4065
G3 X375.4433 Y63.0935 J-0.9632
G1 Y59.9178
G2 X374.2654 Y58.151 I-1.9141
G3 X373.0875 Y56.3842 I0.7362 J-1.7668
G1 Y49.5875
X381.9125
Y66.4125
X373.0875
Y56.3842
X373.0944 Y56.3378
X373.1146 Y56.2955
X373.1462 Y56.261
X373.1865 Y56.2371
X373.232 Y56.2261
X373.2787 Y56.2288
X373.3227 Y56.245
X373.36 Y56.2734
X373.3873 Y56.3114
X376.595 Y62.5284
X376.6222 Y62.5662
X376.6592 Y62.5945
X376.7027 Y62.6108
X376.7492 Y62.6138
X376.7945 Y62.6032
X376.8348 Y62.58
X376.8666 Y62.546
X376.8872 Y62.5043
X376.8948 Y62.4584
X376.8888 Y62.4122
G3 X376.9824 Y62.6579 Z-2.3217 I1.4507 J-0.4122 F1200
X377.1173 Y62.8835 Z-2.6434 I1.3571 J-0.6579
X377.2893 Y63.0823 Z-2.9651 I1.2222 J-0.8835
X377.4932 Y63.2482 Z-3.2868 I1.0502 J-1.0823
X377.7228 Y63.3762 Z-3.6086 I0.8463 J-1.2483
X377.9712 Y63.4624 Z-3.9303 I0.6167 J-1.3763
X376.8314 Y62 Z-4 I0.3683 J-1.4624
G1 Y54.1594 F3500
G3 X378.1687 I0.6686
G1 Y62.1402
G3 X377.6402 Y62.6686 I-0.5285
G1 X377.3599
G3 X376.8314 Y62.1402 J-0.5285
G1 Y62
G2 X376.1373 Y60.9589 I-1.1279
G3 X375.4433 Y59.9178 I0.4338 J-1.0411
G1 Y52.9065
G3 X376.4065 Y51.9432 I0.9632
G1 X378.5936
G3 X379.5568 Y52.9065 J0.9632
G1 Y63.0935
G3 X378.5936 Y64.0568 I-0.9632
G1 X376.4065
G3 X375.4433 Y63.0935 J-0.9632
G1 Y59.9178
G2 X374.2654 Y58.151 I-1.9141
G3 X373.0875 Y56.3842 I0.7362 J-1.7668
G1 Y49.5875
X381.9125
Y66.4125
X373.0875
Y56.3842
X373.095 Y56.3359
X373.1169 Y56.2922
X373.151 Y56.2572
X373.1941 Y56.2342
X373.2421 Y56.2255
X373.2906 Y56.2317
X373.3348 Y56.2524
X375.2027 Y57.5082
X375.2272 Y57.5284
X375.2471 Y57.5531
X377.8079 Y61.4744
X377.8271 Y61.4937
X377.8524 Y61.5037
X378.0584 Y61.5401
X378.0817 Y61.5489
X378.1001 Y61.5655
X378.1112 Y61.5878
G3 X378.0176 Y61.3421 Z-4.3217 I-1.4507 J0.4122 F1200
X377.8828 Y61.1165 Z-4.6434 I-1.3571 J0.6579
X377.7108 Y60.9176 Z-4.9651 I-1.2222 J0.8835
X377.5069 Y60.7517 Z-5.2868 I-1.0502 J1.0823
X377.2773 Y60.6237 Z-5.6086 I-0.8463 J1.2483
X377.0289 Y60.5375 Z-5.9303 I-0.6167 J1.3763
X378.1687 Y62 Z-6 I-0.3683 J1.4624
G1 Y62.1402 F3500
G3 X377.6402 Y62.6686 I-0.5285
G1 X377.3599
G3 X376.8314 Y62.1402 J-0.5285
G1 Y54.1594
G3 X378.1687 I0.6686
G1 Y62
G2 X378.8821 Y62.8376 I0.8484
G3 X379.0924 Y63.9175 I-0.0932 J0.5786
X378.5936 Y64.0568 I-0.4988 J-0.824
G1 X376.4065
G3 X375.4433 Y63.0935 J-0.9632
G1 Y52.9065
G3 X376.4065 Y51.9432 I0.9632
G1 X378.5936
G3 X379.5568 Y52.9065 J0.9632
G1 Y63.0935
G3 X379.0924 Y63.9175 I-0.9632
G2 X377.8311 Y65.3611 I1.636 J2.7023
G3 X376.228 Y66.4125 I-1.603 J-0.6964
G1 X373.0875
Y49.5875
X381.9125
Y66.4125
X376.228
X376.1792 Y66.4087 Z-5.9922
X376.1315 Y66.3975 Z-5.9845
X376.0904 Y66.3811 Z-5.9619
X376.052 Y66.3592 Z-5.9394
X375.9983 Y66.3141 Z-5.8691
X375.9696 Y66.2794 Z-5.7806
X375.9608 Y66.2665 Z-5.6825
G0 Z5
X377.7003 Y57.9547
Z-3
G1 Z-8 F1200
X377.7084 Y57.9905 F3500
X377.709 Y58.007
X377.7054 Y58.0382
X377.6972 Y58.068
X377.6827 Y58.0991
X377.656 Y58.1374
X377.6345 Y58.1586
X377.5968 Y58.184
X377.5658 Y58.1979
X377.5357 Y58.2058
X377.5044 Y58.2089
X377.4735 Y58.2073
X377.4319 Y58.1984
X377.3874 Y58.175
X377.3505 Y58.1466
X377.3173 Y58.099
X377.3027 Y58.0677
X377.2943 Y58.0374
X377.2895 Y57.998
X377.2922 Y57.9724
X377.3012 Y57.9364
X377.3175 Y57.8989
X377.3334 Y57.8741
X377.3508 Y57.8545
X377.3914 Y57.8227
X377.4214 Y57.8069
X377.45 Y57.7972
X377.4937 Y57.79
X377.532 Y57.7928
X377.551 Y57.7969
X377.5865 Y57.8105
X377.6325 Y57.8377
X377.6432 Y57.8465
X377.6557 Y57.8602
X377.6853 Y57.9052
X377.6935 Y57.9241
X377.7003 Y57.9547
X377.7084 Y57.9905 Z-7.9979
X377.709 Y58.007 Z-7.9955
X377.7054 Y58.0382 Z-7.9885
X377.6972 Y58.068 Z-7.9782
X377.6827 Y58.0991 Z-7.9624
X377.656 Y58.1374 Z-7.9319
X377.6345 Y58.1586 Z-7.9048
X377.6142 Y58.1723 Z-7.8767
X377.5968 Y58.184 Z-7.846
X377.5789 Y58.1921 Z-7.8075
X377.5658 Y58.1979 Z-7.7668
X377.5576 Y58.2 Z-7.725
X377.5548 Y58.2008 Z-7.6825
G0 Z5
X377.3722 Y57.8377
Z-5
G1 Z-10 F1200
X377.3914 Y57.8227 F3500
X377.4214 Y57.8069
X377.45 Y57.7972
X377.4937 Y57.79
X377.532 Y57.7928
X377.551 Y57.7969
X377.5865 Y57.8105
X377.6325 Y57.8377
X377.6432 Y57.8465
X377.6557 Y57.8602
X377.6853 Y57.9052
X377.6935 Y57.9241
X377.7084 Y57.9905
X377.709 Y58.007
X377.7054 Y58.0382
X377.6972 Y58.068
X377.6827 Y58.0991
X377.656 Y58.1374
X377.6345 Y58.1586
X377.5968 Y58.184
X377.5658 Y58.1979
X377.5357 Y58.2058
X377.5044 Y58.2089
X377.4735 Y58.2073
X377.4319 Y58.1984
X377.3874 Y58.175
X377.3505 Y58.1466
X377.3173 Y58.099
X377.3027 Y58.0677
X377.2943 Y58.0374
X377.2895 Y57.998
X377.2922 Y57.9724
X377.3012 Y57.9364
X377.3175 Y57.8989
X377.3334 Y57.8741
X377.3508 Y57.8545
X377.3722 Y57.8377
X377.3914 Y57.8227 Z-9.9991
X377.4214 Y57.8069 Z-9.9946
X377.45 Y57.7972 Z-9.9874
X377.4937 Y57.79 Z-9.9709
X377.532 Y57.7928 Z-9.9499
X377.551 Y57.7969 Z-9.9364
X377.5865 Y57.8105 Z-9.9028
X377.6118 Y57.8255 Z-9.8675
X377.6325 Y57.8377 Z-9.8283
X377.6432 Y57.8465 Z-9.7976
X377.6508 Y57.8549 Z-9.7626
X377.6557 Y57.8602 Z-9.7265
X377.6573 Y57.8627 Z-9.6825
G0 Z5
X377.7003 Y57.9547
Z-7
G1 Z-12 F1200
X377.7084 Y57.9905 F3500
X377.709 Y58.007
X377.7054 Y58.0382
X377.6972 Y58.068
X377.6827 Y58.0991
X377.656 Y58.1374
X377.6345 Y58.1586
X377.5968 Y58.184
X377.5658 Y58.1979
X377.5357 Y58.2058
X377.5044 Y58.2089
X377.4735 Y58.2073
X377.4319 Y58.1984
X377.3874 Y58.175
X377.3505 Y58.1466
X377.3173 Y58.099
X377.3027 Y58.0677
X377.2943 Y58.0374
X377.2895 Y57.998
X377.2922 Y57.9724
X377.3012 Y57.9364
X377.3175 Y57.8989
X377.3334 Y57.8741
X377.3508 Y57.8545
X377.3914 Y57.8227
X377.4214 Y57.8069
X377.45 Y57.7972
X377.4937 Y57.79
X377.532 Y57.7928
X377.551 Y57.7969
X377.5865 Y57.8105
X377.6325 Y57.8377
X377.6432 Y57.8465
X377.6557 Y57.8602
X377.6853 Y57.9052
X377.6935 Y57.9241
X377.7003 Y57.9547
X377.7084 Y57.9905 Z-11.9979
X377.709 Y58.007 Z-11.9955
X377.7054 Y58.0382 Z-11.9885
X377.6972 Y58.068 Z-11.9782
X377.6827 Y58.0991 Z-11.9624
X377.656 Y58.1374 Z-11.9319
X377.6345 Y58.1586 Z-11.9048
X377.6142 Y58.1723 Z-11.8767
X377.5968 Y58.184 Z-11.846
X377.5789 Y58.1921 Z-11.8075
X377.5658 Y58.1979 Z-11.7668
X377.5576 Y58.2 Z-11.725
X377.5548 Y58.2008 Z-11.6825
G0 Z5
X377.3722 Y57.8377
Z-3
G1 Z-9 F1200
Z-13.4
X377.3914 Y57.8227 F3500
X377.4214 Y57.8069
X377.45 Y57.7972
X377.4937 Y57.79
X377.532 Y57.7928
X377.551 Y57.7969
X377.5865 Y57.8105
X377.6325 Y57.8377
X377.6432 Y57.8465
X377.6557 Y57.8602
X377.6853 Y57.9052
X377.6935 Y57.9241
X377.7084 Y57.9905
X377.709 Y58.007
X377.7054 Y58.0382
X377.6972 Y58.068
X377.6827 Y58.0991
X377.656 Y58.1374
X377.6345 Y58.1586
X377.5968 Y58.184
X377.5658 Y58.1979
X377.5357 Y58.2058
X377.5044 Y58.2089
X377.4735 Y58.2073
X377.4319 Y58.1984
X377.3874 Y58.175
X377.3505 Y58.1466
X377.3173 Y58.099
X377.3027 Y58.0677
X377.2943 Y58.0374
X377.2895 Y57.998
X377.2922 Y57.9724
X377.3012 Y57.9364
X377.3175 Y57.8989
X377.3334 Y57.8741
X377.3508 Y57.8545
X377.3722 Y57.8377
X377.3914 Y57.8227 Z-13.3991
X377.4214 Y57.8069 Z-13.3946
X377.45 Y57.7972 Z-13.3874
X377.4937 Y57.79 Z-13.3709
X377.532 Y57.7928 Z-13.3499
X377.551 Y57.7969 Z-13.3364
X377.5865 Y57.8105 Z-13.3028
X377.6118 Y57.8255 Z-13.2675
X377.6325 Y57.8377 Z-13.2283
X377.6432 Y57.8465 Z-13.1976
X377.6508 Y57.8549 Z-13.1626
X377.6557 Y57.8602 Z-13.1265
X377.6573 Y57.8627 Z-13.0825
G0 Z5
X395.7178 Y80.756
Z2.4173
G1 X395.7035 Y80.76 Z2.3213 F1200
X395.6618 Y80.7711 Z2.2343
X395.596 Y80.786 Z2.1644
X395.5118 Y80.8006 Z2.1182
X395.417 Y80.8112 Z2.1
G3 X395.6762 Y80.7674 Z1.7783 I-0.1207 J-1.5033
X395.9238 Y80.6793 Z1.4566 I-0.3799 J-1.4595
X396.1524 Y80.5495 Z1.1349 I-0.6276 J-1.3713
X396.355 Y80.382 Z0.8132 I-0.8562 J-1.2415
X396.5254 Y80.1818 Z0.4914 I-1.0588 J-1.074
X396.6585 Y79.9551 Z0.1697 I-1.2292 J-0.8738
X396.7502 Y79.7087 Z-0.152 I-1.3622 J-0.6471
X396.7977 Y79.4501 Z-0.4737 I-1.4539 J-0.4007
X396.7996 Y79.1873 Z-0.7954 I-1.5014 J-0.1422
X396.7558 Y78.928 Z-1.1171 I-1.5033 J0.1207
X396.6676 Y78.6804 Z-1.4388 I-1.4595 J0.3799
X396.5378 Y78.4518 Z-1.7605 I-1.3714 J0.6276
X394.2473 Y78.2244 Z-2 I-1.2415 J0.8562
G2 X394.6684 Y77.791 I-6.8721 J-7.0983 F3500
X395.0822 Y77.2783 I-3.9643 J-3.6227
G1 X395.4741 Y76.7266
G3 X396.1854 Y76.9536 I0.3195 J0.227
G1 X396.1853 Y79.225
G3 X395.222 Y80.1883 I-0.9633
G1 X392.9554 Y80.1882
G3 X392.7248 Y79.475 J-0.3939
G2 X393.7397 Y78.6828 I-10.1285 J-14.0229
X394.2473 Y78.2244 I-6.3646 J-7.5567
G1 X394.2843 Y78.1924 Z-1.9922
X394.3259 Y78.1664 Z-1.9845
X394.3664 Y78.1487 Z-1.9619
X394.409 Y78.1368 Z-1.9394
X394.4788 Y78.1304 Z-1.8691
X394.5237 Y78.1344 Z-1.7806
X394.5389 Y78.1373 Z-1.6825
G0 Z5
X396.7544 Y10.2822
Z2.4173
G1 X396.7585 Y10.2964 Z2.3213 F1200
X396.7696 Y10.3382 Z2.2343
X396.7845 Y10.404 Z2.1644
X396.7992 Y10.4882 Z2.1182
X396.8098 Y10.583 Z2.1
G3 X396.7659 Y10.3238 Z1.7783 I-1.5032 J0.1214
X396.6777 Y10.0762 Z1.4566 I-1.4593 J0.3806
X396.5477 Y9.8476 Z1.1349 I-1.371 J0.6282
X396.3801 Y9.6451 Z0.8132 I-1.2411 J0.8568
X396.1799 Y9.4748 Z0.4914 I-1.0735 J1.0593
X395.9531 Y9.3419 Z0.1697 I-0.8732 J1.2296
X395.7066 Y9.2503 Z-0.152 I-0.6465 J1.3625
X395.4481 Y9.2029 Z-0.4737 I-0.4 J1.4541
X395.1852 Y9.2012 Z-0.7954 I-0.1415 J1.5015
X394.926 Y9.2451 Z-1.1171 I0.1214 J1.5032
X394.6784 Y9.3334 Z-1.4388 I0.3806 J1.4593
X394.4498 Y9.4633 Z-1.7605 I0.6282 J1.371
X394.2236 Y11.7539 Z-2 I0.8568 J1.2411
G2 X393.7861 Y11.3288 I-7.2886 J7.063 F3500
X393.2788 Y10.9186 I-3.6071 J3.9424
G1 X392.7275 Y10.5261
G3 X392.955 Y9.8146 I0.2274 J-0.3194
G1 X395.2247
G3 X396.1879 Y10.7779 J0.9632
G1 X396.1878 Y13.0439
G3 X395.4748 Y13.2741 I-0.3936
G2 X394.6804 Y12.2581 I-13.4056 J9.6632
X394.2236 Y11.7539 I-7.7455 J6.5589
G1 X394.1915 Y11.7169 Z-1.9922
X394.1655 Y11.6754 Z-1.9845
X394.1477 Y11.6349 Z-1.9619
X394.1358 Y11.5923 Z-1.9394
X394.1293 Y11.5225 Z-1.8691
X394.1333 Y11.4776 Z-1.7806
X394.1361 Y11.4623 Z-1.6825
G0 Z5
X10.2822 Y9.244
Z2.4173
G1 X10.2965 Y9.2399 Z2.3213 F1200
X10.3382 Y9.2288 Z2.2343
X10.404 Y9.2139 Z2.1644
X10.4882 Y9.1993 Z2.1182
X10.583 Y9.1887 Z2.1
G3 X10.3238 Y9.2325 Z1.7783 I0.1207 J1.5033
X10.0762 Y9.3206 Z1.4566 I0.3799 J1.4595
X9.8476 Y9.4505 Z1.1349 I0.6276 J1.3713
X9.645 Y9.618 Z0.8132 I0.8562 J1.2415
X9.4746 Y9.8182 Z0.4914 I1.0588 J1.074
X9.3415 Y10.0449 Z0.1697 I1.2292 J0.8738
X9.2498 Y10.2913 Z-0.152 I1.3622 J0.6471
X9.2023 Y10.5498 Z-0.4737 I1.4539 J0.4007
X9.2005 Y10.8127 Z-0.7954 I1.5014 J0.1422
X9.2443 Y11.0719 Z-1.1171 I1.5033 J-0.1207
X9.3324 Y11.3196 Z-1.4388 I1.4595 J-0.3799
X9.4622 Y11.5482 Z-1.7605 I1.3713 J-0.6276
X11.7527 Y11.7755 Z-2 I1.2415 J-0.8562
G2 X11.3321 Y12.2084 I6.8705 J7.0967 F3500
X10.9179 Y12.7216 I3.966 J3.6248
G1 X10.526 Y13.2733
G3 X9.8146 Y13.0463 I-0.3195 J-0.227
G1 X9.8147 Y10.775
G3 X10.778 Y9.8117 I0.9633
G1 X13.0445 Y9.8118
G3 X13.2752 Y10.525 J0.3939
G2 X12.2605 Y11.3169 I10.1334 J14.0296
X11.7527 Y11.7755 I6.3627 J7.5553
G1 X11.7157 Y11.8076 Z-1.9922
X11.6741 Y11.8336 Z-1.9845
X11.6336 Y11.8512 Z-1.9619
X11.591 Y11.8631 Z-1.9394
X11.5212 Y11.8696 Z-1.8691
X11.4763 Y11.8655 Z-1.7806
X11.461 Y11.8627 Z-1.6825
G0 Z5
X9.2456 Y79.7179
Z2.4173
G1 X9.2415 Y79.7036 Z2.3213 F1200
X9.2304 Y79.6618 Z2.2343
X9.2155 Y79.596 Z2.1644
X9.2009 Y79.5119 Z2.1182
X9.1902 Y79.417 Z2.1
G3 X9.2341 Y79.6762 Z1.7783 I1.5032 J-0.1214
X9.3224 Y79.9239 Z1.4566 I1.4593 J-0.3806
X9.4523 Y80.1524 Z1.1349 I1.371 J-0.6282
X9.6199 Y80.3549 Z0.8132 I1.2411 J-0.8568
X9.8202 Y80.5252 Z0.4914 I1.0735 J-1.0593
X10.047 Y80.6582 Z0.1697 I0.8732 J-1.2296
X10.2934 Y80.7497 Z-0.152 I0.6465 J-1.3625
X10.552 Y80.7971 Z-0.4737 I0.4 J-1.4541
X10.8148 Y80.7988 Z-0.7954 I0.1414 J-1.5015
X11.074 Y80.7549 Z-1.1171 I-0.1214 J-1.5032
X11.3217 Y80.6667 Z-1.4388 I-0.3806 J-1.4593
X11.5502 Y80.5367 Z-1.7605 I-0.6282 J-1.371
X11.7764 Y78.2461 Z-2 I-0.8568 J-1.2411
G2 X12.2142 Y78.6714 I7.2894 J-7.0639 F3500
X12.7212 Y79.0814 I3.6056 J-3.9412
G1 X13.2725 Y79.4739
G3 X13.045 Y80.1854 I-0.2274 J0.3194
G1 X10.7754
G3 X9.8122 Y79.2221 J-0.9632
G1 Y76.9562
G3 X10.5253 Y76.726 I0.3937
G2 X11.3198 Y77.7421 I13.4018 J-9.6606
X11.7764 Y78.2461 I7.7461 J-6.5599
X13.2451 Y78.5155 I0.9231 J-0.8945
G3 X14.7357 Y78.6031 I0.6645 J1.4177
G2 X18.0186 Y79.9463 I5.6173 J-9.0452
X19.132 Y80.1262 I2.0323 J-9.0441
X20.2586 Y80.1822 I1.1264 J-11.3076
G1 X385.8699 Y80.1798
G2 X392.3127 Y77.8753 I-0.0001 J-10.1583
X395.9277 Y72.0658 I-6.7525 J-8.2314
X396.1821 Y69.8131 I-9.4523 J-2.208
G1 X396.1793 Y20.1219
G2 X393.0944 Y12.8082 I-10.2134 J0.0006
X385.7415 Y9.8178 I-7.3528 J7.5444
G1 X20.1301 Y9.8201
G2 X13.6874 Y12.1247 I0.0001 J10.1584
X10.0723 Y17.9342 I6.7524 J8.2314
X9.8179 Y20.1869 I9.4523 J2.208
G1 X9.8207 Y69.8781
G2 X12.1535 Y76.3503 I10.1464 J-0.0006
X14.7357 Y78.6031 I8.1995 J-6.7924
X17.4526 Y78.3844 I1.2104 J-1.949
G3 X20.0183 Y77.4642 I2.4621 J2.828
G2 X20.2584 Y77.4676 I0.2402 J-8.6954
G1 X385.8699 Y77.4652
G2 X390.6255 Y75.7486 I-0.0001 J-7.4458
X393.2842 Y71.4483 I-5.0677 J-6.1052
X393.4228 Y70.636 I-6.6337 J-1.5496
X393.4674 Y69.8133 I-7.5527 J-0.8223
G1 X393.4647 Y20.122
G2 X391.7272 Y15.346 I-7.4341 J0.0004
X387.3866 Y12.7023 I-6.0807 J5.0985
X386.5688 Y12.5719 I-1.4442 J6.4254
X385.7416 Y12.5324 I-0.8273 J8.6581
G1 X20.1301 Y12.5348
G2 X14.7465 Y14.7872 J7.5602
X12.5325 Y20.1867 I5.4763 J5.3991
G1 X12.5353 Y69.878
G2 X14.273 Y74.6541 I7.4341 J-0.0004
X18.6137 Y77.2978 I6.0806 J-5.0987
X19.4314 Y77.4281 I1.4438 J-6.4251
X20.0183 Y77.4642 I0.8271 J-8.6593
X22.101 Y76.1229 I0.0606 J-2.1936
G3 X24.1651 Y74.7529 I2.0641 J0.8699
G1 X385.8699 Y74.7506
G2 X388.9384 Y73.622 J-4.7356
X390.6408 Y70.8308 I-3.3856 J-3.9797
X390.726 Y70.3253 I-4.0013 J-0.9347
X390.7528 Y69.8134 I-4.871 J-0.5116
G1 X390.75 Y20.1222
G2 X389.6076 Y17.0421 I-4.7241 J0.0003
X386.7913 Y15.3509 I-3.9624 J3.4078
X386.2693 Y15.2699 I-0.8618 J3.8343
X385.7416 Y15.2471 I-0.5278 J6.0807
G1 X20.1301 Y15.2494
G2 X16.6661 Y16.7067 J4.8459
X15.2472 Y20.1866 I3.5571 J3.4796
G1 X15.25 Y69.8778
G2 X16.3924 Y72.958 I4.7241 J-0.0003
X19.2089 Y74.6492 I3.9623 J-3.4079
X19.7308 Y74.7301 I0.8616 J-3.834
X20.2585 Y74.7529 I0.5277 J-6.0821
G1 X24.1651
G2 X26.3142 Y73.3202 J-2.3282
G3 X28.4632 Y71.8874 I2.1491 J0.8954
G1 X385.8699 Y71.8852
G2 X386.0356 Y71.8719 J-1.0438
G1 X386.2256 Y71.8414
G2 X386.4142 Y71.7926 I-0.1657 J-1.0305
G1 X386.5995 Y71.7258
G2 X386.7535 Y71.6557 I-0.3542 J-0.9818
G1 X386.877 Y71.5868
G2 X387.0114 Y71.4976 I-0.5082 J-0.9117
G1 X387.1541 Y71.3861
G2 X387.282 Y71.2677 I-0.6426 J-0.8225
G1 X387.3949 Y71.1442
G2 X387.4923 Y71.0198 I-0.7705 J-0.7041
G1 X387.5749 Y70.8963
G2 X387.6599 Y70.7424 I-0.8679 J-0.5798
G1 X387.7427 Y70.5571
G2 X387.8062 Y70.3687 I-0.9529 J-0.4259
G1 X387.8505 Y70.179
G2 X387.8749 Y70.0193 I-1.0164 J-0.2374
G1 X387.8845 Y69.8914
X387.8874 Y69.8136
X387.8846 Y20.1223
G2 X387.8699 Y19.9481 I-1.0438 J0.0001
G1 X387.8374 Y19.7563
G2 X387.7867 Y19.5668 I-1.0291 J0.1743
G1 X387.7178 Y19.3815
G2 X387.6457 Y19.2275 I-0.9783 J0.3637
G1 X387.5752 Y19.104
G2 X387.4919 Y18.9798 I-0.9063 J0.5177
G1 X387.3956 Y18.8563
G2 X387.2771 Y18.7281 I-0.8231 J0.6419
G1 X387.1351 Y18.5982
G2 X387.0008 Y18.4941 I-0.7046 J0.7701
G1 X386.8773 Y18.4135
G2 X386.7234 Y18.3306 I-0.5702 J0.8742
G1 X386.5381 Y18.25
G2 X386.3506 Y18.1887 I-0.4164 J0.9571
G1 X386.1629 Y18.1466
G2 X385.9809 Y18.1222 I-0.2289 J1.0183
G1 X385.7884 Y18.1135
X385.7415 Y18.1125
X20.1302 Y18.1148
G2 X19.9646 Y18.1281 J1.0438
G1 X19.7745 Y18.1586
G2 X19.5859 Y18.2073 I0.1656 J1.0305
G1 X19.4006 Y18.2742
G2 X19.2466 Y18.3443 I0.3542 J0.9818
G1 X19.123 Y18.4132
G2 X18.9886 Y18.5023 I0.5082 J0.9117
G1 X18.8459 Y18.6138
G2 X18.7181 Y18.7322 I0.6426 J0.8225
G1 X18.6052 Y18.8557
G2 X18.5077 Y18.9801 I0.7704 J0.7042
G1 X18.4252 Y19.1036
G2 X18.3402 Y19.2575 I0.8679 J0.5798
G1 X18.2573 Y19.4429
G2 X18.1938 Y19.6313 I0.9529 J0.4259
G1 X18.1495 Y19.821
G2 X18.1251 Y19.9807 I1.0164 J0.2374
G1 X18.1155 Y20.1086
X18.1126 Y20.1864
X18.1154 Y69.8777
G2 X18.1301 Y70.0519 I1.0438 J-0.0001
G1 X18.1625 Y70.2437
G2 X18.2133 Y70.4332 I1.0291 J-0.1743
G1 X18.2822 Y70.6185
G2 X18.3543 Y70.7726 I0.9783 J-0.3638
G1 X18.4249 Y70.8961
G2 X18.5081 Y71.0203 I0.9063 J-0.5178
G1 X18.6045 Y71.1438
G2 X18.723 Y71.272 I0.823 J-0.6419
G1 X18.8649 Y71.4018
G2 X18.9992 Y71.506 I0.7045 J-0.7701
G1 X19.1228 Y71.5865
G2 X19.2767 Y71.6694 I0.5702 J-0.8742
G1 X19.462 Y71.7501
G2 X19.6495 Y71.8113 I0.4163 J-0.9571
G1 X19.8372 Y71.8535
G2 X20.0192 Y71.8778 I0.2288 J-1.0184
G1 X20.2117 Y71.8864
X20.2585 Y71.8875
X28.4632 Y71.8874
X28.5121 Y71.8912 Z-1.9922
X28.5598 Y71.9025 Z-1.9845
X28.6009 Y71.9188 Z-1.9619
X28.6393 Y71.9407 Z-1.9394
X28.693 Y71.9858 Z-1.8691
X28.7217 Y72.0205 Z-1.7806
X28.7304 Y72.0334 Z-1.6825
G0 Z5
X29.0478 Y77.7276
Z3
G1 Z-1.6825 F3500
G19 G3 Y78.0451 Z-2 J0.3175
G1 Y80.9086
G17 G3 X28.7303 Y81.2261 I-0.3175
G1 X12.5894 Y81.226
X10.9721
X9.7154
G3 X8.7715 Y80.282 J-0.9439
G1 X8.7741 Y9.7151
G3 X9.7181 Y8.7711 I0.944
G1 X396.2846 Y8.774
G3 X397.2285 Y9.718 J0.9439
G1 X397.2259 Y80.2849
G3 X396.2819 Y81.2289 I-0.944
G1 X28.7303 Y81.2261
G2 X27.4299 Y82.0931 J1.4088
G3 X26.1295 Y82.96 I-1.3004 J-0.5419
G1 X8.0007 Y82.9599
