%
(Made in : Autodesk CAM Post Processor)
(G Code optimized for OpenBuilds OX CNC 1000 x 750 with GRBL V0.9j controller)

(Program Name : 1001)
(1 Operation :)
(1 : Pocket1)
(  Tool : Flat End Mill 3 Flutes, Diam = 3.175mm, Len = 20mm)
(  Spindle : RPM = 30000, set router dial to 6)
(  Machining time : 16 min 46 sec)

G90 G94
G17
G21

(Operation 1 of 1 : Pocket1)

G53 G0 Z5
G54
S30000 M3
G4 P1.0
X187.7543 Y36.8269
Z6
Z3
G1 Z2.4173 F1200
X187.7674 Y36.8339 Z2.3213
X187.8051 Y36.855 Z2.2343
X187.8628 Y36.8901 Z2.1644
X187.9334 Y36.9382 Z2.1182
X188.0089 Y36.9965 Z2.1
G3 X187.7922 Y36.8476 Z1.7783 I-0.9589 J1.164
X187.553 Y36.7387 Z1.4566 I-0.7422 J1.3128
X187.2984 Y36.673 Z1.1349 I-0.503 J1.4218
X187.0364 Y36.6524 Z0.8132 I-0.2484 J1.4875
X186.7747 Y36.6777 Z0.4914 I0.0136 J1.5081
X186.5214 Y36.748 Z0.1697 I0.2753 J1.4828
X186.2842 Y36.8613 Z-0.152 I0.5286 J1.4124
X186.0702 Y37.014 Z-0.4737 I0.7659 J1.2992
X185.886 Y37.2016 Z-0.7954 I0.9798 J1.1465
X185.7372 Y37.4183 Z-1.1171 I1.164 J0.9589
X185.6282 Y37.6575 Z-1.4388 I1.3128 J0.7422
X185.5625 Y37.9121 Z-1.7605 I1.4218 J0.503
X187.05 Y39.6686 Z-2 I1.4875 J0.2484
G1 X186.9098 F3500
G3 X186.3814 Y39.1402 J-0.5285
G1 Y30.8598
G3 X186.9098 Y30.3314 I0.5284
G1 X187.1902
G3 X187.7186 Y30.8598 J0.5285
G1 Y39.1402
G3 X187.1902 Y39.6686 I-0.5284
G1 X187.05
G2 X186.2124 Y40.3821 J0.8484
G3 X185.1325 Y40.5924 I-0.5786 J-0.0932
X184.9932 Y40.0935 I0.824 J-0.4989
G1 Y29.9065
G3 X185.9565 Y28.9432 I0.9632
G1 X188.1436
G3 X189.1068 Y29.9065 J0.9632
G1 Y40.0935
G3 X188.1436 Y41.0568 I-0.9632
G1 X185.9565
G3 X185.1325 Y40.5924 J-0.9632
G2 X183.6889 Y39.331 I-2.7023 J1.636
G3 X182.6375 Y37.728 I0.6964 J-1.603
G1 Y26.5875
X191.4625
Y43.4125
X182.6375
Y37.728
X182.6439 Y37.6834
X182.6626 Y37.6424
X182.692 Y37.6082
X182.7298 Y37.5838
X182.773 Y37.5709
X182.8181 Y37.5707
X185.5893 Y37.9555
X185.6255 Y37.9656
X185.6582 Y37.9839
X187.5121 Y39.33
X187.5439 Y39.3607
X187.5661 Y39.3991
X187.5767 Y39.442
X187.5752 Y39.4862
X187.5614 Y39.5283
X187.5366 Y39.5649
X187.5027 Y39.5933
X187.4622 Y39.6112
G3 X187.7079 Y39.5176 Z-2.3217 I-0.4122 J-1.4507 F1200
X187.9335 Y39.3827 Z-2.6434 I-0.6579 J-1.3571
X188.1324 Y39.2107 Z-2.9651 I-0.8835 J-1.2222
X188.2983 Y39.0068 Z-3.2868 I-1.0823 J-1.0502
X188.4263 Y38.7772 Z-3.6086 I-1.2483 J-0.8463
X188.5125 Y38.5288 Z-3.9303 I-1.3763 J-0.6167
X187.05 Y39.6686 Z-4 I-1.4624 J-0.3684
G1 X186.9098 F3500
G3 X186.3814 Y39.1402 J-0.5285
G1 Y30.8598
G3 X186.9098 Y30.3314 I0.5284
G1 X187.1902
G3 X187.7186 Y30.8598 J0.5285
G1 Y39.1402
G3 X187.1902 Y39.6686 I-0.5284
G1 X187.05
G2 X186.2124 Y40.3821 J0.8484
G3 X185.1325 Y40.5924 I-0.5786 J-0.0932
X184.9932 Y40.0935 I0.824 J-0.4989
G1 Y29.9065
G3 X185.9565 Y28.9432 I0.9632
G1 X188.1436
G3 X189.1068 Y29.9065 J0.9632
G1 Y40.0935
G3 X188.1436 Y41.0568 I-0.9632
G1 X185.9565
G3 X185.1325 Y40.5924 J-0.9632
G2 X183.6889 Y39.331 I-2.7023 J1.636
G3 X182.6375 Y37.728 I0.6964 J-1.603
G1 Y26.5875
X191.4625
Y43.4125
X182.6375
Y37.728
X182.6439 Y37.6834
X182.6626 Y37.6424
X182.692 Y37.6082
X182.7298 Y37.5838
X182.773 Y37.5709
X182.8181 Y37.5707
X185.5893 Y37.9555
X185.6255 Y37.9656
X185.6582 Y37.9839
X187.5121 Y39.33
X187.5439 Y39.3607
X187.5661 Y39.3991
X187.5767 Y39.442
X187.5752 Y39.4862
X187.5614 Y39.5283
X187.5366 Y39.5649
X187.5027 Y39.5933
X187.4622 Y39.6112
G3 X187.7079 Y39.5176 Z-4.3217 I-0.4122 J-1.4507 F1200
X187.9335 Y39.3827 Z-4.6434 I-0.6579 J-1.3571
X188.1324 Y39.2107 Z-4.9651 I-0.8835 J-1.2222
X188.2983 Y39.0068 Z-5.2868 I-1.0823 J-1.0502
X188.4263 Y38.7772 Z-5.6086 I-1.2483 J-0.8463
X188.5125 Y38.5288 Z-5.9303 I-1.3763 J-0.6167
X187.05 Y39.6686 Z-6 I-1.4624 J-0.3684
G1 X186.9098 F3500
G3 X186.3814 Y39.1402 J-0.5285
G1 Y30.8598
G3 X186.9098 Y30.3314 I0.5284
G1 X187.1902
G3 X187.7186 Y30.8598 J0.5285
G1 Y39.1402
G3 X187.1902 Y39.6686 I-0.5284
G1 X187.05
G2 X186.2124 Y40.3821 J0.8484
G3 X185.1325 Y40.5924 I-0.5786 J-0.0932
X184.9932 Y40.0935 I0.824 J-0.4989
G1 Y29.9065
G3 X185.9565 Y28.9432 I0.9632
G1 X188.1436
G3 X189.1068 Y29.9065 J0.9632
G1 Y40.0935
G3 X188.1436 Y41.0568 I-0.9632
G1 X185.9565
G3 X185.1325 Y40.5924 J-0.9632
G2 X183.6889 Y39.331 I-2.7023 J1.636
G3 X182.6375 Y37.728 I0.6964 J-1.603
G1 Y26.5875
X191.4625
Y43.4125
X182.6375
Y37.728
X182.6413 Y37.6791 Z-5.9922
X182.6525 Y37.6314 Z-5.9845
X182.6689 Y37.5903 Z-5.9619
X182.6908 Y37.5519 Z-5.9394
X182.7359 Y37.4982 Z-5.8691
X182.7706 Y37.4695 Z-5.7806
X182.7835 Y37.4608 Z-5.6825
G0 Z5
X187.1572 Y35.1771
Z-3
G1 Z-8 F1200
X187.1377 Y35.1888 F3500
X187.1069 Y35.2008
X187.0668 Y35.2095
X187.0251 Y35.2075
X186.9943 Y35.2012
X186.9638 Y35.1896
X186.9164 Y35.1615
X186.9101 Y35.1564
X186.8947 Y35.14
X186.8652 Y35.0958
X186.8477 Y35.0558
X186.8423 Y35.0185
X186.844 Y34.9686
X186.8499 Y34.9406
X186.8614 Y34.9113
X186.8838 Y34.8742
X186.9091 Y34.8453
X186.9205 Y34.8358
X186.9638 Y34.8102
X186.9881 Y34.801
X187.044 Y34.7903
X187.0597 Y34.7897
X187.109 Y34.7998
X187.1381 Y34.8111
X187.1851 Y34.8395
X187.2172 Y34.876
X187.2386 Y34.9113
X187.2507 Y34.9424
X187.2576 Y34.9736
X187.2598 Y35.0124
X187.2509 Y35.0565
X187.24 Y35.0859
X187.217 Y35.1252
X187.2016 Y35.1437
X187.1767 Y35.1653
X187.1572 Y35.1771
X187.1377 Y35.1888 Z-7.9992
X187.1069 Y35.2008 Z-7.9951
X187.0668 Y35.2095 Z-7.9849
X187.0251 Y35.2075 Z-7.9682
X186.9943 Y35.2012 Z-7.9507
X186.9638 Y35.1896 Z-7.927
X186.9384 Y35.1746 Z-7.8992
X186.9164 Y35.1615 Z-7.8679
X186.9101 Y35.1564 Z-7.8562
X186.8947 Y35.14 Z-7.8155
X186.8826 Y35.1218 Z-7.7506
X186.8785 Y35.1157 Z-7.6825
G0 Z5
X187.1571 Y35.177
Z-5
G1 Z-10 F1200
X187.1377 Y35.1887 F3500
X187.1069 Y35.2007
X187.0668 Y35.2094
X187.0251 Y35.2074
X186.9943 Y35.2011
X186.9638 Y35.1895
X186.9164 Y35.1614
X186.9102 Y35.1564
X186.8948 Y35.1399
X186.8653 Y35.0957
X186.8478 Y35.0558
X186.8424 Y35.018
X186.844 Y34.9691
X186.8501 Y34.9405
X186.8615 Y34.9114
X186.8839 Y34.8743
X186.9092 Y34.8453
X186.9205 Y34.8359
X186.9639 Y34.8103
X186.9879 Y34.8012
X187.0453 Y34.7902
X187.0584 Y34.7897
X187.1092 Y34.8
X187.1381 Y34.8112
X187.185 Y34.8396
X187.2171 Y34.876
X187.2385 Y34.9114
X187.2507 Y34.9424
X187.2574 Y34.9736
X187.2597 Y35.0124
X187.2508 Y35.0565
X187.2399 Y35.0859
X187.2169 Y35.1252
X187.2015 Y35.1436
X187.1767 Y35.1652
X187.1571 Y35.177
X187.1377 Y35.1887 Z-9.9992
X187.1069 Y35.2007 Z-9.9951
X187.0668 Y35.2094 Z-9.9849
X187.0251 Y35.2074 Z-9.9682
X186.9943 Y35.2011 Z-9.9507
X186.9638 Y35.1895 Z-9.927
X186.9385 Y35.1745 Z-9.8993
X186.9164 Y35.1614 Z-9.8681
X186.9102 Y35.1564 Z-9.8564
X186.8948 Y35.1399 Z-9.8159
X186.8826 Y35.1217 Z-9.7508
X186.8785 Y35.1155 Z-9.6825
G0 Z5
X186.8781 Y35.115
Z-7
G1 Z-12 F1200
X186.8653 Y35.0957 F3500
X186.8478 Y35.0558
X186.8424 Y35.018
X186.844 Y34.9691
X186.8501 Y34.9405
X186.8615 Y34.9114
X186.8839 Y34.8743
X186.9092 Y34.8453
X186.9205 Y34.8359
X186.9639 Y34.8103
X186.9879 Y34.8012
X187.0453 Y34.7902
X187.0584 Y34.7897
X187.1092 Y34.8
X187.1381 Y34.8112
X187.185 Y34.8396
X187.2171 Y34.876
X187.2385 Y34.9114
X187.2507 Y34.9424
X187.2574 Y34.9736
X187.2597 Y35.0124
X187.2508 Y35.0565
X187.2399 Y35.0859
X187.2169 Y35.1252
X187.2015 Y35.1436
X187.1767 Y35.1652
X187.1377 Y35.1887
X187.1069 Y35.2007
X187.0668 Y35.2094
X187.0251 Y35.2074
X186.9943 Y35.2011
X186.9638 Y35.1895
X186.9164 Y35.1614
X186.9102 Y35.1564
X186.8948 Y35.1399
X186.8781 Y35.115
X186.8653 Y35.0957 Z-11.9992
X186.8478 Y35.0558 Z-11.9929
X186.8424 Y35.018 Z-11.9822
X186.844 Y34.9691 Z-11.9603
X186.8501 Y34.9405 Z-11.9419
X186.8615 Y34.9114 Z-11.9167
X186.8839 Y34.8743 Z-11.8679
X186.8981 Y34.8581 Z-11.8337
X186.9092 Y34.8453 Z-11.797
X186.9205 Y34.8359 Z-11.7472
X186.9263 Y34.8325 Z-11.6825
G0 Z5
X186.8781 Y35.115
Z-3
G1 Z-9 F1200
Z-13.4
X186.8653 Y35.0957 F3500
X186.8478 Y35.0558
X186.8424 Y35.018
X186.844 Y34.9691
X186.8501 Y34.9405
X186.8615 Y34.9114
X186.8839 Y34.8743
X186.9092 Y34.8453
X186.9205 Y34.8359
X186.9639 Y34.8103
X186.9879 Y34.8012
X187.0453 Y34.7902
X187.0584 Y34.7897
X187.1092 Y34.8
X187.1381 Y34.8112
X187.185 Y34.8396
X187.2171 Y34.876
X187.2385 Y34.9114
X187.2507 Y34.9424
X187.2574 Y34.9736
X187.2597 Y35.0124
X187.2508 Y35.0565
X187.2399 Y35.0859
X187.2169 Y35.1252
X187.2015 Y35.1436
X187.1767 Y35.1652
X187.1377 Y35.1887
X187.1069 Y35.2007
X187.0668 Y35.2094
X187.0251 Y35.2074
X186.9943 Y35.2011
X186.9638 Y35.1895
X186.9164 Y35.1614
X186.9102 Y35.1564
X186.8948 Y35.1399
X186.8781 Y35.115
X186.8653 Y35.0957 Z-13.3992
X186.8478 Y35.0558 Z-13.3929
X186.8424 Y35.018 Z-13.3822
X186.844 Y34.9691 Z-13.3603
X186.8501 Y34.9405 Z-13.3419
X186.8615 Y34.9114 Z-13.3167
X186.8839 Y34.8743 Z-13.2679
X186.8981 Y34.8581 Z-13.2337
X186.9092 Y34.8453 Z-13.197
X186.9205 Y34.8359 Z-13.1472
X186.9263 Y34.8325 Z-13.0825
G0 Z5
X232.7818 Y52.8152
Z2.4173
G1 X232.7687 Y52.8082 Z2.3213 F1200
X232.731 Y52.7871 Z2.2343
X232.6734 Y52.752 Z2.1644
X232.6028 Y52.704 Z2.1182
X232.5272 Y52.6457 Z2.1
G3 X232.7439 Y52.7945 Z1.7783 I0.9589 J-1.164
X232.9832 Y52.9034 Z1.4566 I0.7422 J-1.3128
X233.2377 Y52.9692 Z1.1349 I0.503 J-1.4218
X233.4998 Y52.9897 Z0.8132 I0.2484 J-1.4875
X233.7615 Y52.9644 Z0.4914 I-0.0136 J-1.5081
X234.0148 Y52.8941 Z0.1697 I-0.2753 J-1.4828
X234.252 Y52.7809 Z-0.152 I-0.5286 J-1.4124
X234.466 Y52.6281 Z-0.4737 I-0.7659 J-1.2992
X234.6502 Y52.4406 Z-0.7954 I-0.9798 J-1.1465
X234.799 Y52.2239 Z-1.1171 I-1.164 J-0.9589
X234.9079 Y51.9846 Z-1.4388 I-1.3128 J-0.7422
X234.9737 Y51.7301 Z-1.7605 I-1.4218 J-0.503
X233.4861 Y49.9735 Z-2 I-1.4875 J-0.2484
G1 X261.0013 F3500
G3 X261.5298 Y50.5024 J0.5285
G1 X261.5297 Y50.5984
G3 X261.0012 Y51.1265 I-0.5285 J-0.0004
G1 X233.4293
G3 X232.9084 Y50.5087 J-0.5285
G1 X232.9241 Y50.4157
G3 X233.4455 Y49.9735 I0.5214 J0.0863
G1 X233.4861
G2 X234.3869 Y49.373 J-0.9758
G3 X235.2877 Y48.7725 I0.9008 J0.3753
G1 X261.7689
G3 X262.7313 Y49.7356 J0.9624
G1 X262.7302 Y51.3641
G3 X261.7661 Y52.3275 I-0.9641 J-0.0007
G1 X232.1794
G3 X231.4857 Y51.438 J-0.7152
G2 X231.6713 Y50.5907 I-13.7152 J-3.4474
X231.8135 Y49.7351 I-21.0438 J-3.9362
G3 X232.9261 Y48.7725 I1.1126 J0.1618
G1 X235.2877
G2 X236.9017 Y47.6965 J-1.7485
G3 X238.5158 Y46.6205 I1.614 J0.6725
G1 X263.9452
G3 X264.8849 Y47.5608 J0.9397
G1 X264.8807 Y53.5161
G3 X263.9167 Y54.4795 I-0.9641 J-0.0007
G1 X228.9292
G3 X228.4046 Y53.6394 J-0.5838
G2 X229.8188 Y47.5821 I-12.5138 J-6.1153
G3 X230.7822 Y46.6205 I0.9634 J0.0018
G1 X238.5158
G2 X240.0253 Y45.6141 J-1.6353
G3 X241.5348 Y44.6078 I1.5095 J0.629
G1 X266.3233
G3 X267.078 Y45.5136 J0.7673
G2 X266.7576 Y50.5171 I20.9998 J3.8568
G3 X266.8922 Y55.529 I-93.1891 J5.0119
X265.929 Y56.4922 I-0.9633
G1 X224.8764
G3 X224.5452 Y55.7281 J-0.4538
G2 X226.6677 Y52.7114 I-9.663 J-9.0538
X227.7968 Y49.2 I-10.157 J-5.203
X227.869 Y47.3857 I-8.2569 J-1.2375
G3 X227.8064 Y45.571 I26.162 J-1.8116
X228.7698 Y44.6078 I0.9634 J0.0001
G1 X241.5348
G2 X242.8803 Y43.7108 J-1.4577
G3 X244.2259 Y42.8137 I1.3455 J0.5606
G1 X268.9081
G3 X269.4798 Y43.6656 J0.6178
G2 X268.8386 Y45.5323 I15.7981 J6.4703
X268.5692 Y47.4877 I7.0006 J1.9604
G1 X268.6863 Y57.323
G3 X267.7231 Y58.2863 I-0.9632
G1 X139.0864
G3 Y57.7132 J-0.2865
G1 X215.8976 Y57.8449
G2 X222.6249 Y55.2749 I-0.0005 J-10.0908
X226.045 Y48.9374 I-7.0766 J-7.9107
X226.1247 Y46.3566 I-10.8539 J-1.6268
G3 X226.0125 Y43.777 I29.5228 J-2.5761
X226.9759 Y42.8137 I0.9634 J0.0001
G1 X244.2259
G2 X245.4529 Y41.9957 J-1.3292
G3 X246.6799 Y41.1777 I1.227 J0.5112
G1 X272.1044
G3 X272.4505 Y41.9456 J0.4619
G2 X270.1141 Y48.3812 I6.9903 J6.1796
G3 X270.2057 Y55.2271 I-243.2992 J6.6767
G2 X270.264 Y57.0931 I29.235 J0.0203
G3 X270.3223 Y58.959 I-29.8272 J1.866
X269.359 Y59.9223 I-0.9633
G1 X137.841
G3 X136.8777 Y58.959 J-0.9632
G1 Y57.0406
G3 X137.841 Y56.0773 I0.9633
G1 X215.8976 Y56.2089
G2 X221.5572 Y54.0353 I-0.0004 J-8.4562
X224.4271 Y48.6949 I-6.0103 J-6.6713
X224.5238 Y45.417 I-13.6253 J-2.0421
G3 X224.3767 Y42.141 I36.329 J-3.2718
X225.3401 Y41.1777 I0.9634 J0.0001
G1 X246.6799
G2 X248.0252 Y40.2808 J-1.4575
G3 X249.3706 Y39.3839 I1.3454 J0.5606
G1 X286.6334
G3 X286.6335 Y40.8168 J0.7165
X282.2091 Y40.6321 I-0.0058 J-52.9372
G2 X277.7832 Y40.775 I-1.5989 J19.0889
X274.5542 Y42.2217 I0.9681 J6.4878
X272.4621 Y45.0753 I4.6877 J5.6303
X271.9858 Y47.4901 I5.9086 J2.4199
G1 X272.1161 Y60.7529
G3 X271.1529 Y61.7161 I-0.9633
G1 X136.0471
G3 X135.0839 Y60.7529 J-0.9632
G1 Y55.2469
G3 X136.0471 Y54.2836 I0.9633
G1 X215.8975 Y54.4151
G2 X220.3865 Y52.6761 I-0.0004 J-6.6645
X222.6531 Y48.429 I-4.8421 J-5.3125
X222.7684 Y44.3868 I-16.6667 J-2.498
G3 X222.5831 Y40.3472 I43.8436 J-4.0345
X223.5465 Y39.3839 I0.9634 J0.0001
G1 X249.3706
G2 X251.1261 Y38.2136 J-1.9018
G3 X252.8816 Y37.0432 I1.7555 J0.7315
G1 X288.8629
G3 X289.8261 Y38.0065 J0.9632
G1 Y42.1939
G3 X288.8629 Y43.1572 I-0.9634
G1 X278.8425 Y43.0226
G2 X275.9405 Y44.1187 I0.0005 J4.3909
X274.3937 Y46.8077 I3.1959 J3.6277
X274.3264 Y47.4917 I3.4679 J0.6864
G1 X274.4568 Y63.0935
G3 X273.4935 Y64.0568 I-0.9632
G1 X133.7065
G3 X132.7432 Y63.0935 J-0.9632
G1 Y52.9063
G3 X133.7065 Y51.943 I0.9633
G1 X215.8973 Y52.0744
G2 X218.8589 Y50.9027 I-0.0002 J-4.3291
X220.3383 Y48.0821 I-3.3208 J-3.54
X220.3773 Y47.5585 I-3.4962 J-0.524
X220.31 Y42.7825 I-168.088 J-0.0196
G3 X220.2427 Y38.0065 I168.0207 J-4.7564
X221.2061 Y37.0432 I0.9634 J0.0001
G1 X252.8816
G2 X254.6484 Y35.8654 J-1.914
G3 X256.4152 Y34.6875 I1.7668 J0.7362
G1 X292.1819
Y45.5126
X278.8428 Y45.5141
G2 X278.6888 Y45.5255 I0.0001 J1.0438
G1 X278.4964 Y45.5542
G2 X278.3029 Y45.6023 I0.154 J1.0323
G1 X278.1104 Y45.6703
G2 X277.9504 Y45.7425 I0.3475 J0.9842
G1 X277.8221 Y45.8139
G2 X277.6931 Y45.8987 I0.5075 J0.912
G1 X277.5647 Y45.9975
G2 X277.4473 Y46.1028 I0.6365 J0.8272
G1 X277.3412 Y46.2137
G2 X277.2272 Y46.3556 I0.7539 J0.7218
G1 X277.1104 Y46.5305
G2 X277.0123 Y46.7149 I0.8678 J0.5799
G1 X276.9337 Y46.9067
G2 X276.8757 Y47.0996 I0.9659 J0.3956
G1 X276.8378 Y47.2915
G2 X276.8179 Y47.4934 I1.0239 J0.2027
G1 X276.8125 Y55.2317
Y66.4125
X130.3875
Y49.5875
X215.8972 Y49.583
G2 X216.0914 Y49.5647 I-0.0001 J-1.0438
G1 X216.2839 Y49.5283
G2 X216.4775 Y49.4718 I-0.1943 J-1.0255
G1 X216.67 Y49.3947
G2 X216.8299 Y49.3142 I-0.3878 J-0.969
G1 X216.9582 Y49.2351
G2 X217.0904 Y49.1385 I-0.5477 J-0.8885
G1 X217.2243 Y49.0236
G2 X217.3391 Y48.9083 I-0.6799 J-0.7919
G1 X217.4356 Y48.7949
G2 X217.5385 Y48.6509 I-0.7947 J-0.6767
G1 X217.6432 Y48.4745
G2 X217.7298 Y48.2894 I-0.8976 J-0.5326
G1 X217.7976 Y48.0975
G2 X217.8456 Y47.9047 I-0.9842 J-0.3475
G1 X217.8744 Y47.7128
G2 X217.8859 Y47.5582 I-1.0322 J-0.1547
G1 X217.8874 Y34.6875
X256.4152
X256.4641 Y34.6913 Z-1.9922
X256.5117 Y34.7025 Z-1.9845
X256.5528 Y34.7189 Z-1.9619
X256.5912 Y34.7408 Z-1.9394
X256.645 Y34.7859 Z-1.8691
X256.6736 Y34.8206 Z-1.7806
X256.6824 Y34.8335 Z-1.6825
G0 Z5
X232.7818 Y52.8152
Z0.4173
G1 X232.7687 Y52.8082 Z0.3213 F1200
X232.731 Y52.7871 Z0.2343
X232.6734 Y52.752 Z0.1644
X232.6028 Y52.704 Z0.1182
X232.5272 Y52.6457 Z0.1
G3 X232.7439 Y52.7945 Z-0.2217 I0.9589 J-1.164
X232.9832 Y52.9034 Z-0.5434 I0.7422 J-1.3128
X233.2377 Y52.9692 Z-0.8651 I0.503 J-1.4218
X233.4998 Y52.9897 Z-1.1868 I0.2484 J-1.4875
X233.7615 Y52.9644 Z-1.5086 I-0.0136 J-1.5081
X234.0148 Y52.8941 Z-1.8303 I-0.2753 J-1.4828
X234.252 Y52.7809 Z-2.152 I-0.5286 J-1.4124
X234.466 Y52.6281 Z-2.4737 I-0.7659 J-1.2992
X234.6502 Y52.4406 Z-2.7954 I-0.9798 J-1.1465
X234.799 Y52.2239 Z-3.1171 I-1.164 J-0.9589
X234.9079 Y51.9846 Z-3.4388 I-1.3128 J-0.7422
X234.9737 Y51.7301 Z-3.7605 I-1.4218 J-0.503
X233.4861 Y49.9735 Z-4 I-1.4875 J-0.2484
G1 X261.0013 F3500
G3 X261.5298 Y50.5024 J0.5285
G1 X261.5297 Y50.5984
G3 X261.0012 Y51.1265 I-0.5285 J-0.0004
G1 X233.4293
G3 X232.9084 Y50.5087 J-0.5285
G1 X232.9241 Y50.4157
G3 X233.4455 Y49.9735 I0.5214 J0.0863
G1 X233.4861
G2 X234.3869 Y49.373 J-0.9758
G3 X235.2877 Y48.7725 I0.9008 J0.3753
G1 X261.7689
G3 X262.7313 Y49.7356 J0.9624
G1 X262.7302 Y51.3641
G3 X261.7661 Y52.3275 I-0.9641 J-0.0007
G1 X232.1794
G3 X231.4857 Y51.438 J-0.7152
G2 X231.6713 Y50.5907 I-13.7152 J-3.4474
X231.8135 Y49.7351 I-21.0438 J-3.9362
G3 X232.9261 Y48.7725 I1.1126 J0.1618
G1 X235.2877
G2 X236.9017 Y47.6965 J-1.7485
G3 X238.5158 Y46.6205 I1.614 J0.6725
G1 X263.9452
G3 X264.8849 Y47.5608 J0.9397
G1 X264.8807 Y53.5161
G3 X263.9167 Y54.4795 I-0.9641 J-0.0007
G1 X228.9292
G3 X228.4046 Y53.6394 J-0.5838
G2 X229.8188 Y47.5821 I-12.5138 J-6.1153
G3 X230.7822 Y46.6205 I0.9634 J0.0018
G1 X238.5158
G2 X240.0253 Y45.6141 J-1.6353
G3 X241.5348 Y44.6078 I1.5095 J0.629
G1 X266.3233
G3 X267.078 Y45.5136 J0.7673
G2 X266.7576 Y50.5171 I20.9998 J3.8568
G3 X266.8922 Y55.529 I-93.1891 J5.0119
X265.929 Y56.4922 I-0.9633
G1 X224.8764
G3 X224.5452 Y55.7281 J-0.4538
G2 X226.6677 Y52.7114 I-9.663 J-9.0538
X227.7968 Y49.2 I-10.157 J-5.203
X227.869 Y47.3857 I-8.2569 J-1.2375
G3 X227.8064 Y45.571 I26.162 J-1.8116
X228.7698 Y44.6078 I0.9634 J0.0001
G1 X241.5348
G2 X242.8803 Y43.7108 J-1.4577
G3 X244.2259 Y42.8137 I1.3455 J0.5606
G1 X268.9081
G3 X269.4798 Y43.6656 J0.6178
G2 X268.8386 Y45.5323 I15.7981 J6.4703
X268.5692 Y47.4877 I7.0006 J1.9604
G1 X268.6863 Y57.323
G3 X267.7231 Y58.2863 I-0.9632
G1 X139.0864
G3 Y57.7132 J-0.2865
G1 X215.8976 Y57.8449
G2 X222.6249 Y55.2749 I-0.0005 J-10.0908
X226.045 Y48.9374 I-7.0766 J-7.9107
X226.1247 Y46.3566 I-10.8539 J-1.6268
G3 X226.0125 Y43.777 I29.5228 J-2.5761
X226.9759 Y42.8137 I0.9634 J0.0001
G1 X244.2259
G2 X245.4529 Y41.9957 J-1.3292
G3 X246.6799 Y41.1777 I1.227 J0.5112
G1 X272.1044
G3 X272.4505 Y41.9456 J0.4619
G2 X270.1141 Y48.3812 I6.9903 J6.1796
G3 X270.2057 Y55.2271 I-243.2992 J6.6767
G2 X270.264 Y57.0931 I29.235 J0.0203
G3 X270.3223 Y58.959 I-29.8272 J1.866
X269.359 Y59.9223 I-0.9633
G1 X137.841
G3 X136.8777 Y58.959 J-0.9632
G1 Y57.0406
G3 X137.841 Y56.0773 I0.9633
G1 X215.8976 Y56.2089
G2 X221.5572 Y54.0353 I-0.0004 J-8.4562
X224.4271 Y48.6949 I-6.0103 J-6.6713
X224.5238 Y45.417 I-13.6253 J-2.0421
G3 X224.3767 Y42.141 I36.329 J-3.2718
X225.3401 Y41.1777 I0.9634 J0.0001
G1 X246.6799
G2 X248.0252 Y40.2808 J-1.4575
G3 X249.3706 Y39.3839 I1.3454 J0.5606
G1 X283.706
G3 X283.7061 Y40.817 J0.7166
X279.1226 Y40.702 I-0.0125 J-90.9194
G2 X274.7462 Y42.0691 I-0.3333 J6.6213
X273.0688 Y43.8779 I4.5199 J5.8739
X272.1356 Y46.1614 I5.389 J3.5349
X272.0283 Y46.8221 I9.5289 J1.8861
X271.9858 Y47.4901 I5.2819 J0.6717
G1 X272.1161 Y60.7529
G3 X271.1529 Y61.7161 I-0.9633
G1 X136.0471
G3 X135.0839 Y60.7529 J-0.9632
G1 Y55.2469
G3 X136.0471 Y54.2836 I0.9633
G1 X215.8975 Y54.4151
G2 X220.3865 Y52.6761 I-0.0004 J-6.6645
X222.6531 Y48.429 I-4.8421 J-5.3125
X222.7684 Y44.3868 I-16.6667 J-2.498
G3 X222.5831 Y40.3472 I43.8436 J-4.0345
X223.5465 Y39.3839 I0.9634 J0.0001
G1 X249.3706
G2 X251.1261 Y38.2136 J-1.9018
G3 X252.8816 Y37.0432 I1.7555 J0.7315
G1 X285.9356
G3 X286.8988 Y38.0065 J0.9632
G1 Y42.194
G3 X285.9355 Y43.1574 I-0.9634
X282.0334 Y42.9792 I-0.0059 J-42.6998
G2 X278.1287 Y43.09 I-1.4919 J16.281
X275.9987 Y44.0635 I0.6241 J4.1828
X274.6281 Y45.9624 I3.2556 J3.7936
X274.3264 Y47.4917 I3.7425 J1.5328
G1 X274.4568 Y63.0935
G3 X273.4935 Y64.0568 I-0.9632
G1 X133.7065
G3 X132.7432 Y63.0935 J-0.9632
G1 Y52.9063
G3 X133.7065 Y51.943 I0.9633
G1 X215.8973 Y52.0744
G2 X218.8589 Y50.9027 I-0.0002 J-4.3291
X220.3383 Y48.0821 I-3.3208 J-3.54
X220.3773 Y47.5585 I-3.4962 J-0.524
X220.31 Y42.7825 I-168.088 J-0.0196
G3 X220.2427 Y38.0065 I168.0207 J-4.7564
X221.2061 Y37.0432 I0.9634 J0.0001
G1 X252.8816
G2 X254.6484 Y35.8654 J-1.914
G3 X256.4152 Y34.6875 I1.7668 J0.7362
G1 X289.2545
Y45.5126
X278.8427 Y45.5141
G2 X278.6888 Y45.5255 I0.0002 J1.0438
G1 X278.4964 Y45.5542
G2 X278.3029 Y45.6023 I0.154 J1.0323
G1 X278.1104 Y45.6703
G2 X277.9504 Y45.7425 I0.3475 J0.9842
G1 X277.8221 Y45.8139
G2 X277.6931 Y45.8987 I0.5075 J0.912
G1 X277.5647 Y45.9975
G2 X277.4473 Y46.1028 I0.6365 J0.8272
G1 X277.3412 Y46.2137
G2 X277.2272 Y46.3556 I0.7539 J0.7218
G1 X277.1104 Y46.5305
G2 X277.0123 Y46.7149 I0.8678 J0.5799
G1 X276.9337 Y46.9067
G2 X276.8757 Y47.0996 I0.9659 J0.3956
G1 X276.8378 Y47.2915
G2 X276.8179 Y47.4934 I1.0239 J0.2027
G1 X276.8125 Y55.2317
Y66.4125
X130.3875
Y49.5875
X215.8972 Y49.583
G2 X216.0914 Y49.5647 I-0.0001 J-1.0438
G1 X216.2839 Y49.5283
G2 X216.4775 Y49.4718 I-0.1943 J-1.0255
G1 X216.67 Y49.3947
G2 X216.8299 Y49.3142 I-0.3878 J-0.969
G1 X216.9582 Y49.2351
G2 X217.0904 Y49.1385 I-0.5477 J-0.8885
G1 X217.2243 Y49.0236
G2 X217.3391 Y48.9083 I-0.6799 J-0.7919
G1 X217.4356 Y48.7949
G2 X217.5385 Y48.6509 I-0.7947 J-0.6767
G1 X217.6432 Y48.4745
G2 X217.7298 Y48.2894 I-0.8976 J-0.5326
G1 X217.7976 Y48.0975
G2 X217.8456 Y47.9047 I-0.9842 J-0.3475
G1 X217.8744 Y47.7128
G2 X217.8859 Y47.5582 I-1.0322 J-0.1547
G1 X217.8874 Y34.6875
X256.4152
X256.4641 Y34.6913 Z-3.9922
X256.5117 Y34.7025 Z-3.9845
X256.5528 Y34.7189 Z-3.9619
X256.5912 Y34.7408 Z-3.9394
X256.645 Y34.7859 Z-3.8691
X256.6736 Y34.8206 Z-3.7806
X256.6824 Y34.8335 Z-3.6825
G0 Z5
X232.7818 Y52.8152
Z3
G1 Z-1.5827 F1200
X232.7687 Y52.8082 Z-1.6787
X232.731 Y52.7871 Z-1.7657
X232.6734 Y52.752 Z-1.8356
X232.6028 Y52.704 Z-1.8818
X232.5272 Y52.6457 Z-1.9
G3 X232.7439 Y52.7945 Z-2.2217 I0.9589 J-1.164
X232.9832 Y52.9034 Z-2.5434 I0.7422 J-1.3128
X233.2377 Y52.9692 Z-2.8651 I0.503 J-1.4218
X233.4998 Y52.9897 Z-3.1868 I0.2484 J-1.4875
X233.7615 Y52.9644 Z-3.5086 I-0.0136 J-1.5081
X234.0148 Y52.8941 Z-3.8303 I-0.2753 J-1.4828
X234.252 Y52.7809 Z-4.152 I-0.5286 J-1.4124
X234.466 Y52.6281 Z-4.4737 I-0.7659 J-1.2992
X234.6502 Y52.4406 Z-4.7954 I-0.9798 J-1.1465
X234.799 Y52.2239 Z-5.1171 I-1.164 J-0.9589
X234.9079 Y51.9846 Z-5.4388 I-1.3128 J-0.7422
X234.9737 Y51.7301 Z-5.7605 I-1.4218 J-0.503
X233.4861 Y49.9735 Z-6 I-1.4875 J-0.2484
G1 X261.0013 F3500
G3 X261.5298 Y50.5024 J0.5285
G1 X261.5297 Y50.5984
G3 X261.0012 Y51.1265 I-0.5285 J-0.0004
G1 X233.4293
G3 X232.9084 Y50.5087 J-0.5285
G1 X232.9241 Y50.4157
G3 X233.4455 Y49.9735 I0.5214 J0.0863
G1 X233.4861
G2 X234.3869 Y49.373 J-0.9758
G3 X235.2877 Y48.7725 I0.9008 J0.3753
G1 X261.7689
G3 X262.7313 Y49.7356 J0.9624
G1 X262.7302 Y51.3641
G3 X261.7661 Y52.3275 I-0.9641 J-0.0007
G1 X232.1794
G3 X231.4857 Y51.438 J-0.7152
G2 X231.6713 Y50.5907 I-13.7152 J-3.4474
X231.8135 Y49.7351 I-21.0438 J-3.9362
G3 X232.9261 Y48.7725 I1.1126 J0.1618
G1 X235.2877
G2 X236.9017 Y47.6965 J-1.7485
G3 X238.5158 Y46.6205 I1.614 J0.6725
G1 X263.9452
G3 X264.8849 Y47.5608 J0.9397
G1 X264.8807 Y53.5161
G3 X263.9167 Y54.4795 I-0.9641 J-0.0007
G1 X228.9292
G3 X228.4046 Y53.6394 J-0.5838
G2 X229.8188 Y47.5821 I-12.5138 J-6.1153
G3 X230.7822 Y46.6205 I0.9634 J0.0018
G1 X238.5158
G2 X240.0253 Y45.6141 J-1.6353
G3 X241.5348 Y44.6078 I1.5095 J0.629
G1 X266.3233
G3 X267.078 Y45.5136 J0.7673
G2 X266.7576 Y50.5171 I20.9998 J3.8568
G3 X266.8922 Y55.529 I-93.1891 J5.0119
X265.929 Y56.4922 I-0.9633
G1 X224.8764
G3 X224.5452 Y55.7281 J-0.4538
G2 X226.6677 Y52.7114 I-9.663 J-9.0538
X227.7968 Y49.2 I-10.157 J-5.203
X227.869 Y47.3857 I-8.2569 J-1.2375
G3 X227.8064 Y45.571 I26.162 J-1.8116
X228.7698 Y44.6078 I0.9634 J0.0001
G1 X241.5348
G2 X242.8803 Y43.7108 J-1.4577
G3 X244.2259 Y42.8137 I1.3455 J0.5606
G1 X268.9081
G3 X269.4798 Y43.6656 J0.6178
G2 X268.8386 Y45.5323 I15.7981 J6.4703
X268.5692 Y47.4877 I7.0006 J1.9604
G1 X268.6863 Y57.323
G3 X267.7231 Y58.2863 I-0.9632
G1 X139.0864
G3 Y57.7132 J-0.2865
G1 X215.8976 Y57.8449
G2 X222.6249 Y55.2749 I-0.0005 J-10.0908
X226.045 Y48.9374 I-7.0766 J-7.9107
X226.1247 Y46.3566 I-10.8539 J-1.6268
G3 X226.0125 Y43.777 I29.5228 J-2.5761
X226.9759 Y42.8137 I0.9634 J0.0001
G1 X244.2259
G2 X245.4529 Y41.9957 J-1.3292
G3 X246.6799 Y41.1777 I1.227 J0.5112
G1 X272.1044
G3 X272.4505 Y41.9456 J0.4619
G2 X270.1141 Y48.3812 I6.9903 J6.1796
G3 X270.2057 Y55.2271 I-243.2992 J6.6767
G2 X270.264 Y57.0931 I29.235 J0.0203
G3 X270.3223 Y58.959 I-29.8272 J1.866
X269.359 Y59.9223 I-0.9633
G1 X137.841
G3 X136.8777 Y58.959 J-0.9632
G1 Y57.0406
G3 X137.841 Y56.0773 I0.9633
G1 X215.8976 Y56.2089
G2 X221.5572 Y54.0353 I-0.0004 J-8.4562
X224.4271 Y48.6949 I-6.0103 J-6.6713
X224.5238 Y45.417 I-13.6253 J-2.0421
G3 X224.3767 Y42.141 I36.329 J-3.2718
X225.3401 Y41.1777 I0.9634 J0.0001
G1 X246.6799
G2 X248.0252 Y40.2808 J-1.4575
G3 X249.3706 Y39.3839 I1.3454 J0.5606
G1 X280.7786
G3 X280.7787 Y40.8173 J0.7167
G2 X278.1449 Y40.8384 I0.0311 J168.6914
X275.6007 Y41.5201 I0.0854 J5.4072
X272.9813 Y44.0134 I3.5133 J6.3134
X271.9858 Y47.4901 I5.5887 J3.4812
G1 X272.1161 Y60.7529
G3 X271.1529 Y61.7161 I-0.9633
G1 X136.0471
G3 X135.0839 Y60.7529 J-0.9632
G1 Y55.2469
G3 X136.0471 Y54.2836 I0.9633
G1 X215.8975 Y54.4151
G2 X220.3865 Y52.6761 I-0.0004 J-6.6645
X222.6531 Y48.429 I-4.8421 J-5.3125
X222.7684 Y44.3868 I-16.6667 J-2.498
G3 X222.5831 Y40.3472 I43.8436 J-4.0345
X223.5465 Y39.3839 I0.9634 J0.0001
G1 X249.3706
G2 X251.1261 Y38.2136 J-1.9018
G3 X252.8816 Y37.0432 I1.7555 J0.7315
G1 X283.0082
G3 X283.9715 Y38.0065 J0.9632
G1 Y42.1941
G3 X283.0082 Y43.1576 I-0.9635
X278.8549 Y43.0812 I-0.0207 J-111.9157
G2 X275.1558 Y44.9713 I-0.1573 J4.257
X274.5544 Y46.1701 I4.5034 J3.0096
X274.3264 Y47.4917 I3.7336 J1.3244
G1 X274.4568 Y63.0935
G3 X273.4935 Y64.0568 I-0.9632
G1 X133.7065
G3 X132.7432 Y63.0935 J-0.9632
G1 Y52.9063
G3 X133.7065 Y51.943 I0.9633
G1 X215.8973 Y52.0744
G2 X218.8589 Y50.9027 I-0.0002 J-4.3291
X220.3383 Y48.0821 I-3.3208 J-3.54
X220.3773 Y47.5585 I-3.4962 J-0.524
X220.31 Y42.7825 I-168.088 J-0.0196
G3 X220.2427 Y38.0065 I168.0207 J-4.7564
X221.2061 Y37.0432 I0.9634 J0.0001
G1 X252.8816
G2 X254.6484 Y35.8654 J-1.914
G3 X256.4152 Y34.6875 I1.7668 J0.7362
G1 X286.3272
Y45.5127
X278.8427 Y45.5141
G2 X278.6888 Y45.5255 I0.0002 J1.0438
G1 X278.4964 Y45.5542
G2 X278.3029 Y45.6023 I0.154 J1.0323
G1 X278.1104 Y45.6703
G2 X277.9504 Y45.7425 I0.3475 J0.9842
G1 X277.8221 Y45.8139
G2 X277.6931 Y45.8987 I0.5075 J0.912
G1 X277.5647 Y45.9975
G2 X277.4473 Y46.1028 I0.6365 J0.8272
G1 X277.3412 Y46.2137
G2 X277.2272 Y46.3556 I0.7539 J0.7218
G1 X277.1104 Y46.5305
G2 X277.0123 Y46.7149 I0.8678 J0.5799
G1 X276.9337 Y46.9067
G2 X276.8757 Y47.0996 I0.9659 J0.3956
G1 X276.8378 Y47.2915
G2 X276.8179 Y47.4934 I1.0239 J0.2027
G1 X276.8125 Y55.2317
Y66.4125
X130.3875
Y49.5875
X215.8972 Y49.583
G2 X216.0914 Y49.5647 I-0.0001 J-1.0438
G1 X216.2839 Y49.5283
G2 X216.4775 Y49.4718 I-0.1943 J-1.0255
G1 X216.67 Y49.3947
G2 X216.8299 Y49.3142 I-0.3878 J-0.969
G1 X216.9582 Y49.2351
G2 X217.0904 Y49.1385 I-0.5477 J-0.8885
G1 X217.2243 Y49.0236
G2 X217.3391 Y48.9083 I-0.6799 J-0.7919
G1 X217.4356 Y48.7949
G2 X217.5385 Y48.6509 I-0.7947 J-0.6767
G1 X217.6432 Y48.4745
G2 X217.7298 Y48.2894 I-0.8976 J-0.5326
G1 X217.7976 Y48.0975
G2 X217.8456 Y47.9047 I-0.9842 J-0.3475
G1 X217.8744 Y47.7128
G2 X217.8859 Y47.5582 I-1.0322 J-0.1547
G1 X217.8874 Y34.6875
X256.4152
X256.4641 Y34.6913 Z-5.9922
X256.5117 Y34.7025 Z-5.9845
X256.5528 Y34.7189 Z-5.9619
X256.5912 Y34.7408 Z-5.9394
X256.645 Y34.7859 Z-5.8691
X256.6736 Y34.8206 Z-5.7806
X256.6824 Y34.8335 Z-5.6825
G0 Z5
X259.9691 Y58.1191
Z-3
G1 Z-8 F1200
X259.9538 Y58.1409 F3500
X259.9326 Y58.1622
X259.9254 Y58.1676
X259.8796 Y58.1924
X259.8487 Y58.2029
X259.8183 Y58.2081
X259.7875 Y58.2086
X259.7567 Y58.2042
X259.7217 Y58.1935
X259.6883 Y58.1772
X259.6742 Y58.1675
X259.6501 Y58.1457
X259.6287 Y58.1188
X259.6056 Y58.078
X259.6038 Y58.0732
X259.5928 Y58.0248
X259.591 Y57.9967
X259.5938 Y57.9663
X259.6014 Y57.9361
X259.6158 Y57.9031
X259.6439 Y57.8604
X259.6827 Y57.8281
X259.7154 Y57.8102
X259.7575 Y57.7962
X259.7975 Y57.7903
X259.8029 Y57.7904
X259.8455 Y57.7967
X259.8835 Y57.8094
X259.9254 Y57.832
X259.9329 Y57.8377
X259.9546 Y57.8594
X259.9776 Y57.8906
X259.999 Y57.9332
X260.0079 Y57.9776
X260.009 Y58.007
X260.0054 Y58.0382
X259.9968 Y58.0694
X259.983 Y58.0992
X259.9691 Y58.1191
X259.9538 Y58.1409 Z-7.9989
X259.9326 Y58.1622 Z-7.9949
X259.9254 Y58.1676 Z-7.9931
X259.8796 Y58.1924 Z-7.9774
X259.8487 Y58.2029 Z-7.9621
X259.8183 Y58.2081 Z-7.9432
X259.7875 Y58.2086 Z-7.9188
X259.7567 Y58.2042 Z-7.8866
X259.7217 Y58.1935 Z-7.8326
X259.6987 Y58.1822 Z-7.7692
X259.6883 Y58.1772 Z-7.7018
X259.6878 Y58.1768 Z-7.6825
G0 Z5
X259.9691 Y58.1191
Z-5
G1 Z-10 F1200
X259.9538 Y58.1409 F3500
X259.9326 Y58.1622
X259.9254 Y58.1676
X259.8796 Y58.1924
X259.8487 Y58.2029
X259.8183 Y58.2081
X259.7875 Y58.2086
X259.7567 Y58.2042
X259.7217 Y58.1935
X259.6883 Y58.1772
X259.6742 Y58.1675
X259.6501 Y58.1457
X259.6287 Y58.1188
X259.6056 Y58.078
X259.6038 Y58.0732
X259.5928 Y58.0248
X259.591 Y57.9967
X259.5938 Y57.9663
X259.6014 Y57.9361
X259.6158 Y57.9031
X259.6439 Y57.8604
X259.6827 Y57.8281
X259.7154 Y57.8102
X259.7575 Y57.7962
X259.7975 Y57.7903
X259.8029 Y57.7904
X259.8455 Y57.7967
X259.8835 Y57.8094
X259.9254 Y57.832
X259.9329 Y57.8377
X259.9546 Y57.8594
X259.9776 Y57.8906
X259.999 Y57.9332
X260.0079 Y57.9776
X260.009 Y58.007
X260.0054 Y58.0382
X259.9968 Y58.0694
X259.983 Y58.0992
X259.9691 Y58.1191
X259.9538 Y58.1409 Z-9.9989
X259.9326 Y58.1622 Z-9.9949
X259.9254 Y58.1676 Z-9.9931
X259.8796 Y58.1924 Z-9.9774
X259.8487 Y58.2029 Z-9.9621
X259.8183 Y58.2081 Z-9.9432
X259.7875 Y58.2086 Z-9.9188
X259.7567 Y58.2042 Z-9.8866
X259.7217 Y58.1935 Z-9.8326
X259.6987 Y58.1822 Z-9.7692
X259.6883 Y58.1772 Z-9.7018
X259.6878 Y58.1768 Z-9.6825
G0 Z5
X259.9691 Y58.1191
Z-7
G1 Z-12 F1200
X259.9538 Y58.1409 F3500
X259.9326 Y58.1622
X259.9254 Y58.1676
X259.8796 Y58.1924
X259.8487 Y58.2029
X259.8183 Y58.2081
X259.7875 Y58.2086
X259.7567 Y58.2042
X259.7217 Y58.1935
X259.6883 Y58.1772
X259.6742 Y58.1675
X259.6501 Y58.1457
X259.6287 Y58.1188
X259.6056 Y58.078
X259.6038 Y58.0732
X259.5928 Y58.0248
X259.591 Y57.9967
X259.5938 Y57.9663
X259.6014 Y57.9361
X259.6158 Y57.9031
X259.6439 Y57.8604
X259.6827 Y57.8281
X259.7154 Y57.8102
X259.7575 Y57.7962
X259.7975 Y57.7903
X259.8029 Y57.7904
X259.8455 Y57.7967
X259.8835 Y57.8094
X259.9254 Y57.832
X259.9329 Y57.8377
X259.9546 Y57.8594
X259.9776 Y57.8906
X259.999 Y57.9332
X260.0079 Y57.9776
X260.009 Y58.007
X260.0054 Y58.0382
X259.9968 Y58.0694
X259.983 Y58.0992
X259.9691 Y58.1191
X259.9538 Y58.1409 Z-11.9989
X259.9326 Y58.1622 Z-11.9949
X259.9254 Y58.1676 Z-11.9931
X259.8796 Y58.1924 Z-11.9774
X259.8487 Y58.2029 Z-11.9621
X259.8183 Y58.2081 Z-11.9432
X259.7875 Y58.2086 Z-11.9188
X259.7567 Y58.2042 Z-11.8866
X259.7217 Y58.1935 Z-11.8326
X259.6987 Y58.1822 Z-11.7692
X259.6883 Y58.1772 Z-11.7018
X259.6878 Y58.1768 Z-11.6825
G0 Z5
X259.9691 Y58.1191
Z-3
G1 Z-9 F1200
Z-13.4
X259.9538 Y58.1409 F3500
X259.9326 Y58.1622
X259.9254 Y58.1676
X259.8796 Y58.1924
X259.8487 Y58.2029
X259.8183 Y58.2081
X259.7875 Y58.2086
X259.7567 Y58.2042
X259.7217 Y58.1935
X259.6883 Y58.1772
X259.6742 Y58.1675
X259.6501 Y58.1457
X259.6287 Y58.1188
X259.6056 Y58.078
X259.6038 Y58.0732
X259.5928 Y58.0248
X259.591 Y57.9967
X259.5938 Y57.9663
X259.6014 Y57.9361
X259.6158 Y57.9031
X259.6439 Y57.8604
X259.6827 Y57.8281
X259.7154 Y57.8102
X259.7575 Y57.7962
X259.7975 Y57.7903
X259.8029 Y57.7904
X259.8455 Y57.7967
X259.8835 Y57.8094
X259.9254 Y57.832
X259.9329 Y57.8377
X259.9546 Y57.8594
X259.9776 Y57.8906
X259.999 Y57.9332
X260.0079 Y57.9776
X260.009 Y58.007
X260.0054 Y58.0382
X259.9968 Y58.0694
X259.983 Y58.0992
X259.9691 Y58.1191
X259.9538 Y58.1409 Z-13.3989
X259.9326 Y58.1622 Z-13.3949
X259.9254 Y58.1676 Z-13.3931
X259.8796 Y58.1924 Z-13.3774
X259.8487 Y58.2029 Z-13.3621
X259.8183 Y58.2081 Z-13.3432
X259.7875 Y58.2086 Z-13.3188
X259.7567 Y58.2042 Z-13.2866
X259.7217 Y58.1935 Z-13.2326
X259.6987 Y58.1822 Z-13.1692
X259.6883 Y58.1772 Z-13.1018
X259.6878 Y58.1768 Z-13.0825
G0 Z5
X272.2312 Y58.1189
Z-3
G1 Z-8 F1200
X272.2173 Y58.099 F3500
X272.2029 Y58.0681
X272.1946 Y58.0382
X272.191 Y58.007
X272.1921 Y57.9776
X272.1985 Y57.946
X272.2099 Y57.9147
X272.2396 Y57.8633
X272.2483 Y57.854
X272.2664 Y57.8388
X272.3119 Y57.8112
X272.3372 Y57.8014
X272.3607 Y57.7966
X272.3812 Y57.7924
X272.412 Y57.7913
X272.433 Y57.7938
X272.4895 Y57.8102
X272.507 Y57.8205
X272.5564 Y57.8621
X272.5687 Y57.8771
X272.593 Y57.919
X272.6067 Y57.9712
X272.609 Y57.9967
X272.6062 Y58.0414
X272.5963 Y58.0719
X272.5726 Y58.1179
X272.5625 Y58.1318
X272.5316 Y58.1625
X272.5177 Y58.1728
X272.4766 Y58.1938
X272.4324 Y58.2079
X272.4256 Y58.2091
X272.4178 Y58.2096
X272.3732 Y58.2072
X272.3317 Y58.1983
X272.2762 Y58.169
X272.2454 Y58.1393
X272.2312 Y58.1189
X272.2173 Y58.099 Z-7.9991
X272.2029 Y58.0681 Z-7.9946
X272.1946 Y58.0382 Z-7.9871
X272.191 Y58.007 Z-7.9761
X272.1921 Y57.9776 Z-7.9622
X272.1985 Y57.946 Z-7.9423
X272.2099 Y57.9147 Z-7.9154
X272.2262 Y57.8866 Z-7.8804
X272.2396 Y57.8633 Z-7.8408
X272.2483 Y57.854 Z-7.8165
X272.259 Y57.845 Z-7.7808
X272.2664 Y57.8388 Z-7.7437
X272.2715 Y57.8357 Z-7.6825
G0 Z5
X272.2312 Y58.1189
Z-5
G1 Z-10 F1200
X272.2173 Y58.099 F3500
X272.2029 Y58.0681
X272.1946 Y58.0382
X272.191 Y58.007
X272.1921 Y57.9776
X272.1985 Y57.946
X272.2099 Y57.9147
X272.2396 Y57.8633
X272.2483 Y57.854
X272.2664 Y57.8388
X272.3119 Y57.8112
X272.3372 Y57.8014
X272.3812 Y57.7924
X272.412 Y57.7913
X272.433 Y57.7938
X272.4895 Y57.8102
X272.507 Y57.8205
X272.5564 Y57.8621
X272.5687 Y57.8771
X272.593 Y57.919
X272.6067 Y57.9712
X272.609 Y57.9967
X272.6062 Y58.0414
X272.5963 Y58.0719
X272.5726 Y58.1179
X272.5625 Y58.1318
X272.5316 Y58.1625
X272.5177 Y58.1728
X272.4766 Y58.1938
X272.4324 Y58.2079
X272.4256 Y58.2091
X272.4178 Y58.2096
X272.3732 Y58.2072
X272.3317 Y58.1983
X272.2762 Y58.169
X272.2454 Y58.1393
X272.2312 Y58.1189
X272.2173 Y58.099 Z-9.9991
X272.2029 Y58.0681 Z-9.9946
X272.1946 Y58.0382 Z-9.9871
X272.191 Y58.007 Z-9.9761
X272.1921 Y57.9776 Z-9.9622
X272.1985 Y57.946 Z-9.9423
X272.2099 Y57.9147 Z-9.9154
X272.2262 Y57.8866 Z-9.8804
X272.2396 Y57.8633 Z-9.8408
X272.2483 Y57.854 Z-9.8165
X272.259 Y57.845 Z-9.7808
X272.2664 Y57.8388 Z-9.7437
X272.2715 Y57.8357 Z-9.6825
G0 Z5
X272.2312 Y58.1189
Z-7
G1 Z-12 F1200
X272.2173 Y58.099 F3500
X272.2029 Y58.0681
X272.1946 Y58.0382
X272.191 Y58.007
X272.1921 Y57.9776
X272.1985 Y57.946
X272.2099 Y57.9147
X272.2396 Y57.8633
X272.2483 Y57.854
X272.2664 Y57.8388
X272.3119 Y57.8112
X272.3372 Y57.8014
X272.3812 Y57.7924
X272.412 Y57.7913
X272.433 Y57.7938
X272.4895 Y57.8102
X272.507 Y57.8205
X272.5564 Y57.8621
X272.5687 Y57.8771
X272.593 Y57.919
X272.6067 Y57.9712
X272.609 Y57.9967
X272.6062 Y58.0414
X272.5963 Y58.0719
X272.5726 Y58.1179
X272.5625 Y58.1318
X272.5316 Y58.1625
X272.5177 Y58.1728
X272.4766 Y58.1938
X272.4324 Y58.2079
X272.4256 Y58.2091
X272.4178 Y58.2096
X272.3732 Y58.2072
X272.3317 Y58.1983
X272.2762 Y58.169
X272.2454 Y58.1393
X272.2312 Y58.1189
X272.2173 Y58.099 Z-11.9991
X272.2029 Y58.0681 Z-11.9946
X272.1946 Y58.0382 Z-11.9871
X272.191 Y58.007 Z-11.9761
X272.1921 Y57.9776 Z-11.9622
X272.1985 Y57.946 Z-11.9423
X272.2099 Y57.9147 Z-11.9154
X272.2262 Y57.8866 Z-11.8804
X272.2396 Y57.8633 Z-11.8408
X272.2483 Y57.854 Z-11.8165
X272.259 Y57.845 Z-11.7808
X272.2664 Y57.8388 Z-11.7437
X272.2715 Y57.8357 Z-11.6825
G0 Z5
X272.2312 Y58.1189
Z-3
G1 Z-9 F1200
Z-13.4
X272.2173 Y58.099 F3500
X272.2029 Y58.0681
X272.1946 Y58.0382
X272.191 Y58.007
X272.1921 Y57.9776
X272.1985 Y57.946
X272.2099 Y57.9147
X272.2396 Y57.8633
X272.2483 Y57.854
X272.2664 Y57.8388
X272.3119 Y57.8112
X272.3372 Y57.8014
X272.3812 Y57.7924
X272.412 Y57.7913
X272.433 Y57.7938
X272.4895 Y57.8102
X272.507 Y57.8205
X272.5564 Y57.8621
X272.5687 Y57.8771
X272.593 Y57.919
X272.6067 Y57.9712
X272.609 Y57.9967
X272.6062 Y58.0414
X272.5963 Y58.0719
X272.5726 Y58.1179
X272.5625 Y58.1318
X272.5316 Y58.1625
X272.5177 Y58.1728
X272.4766 Y58.1938
X272.4324 Y58.2079
X272.4256 Y58.2091
X272.4178 Y58.2096
X272.3732 Y58.2072
X272.3317 Y58.1983
X272.2762 Y58.169
X272.2454 Y58.1393
X272.2312 Y58.1189
X272.2173 Y58.099 Z-13.3991
X272.2029 Y58.0681 Z-13.3946
X272.1946 Y58.0382 Z-13.3871
X272.191 Y58.007 Z-13.3761
X272.1921 Y57.9776 Z-13.3622
X272.1985 Y57.946 Z-13.3423
X272.2099 Y57.9147 Z-13.3154
X272.2262 Y57.8866 Z-13.2804
X272.2396 Y57.8633 Z-13.2408
X272.2483 Y57.854 Z-13.2165
X272.259 Y57.845 Z-13.1808
X272.2664 Y57.8388 Z-13.1437
X272.2715 Y57.8357 Z-13.0825
G0 Z5
X235.6464 Y52.8152
Z-3.5827
G1 X235.6333 Y52.8082 Z-3.6787 F1200
X235.5956 Y52.7872 Z-3.7657
X235.538 Y52.7521 Z-3.8356
X235.4673 Y52.704 Z-3.8818
X235.3918 Y52.6457 Z-3.9
G3 X235.6085 Y52.7945 Z-4.2217 I0.9589 J-1.164
X235.8477 Y52.9035 Z-4.5434 I0.7422 J-1.3128
X236.1023 Y52.9692 Z-4.8651 I0.503 J-1.4218
X236.3644 Y52.9897 Z-5.1868 I0.2484 J-1.4875
X236.626 Y52.9645 Z-5.5086 I-0.0136 J-1.5081
X236.8793 Y52.8941 Z-5.8303 I-0.2753 J-1.4828
X237.1166 Y52.7809 Z-6.152 I-0.5286 J-1.4125
X237.3305 Y52.6282 Z-6.4737 I-0.7658 J-1.2992
X237.5147 Y52.4406 Z-6.7954 I-0.9798 J-1.1465
X237.6636 Y52.2239 Z-7.1171 I-1.164 J-0.9589
X237.7725 Y51.9847 Z-7.4388 I-1.3128 J-0.7422
X237.8382 Y51.7301 Z-7.7605 I-1.4218 J-0.503
X236.3507 Y49.9736 Z-8 I-1.4875 J-0.2484
G1 X236.3987 F3500
G3 X236.9272 Y50.502 J0.5285
G1 Y50.598
G3 X236.3987 Y51.1264 I-0.5285
G1 X233.4293
G3 X232.9085 Y50.5087 J-0.5285
G1 X232.9241 Y50.4157
G3 X233.4455 Y49.9736 I0.5214 J0.0863
G1 X236.3507
G2 X237.0728 Y49.3901 J-0.7386
G3 X237.9882 Y49.2357 I0.4884 J0.1049
X238.1282 Y49.7358 I-0.8232 J0.5001
G1 X238.1281 Y51.3642
G3 X237.1648 Y52.3274 I-0.9633
G1 X232.1794
G3 X231.4858 Y51.4379 J-0.7152
G2 X231.6714 Y50.5907 I-13.7151 J-3.4473
X231.8135 Y49.7351 I-21.0448 J-3.9364
G3 X232.9261 Y48.7726 I1.1126 J0.1618
G1 X237.165
G3 X237.9882 Y49.2357 J0.9632
G2 X239.3148 Y50.3936 I2.4873 J-1.5108
G3 X240.2801 Y51.8662 I-0.6404 J1.4725
G1 Y53.5162
G3 X239.3168 Y54.4795 I-0.9633
G1 X228.9292
G3 X228.4047 Y53.6394 J-0.5838
G2 X229.8189 Y47.5821 I-12.5139 J-6.1153
G3 X230.7823 Y46.6205 I0.9634 J0.0018
G1 X239.3459
G3 X240.2803 Y47.5552 J0.9345
G1 X240.2801 Y51.8662
G2 X241.2851 Y53.3268 I1.5639 J0.0001
G3 X242.2901 Y54.7875 I-0.5753 J1.4719
X242.2927 Y55.5289 I-103.6689 J0.7371
X241.3294 Y56.4922 I-0.9633
G1 X224.8765
G3 X224.5453 Y55.728 J-0.4538
G2 X226.6678 Y52.7114 I-9.6632 J-9.0538
X227.7968 Y49.2 I-10.157 J-5.203
X227.8691 Y47.3857 I-8.2569 J-1.2375
G3 X227.8064 Y45.5711 I26.1621 J-1.8116
X228.7698 Y44.6078 I0.9634 J0.0001
G1 X241.7201
G3 X242.4775 Y45.5067 J0.7685
G2 X242.1715 Y50.5139 I22.6425 J3.8967
G3 X242.2901 Y54.7875 I-103.5504 J5.0107
G2 X243.2212 Y56.4524 I1.9793 J-0.0141
G3 X242.6957 Y58.2862 I-0.5254 J0.8416
G1 X151.0865
G3 X151.0864 Y57.7132 J-0.2865
G1 X215.8977 Y57.845
G2 X222.6249 Y55.2749 I-0.0006 J-10.0909
X226.0451 Y48.9374 I-7.0766 J-7.9107
X226.1248 Y46.3566 I-10.8538 J-1.6267
G3 X226.0126 Y43.777 I29.5226 J-2.5761
X226.976 Y42.8138 I0.9634 J0.0001
G1 X244.3096
G3 X244.8763 Y43.6621 J0.6134
G2 X244.3923 Y44.9705 I16.6123 J6.8881
X244.0821 Y46.3305 I7.278 J2.3753
G1 X244.0867 Y57.323
G3 X243.1234 Y58.2862 I-0.9633
G1 X242.6957
G2 X241.4686 Y59.1043 J1.3294
G3 X240.2414 Y59.9225 I-1.2272 J-0.5113
G1 X149.8408
G3 X148.8775 Y58.9592 J-0.9632
G1 Y57.0403
G3 X149.8408 Y56.077 I0.9633
G1 X215.8976 Y56.2087
G2 X221.5571 Y54.0351 I-0.0005 J-8.456
X224.4269 Y48.6949 I-6.0103 J-6.6712
X224.5236 Y45.4169 I-13.6256 J-2.0422
G3 X224.3766 Y42.1408 I36.3298 J-3.2719
X225.3399 Y41.1775 I0.9634 J0.0001
G1 X247.4987
G3 X247.8518 Y41.9475 J0.466
G2 X246.4196 Y44.0845 I8.1298 J6.9971
X245.6553 Y46.541 I6.8331 J3.473
G1 X245.7228 Y58.9592
G3 X244.7595 Y59.9225 I-0.9633
G1 X240.2414
G2 X238.8962 Y60.8193 J1.4573
G3 X237.5509 Y61.7161 I-1.3452 J-0.5605
G1 X148.0471
G3 X147.0839 Y60.7529 J-0.9632
G1 Y55.2468
G3 X148.0471 Y54.2835 I0.9633
G1 X215.8975 Y54.4151
G2 X220.3865 Y52.6761 I-0.0004 J-6.6645
X222.6531 Y48.429 I-4.8421 J-5.3125
X222.7684 Y44.3868 I-16.6667 J-2.498
G3 X222.5831 Y40.3472 I43.8436 J-4.0345
X223.5465 Y39.3839 I0.9634 J0.0001
G1 X277.866
G3 X277.8661 Y40.8171 J0.7166
G1 X254.2027 Y40.6848
G2 X249.6731 Y42.4601 I0.001 J6.669
X247.4331 Y46.7789 I4.8803 J5.2715
G1 X247.5164 Y60.7529
G3 X246.5531 Y61.7161 I-0.9633
G1 X237.5509
G2 X235.7954 Y62.8864 J1.9018
G3 X234.0399 Y64.0568 I-1.7555 J-0.7315
G1 X145.7065
G3 X144.7432 Y63.0935 J-0.9632
G1 Y52.9063
G3 X145.7065 Y51.943 I0.9633
G1 X215.8974 Y52.0744
G2 X218.8589 Y50.9026 I-0.0003 J-4.3291
X220.3383 Y48.0821 I-3.3208 J-3.54
X220.3773 Y47.5585 I-3.4962 J-0.524
X220.31 Y42.7825 I-168.088 J-0.0196
G3 X220.2427 Y38.0065 I168.0207 J-4.7564
X221.2061 Y37.0432 I0.9634 J0.0001
G1 X280.0956
G3 X281.0588 Y38.0065 J0.9632
G1 Y42.194
G3 X280.0955 Y43.1574 I-0.9634
G1 X254.2031 Y43.0255
G2 X251.2146 Y44.2214 I0.0006 J4.3334
X249.7531 Y47.0893 I3.3449 J3.511
G1 X249.8569 Y63.0935
G3 X248.8937 Y64.0568 I-0.9633
G1 X234.0399
G2 X232.2731 Y65.2346 J1.914
G3 X230.5063 Y66.4125 I-1.7668 J-0.7362
G1 X142.3875
Y49.5874
X215.8972 Y49.583
G2 X216.0914 Y49.5647 I-0.0001 J-1.0438
G1 X216.2839 Y49.5283
G2 X216.4775 Y49.4718 I-0.1943 J-1.0255
G1 X216.67 Y49.3947
G2 X216.8299 Y49.3142 I-0.3878 J-0.969
G1 X216.9582 Y49.2351
G2 X217.0904 Y49.1385 I-0.5477 J-0.8885
G1 X217.2243 Y49.0236
G2 X217.3391 Y48.9083 I-0.6799 J-0.7919
G1 X217.4356 Y48.7949
G2 X217.5385 Y48.6509 I-0.7947 J-0.6767
G1 X217.6432 Y48.4745
G2 X217.7298 Y48.2894 I-0.8976 J-0.5326
G1 X217.7976 Y48.0975
G2 X217.8456 Y47.9047 I-0.9842 J-0.3475
G1 X217.8744 Y47.7128
G2 X217.8859 Y47.5582 I-1.0322 J-0.1547
G1 X217.8874 Y34.6875
X283.4145
Y45.5126
X254.2034 Y45.517
G2 X254.0101 Y45.5351 I0.0002 J1.0438
G1 X253.8176 Y45.5714
G2 X253.624 Y45.6277 I0.1935 J1.0257
G1 X253.4315 Y45.7046
G2 X253.2716 Y45.785 I0.3871 J0.9693
G1 X253.1433 Y45.8639
G2 X253.0142 Y45.9577 I0.547 J0.8889
G1 X252.8858 Y46.0668
G2 X252.7627 Y46.1906 I0.6761 J0.7952
G1 X252.6465 Y46.329
G2 X252.5378 Y46.4854 I0.7992 J0.6713
G1 X252.4391 Y46.6594
G2 X252.3572 Y46.8432 I0.9079 J0.515
G1 X252.293 Y47.035
G2 X252.2482 Y47.2278 I0.9898 J0.3312
G1 X252.2226 Y47.4197
G2 X252.2133 Y47.5581 I1.0345 J0.1384
G1 X252.2125 Y66.4125
X230.5063
X230.4575 Y66.4087 Z-7.9922
X230.4098 Y66.3975 Z-7.9845
X230.3687 Y66.3811 Z-7.9619
X230.3303 Y66.3592 Z-7.9394
X230.2766 Y66.3141 Z-7.8691
X230.2479 Y66.2794 Z-7.7806
X230.2392 Y66.2665 Z-7.6825
G0 Z5
X215.5225 Y59.4591
Z-5.5827
G1 X215.5094 Y59.4521 Z-5.6787 F1200
X215.4717 Y59.431 Z-5.7657
X215.414 Y59.3959 Z-5.8356
X215.3434 Y59.3478 Z-5.8818
X215.2679 Y59.2895 Z-5.9
G3 X215.4846 Y59.4383 Z-6.2217 I0.9588 J-1.1641
X215.7238 Y59.5473 Z-6.5434 I0.7421 J-1.3129
X215.9784 Y59.613 Z-6.8651 I0.5028 J-1.4218
X216.2404 Y59.6335 Z-7.1868 I0.2483 J-1.4875
X216.5021 Y59.6082 Z-7.5086 I-0.0138 J-1.5081
X216.7554 Y59.5378 Z-7.8303 I-0.2755 J-1.4828
X216.9926 Y59.4245 Z-8.152 I-0.5288 J-1.4124
X217.2066 Y59.2718 Z-8.4737 I-0.766 J-1.2991
X217.3908 Y59.0842 Z-8.7954 I-0.9799 J-1.1464
X217.5396 Y58.8675 Z-9.1171 I-1.1641 J-0.9588
X217.6485 Y58.6282 Z-9.4388 I-1.3129 J-0.7421
X217.7142 Y58.3737 Z-9.7605 I-1.4218 J-0.5028
X216.2265 Y56.6173 Z-10 I-1.4875 J-0.2483
G1 X244.2122 Y56.6144 F3500
G3 X245.1754 Y57.5777 J0.9632
G1 Y58.4122
G3 X244.2122 Y59.3755 I-0.9632
G1 X150.3878
G3 X149.4246 Y58.4122 J-0.9632
G1 Y57.5873
G3 X150.3878 Y56.624 I0.9633
G1 X216.2265 Y56.6173
G2 X217.9818 Y55.4469 I-0.0002 J-1.9017
G3 X219.737 Y54.2764 I1.7555 J0.7312
G1 X246.5529 Y54.2738
G3 X247.5161 Y55.237 J0.9632
G1 Y60.7529
G3 X246.5529 Y61.7161 I-0.9632
G1 X148.0471
G3 X147.0839 Y60.7529 J-0.9632
G1 Y55.2468
G3 X148.0471 Y54.2835 I0.9633
G1 X219.737 Y54.2764
G2 X221.4923 Y53.106 I-0.0002 J-1.9017
G3 X223.2476 Y51.9356 I1.7555 J0.7312
G1 X248.8935 Y51.9331
G3 X249.8568 Y52.8964 J0.9632
G1 Y63.0935
G3 X248.8935 Y64.0568 I-0.9632
G1 X145.7065
G3 X144.7432 Y63.0935 J-0.9632
G1 Y52.9063
G3 X145.7065 Y51.943 I0.9633
G1 X223.2476 Y51.9356
G2 X225.0161 Y50.7565 I-0.0002 J-1.9161
G3 X226.7846 Y49.5774 I1.7685 J0.7368
G1 X252.2125
Y66.4125
X142.3875
Y49.5874
X215.8972 Y49.583
X215.9274 Y49.5825
X216.1048 Y49.5774
X226.7846
X226.8335 Y49.5812 Z-9.9922
X226.8812 Y49.5924 Z-9.9845
X226.9223 Y49.6088 Z-9.9619
X226.9607 Y49.6307 Z-9.9394
X227.0144 Y49.6758 Z-9.8691
X227.0431 Y49.7105 Z-9.7806
X227.0518 Y49.7233 Z-9.6825
G0 Z5
X152.2662 Y58.7043
Z-7.5827
G1 X152.2592 Y58.7174 Z-7.6787 F1200
X152.2381 Y58.7551 Z-7.7657
X152.2031 Y58.8127 Z-7.8356
X152.155 Y58.8834 Z-7.8818
X152.0967 Y58.9589 Z-7.9
G3 X152.2455 Y58.7422 Z-8.2217 I-1.164 J-0.9589
X152.3545 Y58.503 Z-8.5434 I-1.3128 J-0.7422
X152.4202 Y58.2484 Z-8.8651 I-1.4218 J-0.503
X152.4407 Y57.9864 Z-9.1868 I-1.4875 J-0.2484
X152.4155 Y57.7247 Z-9.5086 I-1.5081 J0.0136
X152.3451 Y57.4714 Z-9.8303 I-1.4828 J0.2753
X152.2319 Y57.2341 Z-10.152 I-1.4124 J0.5286
X152.0791 Y57.0202 Z-10.4737 I-1.2992 J0.7659
X151.8916 Y56.836 Z-10.7954 I-1.1465 J0.9798
X151.6749 Y56.6872 Z-11.1171 I-0.9589 J1.164
X151.4356 Y56.5782 Z-11.4388 I-0.7422 J1.3128
X151.1811 Y56.5125 Z-11.7605 I-0.503 J1.4218
X149.4246 Y58 Z-12 I-0.2484 J1.4875
G1 Y57.5878 F3500
G3 X150.3878 Y56.6245 I0.9632
G1 X244.2122
G3 X245.1754 Y57.5878 J0.9632
G1 Y58.4122
G3 X244.2122 Y59.3755 I-0.9632
G1 X150.3878
G3 X149.4246 Y58.4122 J-0.9632
G1 Y58
G2 X148.4665 Y56.22 I-2.1326
G3 X149.0477 Y54.2839 I0.5812 J-0.8808
G1 X246.5529
G3 X247.5161 Y55.2471 J0.9632
G1 Y60.7529
G3 X246.5529 Y61.7161 I-0.9632
G1 X148.0471
G3 X147.0839 Y60.7529 J-0.9632
G1 Y55.2471
G3 X148.0471 Y54.2839 I0.9632
G1 X149.0477
G2 X150.8032 Y53.1136 J-1.9018
G3 X152.5587 Y51.9432 I1.7555 J0.7315
G1 X248.8935
G3 X249.8568 Y52.9065 J0.9632
G1 Y63.0935
G3 X248.8935 Y64.0568 I-0.9632
G1 X145.7065
G3 X144.7432 Y63.0935 J-0.9632
G1 Y52.9065
G3 X145.7065 Y51.9432 I0.9632
G1 X152.5587
G2 X154.3255 Y50.7654 J-1.914
G3 X156.0923 Y49.5875 I1.7668 J0.7362
G1 X252.2125
Y66.4125
X142.3875
Y49.5875
X156.0923
X156.1386 Y49.5944
X156.181 Y49.6146
X156.2156 Y49.6462
X156.2394 Y49.6866
X156.2504 Y49.7321
X156.2476 Y49.7789
X156.2313 Y49.8229
X153.6521 Y54.5032
X153.6329 Y54.5307
X153.6083 Y54.5536
X153.5837 Y54.5764
X153.5645 Y54.6039
X150.9097 Y59.4163
X150.8812 Y59.4536
X150.843 Y59.4809
X150.7985 Y59.4959
X150.7516 Y59.4972
G3 X151.0143 Y59.5059 Z-12.3217 I0.1811 J-1.4972 F1200
X151.2746 Y59.4689 Z-12.6434 I-0.0817 J-1.5059
X151.5245 Y59.3872 Z-12.9651 I-0.3419 J-1.4689
X151.7564 Y59.2633 Z-13.2868 I-0.5918 J-1.3872
X149.4246 Y58 Z-13.4 I-0.8237 J-1.2633
G1 Y57.5878 F3500
G3 X150.3878 Y56.6245 I0.9632
G1 X244.2122
G3 X245.1754 Y57.5878 J0.9632
G1 Y58.4122
G3 X244.2122 Y59.3755 I-0.9632
G1 X150.3878
G3 X149.4246 Y58.4122 J-0.9632
G1 Y58
G2 X148.4665 Y56.22 I-2.1326
G3 X149.0477 Y54.2839 I0.5812 J-0.8808
G1 X246.5529
G3 X247.5161 Y55.2471 J0.9632
G1 Y60.7529
G3 X246.5529 Y61.7161 I-0.9632
G1 X148.0471
G3 X147.0839 Y60.7529 J-0.9632
G1 Y55.2471
G3 X148.0471 Y54.2839 I0.9632
G1 X149.0477
G2 X150.8032 Y53.1136 J-1.9018
G3 X152.5587 Y51.9432 I1.7555 J0.7315
G1 X248.8935
G3 X249.8568 Y52.9065 J0.9632
G1 Y63.0935
G3 X248.8935 Y64.0568 I-0.9632
G1 X145.7065
G3 X144.7432 Y63.0935 J-0.9632
G1 Y52.9065
G3 X145.7065 Y51.9432 I0.9632
G1 X152.5587
G2 X154.3255 Y50.7654 J-1.914
G3 X156.0923 Y49.5875 I1.7668 J0.7362
G1 X252.2125
Y66.4125
X142.3875
Y49.5875
X156.0923
X156.1411 Y49.5913 Z-13.3922
X156.1888 Y49.6025 Z-13.3845
X156.2299 Y49.6189 Z-13.3619
X156.2683 Y49.6408 Z-13.3394
X156.322 Y49.6859 Z-13.2691
X156.3507 Y49.7206 Z-13.1806
X156.3595 Y49.7335 Z-13.0825
G0 Z5
X134.8671 Y57.805
Z-3
G1 Z-8 F1200
X134.896 Y57.8151 F3500
X134.9146 Y57.8256
X134.946 Y57.8506
X134.967 Y57.8738
X134.9776 Y57.8897
X134.9955 Y57.9283
X135.0067 Y57.9711
X135.009 Y57.9967
X135.0074 Y58.0223
X134.9965 Y58.0695
X134.9873 Y58.0917
X134.9608 Y58.1341
X134.9511 Y58.1454
X134.9353 Y58.1594
X134.8909 Y58.1873
X134.8609 Y58.1996
X134.83 Y58.2067
X134.8122 Y58.208
X134.7454 Y58.2007
X134.7272 Y58.1952
X134.681 Y58.1725
X134.6718 Y58.1661
X134.6483 Y58.1449
X134.6406 Y58.1359
X134.606 Y58.0795
X134.5946 Y58.0382
X134.591 Y58.007
X134.5921 Y57.9776
X134.5984 Y57.946
X134.6099 Y57.9147
X134.6316 Y57.8772
X134.658 Y57.8454
X134.6711 Y57.835
X134.7168 Y57.8091
X134.7476 Y57.798
X134.775 Y57.7928
X134.8113 Y57.792
X134.8446 Y57.7971
X134.8671 Y57.805
X134.896 Y57.8151 Z-7.9985
X134.9146 Y57.8256 Z-7.9957
X134.946 Y57.8506 Z-7.9863
X134.967 Y57.8738 Z-7.975
X134.9776 Y57.8897 Z-7.9662
X134.9955 Y57.9283 Z-7.9404
X135.0067 Y57.9711 Z-7.902
X135.009 Y57.9967 Z-7.8716
X135.0074 Y58.0223 Z-7.8307
X135.0028 Y58.042 Z-7.7835
X135.0001 Y58.0541 Z-7.7337
X134.9991 Y58.0581 Z-7.6825
G0 Z5
X134.7765 Y58.2041
Z-5
G1 Z-10 F1200
X134.7454 Y58.2007 F3500
X134.7272 Y58.1952
X134.681 Y58.1725
X134.6718 Y58.1661
X134.6483 Y58.1449
X134.6406 Y58.1359
X134.606 Y58.0795
X134.5946 Y58.0382
X134.591 Y58.007
X134.5921 Y57.9776
X134.5984 Y57.946
X134.6099 Y57.9147
X134.6316 Y57.8772
X134.658 Y57.8454
X134.6711 Y57.835
X134.7168 Y57.8091
X134.7476 Y57.798
X134.775 Y57.7928
X134.8113 Y57.792
X134.8446 Y57.7971
X134.896 Y57.8151
X134.9146 Y57.8256
X134.946 Y57.8506
X134.967 Y57.8738
X134.9776 Y57.8897
X134.9955 Y57.9283
X135.0067 Y57.9711
X135.009 Y57.9967
X135.0074 Y58.0223
X134.9965 Y58.0695
X134.9873 Y58.0917
X134.9608 Y58.1341
X134.9511 Y58.1454
X134.9353 Y58.1594
X134.8909 Y58.1873
X134.8609 Y58.1996
X134.83 Y58.2067
X134.8122 Y58.208
X134.7765 Y58.2041
X134.7454 Y58.2007 Z-9.9985
X134.7272 Y58.1952 Z-9.996
X134.681 Y58.1725 Z-9.9832
X134.6718 Y58.1661 Z-9.9792
X134.6483 Y58.1449 Z-9.9651
X134.6406 Y58.1359 Z-9.9588
X134.6225 Y58.1063 Z-9.936
X134.606 Y58.0795 Z-9.9088
X134.5946 Y58.0382 Z-9.8566
X134.591 Y58.007 Z-9.795
X134.5916 Y57.9916 Z-9.7397
X134.5918 Y57.9864 Z-9.6825
G0 Z5
X134.6205 Y57.8964
Z-7
G1 Z-12 F1200
X134.6316 Y57.8772 F3500
X134.658 Y57.8454
X134.6711 Y57.835
X134.7168 Y57.8091
X134.7476 Y57.798
X134.775 Y57.7928
X134.8113 Y57.792
X134.8446 Y57.7971
X134.896 Y57.8151
X134.9146 Y57.8256
X134.946 Y57.8506
X134.967 Y57.8738
X134.9776 Y57.8897
X134.9955 Y57.9283
X135.0067 Y57.9711
X135.009 Y57.9967
X135.0074 Y58.0223
X134.9965 Y58.0695
X134.9873 Y58.0917
X134.9608 Y58.1341
X134.9511 Y58.1454
X134.9353 Y58.1594
X134.8909 Y58.1873
X134.8609 Y58.1996
X134.83 Y58.2067
X134.8122 Y58.208
X134.7454 Y58.2007
X134.7272 Y58.1952
X134.681 Y58.1725
X134.6718 Y58.1661
X134.6483 Y58.1449
X134.6406 Y58.1359
X134.606 Y58.0795
X134.5946 Y58.0382
X134.591 Y58.007
X134.5921 Y57.9776
X134.5984 Y57.946
X134.6099 Y57.9147
X134.6205 Y57.8964
X134.6316 Y57.8772 Z-11.9992
X134.658 Y57.8454 Z-11.9936
X134.6711 Y57.835 Z-11.9897
X134.7168 Y57.8091 Z-11.9709
X134.7476 Y57.798 Z-11.9535
X134.775 Y57.7928 Z-11.9343
X134.8113 Y57.792 Z-11.9017
X134.8446 Y57.7971 Z-11.8599
X134.8726 Y57.8069 Z-11.8048
X134.8899 Y57.813 Z-11.7448
X134.8957 Y57.815 Z-11.6825
G0 Z5
X134.8671 Y57.805
Z-3
G1 Z-9 F1200
Z-13.4
X134.896 Y57.8151 F3500
X134.9146 Y57.8256
X134.946 Y57.8506
X134.967 Y57.8738
X134.9776 Y57.8897
X134.9955 Y57.9283
X135.0067 Y57.9711
X135.009 Y57.9967
X135.0074 Y58.0223
X134.9965 Y58.0695
X134.9873 Y58.0917
X134.9608 Y58.1341
X134.9511 Y58.1454
X134.9353 Y58.1594
X134.8909 Y58.1873
X134.8609 Y58.1996
X134.83 Y58.2067
X134.8122 Y58.208
X134.7454 Y58.2007
X134.7272 Y58.1952
X134.681 Y58.1725
X134.6718 Y58.1661
X134.6483 Y58.1449
X134.6406 Y58.1359
X134.606 Y58.0795
X134.5946 Y58.0382
X134.591 Y58.007
X134.5921 Y57.9776
X134.5984 Y57.946
X134.6099 Y57.9147
X134.6316 Y57.8772
X134.658 Y57.8454
X134.6711 Y57.835
X134.7168 Y57.8091
X134.7476 Y57.798
X134.775 Y57.7928
X134.8113 Y57.792
X134.8446 Y57.7971
X134.8671 Y57.805
X134.896 Y57.8151 Z-13.3985
X134.9146 Y57.8256 Z-13.3957
X134.946 Y57.8506 Z-13.3863
X134.967 Y57.8738 Z-13.375
X134.9776 Y57.8897 Z-13.3662
X134.9955 Y57.9283 Z-13.3404
X135.0067 Y57.9711 Z-13.302
X135.009 Y57.9967 Z-13.2716
X135.0074 Y58.0223 Z-13.2307
X135.0028 Y58.042 Z-13.1835
X135.0001 Y58.0541 Z-13.1337
X134.9991 Y58.0581 Z-13.0825
G0 Z5
X347.7043 Y40.8124
Z2.4173
G1 X347.7174 Y40.8194 Z2.3213 F1200
X347.7551 Y40.8405 Z2.2343
X347.8128 Y40.8756 Z2.1644
X347.8834 Y40.9237 Z2.1182
X347.9589 Y40.982 Z2.1
G3 X347.7422 Y40.8332 Z1.7783 I-0.9589 J1.164
X347.503 Y40.7242 Z1.4566 I-0.7422 J1.3128
X347.2484 Y40.6585 Z1.1349 I-0.503 J1.4218
X346.9864 Y40.6379 Z0.8132 I-0.2484 J1.4875
X346.7247 Y40.6632 Z0.4914 I0.0136 J1.5081
X346.4714 Y40.7335 Z0.1697 I0.2753 J1.4828
X346.2342 Y40.8468 Z-0.152 I0.5286 J1.4125
X346.0202 Y40.9995 Z-0.4737 I0.7658 J1.2992
X345.836 Y41.1871 Z-0.7954 I0.9798 J1.1465
X345.6872 Y41.4038 Z-1.1171 I1.164 J0.9589
X345.5782 Y41.643 Z-1.4388 I1.3128 J0.7422
X345.5125 Y41.8976 Z-1.7605 I1.4218 J0.503
X347 Y43.6541 Z-2 I1.4875 J0.2484
G1 X346.8744 F3500
G3 X346.3459 Y43.1257 J-0.5285
G1 Y42.8743
G3 X346.8744 Y42.3459 I0.5285
G1 X347.1257
G3 X347.6541 Y42.8743 J0.5285
G1 Y43.1257
G3 X347.1257 Y43.6541 I-0.5285
G1 X347
G2 X346.1806 Y44.3471 J0.8309
G3 X345.1266 Y44.5486 I-0.5645 J-0.095
X344.9872 Y44.0496 I0.8239 J-0.499
G1 Y41.9504
G3 X345.9504 Y40.9872 I0.9633
G1 X348.0496
G3 X349.0128 Y41.9504 J0.9632
G1 Y44.0496
G3 X348.0496 Y45.0128 I-0.9633
G1 X345.9504
G3 X345.1266 Y44.5486 J-0.9632
G2 X343.6915 Y43.295 I-2.6869 J1.6275
G3 X342.6465 Y41.7016 I0.6923 J-1.5934
G1 Y39.6098
G3 X343.6098 Y38.6465 I0.9632
G1 X350.3903
G3 X351.3535 Y39.6098 J0.9632
G1 Y46.3902
G3 X350.3903 Y47.3535 I-0.9632
G1 X343.6098
G3 X342.6465 Y46.3902 J-0.9632
G1 Y41.7016
G2 X341.4762 Y39.9461 I-1.9018
G3 X340.3059 Y38.1906 I0.7315 J-1.7555
G1 Y37.2691
G3 X341.2691 Y36.3059 I0.9632
G1 X352.7309
G3 X353.6942 Y37.2691 J0.9632
G1 Y48.7309
G3 X352.7309 Y49.6941 I-0.9632
G1 X341.2691
G3 X340.3059 Y48.7309 J-0.9632
G1 Y38.1906
G2 X338.9877 Y36.2614 I-2.0708
G3 X339.4197 Y33.9652 I0.432 J-1.1075
G1 X355.0716
G3 X356.0348 Y34.9284 J0.9632
G1 Y51.0716
G3 X355.0716 Y52.0348 I-0.9633
G1 X338.9285
G3 X337.9652 Y51.0716 J-0.9632
G1 Y34.9284
G3 X338.9285 Y33.9652 I0.9633
G1 X339.4197
G2 X341.1752 Y32.7949 J-1.9018
G3 X342.9307 Y31.6245 I1.7555 J0.7315
G1 X357.4122
G3 X358.3755 Y32.5878 J0.9632
G1 Y53.4122
G3 X357.4122 Y54.3755 I-0.9632
G1 X336.5878
G3 X335.6246 Y53.4122 J-0.9632
G1 Y32.5878
G3 X336.5878 Y31.6245 I0.9632
G1 X342.9307
G2 X344.6862 Y30.4542 J-1.9018
G3 X346.4417 Y29.2839 I1.7555 J0.7315
G1 X359.7529
G3 X360.7161 Y30.2471 J0.9632
G1 Y55.7529
G3 X359.7529 Y56.7161 I-0.9633
G1 X334.2472
G3 X333.2839 Y55.7529 J-0.9632
G1 Y30.2471
G3 X334.2472 Y29.2839 I0.9633
G1 X346.4417
G2 X348.1972 Y28.1136 J-1.9018
G3 X349.9527 Y26.9432 I1.7555 J0.7315
G1 X362.0935
G3 X363.0568 Y27.9065 J0.9632
G1 Y58.0935
G3 X362.0935 Y59.0568 I-0.9632
G1 X331.9065
G3 X330.9433 Y58.0935 J-0.9632
G1 Y27.9065
G3 X331.9065 Y26.9432 I0.9632
G1 X349.9527
G2 X351.7195 Y25.7654 J-1.914
G3 X353.4863 Y24.5875 I1.7668 J0.7362
G1 X365.4125
Y61.4125
X328.5875
Y24.5875
X353.4863
X353.5352 Y24.5913 Z-1.9922
X353.5829 Y24.6025 Z-1.9845
X353.6239 Y24.6189 Z-1.9619
X353.6624 Y24.6408 Z-1.9394
X353.716 Y24.6859 Z-1.8691
X353.7448 Y24.7206 Z-1.7806
X353.7534 Y24.7335 Z-1.6825
G0 Z5
X347.7043 Y40.8124
Z0.4173
G1 X347.7174 Y40.8194 Z0.3213 F1200
X347.7551 Y40.8405 Z0.2343
X347.8128 Y40.8756 Z0.1644
X347.8834 Y40.9237 Z0.1182
X347.9589 Y40.982 Z0.1
G3 X347.7422 Y40.8332 Z-0.2217 I-0.9589 J1.164
X347.503 Y40.7242 Z-0.5434 I-0.7422 J1.3128
X347.2484 Y40.6585 Z-0.8651 I-0.503 J1.4218
X346.9864 Y40.6379 Z-1.1868 I-0.2484 J1.4875
X346.7247 Y40.6632 Z-1.5086 I0.0136 J1.5081
X346.4714 Y40.7335 Z-1.8303 I0.2753 J1.4828
X346.2342 Y40.8468 Z-2.152 I0.5286 J1.4125
X346.0202 Y40.9995 Z-2.4737 I0.7658 J1.2992
X345.836 Y41.1871 Z-2.7954 I0.9798 J1.1465
X345.6872 Y41.4038 Z-3.1171 I1.164 J0.9589
X345.5782 Y41.643 Z-3.4388 I1.3128 J0.7422
X345.5125 Y41.8976 Z-3.7605 I1.4218 J0.503
X347 Y43.6541 Z-4 I1.4875 J0.2484
G1 X346.8744 F3500
G3 X346.3459 Y43.1257 J-0.5285
G1 Y42.8743
G3 X346.8744 Y42.3459 I0.5285
G1 X347.1257
G3 X347.6541 Y42.8743 J0.5285
G1 Y43.1257
G3 X347.1257 Y43.6541 I-0.5285
G1 X347
G2 X346.1806 Y44.3471 J0.8309
G3 X345.1266 Y44.5486 I-0.5645 J-0.095
X344.9872 Y44.0496 I0.8239 J-0.499
G1 Y41.9504
G3 X345.9504 Y40.9872 I0.9633
G1 X348.0496
G3 X349.0128 Y41.9504 J0.9632
G1 Y44.0496
G3 X348.0496 Y45.0128 I-0.9633
G1 X345.9504
G3 X345.1266 Y44.5486 J-0.9632
G2 X343.6915 Y43.295 I-2.6869 J1.6275
G3 X342.6465 Y41.7016 I0.6923 J-1.5934
G1 Y39.6098
G3 X343.6098 Y38.6465 I0.9632
G1 X350.3903
G3 X351.3535 Y39.6098 J0.9632
G1 Y46.3902
G3 X350.3903 Y47.3535 I-0.9632
G1 X343.6098
G3 X342.6465 Y46.3902 J-0.9632
G1 Y41.7016
G2 X341.4762 Y39.9461 I-1.9018
G3 X340.3059 Y38.1906 I0.7315 J-1.7555
G1 Y37.2691
G3 X341.2691 Y36.3059 I0.9632
G1 X352.7309
G3 X353.6942 Y37.2691 J0.9632
G1 Y48.7309
G3 X352.7309 Y49.6941 I-0.9632
G1 X341.2691
G3 X340.3059 Y48.7309 J-0.9632
G1 Y38.1906
G2 X338.9877 Y36.2614 I-2.0708
G3 X339.4197 Y33.9652 I0.432 J-1.1075
G1 X355.0716
G3 X356.0348 Y34.9284 J0.9632
G1 Y51.0716
G3 X355.0716 Y52.0348 I-0.9633
G1 X338.9285
G3 X337.9652 Y51.0716 J-0.9632
G1 Y34.9284
G3 X338.9285 Y33.9652 I0.9633
G1 X339.4197
G2 X341.1752 Y32.7949 J-1.9018
G3 X342.9307 Y31.6245 I1.7555 J0.7315
G1 X357.4122
G3 X358.3755 Y32.5878 J0.9632
G1 Y53.4122
G3 X357.4122 Y54.3755 I-0.9632
G1 X336.5878
G3 X335.6246 Y53.4122 J-0.9632
G1 Y32.5878
G3 X336.5878 Y31.6245 I0.9632
G1 X342.9307
G2 X344.6862 Y30.4542 J-1.9018
G3 X346.4417 Y29.2839 I1.7555 J0.7315
G1 X359.7529
G3 X360.7161 Y30.2471 J0.9632
G1 Y55.7529
G3 X359.7529 Y56.7161 I-0.9633
G1 X334.2472
G3 X333.2839 Y55.7529 J-0.9632
G1 Y30.2471
G3 X334.2472 Y29.2839 I0.9633
G1 X346.4417
G2 X348.1972 Y28.1136 J-1.9018
G3 X349.9527 Y26.9432 I1.7555 J0.7315
G1 X362.0935
G3 X363.0568 Y27.9065 J0.9632
G1 Y58.0935
G3 X362.0935 Y59.0568 I-0.9632
G1 X331.9065
G3 X330.9433 Y58.0935 J-0.9632
G1 Y27.9065
G3 X331.9065 Y26.9432 I0.9632
G1 X349.9527
G2 X351.7195 Y25.7654 J-1.914
G3 X353.4863 Y24.5875 I1.7668 J0.7362
G1 X365.4125
Y61.4125
X328.5875
Y24.5875
X353.4863
X353.5352 Y24.5913 Z-3.9922
X353.5829 Y24.6025 Z-3.9845
X353.6239 Y24.6189 Z-3.9619
X353.6624 Y24.6408 Z-3.9394
X353.716 Y24.6859 Z-3.8691
X353.7448 Y24.7206 Z-3.7806
X353.7534 Y24.7335 Z-3.6825
G0 Z5
X347.7043 Y40.8124
Z3
G1 Z-1.5827 F1200
X347.7174 Y40.8194 Z-1.6787
X347.7551 Y40.8405 Z-1.7657
X347.8128 Y40.8756 Z-1.8356
X347.8834 Y40.9237 Z-1.8818
X347.9589 Y40.982 Z-1.9
G3 X347.7422 Y40.8332 Z-2.2217 I-0.9589 J1.164
X347.503 Y40.7242 Z-2.5434 I-0.7422 J1.3128
X347.2484 Y40.6585 Z-2.8651 I-0.503 J1.4218
X346.9864 Y40.6379 Z-3.1868 I-0.2484 J1.4875
X346.7247 Y40.6632 Z-3.5086 I0.0136 J1.5081
X346.4714 Y40.7335 Z-3.8303 I0.2753 J1.4828
X346.2342 Y40.8468 Z-4.152 I0.5286 J1.4125
X346.0202 Y40.9995 Z-4.4737 I0.7658 J1.2992
X345.836 Y41.1871 Z-4.7954 I0.9798 J1.1465
X345.6872 Y41.4038 Z-5.1171 I1.164 J0.9589
X345.5782 Y41.643 Z-5.4388 I1.3128 J0.7422
X345.5125 Y41.8976 Z-5.7605 I1.4218 J0.503
X347 Y43.6541 Z-6 I1.4875 J0.2484
G1 X346.8744 F3500
G3 X346.3459 Y43.1257 J-0.5285
G1 Y42.8743
G3 X346.8744 Y42.3459 I0.5285
G1 X347.1257
G3 X347.6541 Y42.8743 J0.5285
G1 Y43.1257
G3 X347.1257 Y43.6541 I-0.5285
G1 X347
G2 X346.1806 Y44.3471 J0.8309
G3 X345.1266 Y44.5486 I-0.5645 J-0.095
X344.9872 Y44.0496 I0.8239 J-0.499
G1 Y41.9504
G3 X345.9504 Y40.9872 I0.9633
G1 X348.0496
G3 X349.0128 Y41.9504 J0.9632
G1 Y44.0496
G3 X348.0496 Y45.0128 I-0.9633
G1 X345.9504
G3 X345.1266 Y44.5486 J-0.9632
G2 X343.6915 Y43.295 I-2.6869 J1.6275
G3 X342.6465 Y41.7016 I0.6923 J-1.5934
G1 Y39.6098
G3 X343.6098 Y38.6465 I0.9632
G1 X350.3903
G3 X351.3535 Y39.6098 J0.9632
G1 Y46.3902
G3 X350.3903 Y47.3535 I-0.9632
G1 X343.6098
G3 X342.6465 Y46.3902 J-0.9632
G1 Y41.7016
G2 X341.4762 Y39.9461 I-1.9018
G3 X340.3059 Y38.1906 I0.7315 J-1.7555
G1 Y37.2691
G3 X341.2691 Y36.3059 I0.9632
G1 X352.7309
G3 X353.6942 Y37.2691 J0.9632
G1 Y48.7309
G3 X352.7309 Y49.6941 I-0.9632
G1 X341.2691
G3 X340.3059 Y48.7309 J-0.9632
G1 Y38.1906
G2 X338.9877 Y36.2614 I-2.0708
G3 X339.4197 Y33.9652 I0.432 J-1.1075
G1 X355.0716
G3 X356.0348 Y34.9284 J0.9632
G1 Y51.0716
G3 X355.0716 Y52.0348 I-0.9633
G1 X338.9285
G3 X337.9652 Y51.0716 J-0.9632
G1 Y34.9284
G3 X338.9285 Y33.9652 I0.9633
G1 X339.4197
G2 X341.1752 Y32.7949 J-1.9018
G3 X342.9307 Y31.6245 I1.7555 J0.7315
G1 X357.4122
G3 X358.3755 Y32.5878 J0.9632
G1 Y53.4122
G3 X357.4122 Y54.3755 I-0.9632
G1 X336.5878
G3 X335.6246 Y53.4122 J-0.9632
G1 Y32.5878
G3 X336.5878 Y31.6245 I0.9632
G1 X342.9307
G2 X344.6862 Y30.4542 J-1.9018
G3 X346.4417 Y29.2839 I1.7555 J0.7315
G1 X359.7529
G3 X360.7161 Y30.2471 J0.9632
G1 Y55.7529
G3 X359.7529 Y56.7161 I-0.9633
G1 X334.2472
G3 X333.2839 Y55.7529 J-0.9632
G1 Y30.2471
G3 X334.2472 Y29.2839 I0.9633
G1 X346.4417
G2 X348.1972 Y28.1136 J-1.9018
G3 X349.9527 Y26.9432 I1.7555 J0.7315
G1 X362.0935
G3 X363.0568 Y27.9065 J0.9632
G1 Y58.0935
G3 X362.0935 Y59.0568 I-0.9632
G1 X331.9065
G3 X330.9433 Y58.0935 J-0.9632
G1 Y27.9065
G3 X331.9065 Y26.9432 I0.9632
G1 X349.9527
G2 X351.7195 Y25.7654 J-1.914
G3 X353.4863 Y24.5875 I1.7668 J0.7362
G1 X365.4125
Y61.4125
X328.5875
Y24.5875
X353.4863
X353.5352 Y24.5913 Z-5.9922
X353.5829 Y24.6025 Z-5.9845
X353.6239 Y24.6189 Z-5.9619
X353.6624 Y24.6408 Z-5.9394
X353.716 Y24.6859 Z-5.8691
X353.7448 Y24.7206 Z-5.7806
X353.7534 Y24.7335 Z-5.6825
G0 Z5
X345.3481 Y42.2953
Z-3.5827
G1 X345.3551 Y42.2822 Z-3.6787 F1200
X345.3762 Y42.2445 Z-3.7657
X345.4113 Y42.1869 Z-3.8356
X345.4593 Y42.1162 Z-3.8818
X345.5176 Y42.0407 Z-3.9
G3 X345.3688 Y42.2574 Z-4.2217 I1.164 J0.9589
X345.2599 Y42.4967 Z-4.5434 I1.3128 J0.7422
X345.1941 Y42.7512 Z-4.8651 I1.4218 J0.503
X345.1736 Y43.0133 Z-5.1868 I1.4875 J0.2484
X345.1989 Y43.2749 Z-5.5086 I1.5081 J-0.0136
X345.2692 Y43.5282 Z-5.8303 I1.4828 J-0.2753
X345.3824 Y43.7655 Z-6.152 I1.4125 J-0.5286
X345.5352 Y43.9795 Z-6.4737 I1.2992 J-0.7658
X345.7227 Y44.1637 Z-6.7954 I1.1465 J-0.9798
X345.9394 Y44.3125 Z-7.1171 I0.9589 J-1.164
X346.1787 Y44.4214 Z-7.4388 I0.7422 J-1.3129
X346.4332 Y44.4872 Z-7.7605 I0.503 J-1.4218
X348.1898 Y42.9996 Z-8 I0.2484 J-1.4875
X345.8096 I-1.1901 F3500
X351.206 I2.6982
X342.7934 I-4.2063
X354.2223 I5.7144
X339.7771 I-7.2226
X357.2385 I8.7307
X336.7609 I-10.2388
X360.2548 I11.7469
X333.7446 I-13.2551
X360.2548 I13.2551
G2 X361.5389 Y45.0543 I2.2858
G3 X362.5541 Y47.2543 I-0.8392 J1.7215
G1 X362.5472 Y47.2809
X362.4065 Y47.7614
X362.2501 Y48.2418
X362.0759 Y48.7221
X361.8844 Y49.2034
X361.6756 Y49.6834
X361.4467 Y50.1637
X361.1984 Y50.6445
X360.9287 Y51.1251
X360.6374 Y51.6058
X360.3227 Y52.0856
X359.9823 Y52.5646
X359.5212 Y53.1622
X359.0394 Y53.7281
X358.5572 Y54.2457
X358.0749 Y54.7209
X357.5928 Y55.1588
X357.1111 Y55.5622
X356.632 Y55.9328
X355.9479 Y56.4151
X355.6676 Y56.598
X355.1823 Y56.8955
X354.7004 Y57.1684
X354.2186 Y57.4197
X353.7361 Y57.6511
X353.2536 Y57.8638
X352.7765 Y58.056
X351.9934 Y58.3332
X351.3227 Y58.5353
X350.8467 Y58.6602
X350.1595 Y58.813
X349.3926 Y58.947
X348.9148 Y59.0117
X348.4334 Y59.0621
X347.9514 Y59.0975
X347.4684 Y59.1188
X346.9867 Y59.126
X346.5052 Y59.1181
X346.0225 Y59.0959
X345.5401 Y59.0596
X345.0586 Y59.0087
X344.5808 Y58.943
X343.8412 Y58.8131
X343.1266 Y58.6538
X342.6507 Y58.5279
X342.0002 Y58.3313
X341.6863 Y58.225
X341.2013 Y58.0474
X340.7192 Y57.8525
X340.2385 Y57.6396
X339.6833 Y57.3707
X339.2747 Y57.1549
X338.7914 Y56.88
X338.3093 Y56.5831
X337.8268 Y56.2619
X337.3466 Y55.9171
X336.7512 Y55.4495
X336.1933 Y54.9687
X335.6841 Y54.4883
X335.2157 Y54.0077
X334.7847 Y53.5275
X334.3877 Y53.0481
X333.968 Y52.4975
X333.6782 Y52.087
X333.3638 Y51.6075
X333.0035 Y51.0078
X332.8029 Y50.6471
X332.5224 Y50.1017
X332.3261 Y49.6872
X332.0393 Y49.0178
X331.9254 Y48.7255
X331.7504 Y48.243
X331.5582 Y47.6478
X331.4534 Y47.2834
X331.3287 Y46.8001
X331.2192 Y46.3192
X331.1259 Y45.84
X331.0481 Y45.3595
X330.984 Y44.8773
X330.9342 Y44.3981
X330.9008 Y43.9185
X330.8805 Y43.4364
X330.8743 Y42.9559
X330.8827 Y42.4763
X330.906 Y41.9953
X330.9428 Y41.5138
X330.9938 Y41.0361
X331.0776 Y40.4476
X331.1419 Y40.0745
X331.238 Y39.5926
X331.3488 Y39.117
X331.5597 Y38.3478
X331.7807 Y37.6714
X332.0444 Y36.9694
X332.1502 Y36.7125
X332.3639 Y36.2297
X332.5966 Y35.7493
X332.849 Y35.2683
X333.1216 Y34.7893
X333.4901 Y34.1951
X333.7361 Y33.8289
X334.0839 Y33.346
X334.4551 Y32.8669
X334.9343 Y32.3017
X335.4165 Y31.7812
X335.8986 Y31.3043
X336.3811 Y30.8644
X336.8607 Y30.4603
X337.4867 Y29.9794
X337.8244 Y29.7397
X338.3068 Y29.4185
X338.9655 Y29.0181
X339.2685 Y28.8485
X339.8638 Y28.5392
X340.2324 Y28.3632
X340.9368 Y28.0573
X341.1979 Y27.9538
X341.6819 Y27.7766
X342.2841 Y27.5788
X342.6456 Y27.4735
X343.1303 Y27.3452
X343.6082 Y27.235
X344.316 Y27.0995
X345.0627 Y26.9909
X345.5401 Y26.9404
X346.0225 Y26.9041
X346.5052 Y26.8819
X346.9867 Y26.874
X347.4684 Y26.8812
X347.9514 Y26.9025
X348.4334 Y26.9379
X348.9103 Y26.9878
X349.6852 Y27.0997
X350.3648 Y27.229
X350.8431 Y27.3389
X351.3256 Y27.4655
X351.8081 Y27.6079
X352.2905 Y27.7668
X352.7721 Y27.9422
X353.2536 Y28.1362
X353.7361 Y28.3489
X354.2186 Y28.5803
X354.7004 Y28.8316
X355.1797 Y29.1031
X355.827 Y29.5049
X356.1442 Y29.7181
X356.6288 Y30.0648
X357.1414 Y30.462
X357.7086 Y30.9438
X358.2271 Y31.4244
X358.7014 Y31.9049
X359.1402 Y32.3859
X359.5423 Y32.8637
X360.0067 Y33.4683
X360.2613 Y33.825
X360.5803 Y34.3047
X360.9709 Y34.9469
X361.1486 Y35.2638
X361.4521 Y35.847
X361.6339 Y36.2249
X361.9348 Y36.9184
X362.0412 Y37.1866
X362.2185 Y37.669
X362.4157 Y38.2681
X362.5226 Y38.6302
X362.6501 Y39.1124
X362.7612 Y39.5894
X362.8962 Y40.2898
X363.0065 Y41.0385
X363.0573 Y41.5138
X363.094 Y41.9953
X363.1173 Y42.4763
X363.1257 Y42.9559
X363.1195 Y43.4364
X363.0992 Y43.9185
X363.0658 Y44.3981
X363.016 Y44.8773
X362.952 Y45.3595
X362.8741 Y45.84
X362.7809 Y46.3192
X362.6713 Y46.8001
X362.5541 Y47.2543
X362.5376 Y47.2946
X362.5107 Y47.3288
X362.4756 Y47.3545
X362.4349 Y47.3696
X362.3915 Y47.3732
X362.3488 Y47.3648
X359.3061 Y46.3206
X347.9168 Y42.7066
X347.8276 Y42.6707
X347.8027 Y42.6534
X347.7879 Y42.6269
X347.786 Y42.5966
X347.7975 Y42.5685
X347.8201 Y42.5482
X347.8493 Y42.5398
X347.8792 Y42.5448
X347.904 Y42.5625
X347.9186 Y42.5891
G3 X347.825 Y42.3434 Z-8.3217 I-1.4507 J0.4122 F1200
X347.6901 Y42.1178 Z-8.6434 I-1.3571 J0.6579
X347.5181 Y41.919 Z-8.9651 I-1.2222 J0.8835
X347.3142 Y41.753 Z-9.2868 I-1.0502 J1.0823
X347.0846 Y41.625 Z-9.6086 I-0.8463 J1.2483
X346.8362 Y41.5389 Z-9.9303 I-0.6167 J1.3763
X347.976 Y43.0013 Z-10 I-0.3684 J1.4624
X346.0252 I-0.9754 F3500
X350.9922 I2.4835
X343.009 I-3.9916
X354.0085 I5.4998
X339.9927 I-7.0079
X357.0247 I8.516
X336.9765 I-10.0241
X360.041 I11.5323
X333.9602 I-13.0404
X360.041 I13.0404
G2 X361.3263 Y45.0528 I2.2798
G3 X362.3325 Y47.2546 I-0.8289 J1.7096
G1 X362.3273 Y47.2742
X362.1837 Y47.7571
X362.0247 Y48.2379
X361.8488 Y48.7182
X361.6552 Y49.1982
X361.4384 Y49.6885
X361.2111 Y50.1573
X360.9566 Y50.6416
X360.6848 Y51.1183
X360.3895 Y51.5968
X359.9908 Y52.1884
X359.7219 Y52.5572
X359.346 Y53.0387
X358.9395 Y53.5184
X358.498 Y53.9989
X358.0193 Y54.4789
X357.496 Y54.9588
X356.9168 Y55.4436
X356.6238 Y55.6719
X356.1407 Y56.0245
X355.5775 Y56.4018
X355.1765 Y56.6508
X354.6942 Y56.9285
X354.2126 Y57.1837
X353.731 Y57.4184
X353.2496 Y57.6333
X352.7407 Y57.8404
X352.2864 Y58.0078
X351.8042 Y58.1691
X351.2962 Y58.3208
X350.8407 Y58.4419
X350.3593 Y58.5533
X349.8772 Y58.6495
X349.3958 Y58.7304
X348.8787 Y58.8006
X348.4327 Y58.8474
X347.9505 Y58.8833
X347.468 Y58.9049
X346.9867 Y58.9122
X346.5056 Y58.9042
X346.0234 Y58.8817
X345.5411 Y58.8448
X345.06 Y58.7936
X344.5789 Y58.7266
X344.0967 Y58.6446
X343.6144 Y58.5474
X343.133 Y58.4352
X342.6519 Y58.3063
X342.1701 Y58.161
X341.688 Y57.9987
X341.2061 Y57.8195
X340.7263 Y57.6228
X340.1429 Y57.3584
X339.7634 Y57.1715
X339.2173 Y56.8788
X338.7988 Y56.6362
X338.3187 Y56.335
X337.7084 Y55.9169
X337.3546 Y55.6552
X336.8712 Y55.2714
X336.3893 Y54.8572
X335.9079 Y54.4084
X335.4261 Y53.9188
X334.9442 Y53.3848
X334.4627 Y52.7984
X333.9812 Y52.149
X333.4948 Y51.4148
X333.3178 Y51.1228
X333.0162 Y50.5916
X332.7899 Y50.1593
X332.5345 Y49.6288
X332.3469 Y49.203
X332.0535 Y48.4571
X331.8148 Y47.7537
X331.6738 Y47.2776
X331.5479 Y46.7968
X331.437 Y46.3169
X331.3431 Y45.8381
X331.264 Y45.3571
X331.199 Y44.8757
X331.1488 Y44.3971
X331.1151 Y43.9204
X331.0902 Y43.2575
Y42.7439
X331.1205 Y41.9917
X331.1575 Y41.5153
X331.2094 Y41.0361
X331.2771 Y40.5563
X331.3594 Y40.0753
X331.4564 Y39.5957
X331.5721 Y39.106
X331.6979 Y38.6353
X331.8427 Y38.158
X332.055 Y37.5384
X332.1845 Y37.1972
X332.3824 Y36.7141
X332.5976 Y36.2346
X332.8332 Y35.7548
X333.0873 Y35.278
X333.503 Y34.572
X333.6651 Y34.318
X333.9912 Y33.8368
X334.4626 Y33.2018
X334.9442 Y32.6152
X335.4261 Y32.0813
X335.9079 Y31.5916
X336.3893 Y31.1428
X336.8712 Y30.7286
X337.3528 Y30.3462
X337.8349 Y29.9929
X338.3166 Y29.6664
X338.7964 Y29.3653
X339.3805 Y29.031
X339.7581 Y28.8312
X340.335 Y28.5514
X340.7232 Y28.3785
X341.2061 Y28.1805
X341.688 Y28.0013
X342.1701 Y27.839
X342.6519 Y27.6937
X343.133 Y27.5648
X343.6144 Y27.4526
X344.0967 Y27.3554
X344.5789 Y27.2734
X345.06 Y27.2064
X345.5397 Y27.1553
X346.1249 Y27.1121
X346.5038 Y27.0958
X346.9867 Y27.0878
X347.468 Y27.0951
X347.9505 Y27.1167
X348.4324 Y27.1526
X348.9134 Y27.2033
X349.395 Y27.2695
X349.8772 Y27.3505
X350.3567 Y27.4462
X350.9781 Y27.5935
X351.32 Y27.6858
X351.8002 Y27.8297
X352.509 Y28.0725
X353.2534 Y28.3684
X353.731 Y28.5816
X354.2126 Y28.8163
X354.6942 Y29.0715
X355.1756 Y29.3486
X355.6567 Y29.6489
X356.1628 Y29.9914
X356.8127 Y30.4738
X357.3956 Y30.9536
X357.9248 Y31.4316
X358.55 Y32.0561
X359.0294 Y32.5842
X359.5105 Y33.1679
X360.0092 Y33.8375
X360.3325 Y34.3144
X360.6323 Y34.7929
X360.9582 Y35.3611
X361.1657 Y35.7526
X361.4394 Y36.3137
X361.6151 Y36.7083
X361.9204 Y37.473
X362.1575 Y38.1596
X362.3022 Y38.6354
X362.4303 Y39.1151
X362.5436 Y39.5955
X362.6406 Y40.0753
X362.723 Y40.5563
X362.7906 Y41.0361
X362.8424 Y41.5143
X362.8836 Y42.0585
X362.9034 Y42.4759
X362.9119 Y42.9559
X362.9056 Y43.4356
X362.8834 Y43.9458
X362.8513 Y44.3968
X362.801 Y44.8757
X362.7361 Y45.3571
X362.6569 Y45.8381
X362.5636 Y46.3138
X362.4001 Y47.0024
X362.3325 Y47.2546
X362.3153 Y47.2951
X362.2876 Y47.3294
X362.2515 Y47.3548
X362.2098 Y47.3692
X362.1658 Y47.3716
X362.1228 Y47.3618
X360.168 Y46.6187
X347.9167 Y42.7021
X347.8311 Y42.6672
X347.8073 Y42.6505
X347.7932 Y42.6251
X347.7915 Y42.5961
X347.8026 Y42.5692
X347.8243 Y42.5498
X347.8523 Y42.5418
X347.8809 Y42.5467
X347.9046 Y42.5636
X347.9186 Y42.5891
G3 X347.825 Y42.3434 Z-10.3217 I-1.4507 J0.4122 F1200
X347.6901 Y42.1178 Z-10.6434 I-1.3571 J0.6579
X347.5181 Y41.919 Z-10.9651 I-1.2222 J0.8835
X347.3142 Y41.753 Z-11.2868 I-1.0502 J1.0823
X347.0846 Y41.625 Z-11.6086 I-0.8463 J1.2483
X346.8362 Y41.5389 Z-11.9303 I-0.6167 J1.3763
X347.976 Y43.0013 Z-12 I-0.3684 J1.4624
X346.0252 I-0.9754 F3500
X350.9922 I2.4835
X343.009 I-3.9916
X354.0085 I5.4998
X339.9927 I-7.0079
X357.0247 I8.516
X336.9765 I-10.0241
X360.041 I11.5323
X333.9602 I-13.0404
X360.041 I13.0404
G2 X361.3263 Y45.0528 I2.2798
G3 X362.3325 Y47.2546 I-0.8289 J1.7096
G1 X362.3273 Y47.2742
X362.1837 Y47.7571
X362.0247 Y48.2379
X361.8488 Y48.7182
X361.6552 Y49.1982
X361.4384 Y49.6885
X361.2111 Y50.1573
X360.9566 Y50.6416
X360.6848 Y51.1183
X360.3895 Y51.5968
X359.9908 Y52.1884
X359.7219 Y52.5572
X359.346 Y53.0387
X358.9395 Y53.5184
X358.498 Y53.9989
X358.0193 Y54.4789
X357.496 Y54.9588
X356.9168 Y55.4436
X356.6238 Y55.6719
X356.1407 Y56.0245
X355.5775 Y56.4018
X355.1765 Y56.6508
X354.6942 Y56.9285
X354.2126 Y57.1837
X353.731 Y57.4184
X353.2496 Y57.6333
X352.7407 Y57.8404
X352.2864 Y58.0078
X351.8042 Y58.1691
X351.2962 Y58.3208
X350.8407 Y58.4419
X350.3593 Y58.5533
X349.8772 Y58.6495
X349.3958 Y58.7304
X348.8787 Y58.8006
X348.4327 Y58.8474
X347.9505 Y58.8833
X347.468 Y58.9049
X346.9867 Y58.9122
X346.5056 Y58.9042
X346.0234 Y58.8817
X345.5411 Y58.8448
X345.06 Y58.7936
X344.5789 Y58.7266
X344.0967 Y58.6446
X343.6144 Y58.5474
X343.133 Y58.4352
X342.6519 Y58.3063
X342.1701 Y58.161
X341.688 Y57.9987
X341.2061 Y57.8195
X340.7263 Y57.6228
X340.1429 Y57.3584
X339.7634 Y57.1715
X339.2173 Y56.8788
X338.7988 Y56.6362
X338.3187 Y56.335
X337.7084 Y55.9169
X337.3546 Y55.6552
X336.8712 Y55.2714
X336.3893 Y54.8572
X335.9079 Y54.4084
X335.4261 Y53.9188
X334.9442 Y53.3848
X334.4627 Y52.7984
X333.9812 Y52.149
X333.4948 Y51.4148
X333.3178 Y51.1228
X333.0162 Y50.5916
X332.7899 Y50.1593
X332.5345 Y49.6288
X332.3469 Y49.203
X332.0535 Y48.4571
X331.8148 Y47.7537
X331.6738 Y47.2776
X331.5479 Y46.7968
X331.437 Y46.3169
X331.3431 Y45.8381
X331.264 Y45.3571
X331.199 Y44.8757
X331.1488 Y44.3971
X331.1151 Y43.9204
X331.0902 Y43.2575
Y42.7439
X331.1205 Y41.9917
X331.1575 Y41.5153
X331.2094 Y41.0361
X331.2771 Y40.5563
X331.3594 Y40.0753
X331.4564 Y39.5957
X331.5721 Y39.106
X331.6979 Y38.6353
X331.8427 Y38.158
X332.055 Y37.5384
X332.1845 Y37.1972
X332.3824 Y36.7141
X332.5976 Y36.2346
X332.8332 Y35.7548
X333.0873 Y35.278
X333.503 Y34.572
X333.6651 Y34.318
X333.9912 Y33.8368
X334.4626 Y33.2018
X334.9442 Y32.6152
X335.4261 Y32.0813
X335.9079 Y31.5916
X336.3893 Y31.1428
X336.8712 Y30.7286
X337.3528 Y30.3462
X337.8349 Y29.9929
X338.3166 Y29.6664
X338.7964 Y29.3653
X339.3805 Y29.031
X339.7581 Y28.8312
X340.335 Y28.5514
X340.7232 Y28.3785
X341.2061 Y28.1805
X341.688 Y28.0013
X342.1701 Y27.839
X342.6519 Y27.6937
X343.133 Y27.5648
X343.6144 Y27.4526
X344.0967 Y27.3554
X344.5789 Y27.2734
X345.06 Y27.2064
X345.5397 Y27.1553
X346.1249 Y27.1121
X346.5038 Y27.0958
X346.9867 Y27.0878
X347.468 Y27.0951
X347.9505 Y27.1167
X348.4324 Y27.1526
X348.9134 Y27.2033
X349.395 Y27.2695
X349.8772 Y27.3505
X350.3567 Y27.4462
X350.9781 Y27.5935
X351.32 Y27.6858
X351.8002 Y27.8297
X352.509 Y28.0725
X353.2534 Y28.3684
X353.731 Y28.5816
X354.2126 Y28.8163
X354.6942 Y29.0715
X355.1756 Y29.3486
X355.6567 Y29.6489
X356.1628 Y29.9914
X356.8127 Y30.4738
X357.3956 Y30.9536
X357.9248 Y31.4316
X358.55 Y32.0561
X359.0294 Y32.5842
X359.5105 Y33.1679
X360.0092 Y33.8375
X360.3325 Y34.3144
X360.6323 Y34.7929
X360.9582 Y35.3611
X361.1657 Y35.7526
X361.4394 Y36.3137
X361.6151 Y36.7083
X361.9204 Y37.473
X362.1575 Y38.1596
X362.3022 Y38.6354
X362.4303 Y39.1151
X362.5436 Y39.5955
X362.6406 Y40.0753
X362.723 Y40.5563
X362.7906 Y41.0361
X362.8424 Y41.5143
X362.8836 Y42.0585
X362.9034 Y42.4759
X362.9119 Y42.9559
X362.9056 Y43.4356
X362.8834 Y43.9458
X362.8513 Y44.3968
X362.801 Y44.8757
X362.7361 Y45.3571
X362.6569 Y45.8381
X362.5636 Y46.3138
X362.4001 Y47.0024
X362.3325 Y47.2546
X362.3162 Y47.3008 Z-11.9922
X362.293 Y47.3439 Z-11.9845
X362.2666 Y47.3794 Z-11.9619
X362.2355 Y47.4108 Z-11.9394
X362.178 Y47.451 Z-11.8691
X362.137 Y47.4697 Z-11.7806
X362.1223 Y47.4748 Z-11.6825
G0 Z5
X345.3025 Y43.9586
Z-9.5827
G1 X345.2931 Y43.9471 Z-9.6787 F1200
X345.2665 Y43.913 Z-9.7657
X345.227 Y43.8584 Z-9.8356
X345.1804 Y43.7867 Z-9.8818
X345.1333 Y43.7037 Z-9.9
G3 X345.2756 Y43.9248 Z-10.2217 I1.3345 J-0.7024
X345.4541 Y44.1178 Z-10.5434 I1.1923 J-0.9235
X345.6633 Y44.2769 Z-10.8651 I1.0138 J-1.1165
X345.8971 Y44.3972 Z-11.1868 I0.8045 J-1.2756
X346.1481 Y44.4751 Z-11.5086 I0.5708 J-1.3959
X346.4089 Y44.5083 Z-11.8303 I0.3197 J-1.4738
X346.6715 Y44.4956 Z-12.152 I0.0589 J-1.507
X346.9279 Y44.4376 Z-12.4737 I-0.2036 J-1.4943
X347.1703 Y44.3358 Z-12.7954 I-0.46 J-1.4362
X347.3914 Y44.1936 Z-13.1171 I-0.7024 J-1.3345
X347.976 Y43.0013 Z-13.4 I-0.9235 J-1.1923
X346.0252 I-0.9754 F3500
X350.9922 I2.4835
X343.009 I-3.9916
X354.0085 I5.4998
X339.9927 I-7.0079
X357.0247 I8.516
X336.9765 I-10.0241
X360.041 I11.5323
X333.9602 I-13.0404
X360.041 I13.0404
G2 X361.3263 Y45.0528 I2.2798
G3 X362.3325 Y47.2546 I-0.8289 J1.7096
G1 X362.3273 Y47.2742
X362.1837 Y47.7571
X362.0247 Y48.2379
X361.8488 Y48.7182
X361.6552 Y49.1982
X361.4384 Y49.6885
X361.2111 Y50.1573
X360.9566 Y50.6416
X360.6848 Y51.1183
X360.3895 Y51.5968
X359.9908 Y52.1884
X359.7219 Y52.5572
X359.346 Y53.0387
X358.9395 Y53.5184
X358.498 Y53.9989
X358.0193 Y54.4789
X357.496 Y54.9588
X356.9168 Y55.4436
X356.6238 Y55.6719
X356.1407 Y56.0245
X355.5775 Y56.4018
X355.1765 Y56.6508
X354.6942 Y56.9285
X354.2126 Y57.1837
X353.731 Y57.4184
X353.2496 Y57.6333
X352.7407 Y57.8404
X352.2864 Y58.0078
X351.8042 Y58.1691
X351.2962 Y58.3208
X350.8407 Y58.4419
X350.3593 Y58.5533
X349.8772 Y58.6495
X349.3958 Y58.7304
X348.8787 Y58.8006
X348.4327 Y58.8474
X347.9505 Y58.8833
X347.468 Y58.9049
X346.9867 Y58.9122
X346.5056 Y58.9042
X346.0234 Y58.8817
X345.5411 Y58.8448
X345.06 Y58.7936
X344.5789 Y58.7266
X344.0967 Y58.6446
X343.6144 Y58.5474
X343.133 Y58.4352
X342.6519 Y58.3063
X342.1701 Y58.161
X341.688 Y57.9987
X341.2061 Y57.8195
X340.7263 Y57.6228
X340.1429 Y57.3584
X339.7634 Y57.1715
X339.2173 Y56.8788
X338.7988 Y56.6362
X338.3187 Y56.335
X337.7084 Y55.9169
X337.3546 Y55.6552
X336.8712 Y55.2714
X336.3893 Y54.8572
X335.9079 Y54.4084
X335.4261 Y53.9188
X334.9442 Y53.3848
X334.4627 Y52.7984
X333.9812 Y52.149
X333.4948 Y51.4148
X333.3178 Y51.1228
X333.0162 Y50.5916
X332.7899 Y50.1593
X332.5345 Y49.6288
X332.3469 Y49.203
X332.0535 Y48.4571
X331.8148 Y47.7537
X331.6738 Y47.2776
X331.5479 Y46.7968
X331.437 Y46.3169
X331.3431 Y45.8381
X331.264 Y45.3571
X331.199 Y44.8757
X331.1488 Y44.3971
X331.1151 Y43.9204
X331.0902 Y43.2575
Y42.7439
X331.1205 Y41.9917
X331.1575 Y41.5153
X331.2094 Y41.0361
X331.2771 Y40.5563
X331.3594 Y40.0753
X331.4564 Y39.5957
X331.5721 Y39.106
X331.6979 Y38.6353
X331.8427 Y38.158
X332.055 Y37.5384
X332.1845 Y37.1972
X332.3824 Y36.7141
X332.5976 Y36.2346
X332.8332 Y35.7548
X333.0873 Y35.278
X333.503 Y34.572
X333.6651 Y34.318
X333.9912 Y33.8368
X334.4626 Y33.2018
X334.9442 Y32.6152
X335.4261 Y32.0813
X335.9079 Y31.5916
X336.3893 Y31.1428
X336.8712 Y30.7286
X337.3528 Y30.3462
X337.8349 Y29.9929
X338.3166 Y29.6664
X338.7964 Y29.3653
X339.3805 Y29.031
X339.7581 Y28.8312
X340.335 Y28.5514
X340.7232 Y28.3785
X341.2061 Y28.1805
X341.688 Y28.0013
X342.1701 Y27.839
X342.6519 Y27.6937
X343.133 Y27.5648
X343.6144 Y27.4526
X344.0967 Y27.3554
X344.5789 Y27.2734
X345.06 Y27.2064
X345.5397 Y27.1553
X346.1249 Y27.1121
X346.5038 Y27.0958
X346.9867 Y27.0878
X347.468 Y27.0951
X347.9505 Y27.1167
X348.4324 Y27.1526
X348.9134 Y27.2033
X349.395 Y27.2695
X349.8772 Y27.3505
X350.3567 Y27.4462
X350.9781 Y27.5935
X351.32 Y27.6858
X351.8002 Y27.8297
X352.509 Y28.0725
X353.2534 Y28.3684
X353.731 Y28.5816
X354.2126 Y28.8163
X354.6942 Y29.0715
X355.1756 Y29.3486
X355.6567 Y29.6489
X356.1628 Y29.9914
X356.8127 Y30.4738
X357.3956 Y30.9536
X357.9248 Y31.4316
X358.55 Y32.0561
X359.0294 Y32.5842
X359.5105 Y33.1679
X360.0092 Y33.8375
X360.3325 Y34.3144
X360.6323 Y34.7929
X360.9582 Y35.3611
X361.1657 Y35.7526
X361.4394 Y36.3137
X361.6151 Y36.7083
X361.9204 Y37.473
X362.1575 Y38.1596
X362.3022 Y38.6354
X362.4303 Y39.1151
X362.5436 Y39.5955
X362.6406 Y40.0753
X362.723 Y40.5563
X362.7906 Y41.0361
X362.8424 Y41.5143
X362.8836 Y42.0585
X362.9034 Y42.4759
X362.9119 Y42.9559
X362.9056 Y43.4356
X362.8834 Y43.9458
X362.8513 Y44.3968
X362.801 Y44.8757
X362.7361 Y45.3571
X362.6569 Y45.8381
X362.5636 Y46.3138
X362.4001 Y47.0024
X362.3325 Y47.2546
X362.3162 Y47.3008 Z-13.3922
X362.293 Y47.3439 Z-13.3845
X362.2666 Y47.3794 Z-13.3619
X362.2355 Y47.4108 Z-13.3394
X362.178 Y47.451 Z-13.2691
X362.137 Y47.4697 Z-13.1806
X362.1223 Y47.4748 Z-13.0825
G0 Z5
X379.6731 Y62.7043
Z2.4173
G1 X379.6661 Y62.7174 Z2.3213 F1200
X379.645 Y62.7551 Z2.2343
X379.6099 Y62.8127 Z2.1644
X379.5618 Y62.8834 Z2.1182
X379.5035 Y62.9589 Z2.1
G3 X379.6524 Y62.7422 Z1.7783 I-1.164 J-0.9589
X379.7613 Y62.5029 Z1.4566 I-1.3129 J-0.7422
X379.827 Y62.2484 Z1.1349 I-1.4218 J-0.503
X379.8476 Y61.9863 Z0.8132 I-1.4875 J-0.2484
X379.8223 Y61.7247 Z0.4914 I-1.5081 J0.0137
X379.752 Y61.4714 Z0.1697 I-1.4828 J0.2753
X379.6387 Y61.2341 Z-0.152 I-1.4124 J0.5286
X379.486 Y61.0202 Z-0.4737 I-1.2992 J0.7659
X379.2984 Y60.836 Z-0.7954 I-1.1465 J0.9798
X379.0817 Y60.6871 Z-1.1171 I-0.9589 J1.164
X378.8425 Y60.5782 Z-1.4388 I-0.7422 J1.3128
X378.5879 Y60.5125 Z-1.7605 I-0.503 J1.4218
X376.8314 Y62 Z-2 I-0.2484 J1.4875
G1 Y54.1594 F3500
G3 X378.1687 I0.6686
G1 Y62.1402
G3 X377.6402 Y62.6686 I-0.5285
G1 X377.3599
G3 X376.8314 Y62.1402 J-0.5285
G1 Y62
G2 X376.1373 Y60.9589 I-1.1279
G3 X375.4433 Y59.9178 I0.4338 J-1.0411
G1 Y52.9065
G3 X376.4065 Y51.9432 I0.9632
G1 X378.5936
G3 X379.5568 Y52.9065 J0.9632
G1 Y63.0935
G3 X378.5936 Y64.0568 I-0.9632
G1 X376.4065
G3 X375.4433 Y63.0935 J-0.9632
G1 Y59.9178
G2 X374.2654 Y58.151 I-1.9141
G3 X373.0875 Y56.3842 I0.7362 J-1.7668
G1 Y49.5875
X381.9125
Y66.4125
X373.0875
Y56.3842
X373.0944 Y56.3378
X373.1146 Y56.2955
X373.1462 Y56.261
X373.1865 Y56.2371
X373.232 Y56.2261
X373.2787 Y56.2288
X373.3227 Y56.245
X373.36 Y56.2734
X373.3873 Y56.3114
X376.595 Y62.5284
X376.6222 Y62.5662
X376.6592 Y62.5945
X376.7027 Y62.6108
X376.7492 Y62.6138
X376.7945 Y62.6032
X376.8348 Y62.58
X376.8666 Y62.546
X376.8872 Y62.5043
X376.8948 Y62.4584
X376.8888 Y62.4122
G3 X376.9824 Y62.6579 Z-2.3217 I1.4507 J-0.4122 F1200
X377.1173 Y62.8835 Z-2.6434 I1.3571 J-0.6579
X377.2893 Y63.0823 Z-2.9651 I1.2222 J-0.8835
X377.4932 Y63.2482 Z-3.2868 I1.0502 J-1.0823
X377.7228 Y63.3762 Z-3.6086 I0.8463 J-1.2483
X377.9712 Y63.4624 Z-3.9303 I0.6167 J-1.3763
X376.8314 Y62 Z-4 I0.3683 J-1.4624
G1 Y54.1594 F3500
G3 X378.1687 I0.6686
G1 Y62.1402
G3 X377.6402 Y62.6686 I-0.5285
G1 X377.3599
G3 X376.8314 Y62.1402 J-0.5285
G1 Y62
G2 X376.1373 Y60.9589 I-1.1279
G3 X375.4433 Y59.9178 I0.4338 J-1.0411
G1 Y52.9065
G3 X376.4065 Y51.9432 I0.9632
G1 X378.5936
G3 X379.5568 Y52.9065 J0.9632
G1 Y63.0935
G3 X378.5936 Y64.0568 I-0.9632
G1 X376.4065
G3 X375.4433 Y63.0935 J-0.9632
G1 Y59.9178
G2 X374.2654 Y58.151 I-1.9141
G3 X373.0875 Y56.3842 I0.7362 J-1.7668
G1 Y49.5875
X381.9125
Y66.4125
X373.0875
Y56.3842
X373.0944 Y56.3378
X373.1146 Y56.2955
X373.1462 Y56.261
X373.1865 Y56.2371
X373.232 Y56.2261
X373.2787 Y56.2288
X373.3227 Y56.245
X373.36 Y56.2734
X373.3873 Y56.3114
X376.595 Y62.5284
X376.6222 Y62.5662
X376.6592 Y62.5945
X376.7027 Y62.6108
X376.7492 Y62.6138
X376.7945 Y62.6032
X376.8348 Y62.58
X376.8666 Y62.546
X376.8872 Y62.5043
X376.8948 Y62.4584
X376.8888 Y62.4122
G3 X376.9824 Y62.6579 Z-4.3217 I1.4507 J-0.4122 F1200
X377.1173 Y62.8835 Z-4.6434 I1.3571 J-0.6579
X377.2893 Y63.0823 Z-4.9651 I1.2222 J-0.8835
X377.4932 Y63.2482 Z-5.2868 I1.0502 J-1.0823
X377.7228 Y63.3762 Z-5.6086 I0.8463 J-1.2483
X377.9712 Y63.4624 Z-5.9303 I0.6167 J-1.3763
X376.8314 Y62 Z-6 I0.3683 J-1.4624
G1 Y54.1594 F3500
G3 X378.1687 I0.6686
G1 Y62.1402
G3 X377.6402 Y62.6686 I-0.5285
G1 X377.3599
G3 X376.8314 Y62.1402 J-0.5285
G1 Y62
G2 X376.1373 Y60.9589 I-1.1279
G3 X375.4433 Y59.9178 I0.4338 J-1.0411
G1 Y52.9065
G3 X376.4065 Y51.9432 I0.9632
G1 X378.5936
G3 X379.5568 Y52.9065 J0.9632
G1 Y63.0935
G3 X378.5936 Y64.0568 I-0.9632
G1 X376.4065
G3 X375.4433 Y63.0935 J-0.9632
G1 Y59.9178
G2 X374.2654 Y58.151 I-1.9141
G3 X373.0875 Y56.3842 I0.7362 J-1.7668
G1 Y49.5875
X381.9125
Y66.4125
X373.0875
Y56.3842
X373.0913 Y56.3353 Z-5.9922
X373.1025 Y56.2876 Z-5.9845
X373.1189 Y56.2465 Z-5.9619
X373.1408 Y56.2081 Z-5.9394
X373.1859 Y56.1544 Z-5.8691
X373.2206 Y56.1257 Z-5.7806
X373.2335 Y56.117 Z-5.6825
G0 Z5
X377.7003 Y57.9547
Z-3
G1 Z-8 F1200
X377.7084 Y57.9905 F3500
X377.709 Y58.007
X377.7054 Y58.0382
X377.6972 Y58.068
X377.6827 Y58.0991
X377.656 Y58.1374
X377.6345 Y58.1586
X377.5968 Y58.184
X377.5658 Y58.1979
X377.5357 Y58.2058
X377.5044 Y58.2089
X377.4735 Y58.2073
X377.4319 Y58.1984
X377.3874 Y58.175
X377.3505 Y58.1466
X377.3173 Y58.099
X377.3027 Y58.0677
X377.2943 Y58.0374
X377.2895 Y57.998
X377.2922 Y57.9724
X377.3012 Y57.9364
X377.3175 Y57.8989
X377.3334 Y57.8741
X377.3508 Y57.8545
X377.3914 Y57.8227
X377.4214 Y57.8069
X377.45 Y57.7972
X377.4937 Y57.79
X377.532 Y57.7928
X377.551 Y57.7969
X377.5865 Y57.8105
X377.6325 Y57.8377
X377.6432 Y57.8465
X377.6557 Y57.8602
X377.6853 Y57.9052
X377.6935 Y57.9241
X377.7003 Y57.9547
X377.7084 Y57.9905 Z-7.9979
X377.709 Y58.007 Z-7.9955
X377.7054 Y58.0382 Z-7.9885
X377.6972 Y58.068 Z-7.9782
X377.6827 Y58.0991 Z-7.9624
X377.656 Y58.1374 Z-7.9319
X377.6345 Y58.1586 Z-7.9048
X377.6142 Y58.1723 Z-7.8767
X377.5968 Y58.184 Z-7.846
X377.5789 Y58.1921 Z-7.8075
X377.5658 Y58.1979 Z-7.7668
X377.5576 Y58.2 Z-7.725
X377.5548 Y58.2008 Z-7.6825
G0 Z5
X377.3722 Y57.8377
Z-5
G1 Z-10 F1200
X377.3914 Y57.8227 F3500
X377.4214 Y57.8069
X377.45 Y57.7972
X377.4937 Y57.79
X377.532 Y57.7928
X377.551 Y57.7969
X377.5865 Y57.8105
X377.6325 Y57.8377
X377.6432 Y57.8465
X377.6557 Y57.8602
X377.6853 Y57.9052
X377.6935 Y57.9241
X377.7084 Y57.9905
X377.709 Y58.007
X377.7054 Y58.0382
X377.6972 Y58.068
X377.6827 Y58.0991
X377.656 Y58.1374
X377.6345 Y58.1586
X377.5968 Y58.184
X377.5658 Y58.1979
X377.5357 Y58.2058
X377.5044 Y58.2089
X377.4735 Y58.2073
X377.4319 Y58.1984
X377.3874 Y58.175
X377.3505 Y58.1466
X377.3173 Y58.099
X377.3027 Y58.0677
X377.2943 Y58.0374
X377.2895 Y57.998
X377.2922 Y57.9724
X377.3012 Y57.9364
X377.3175 Y57.8989
X377.3334 Y57.8741
X377.3508 Y57.8545
X377.3722 Y57.8377
X377.3914 Y57.8227 Z-9.9991
X377.4214 Y57.8069 Z-9.9946
X377.45 Y57.7972 Z-9.9874
X377.4937 Y57.79 Z-9.9709
X377.532 Y57.7928 Z-9.9499
X377.551 Y57.7969 Z-9.9364
X377.5865 Y57.8105 Z-9.9028
X377.6118 Y57.8255 Z-9.8675
X377.6325 Y57.8377 Z-9.8283
X377.6432 Y57.8465 Z-9.7976
X377.6508 Y57.8549 Z-9.7626
X377.6557 Y57.8602 Z-9.7265
X377.6573 Y57.8627 Z-9.6825
G0 Z5
X377.7003 Y57.9547
Z-7
G1 Z-12 F1200
X377.7084 Y57.9905 F3500
X377.709 Y58.007
X377.7054 Y58.0382
X377.6972 Y58.068
X377.6827 Y58.0991
X377.656 Y58.1374
X377.6345 Y58.1586
X377.5968 Y58.184
X377.5658 Y58.1979
X377.5357 Y58.2058
X377.5044 Y58.2089
X377.4735 Y58.2073
X377.4319 Y58.1984
X377.3874 Y58.175
X377.3505 Y58.1466
X377.3173 Y58.099
X377.3027 Y58.0677
X377.2943 Y58.0374
X377.2895 Y57.998
X377.2922 Y57.9724
X377.3012 Y57.9364
X377.3175 Y57.8989
X377.3334 Y57.8741
X377.3508 Y57.8545
X377.3914 Y57.8227
X377.4214 Y57.8069
X377.45 Y57.7972
X377.4937 Y57.79
X377.532 Y57.7928
X377.551 Y57.7969
X377.5865 Y57.8105
X377.6325 Y57.8377
X377.6432 Y57.8465
X377.6557 Y57.8602
X377.6853 Y57.9052
X377.6935 Y57.9241
X377.7003 Y57.9547
X377.7084 Y57.9905 Z-11.9979
X377.709 Y58.007 Z-11.9955
X377.7054 Y58.0382 Z-11.9885
X377.6972 Y58.068 Z-11.9782
X377.6827 Y58.0991 Z-11.9624
X377.656 Y58.1374 Z-11.9319
X377.6345 Y58.1586 Z-11.9048
X377.6142 Y58.1723 Z-11.8767
X377.5968 Y58.184 Z-11.846
X377.5789 Y58.1921 Z-11.8075
X377.5658 Y58.1979 Z-11.7668
X377.5576 Y58.2 Z-11.725
X377.5548 Y58.2008 Z-11.6825
G0 Z5
X377.3722 Y57.8377
Z-3
G1 Z-9 F1200
Z-13.4
X377.3914 Y57.8227 F3500
X377.4214 Y57.8069
X377.45 Y57.7972
X377.4937 Y57.79
X377.532 Y57.7928
X377.551 Y57.7969
X377.5865 Y57.8105
X377.6325 Y57.8377
X377.6432 Y57.8465
X377.6557 Y57.8602
X377.6853 Y57.9052
X377.6935 Y57.9241
X377.7084 Y57.9905
X377.709 Y58.007
X377.7054 Y58.0382
X377.6972 Y58.068
X377.6827 Y58.0991
X377.656 Y58.1374
X377.6345 Y58.1586
X377.5968 Y58.184
X377.5658 Y58.1979
X377.5357 Y58.2058
X377.5044 Y58.2089
X377.4735 Y58.2073
X377.4319 Y58.1984
X377.3874 Y58.175
X377.3505 Y58.1466
X377.3173 Y58.099
X377.3027 Y58.0677
X377.2943 Y58.0374
X377.2895 Y57.998
X377.2922 Y57.9724
X377.3012 Y57.9364
X377.3175 Y57.8989
X377.3334 Y57.8741
X377.3508 Y57.8545
X377.3722 Y57.8377
X377.3914 Y57.8227 Z-13.3991
X377.4214 Y57.8069 Z-13.3946
X377.45 Y57.7972 Z-13.3874
X377.4937 Y57.79 Z-13.3709
X377.532 Y57.7928 Z-13.3499
X377.551 Y57.7969 Z-13.3364
X377.5865 Y57.8105 Z-13.3028
X377.6118 Y57.8255 Z-13.2675
X377.6325 Y57.8377 Z-13.2283
X377.6432 Y57.8465 Z-13.1976
X377.6508 Y57.8549 Z-13.1626
X377.6557 Y57.8602 Z-13.1265
X377.6573 Y57.8627 Z-13.0825
G0 Z5
X395.7178 Y80.756
Z2.4173
G1 X395.7035 Y80.76 Z2.3213 F1200
X395.6618 Y80.7711 Z2.2343
X395.596 Y80.786 Z2.1644
X395.5118 Y80.8006 Z2.1182
X395.417 Y80.8112 Z2.1
G3 X395.6762 Y80.7674 Z1.7783 I-0.1207 J-1.5033
X395.9238 Y80.6793 Z1.4566 I-0.3799 J-1.4595
X396.1524 Y80.5495 Z1.1349 I-0.6276 J-1.3713
X396.355 Y80.382 Z0.8132 I-0.8562 J-1.2415
X396.5254 Y80.1818 Z0.4914 I-1.0588 J-1.074
X396.6585 Y79.9551 Z0.1697 I-1.2292 J-0.8738
X396.7502 Y79.7087 Z-0.152 I-1.3622 J-0.6471
X396.7977 Y79.4501 Z-0.4737 I-1.4539 J-0.4007
X396.7996 Y79.1873 Z-0.7954 I-1.5014 J-0.1422
X396.7558 Y78.928 Z-1.1171 I-1.5033 J0.1207
X396.6676 Y78.6804 Z-1.4388 I-1.4595 J0.3799
X396.5378 Y78.4518 Z-1.7605 I-1.3714 J0.6276
X394.2473 Y78.2244 Z-2 I-1.2415 J0.8562
G2 X394.6684 Y77.791 I-6.8721 J-7.0983 F3500
X395.0822 Y77.2783 I-3.9643 J-3.6227
G1 X395.4741 Y76.7266
G3 X396.1854 Y76.9536 I0.3195 J0.227
G1 X396.1853 Y79.225
G3 X395.222 Y80.1883 I-0.9633
G1 X392.9554 Y80.1882
G3 X392.7248 Y79.475 J-0.3939
G2 X393.7397 Y78.6828 I-10.1285 J-14.0229
X394.2473 Y78.2244 I-6.3646 J-7.5567
G1 X394.2843 Y78.1924 Z-1.9922
X394.3259 Y78.1664 Z-1.9845
X394.3664 Y78.1487 Z-1.9619
X394.409 Y78.1368 Z-1.9394
X394.4788 Y78.1304 Z-1.8691
X394.5237 Y78.1344 Z-1.7806
X394.5389 Y78.1373 Z-1.6825
G0 Z5
X396.7544 Y10.2822
Z2.4173
G1 X396.7585 Y10.2964 Z2.3213 F1200
X396.7696 Y10.3382 Z2.2343
X396.7845 Y10.404 Z2.1644
X396.7992 Y10.4882 Z2.1182
X396.8098 Y10.583 Z2.1
G3 X396.7659 Y10.3238 Z1.7783 I-1.5032 J0.1214
X396.6777 Y10.0762 Z1.4566 I-1.4593 J0.3806
X396.5477 Y9.8476 Z1.1349 I-1.371 J0.6282
X396.3801 Y9.6451 Z0.8132 I-1.2411 J0.8568
X396.1799 Y9.4748 Z0.4914 I-1.0735 J1.0593
X395.9531 Y9.3419 Z0.1697 I-0.8732 J1.2296
X395.7066 Y9.2503 Z-0.152 I-0.6465 J1.3625
X395.4481 Y9.2029 Z-0.4737 I-0.4 J1.4541
X395.1852 Y9.2012 Z-0.7954 I-0.1415 J1.5015
X394.926 Y9.2451 Z-1.1171 I0.1214 J1.5032
X394.6784 Y9.3334 Z-1.4388 I0.3806 J1.4593
X394.4498 Y9.4633 Z-1.7605 I0.6282 J1.371
X394.2236 Y11.7539 Z-2 I0.8568 J1.2411
G2 X393.7861 Y11.3288 I-7.2886 J7.063 F3500
X393.2788 Y10.9186 I-3.6071 J3.9424
G1 X392.7275 Y10.5261
G3 X392.955 Y9.8146 I0.2274 J-0.3194
G1 X395.2247
G3 X396.1879 Y10.7779 J0.9632
G1 X396.1878 Y13.0439
G3 X395.4748 Y13.2741 I-0.3936
G2 X394.6804 Y12.2581 I-13.4056 J9.6632
X394.2236 Y11.7539 I-7.7455 J6.5589
G1 X394.1915 Y11.7169 Z-1.9922
X394.1655 Y11.6754 Z-1.9845
X394.1477 Y11.6349 Z-1.9619
X394.1358 Y11.5923 Z-1.9394
X394.1293 Y11.5225 Z-1.8691
X394.1333 Y11.4776 Z-1.7806
X394.1361 Y11.4623 Z-1.6825
G0 Z5
X10.2822 Y9.244
Z2.4173
G1 X10.2965 Y9.2399 Z2.3213 F1200
X10.3382 Y9.2288 Z2.2343
X10.404 Y9.2139 Z2.1644
X10.4882 Y9.1993 Z2.1182
X10.583 Y9.1887 Z2.1
G3 X10.3238 Y9.2325 Z1.7783 I0.1207 J1.5033
X10.0762 Y9.3206 Z1.4566 I0.3799 J1.4595
X9.8476 Y9.4505 Z1.1349 I0.6276 J1.3713
X9.645 Y9.618 Z0.8132 I0.8562 J1.2415
X9.4746 Y9.8182 Z0.4914 I1.0588 J1.074
X9.3415 Y10.0449 Z0.1697 I1.2292 J0.8738
X9.2498 Y10.2913 Z-0.152 I1.3622 J0.6471
X9.2023 Y10.5498 Z-0.4737 I1.4539 J0.4007
X9.2005 Y10.8127 Z-0.7954 I1.5014 J0.1422
X9.2443 Y11.0719 Z-1.1171 I1.5033 J-0.1207
X9.3324 Y11.3196 Z-1.4388 I1.4595 J-0.3799
X9.4622 Y11.5482 Z-1.7605 I1.3713 J-0.6276
X11.7527 Y11.7755 Z-2 I1.2415 J-0.8562
G2 X11.3321 Y12.2084 I6.8705 J7.0967 F3500
X10.9179 Y12.7216 I3.966 J3.6248
G1 X10.526 Y13.2733
G3 X9.8146 Y13.0463 I-0.3195 J-0.227
G1 X9.8147 Y10.775
G3 X10.778 Y9.8117 I0.9633
G1 X13.0445 Y9.8118
G3 X13.2752 Y10.525 J0.3939
G2 X12.2605 Y11.3169 I10.1334 J14.0296
X11.7527 Y11.7755 I6.3627 J7.5553
G1 X11.7157 Y11.8076 Z-1.9922
X11.6741 Y11.8336 Z-1.9845
X11.6336 Y11.8512 Z-1.9619
X11.591 Y11.8631 Z-1.9394
X11.5212 Y11.8696 Z-1.8691
X11.4763 Y11.8655 Z-1.7806
X11.461 Y11.8627 Z-1.6825
G0 Z5
X9.2456 Y79.7179
Z2.4173
G1 X9.2415 Y79.7036 Z2.3213 F1200
X9.2304 Y79.6618 Z2.2343
X9.2155 Y79.596 Z2.1644
X9.2009 Y79.5119 Z2.1182
X9.1902 Y79.417 Z2.1
G3 X9.2341 Y79.6762 Z1.7783 I1.5032 J-0.1214
X9.3224 Y79.9239 Z1.4566 I1.4593 J-0.3806
X9.4523 Y80.1524 Z1.1349 I1.371 J-0.6282
X9.6199 Y80.3549 Z0.8132 I1.2411 J-0.8568
X9.8202 Y80.5252 Z0.4914 I1.0735 J-1.0593
X10.047 Y80.6582 Z0.1697 I0.8732 J-1.2296
X10.2934 Y80.7497 Z-0.152 I0.6465 J-1.3625
X10.552 Y80.7971 Z-0.4737 I0.4 J-1.4541
X10.8148 Y80.7988 Z-0.7954 I0.1414 J-1.5015
X11.074 Y80.7549 Z-1.1171 I-0.1214 J-1.5032
X11.3217 Y80.6667 Z-1.4388 I-0.3806 J-1.4593
X11.5502 Y80.5367 Z-1.7605 I-0.6282 J-1.371
X11.7764 Y78.2461 Z-2 I-0.8568 J-1.2411
G2 X12.2142 Y78.6714 I7.2894 J-7.0639 F3500
X12.7212 Y79.0814 I3.6056 J-3.9412
G1 X13.2725 Y79.4739
G3 X13.045 Y80.1854 I-0.2274 J0.3194
G1 X10.7754
G3 X9.8122 Y79.2221 J-0.9632
G1 Y76.9562
G3 X10.5253 Y76.726 I0.3937
G2 X11.3198 Y77.7421 I13.4018 J-9.6606
X11.7764 Y78.2461 I7.7461 J-6.5599
X13.2451 Y78.5155 I0.9231 J-0.8945
G3 X14.7357 Y78.6031 I0.6645 J1.4177
G2 X18.0186 Y79.9463 I5.6173 J-9.0452
X19.132 Y80.1262 I2.0323 J-9.0441
X20.2586 Y80.1822 I1.1264 J-11.3076
G1 X385.8699 Y80.1798
G2 X392.3127 Y77.8753 I-0.0001 J-10.1583
X395.9277 Y72.0658 I-6.7525 J-8.2314
X396.1821 Y69.8131 I-9.4523 J-2.208
G1 X396.1793 Y20.1219
G2 X393.0944 Y12.8082 I-10.2134 J0.0006
X385.7415 Y9.8178 I-7.3528 J7.5444
G1 X20.1301 Y9.8201
G2 X13.6874 Y12.1247 I0.0001 J10.1584
X10.0723 Y17.9342 I6.7524 J8.2314
X9.8179 Y20.1869 I9.4523 J2.208
G1 X9.8207 Y69.8781
G2 X12.1535 Y76.3503 I10.1464 J-0.0006
X14.7357 Y78.6031 I8.1995 J-6.7924
X17.4526 Y78.3844 I1.2104 J-1.949
G3 X20.0183 Y77.4642 I2.4621 J2.828
G2 X20.2584 Y77.4676 I0.2402 J-8.6954
G1 X385.8699 Y77.4652
G2 X390.6255 Y75.7486 I-0.0001 J-7.4458
X393.2842 Y71.4483 I-5.0677 J-6.1052
X393.4228 Y70.636 I-6.6337 J-1.5496
X393.4674 Y69.8133 I-7.5527 J-0.8223
G1 X393.4647 Y20.122
G2 X391.7272 Y15.346 I-7.4341 J0.0004
X387.3866 Y12.7023 I-6.0807 J5.0985
X386.5688 Y12.5719 I-1.4442 J6.4254
X385.7416 Y12.5324 I-0.8273 J8.6581
G1 X20.1301 Y12.5348
G2 X14.7465 Y14.7872 J7.5602
X12.5325 Y20.1867 I5.4763 J5.3991
G1 X12.5353 Y69.878
G2 X14.273 Y74.6541 I7.4341 J-0.0004
X18.6137 Y77.2978 I6.0806 J-5.0987
X19.4314 Y77.4281 I1.4438 J-6.4251
X20.0183 Y77.4642 I0.8271 J-8.6593
X22.101 Y76.1229 I0.0606 J-2.1936
G3 X24.1651 Y74.7529 I2.0641 J0.8699
G1 X385.8699 Y74.7506
G2 X388.9384 Y73.622 J-4.7356
X390.6408 Y70.8308 I-3.3856 J-3.9797
X390.726 Y70.3253 I-4.0013 J-0.9347
X390.7528 Y69.8134 I-4.871 J-0.5116
G1 X390.75 Y20.1222
G2 X389.6076 Y17.0421 I-4.7241 J0.0003
X386.7913 Y15.3509 I-3.9624 J3.4078
X386.2693 Y15.2699 I-0.8618 J3.8343
X385.7416 Y15.2471 I-0.5278 J6.0807
G1 X20.1301 Y15.2494
G2 X16.6661 Y16.7067 J4.8459
X15.2472 Y20.1866 I3.5571 J3.4796
G1 X15.25 Y69.8778
G2 X16.3924 Y72.958 I4.7241 J-0.0003
X19.2089 Y74.6492 I3.9623 J-3.4079
X19.7308 Y74.7301 I0.8616 J-3.834
X20.2585 Y74.7529 I0.5277 J-6.0821
G1 X24.1651
G2 X26.3142 Y73.3202 J-2.3282
G3 X28.4632 Y71.8874 I2.1491 J0.8954
G1 X385.8699 Y71.8852
G2 X386.0356 Y71.8719 J-1.0438
G1 X386.2256 Y71.8414
G2 X386.4142 Y71.7926 I-0.1657 J-1.0305
G1 X386.5995 Y71.7258
G2 X386.7535 Y71.6557 I-0.3542 J-0.9818
G1 X386.877 Y71.5868
G2 X387.0114 Y71.4976 I-0.5082 J-0.9117
G1 X387.1541 Y71.3861
G2 X387.282 Y71.2677 I-0.6426 J-0.8225
G1 X387.3949 Y71.1442
G2 X387.4923 Y71.0198 I-0.7705 J-0.7041
G1 X387.5749 Y70.8963
G2 X387.6599 Y70.7424 I-0.8679 J-0.5798
G1 X387.7427 Y70.5571
G2 X387.8062 Y70.3687 I-0.9529 J-0.4259
G1 X387.8505 Y70.179
G2 X387.8749 Y70.0193 I-1.0164 J-0.2374
G1 X387.8845 Y69.8914
X387.8874 Y69.8136
X387.8846 Y20.1223
G2 X387.8699 Y19.9481 I-1.0438 J0.0001
G1 X387.8374 Y19.7563
G2 X387.7867 Y19.5668 I-1.0291 J0.1743
G1 X387.7178 Y19.3815
G2 X387.6457 Y19.2275 I-0.9783 J0.3637
G1 X387.5752 Y19.104
G2 X387.4919 Y18.9798 I-0.9063 J0.5177
G1 X387.3956 Y18.8563
G2 X387.2771 Y18.7281 I-0.8231 J0.6419
G1 X387.1351 Y18.5982
G2 X387.0008 Y18.4941 I-0.7046 J0.7701
G1 X386.8773 Y18.4135
G2 X386.7234 Y18.3306 I-0.5702 J0.8742
G1 X386.5381 Y18.25
G2 X386.3506 Y18.1887 I-0.4164 J0.9571
G1 X386.1629 Y18.1466
G2 X385.9809 Y18.1222 I-0.2289 J1.0183
G1 X385.7884 Y18.1135
X385.7415 Y18.1125
X20.1302 Y18.1148
G2 X19.9646 Y18.1281 J1.0438
G1 X19.7745 Y18.1586
G2 X19.5859 Y18.2073 I0.1656 J1.0305
G1 X19.4006 Y18.2742
G2 X19.2466 Y18.3443 I0.3542 J0.9818
G1 X19.123 Y18.4132
G2 X18.9886 Y18.5023 I0.5082 J0.9117
G1 X18.8459 Y18.6138
G2 X18.7181 Y18.7322 I0.6426 J0.8225
G1 X18.6052 Y18.8557
G2 X18.5077 Y18.9801 I0.7704 J0.7042
G1 X18.4252 Y19.1036
G2 X18.3402 Y19.2575 I0.8679 J0.5798
G1 X18.2573 Y19.4429
G2 X18.1938 Y19.6313 I0.9529 J0.4259
G1 X18.1495 Y19.821
G2 X18.1251 Y19.9807 I1.0164 J0.2374
G1 X18.1155 Y20.1086
X18.1126 Y20.1864
X18.1154 Y69.8777
G2 X18.1301 Y70.0519 I1.0438 J-0.0001
G1 X18.1625 Y70.2437
G2 X18.2133 Y70.4332 I1.0291 J-0.1743
G1 X18.2822 Y70.6185
G2 X18.3543 Y70.7726 I0.9783 J-0.3638
G1 X18.4249 Y70.8961
G2 X18.5081 Y71.0203 I0.9063 J-0.5178
G1 X18.6045 Y71.1438
G2 X18.723 Y71.272 I0.823 J-0.6419
G1 X18.8649 Y71.4018
G2 X18.9992 Y71.506 I0.7045 J-0.7701
G1 X19.1228 Y71.5865
G2 X19.2767 Y71.6694 I0.5702 J-0.8742
G1 X19.462 Y71.7501
G2 X19.6495 Y71.8113 I0.4163 J-0.9571
G1 X19.8372 Y71.8535
G2 X20.0192 Y71.8778 I0.2288 J-1.0184
G1 X20.2117 Y71.8864
X20.2585 Y71.8875
X28.4632 Y71.8874
X28.5121 Y71.8912 Z-1.9922
X28.5598 Y71.9025 Z-1.9845
X28.6009 Y71.9188 Z-1.9619
X28.6393 Y71.9407 Z-1.9394
X28.693 Y71.9858 Z-1.8691
X28.7217 Y72.0205 Z-1.7806
X28.7304 Y72.0334 Z-1.6825
G0 Z5
X29.0478 Y77.7276
Z3
G1 Z-1.6825 F3500
G19 G3 Y78.0451 Z-2 J0.3175
G1 Y80.9086
G17 G3 X28.7303 Y81.2261 I-0.3175
G1 X12.5894 Y81.226
X10.9721
X9.7154
G3 X8.7715 Y80.282 J-0.9439
G1 X8.7741 Y9.7151
G3 X9.7181 Y8.7711 I0.944
G1 X396.2846 Y8.774
G3 X397.2285 Y9.718 J0.9439
G1 X397.2259 Y80.2849
G3 X396.2819 Y81.2289 I-0.944
G1 X28.7303 Y81.2261
G2 X27.4299 Y82.0931 J1.4088
G3 X26.1295 Y82.96 I-1.3004 J-0.5419
G1 X8.0007 Y82.9599
G3 X7.0375 Y81.9966 J-0.9632
G1 X7.0403 Y8.0004
G3 X8.0036 Y7.0372 I0.9633
G1 X397.9993 Y7.0401
G3 X398.9625 Y8.0034 J0.9632
G1 X398.9597 Y81.9995
G3 X397.9965 Y82.9628 I-0.9633
G1 X26.1295 Y82.96
G2 X24.374 Y84.1303 J1.9018
G3 X22.6185 Y85.3006 I-1.7555 J-0.7315
G1 X5.66 Y85.3005
G3 X4.6968 Y84.3372 J-0.9632
G1 X4.6997 Y5.6598
