%
(Made in : Autodesk CAM Post Processor)
(G Code optimized for OpenBuilds OX CNC 1000 x 750 with GRBL V0.9j controller)

(Program Name : 1001)
(2 Operations :)
(1 : Contour2)
(  Tool : Flat End Mill 2 Flutes, Diam = 1.9mm, Len = 12.7mm)
(  Spindle : RPM = 30000, set router dial to 6)
(  Machining time : 9 min 18 sec)
(2 : Horizontal1)
(  Tool : Flat End Mill 2 Flutes, Diam = 1.9mm, Len = 12.7mm)
(  Spindle : RPM = 30000, set router dial to 6)
(  Machining time : 6 min 16 sec)

G90 G94
G17
G21

(Operation 1 of 2 : Contour2)

G53 G0 Z5
G54
S30000 M3
G4 P1.0
X17.7785 Y19.3764
Z6
Z1.1897
G1 Z-0.81 F3200
X17.7848 Y19.3781 Z-0.8592
X17.8031 Y19.3831 Z-0.905
X17.8322 Y19.3911 Z-0.9444
X17.8702 Y19.4015 Z-0.9745
X17.9144 Y19.4136 Z-0.9935
X17.9618 Y19.4266 Z-1
X19.142 Y19.7499
X19.1877 Y19.7692
X19.2269 Y19.7996
X19.2569 Y19.8391
X19.2756 Y19.885
X19.2818 Y19.9342
X19.275 Y19.9834
X19.2663 Y20.0249
X19.2576 Y20.08
X19.2522 Y20.135
X19.25 Y20.245
Y69.755
X19.2522 Y69.865
X19.2576 Y69.92
X19.2663 Y69.9751
X19.275 Y70.0166
X19.2938 Y70.0851
X19.313 Y70.1401
X19.3361 Y70.1951
X19.359 Y70.2417
X19.3852 Y70.2884
X19.3954 Y70.3051
X19.4327 Y70.3601
X19.4761 Y70.4151
X19.4953 Y70.437
X19.5408 Y70.484
X19.5863 Y70.5252
X19.6054 Y70.5409
X19.6604 Y70.5819
X19.7155 Y70.6171
X19.7473 Y70.6352
X19.7864 Y70.6553
X19.8256 Y70.6731
X19.8807 Y70.6947
X19.9357 Y70.7125
X19.9908 Y70.7267
X20.0458 Y70.7374
X20.1047 Y70.7452
X20.1559 Y70.749
X20.2661 Y70.75
X385.734
X385.8441 Y70.749
X385.8952 Y70.7452
X385.9542 Y70.7374
X386.0093 Y70.7267
X386.0643 Y70.7125
X386.1194 Y70.6947
X386.1744 Y70.6731
X386.2136 Y70.6552
X386.2527 Y70.6352
X386.2845 Y70.6171
X386.3396 Y70.5818
X386.3947 Y70.5408
X386.4137 Y70.5252
X386.4592 Y70.484
X386.5048 Y70.437
X386.5239 Y70.4151
X386.5673 Y70.3601
X386.6046 Y70.3051
X386.6149 Y70.2883
X386.6411 Y70.2417
X386.6639 Y70.1951
X386.687 Y70.1401
X386.7062 Y70.0851
X386.725 Y70.0163
X386.7337 Y69.9751
X386.7424 Y69.92
X386.7477 Y69.865
X386.75 Y69.755
Y20.245
X386.7477 Y20.135
X386.7424 Y20.08
X386.7337 Y20.0249
X386.725 Y19.9836
X386.7062 Y19.9149
X386.687 Y19.8599
X386.6639 Y19.8049
X386.6411 Y19.7583
X386.6149 Y19.7117
X386.6046 Y19.6949
X386.5673 Y19.6399
X386.5239 Y19.5849
X386.5048 Y19.563
X386.4592 Y19.516
X386.4137 Y19.4748
X386.3947 Y19.4592
X386.3396 Y19.4181
X386.2845 Y19.3829
X386.2527 Y19.3648
X386.2136 Y19.3448
X386.1744 Y19.3269
X386.1194 Y19.3053
X386.0643 Y19.2875
X386.0093 Y19.2733
X385.9542 Y19.2626
X385.8953 Y19.2548
X385.8441 Y19.251
X385.734 Y19.25
X20.2661
X20.1559 Y19.251
X20.1047 Y19.2548
X20.0458 Y19.2626
X19.9908 Y19.2733
X19.9357 Y19.2875
X19.8807 Y19.3053
X19.8256 Y19.3269
X19.7864 Y19.3447
X19.7473 Y19.3648
X19.7155 Y19.3828
X19.6604 Y19.4181
X19.6054 Y19.4591
X19.5863 Y19.4748
X19.5408 Y19.516
X19.4953 Y19.5629
X19.4761 Y19.5849
X19.4327 Y19.6399
X19.3954 Y19.6949
X19.3852 Y19.7116
X19.359 Y19.7583
X19.3361 Y19.8049
X19.313 Y19.8599
X19.2938 Y19.9149
X19.275 Y19.9834
X19.2652 Y20.0308
X19.2578 Y20.0786
X19.2528 Y20.1267 Z-1.0001
X19.2503 Y20.1751
X19.25 Y20.3687 Z-1.0004
Y20.5622 Z-1.0008
Y20.7558 Z-1.0015
Y20.9494 Z-1.0023
Y21.143 Z-1.0033
Y21.3365 Z-1.0045
Y21.5301 Z-1.0058
Y21.7237 Z-1.0073
Y21.9173 Z-1.009
Y22.1108 Z-1.0109
Y22.3044 Z-1.0129
Y22.498 Z-1.0151
Y22.6916 Z-1.0174
Y22.8851 Z-1.0199
Y23.0787 Z-1.0225
Y23.2723 Z-1.0253
Y23.4659 Z-1.0283
Y23.6594 Z-1.0314
Y23.853 Z-1.0347
Y24.0466 Z-1.0381
Y24.2402 Z-1.0416
Y24.4337 Z-1.0453
Y24.6273 Z-1.0491
Y24.8209 Z-1.0531
Y25.0145 Z-1.0572
Y25.208 Z-1.0614
Y25.4016 Z-1.0658
Y25.5952 Z-1.0702
Y25.7887 Z-1.0749
Y25.9823 Z-1.0796
Y26.1759 Z-1.0845
Y26.3695 Z-1.0894
Y26.4663 Z-1.092
Y26.563 Z-1.0945
Y26.6598 Z-1.0971
Y26.7566 Z-1.0997
Y26.8534 Z-1.1024
Y26.9502 Z-1.1051
Y27.047 Z-1.1078
Y27.1438 Z-1.1105
Y27.2406 Z-1.1133
Y27.3373 Z-1.1161
Y27.4341 Z-1.1189
Y27.5309 Z-1.1217
Y27.6277 Z-1.1246
Y27.7245 Z-1.1275
Y27.8213 Z-1.1304
Y27.9181 Z-1.1334
Y28.0149 Z-1.1363
Y28.1116 Z-1.1393
Y28.2084 Z-1.1423
Y28.3052 Z-1.1454
Y28.402 Z-1.1485
Y28.4988 Z-1.1516
Y28.5956 Z-1.1547
Y28.6924 Z-1.1578
Y28.7892 Z-1.161
Y28.8859 Z-1.1642
Y28.9827 Z-1.1674
Y29.0795 Z-1.1706
Y29.1763 Z-1.1739
Y29.2731 Z-1.1772
Y29.3699 Z-1.1805
Y29.4667 Z-1.1838
Y29.5635 Z-1.1871
Y29.757 Z-1.1939
Y29.8538 Z-1.1972
Y29.9506 Z-1.2006
Y30.0474 Z-1.204
Y30.1442 Z-1.2074
Y30.241 Z-1.2108
Y30.3378 Z-1.2141
Y30.4345 Z-1.2175
Y30.5313 Z-1.2209
Y30.6281 Z-1.2243
Y30.7249 Z-1.2277
Y30.8217 Z-1.231
Y30.9185 Z-1.2344
Y31.1121 Z-1.2412
Y31.4024 Z-1.2513
Y31.6928 Z-1.2614
Y31.9831 Z-1.2716
Y32.2735 Z-1.2817
Y32.5639 Z-1.2919
Y32.8542 Z-1.302
Y33.1446 Z-1.3121
Y33.4349 Z-1.3223
Y33.7253 Z-1.3324
Y34.0157 Z-1.3426
Y34.4996 Z-1.3595
Y34.9835 Z-1.3764
Y35.4675 Z-1.3933
Y36.145 Z-1.4169
Y37.0161 Z-1.4473
Y38.4679 Z-1.498
Y45.4366 Z-1.7413
Y45.7269 Z-1.7515
Y46.0173 Z-1.7616
Y46.1141 Z-1.765
Y46.2109 Z-1.7684
Y46.3077 Z-1.7717
Y46.4045 Z-1.7751
Y46.5012 Z-1.7785
Y46.598 Z-1.7819
Y46.6948 Z-1.7853
Y46.7916 Z-1.7886
Y46.8884 Z-1.792
Y46.9852 Z-1.7954
Y47.082 Z-1.7988
Y47.1787 Z-1.8022
Y47.2755 Z-1.8055
Y47.3723 Z-1.8089
Y47.4691 Z-1.8123
Y47.5659 Z-1.8156
Y47.6627 Z-1.819
Y47.7595 Z-1.8223
Y47.8563 Z-1.8255
Y47.953 Z-1.8288
Y48.0498 Z-1.832
Y48.1466 Z-1.8353
Y48.2434 Z-1.8385
Y48.3402 Z-1.8416
Y48.437 Z-1.8448
Y48.5338 Z-1.8479
Y48.6306 Z-1.851
Y48.7273 Z-1.8541
Y48.8241 Z-1.8571
Y48.9209 Z-1.8601
Y49.0177 Z-1.8631
Y49.1145 Z-1.8661
Y49.2113 Z-1.8691
Y49.3081 Z-1.872
Y49.4049 Z-1.8749
Y49.5016 Z-1.8778
Y49.5984 Z-1.8806
Y49.6952 Z-1.8834
Y49.792 Z-1.8862
Y49.8888 Z-1.889
Y49.9856 Z-1.8917
Y50.0824 Z-1.8945
Y50.1792 Z-1.8971
Y50.2759 Z-1.8998
Y50.3727 Z-1.9024
Y50.4695 Z-1.905
Y50.5663 Z-1.9076
Y50.6631 Z-1.9101
Y50.7599 Z-1.9126
Y50.9535 Z-1.9176
Y51.147 Z-1.9224
Y51.3406 Z-1.9271
Y51.5342 Z-1.9316
Y51.7278 Z-1.9361
Y51.9213 Z-1.9404
Y52.1149 Z-1.9445
Y52.3085 Z-1.9486
Y52.5021 Z-1.9525
Y52.6956 Z-1.9562
Y52.8892 Z-1.9599
Y53.0828 Z-1.9634
Y53.2764 Z-1.9667
Y53.4699 Z-1.9699
Y53.6635 Z-1.9729
Y53.8571 Z-1.9758
Y54.0507 Z-1.9786
Y54.2442 Z-1.9812
Y54.4378 Z-1.9836
Y54.6314 Z-1.9859
Y54.825 Z-1.988
Y55.0185 Z-1.9899
Y55.2121 Z-1.9917
Y55.4057 Z-1.9933
Y55.5993 Z-1.9948
Y55.7928 Z-1.996
Y55.9864 Z-1.9971
Y56.18 Z-1.9981
Y56.3735 Z-1.9988
Y56.5671 Z-1.9994
Y56.7607 Z-1.9998
Y56.9543 Z-2
Y57.0681
Y69.755
X19.2522 Y69.865
X19.2576 Y69.92
X19.2663 Y69.9751
X19.275 Y70.0166
X19.2938 Y70.0851
X19.313 Y70.1401
X19.3361 Y70.1951
X19.359 Y70.2417
X19.3852 Y70.2884
X19.3954 Y70.3051
X19.4327 Y70.3601
X19.4761 Y70.4151
X19.4953 Y70.437
X19.5408 Y70.484
X19.5863 Y70.5252
X19.6054 Y70.5409
X19.6604 Y70.5819
X19.7155 Y70.6171
X19.7473 Y70.6352
X19.7864 Y70.6553
X19.8256 Y70.6731
X19.8807 Y70.6947
X19.9357 Y70.7125
X19.9908 Y70.7267
X20.0458 Y70.7374
X20.1047 Y70.7452
X20.1559 Y70.749
X20.2661 Y70.75
X385.734
X385.8441 Y70.749
X385.8952 Y70.7452
X385.9542 Y70.7374
X386.0093 Y70.7267
X386.0643 Y70.7125
X386.1194 Y70.6947
X386.1744 Y70.6731
X386.2136 Y70.6552
X386.2527 Y70.6352
X386.2845 Y70.6171
X386.3396 Y70.5818
X386.3947 Y70.5408
X386.4137 Y70.5252
X386.4592 Y70.484
X386.5048 Y70.437
X386.5239 Y70.4151
X386.5673 Y70.3601
X386.6046 Y70.3051
X386.6149 Y70.2883
X386.6411 Y70.2417
X386.6639 Y70.1951
X386.687 Y70.1401
X386.7062 Y70.0851
X386.725 Y70.0163
X386.7337 Y69.9751
X386.7424 Y69.92
X386.7477 Y69.865
X386.75 Y69.755
Y20.245
X386.7477 Y20.135
X386.7424 Y20.08
X386.7337 Y20.0249
X386.725 Y19.9836
X386.7062 Y19.9149
X386.687 Y19.8599
X386.6639 Y19.8049
X386.6411 Y19.7583
X386.6149 Y19.7117
X386.6046 Y19.6949
X386.5673 Y19.6399
X386.5239 Y19.5849
X386.5048 Y19.563
X386.4592 Y19.516
X386.4137 Y19.4748
X386.3947 Y19.4592
X386.3396 Y19.4181
X386.2845 Y19.3829
X386.2527 Y19.3648
X386.2136 Y19.3448
X386.1744 Y19.3269
X386.1194 Y19.3053
X386.0643 Y19.2875
X386.0093 Y19.2733
X385.9542 Y19.2626
X385.8953 Y19.2548
X385.8441 Y19.251
X385.734 Y19.25
X20.2661
X20.1559 Y19.251
X20.1047 Y19.2548
X20.0458 Y19.2626
X19.9908 Y19.2733
X19.9357 Y19.2875
X19.8807 Y19.3053
X19.8256 Y19.3269
X19.7864 Y19.3447
X19.7473 Y19.3648
X19.7155 Y19.3828
X19.6604 Y19.4181
X19.6054 Y19.4591
X19.5863 Y19.4748
X19.5408 Y19.516
X19.4953 Y19.5629
X19.4761 Y19.5849
X19.4327 Y19.6399
X19.3954 Y19.6949
X19.3852 Y19.7116
X19.359 Y19.7583
X19.3361 Y19.8049
X19.313 Y19.8599
X19.2938 Y19.9149
X19.275 Y19.9834
X19.2663 Y20.0249
X19.2576 Y20.08
X19.2522 Y20.135
X19.25 Y20.245
Y57.0681
Y57.2616 Z-2.0001
Y57.4552 Z-2.0004
Y57.6488 Z-2.0008
Y57.8424 Z-2.0015
Y58.0359 Z-2.0023
Y58.2295 Z-2.0033
Y58.4231 Z-2.0045
Y58.6167 Z-2.0058
Y58.8102 Z-2.0073
Y59.0038 Z-2.009
Y59.1974 Z-2.0109
Y59.391 Z-2.0129
Y59.5845 Z-2.0151
Y59.7781 Z-2.0174
Y59.9717 Z-2.0199
Y60.1653 Z-2.0225
Y60.3588 Z-2.0253
Y60.5524 Z-2.0283
Y60.746 Z-2.0314
Y60.9396 Z-2.0347
Y61.1331 Z-2.0381
Y61.3267 Z-2.0416
Y61.5203 Z-2.0453
Y61.7139 Z-2.0491
Y61.9074 Z-2.0531
Y62.101 Z-2.0572
Y62.2946 Z-2.0614
Y62.4882 Z-2.0658
Y62.6817 Z-2.0702
Y62.8753 Z-2.0749
Y63.0689 Z-2.0796
Y63.2625 Z-2.0845
Y63.456 Z-2.0894
Y63.5528 Z-2.092
Y63.6496 Z-2.0945
Y63.7464 Z-2.0971
Y63.8432 Z-2.0997
Y63.94 Z-2.1024
Y64.0368 Z-2.1051
Y64.1336 Z-2.1078
Y64.2303 Z-2.1105
Y64.3271 Z-2.1133
Y64.4239 Z-2.1161
Y64.5207 Z-2.1189
Y64.6175 Z-2.1217
Y64.7143 Z-2.1246
Y64.8111 Z-2.1275
Y64.9078 Z-2.1304
Y65.0046 Z-2.1334
Y65.1014 Z-2.1363
Y65.1982 Z-2.1393
Y65.295 Z-2.1423
Y65.3918 Z-2.1454
Y65.4886 Z-2.1485
Y65.5854 Z-2.1516
Y65.6821 Z-2.1547
Y65.7789 Z-2.1578
Y65.8757 Z-2.161
Y65.9725 Z-2.1642
Y66.0693 Z-2.1674
Y66.1661 Z-2.1706
Y66.2629 Z-2.1739
Y66.3597 Z-2.1772
Y66.4564 Z-2.1805
Y66.5532 Z-2.1838
Y66.65 Z-2.1871
Y66.8436 Z-2.1939
Y66.9404 Z-2.1972
Y67.0372 Z-2.2006
Y67.134 Z-2.204
Y67.2307 Z-2.2074
Y67.3275 Z-2.2108
Y67.4243 Z-2.2141
Y67.5211 Z-2.2175
Y67.6179 Z-2.2209
Y67.7147 Z-2.2243
Y67.8115 Z-2.2277
Y67.9083 Z-2.231
Y68.005 Z-2.2344
Y68.1986 Z-2.2412
Y68.489 Z-2.2513
Y68.7793 Z-2.2614
Y69.0697 Z-2.2716
Y69.3601 Z-2.2817
Y69.6504 Z-2.2919
Y69.7472 Z-2.2952
X19.251 Y69.844 Z-2.2986
X19.2545 Y69.8923 Z-2.3003
X19.2604 Y69.9403 Z-2.302
X19.2688 Y69.988 Z-2.3037
X19.2796 Y70.0352 Z-2.3054
X19.2927 Y70.0817 Z-2.3071
X19.3083 Y70.1276 Z-2.3087
X19.3261 Y70.1726 Z-2.3104
X19.3462 Y70.2166 Z-2.3121
X19.3685 Y70.2595 Z-2.3138
X19.393 Y70.3013 Z-2.3155
X19.4196 Y70.3417 Z-2.3172
X19.4482 Y70.3808 Z-2.3189
X19.4788 Y70.4183 Z-2.3206
X19.5112 Y70.4542 Z-2.3222
X19.5454 Y70.4884 Z-2.3239
X19.5813 Y70.5209 Z-2.3256
X19.6188 Y70.5515 Z-2.3273
X19.6578 Y70.5801 Z-2.329
X19.6983 Y70.6067 Z-2.3307
X19.74 Y70.6312 Z-2.3324
X19.7829 Y70.6535 Z-2.3341
X19.8269 Y70.6737 Z-2.3357
X19.8719 Y70.6915 Z-2.3374
X19.9177 Y70.7071 Z-2.3391
X19.9643 Y70.7203 Z-2.3408
X20.0115 Y70.7311 Z-2.3425
X20.0591 Y70.7395 Z-2.3442
X20.1072 Y70.7454 Z-2.3459
X20.1554 Y70.7489 Z-2.3476
X20.2038 Y70.75 Z-2.3492
X20.6878 Z-2.3661
X21.1717 Z-2.383
X21.7524 Z-2.4033
X22.4299 Z-2.427
X23.4946 Z-2.4642
X25.4303 Z-2.5317
X27.6564 Z-2.6095
X28.334 Z-2.6331
X28.8179 Z-2.65
X29.3018 Z-2.6669
X29.5922 Z-2.677
X29.8826 Z-2.6872
X30.1729 Z-2.6973
X30.4633 Z-2.7075
X30.7536 Z-2.7176
X31.044 Z-2.7277
X31.3344 Z-2.7379
X31.6247 Z-2.748
X31.9151 Z-2.7581
X32.2055 Z-2.7683
X32.3022 Z-2.7717
X32.399 Z-2.7751
X32.4958 Z-2.7784
X32.5926 Z-2.7818
X32.6894 Z-2.7852
X32.7862 Z-2.7886
X32.883 Z-2.7919
X32.9798 Z-2.7953
X33.0765 Z-2.7987
X33.1733 Z-2.8021
X33.2701 Z-2.8055
X33.3669 Z-2.8088
X33.4637 Z-2.8122
X33.5605 Z-2.8156
X33.6573 Z-2.8189
X33.754 Z-2.8222
X33.8508 Z-2.8255
X33.9476 Z-2.8287
X34.0444 Z-2.832
X34.1412 Z-2.8352
X34.238 Z-2.8384
X34.3348 Z-2.8415
X34.4316 Z-2.8447
X34.5283 Z-2.8478
X34.6251 Z-2.8509
X34.7219 Z-2.854
X34.8187 Z-2.857
X34.9155 Z-2.8601
X35.0123 Z-2.8631
X35.1091 Z-2.8661
X35.2059 Z-2.869
X35.3026 Z-2.8719
X35.3994 Z-2.8748
X35.4962 Z-2.8777
X35.593 Z-2.8806
X35.6898 Z-2.8834
X35.7866 Z-2.8862
X35.8834 Z-2.8889
X35.9802 Z-2.8917
X36.0769 Z-2.8944
X36.1737 Z-2.8971
X36.2705 Z-2.8997
X36.3673 Z-2.9024
X36.4641 Z-2.905
X36.5609 Z-2.9075
X36.6577 Z-2.9101
X36.7545 Z-2.9126
X36.948 Z-2.9175
X37.1416 Z-2.9223
X37.3352 Z-2.927
X37.5288 Z-2.9316
X37.7223 Z-2.936
X37.9159 Z-2.9403
X38.1095 Z-2.9445
X38.3031 Z-2.9485
X38.4966 Z-2.9524
X38.6902 Z-2.9562
X38.8838 Z-2.9598
X39.0774 Z-2.9633
X39.2709 Z-2.9667
X39.4645 Z-2.9699
X39.6581 Z-2.9729
X39.8517 Z-2.9758
X40.0452 Z-2.9785
X40.2388 Z-2.9811
X40.4324 Z-2.9836
X40.6259 Z-2.9858
X40.8195 Z-2.9879
X41.0131 Z-2.9899
X41.2067 Z-2.9917
X41.4002 Z-2.9933
X41.5938 Z-2.9947
X41.7874 Z-2.996
X41.981 Z-2.9971
X42.1745 Z-2.9981
X42.3681 Z-2.9988
X42.5617 Z-2.9994
X42.7553 Z-2.9998
X42.9488 Z-3
X43.0648
X385.734
X385.8441 Y70.749
X385.8952 Y70.7452
X385.9542 Y70.7374
X386.0093 Y70.7267
X386.0643 Y70.7125
X386.1194 Y70.6947
X386.1744 Y70.6731
X386.2136 Y70.6552
X386.2527 Y70.6352
X386.2845 Y70.6171
X386.3396 Y70.5818
X386.3947 Y70.5408
X386.4137 Y70.5252
X386.4592 Y70.484
X386.5048 Y70.437
X386.5239 Y70.4151
X386.5673 Y70.3601
X386.6046 Y70.3051
X386.6149 Y70.2883
X386.6411 Y70.2417
X386.6639 Y70.1951
X386.687 Y70.1401
X386.7062 Y70.0851
X386.725 Y70.0163
X386.7337 Y69.9751
X386.7424 Y69.92
X386.7477 Y69.865
X386.75 Y69.755
Y20.245
X386.7477 Y20.135
X386.7424 Y20.08
X386.7337 Y20.0249
X386.725 Y19.9836
X386.7062 Y19.9149
X386.687 Y19.8599
X386.6639 Y19.8049
X386.6411 Y19.7583
X386.6149 Y19.7117
X386.6046 Y19.6949
X386.5673 Y19.6399
X386.5239 Y19.5849
X386.5048 Y19.563
X386.4592 Y19.516
X386.4137 Y19.4748
X386.3947 Y19.4592
X386.3396 Y19.4181
X386.2845 Y19.3829
X386.2527 Y19.3648
X386.2136 Y19.3448
X386.1744 Y19.3269
X386.1194 Y19.3053
X386.0643 Y19.2875
X386.0093 Y19.2733
X385.9542 Y19.2626
X385.8953 Y19.2548
X385.8441 Y19.251
X385.734 Y19.25
X20.2661
X20.1559 Y19.251
X20.1047 Y19.2548
X20.0458 Y19.2626
X19.9908 Y19.2733
X19.9357 Y19.2875
X19.8807 Y19.3053
X19.8256 Y19.3269
X19.7864 Y19.3447
X19.7473 Y19.3648
X19.7155 Y19.3828
X19.6604 Y19.4181
X19.6054 Y19.4591
X19.5863 Y19.4748
X19.5408 Y19.516
X19.4953 Y19.5629
X19.4761 Y19.5849
X19.4327 Y19.6399
X19.3954 Y19.6949
X19.3852 Y19.7116
X19.359 Y19.7583
X19.3361 Y19.8049
X19.313 Y19.8599
X19.2938 Y19.9149
X19.275 Y19.9834
X19.2663 Y20.0249
X19.2576 Y20.08
X19.2522 Y20.135
X19.25 Y20.245
Y57.0681
Y69.755
X19.2522 Y69.865
X19.2576 Y69.92
X19.2663 Y69.9751
X19.275 Y70.0166
X19.2938 Y70.0851
X19.313 Y70.1401
X19.3361 Y70.1951
X19.359 Y70.2417
X19.3852 Y70.2884
X19.3954 Y70.3051
X19.4327 Y70.3601
X19.4761 Y70.4151
X19.4953 Y70.437
X19.5408 Y70.484
X19.5863 Y70.5252
X19.6054 Y70.5409
X19.6604 Y70.5819
X19.7155 Y70.6171
X19.7473 Y70.6352
X19.7864 Y70.6553
X19.8256 Y70.6731
X19.8807 Y70.6947
X19.9357 Y70.7125
X19.9908 Y70.7267
X20.0458 Y70.7374
X20.1047 Y70.7452
X20.1559 Y70.749
X20.2661 Y70.75
X43.0648
X43.2584 Z-3.0001
X43.452 Z-3.0004
X43.6456 Z-3.0008
X43.8391 Z-3.0015
X44.0327 Z-3.0023
X44.2263 Z-3.0033
X44.4199 Z-3.0045
X44.6134 Z-3.0058
X44.807 Z-3.0073
X45.0006 Z-3.009
X45.1942 Z-3.0109
X45.3877 Z-3.0129
X45.5813 Z-3.0151
X45.7749 Z-3.0174
X45.9685 Z-3.0199
X46.162 Z-3.0225
X46.3556 Z-3.0253
X46.5492 Z-3.0283
X46.7428 Z-3.0314
X46.9363 Z-3.0347
X47.1299 Z-3.0381
X47.3235 Z-3.0416
X47.5171 Z-3.0453
X47.7106 Z-3.0491
X47.9042 Z-3.0531
X48.0978 Z-3.0572
X48.2914 Z-3.0614
X48.4849 Z-3.0658
X48.6785 Z-3.0702
X48.8721 Z-3.0749
X49.0657 Z-3.0796
X49.2592 Z-3.0845
X49.4528 Z-3.0894
X49.5496 Z-3.092
X49.6464 Z-3.0945
X49.7432 Z-3.0971
X49.84 Z-3.0997
X49.9367 Z-3.1024
X50.0335 Z-3.1051
X50.1303 Z-3.1078
X50.2271 Z-3.1105
X50.3239 Z-3.1133
X50.4207 Z-3.1161
X50.5175 Z-3.1189
X50.6142 Z-3.1217
X50.711 Z-3.1246
X50.8078 Z-3.1275
X50.9046 Z-3.1304
X51.0014 Z-3.1334
X51.0982 Z-3.1363
X51.195 Z-3.1393
X51.2918 Z-3.1423
X51.3885 Z-3.1454
X51.4853 Z-3.1485
X51.5821 Z-3.1516
X51.6789 Z-3.1547
X51.7757 Z-3.1578
X51.8725 Z-3.161
X51.9693 Z-3.1642
X52.0661 Z-3.1674
X52.1628 Z-3.1706
X52.2596 Z-3.1739
X52.3564 Z-3.1772
X52.4532 Z-3.1805
X52.55 Z-3.1838
X52.6468 Z-3.1871
X52.8404 Z-3.1939
X52.9371 Z-3.1972
X53.0339 Z-3.2006
X53.1307 Z-3.204
X53.2275 Z-3.2074
X53.3243 Z-3.2108
X53.4211 Z-3.2141
X53.5179 Z-3.2175
X53.6147 Z-3.2209
X53.7114 Z-3.2243
X53.8082 Z-3.2277
X53.905 Z-3.231
X54.0018 Z-3.2344
X54.1954 Z-3.2412
X54.4857 Z-3.2513
X54.7761 Z-3.2614
X55.0665 Z-3.2716
X55.3568 Z-3.2817
X55.6472 Z-3.2919
X55.9376 Z-3.302
X56.2279 Z-3.3121
X56.5183 Z-3.3223
X56.8086 Z-3.3324
X57.099 Z-3.3426
X57.5829 Z-3.3595
X58.0669 Z-3.3764
X58.5508 Z-3.3933
X59.2283 Z-3.4169
X60.0994 Z-3.4473
X61.5512 Z-3.498
X68.5199 Z-3.7413
X68.8103 Z-3.7515
X69.1006 Z-3.7616
X69.1974 Z-3.765
X69.2942 Z-3.7684
X69.391 Z-3.7717
X69.4878 Z-3.7751
X69.5846 Z-3.7785
X69.6814 Z-3.7819
X69.7781 Z-3.7853
X69.8749 Z-3.7886
X69.9717 Z-3.792
X70.0685 Z-3.7954
X70.1653 Z-3.7988
X70.2621 Z-3.8022
X70.3589 Z-3.8055
X70.4557 Z-3.8089
X70.5524 Z-3.8123
X70.6492 Z-3.8156
X70.746 Z-3.819
X70.8428 Z-3.8223
X70.9396 Z-3.8255
X71.0364 Z-3.8288
X71.1332 Z-3.832
X71.2299 Z-3.8353
X71.3267 Z-3.8385
X71.4235 Z-3.8416
X71.5203 Z-3.8448
X71.6171 Z-3.8479
X71.7139 Z-3.851
X71.8107 Z-3.8541
X71.9075 Z-3.8571
X72.0042 Z-3.8601
X72.101 Z-3.8631
X72.1978 Z-3.8661
X72.2946 Z-3.8691
X72.3914 Z-3.872
X72.4882 Z-3.8749
X72.585 Z-3.8778
X72.6818 Z-3.8806
X72.7785 Z-3.8834
X72.8753 Z-3.8862
X72.9721 Z-3.889
X73.0689 Z-3.8917
X73.1657 Z-3.8945
X73.2625 Z-3.8971
X73.3593 Z-3.8998
X73.4561 Z-3.9024
X73.5528 Z-3.905
X73.6496 Z-3.9076
X73.7464 Z-3.9101
X73.8432 Z-3.9126
X74.0368 Z-3.9176
X74.2304 Z-3.9224
X74.4239 Z-3.9271
X74.6175 Z-3.9316
X74.8111 Z-3.9361
X75.0047 Z-3.9404
X75.1982 Z-3.9445
X75.3918 Z-3.9486
X75.5854 Z-3.9525
X75.779 Z-3.9562
X75.9725 Z-3.9599
X76.1661 Z-3.9634
X76.3597 Z-3.9667
X76.5533 Z-3.9699
X76.7468 Z-3.9729
X76.9404 Z-3.9758
X77.134 Z-3.9786
X77.3276 Z-3.9812
X77.5211 Z-3.9836
X77.7147 Z-3.9859
X77.9083 Z-3.988
X78.1019 Z-3.9899
X78.2954 Z-3.9917
X78.489 Z-3.9933
X78.6826 Z-3.9948
X78.8762 Z-3.996
X79.0697 Z-3.9971
X79.2633 Z-3.9981
X79.4569 Z-3.9988
X79.6505 Z-3.9994
X79.844 Z-3.9998
X80.0376 Z-4
X80.1514
X385.734
X385.8441 Y70.749
X385.8952 Y70.7452
X385.9542 Y70.7374
X386.0093 Y70.7267
X386.0643 Y70.7125
X386.1194 Y70.6947
X386.1744 Y70.6731
X386.2136 Y70.6552
X386.2527 Y70.6352
X386.2845 Y70.6171
X386.3396 Y70.5818
X386.3947 Y70.5408
X386.4137 Y70.5252
X386.4592 Y70.484
X386.5048 Y70.437
X386.5239 Y70.4151
X386.5673 Y70.3601
X386.6046 Y70.3051
X386.6149 Y70.2883
X386.6411 Y70.2417
X386.6639 Y70.1951
X386.687 Y70.1401
X386.7062 Y70.0851
X386.725 Y70.0163
X386.7337 Y69.9751
X386.7424 Y69.92
X386.7477 Y69.865
X386.75 Y69.755
Y20.245
X386.7477 Y20.135
X386.7424 Y20.08
X386.7337 Y20.0249
X386.725 Y19.9836
X386.7062 Y19.9149
X386.687 Y19.8599
X386.6639 Y19.8049
X386.6411 Y19.7583
X386.6149 Y19.7117
X386.6046 Y19.6949
X386.5673 Y19.6399
X386.5239 Y19.5849
X386.5048 Y19.563
X386.4592 Y19.516
X386.4137 Y19.4748
X386.3947 Y19.4592
X386.3396 Y19.4181
X386.2845 Y19.3829
X386.2527 Y19.3648
X386.2136 Y19.3448
X386.1744 Y19.3269
X386.1194 Y19.3053
X386.0643 Y19.2875
X386.0093 Y19.2733
X385.9542 Y19.2626
X385.8953 Y19.2548
X385.8441 Y19.251
X385.734 Y19.25
X20.2661
X20.1559 Y19.251
X20.1047 Y19.2548
X20.0458 Y19.2626
X19.9908 Y19.2733
X19.9357 Y19.2875
X19.8807 Y19.3053
X19.8256 Y19.3269
X19.7864 Y19.3447
X19.7473 Y19.3648
X19.7155 Y19.3828
X19.6604 Y19.4181
X19.6054 Y19.4591
X19.5863 Y19.4748
X19.5408 Y19.516
X19.4953 Y19.5629
X19.4761 Y19.5849
X19.4327 Y19.6399
X19.3954 Y19.6949
X19.3852 Y19.7116
X19.359 Y19.7583
X19.3361 Y19.8049
X19.313 Y19.8599
X19.2938 Y19.9149
X19.275 Y19.9834
X19.2663 Y20.0249
X19.2576 Y20.08
X19.2522 Y20.135
X19.25 Y20.245
Y69.755
X19.2522 Y69.865
X19.2576 Y69.92
X19.2663 Y69.9751
X19.275 Y70.0166
X19.2938 Y70.0851
X19.313 Y70.1401
X19.3361 Y70.1951
X19.359 Y70.2417
X19.3852 Y70.2884
X19.3954 Y70.3051
X19.4327 Y70.3601
X19.4761 Y70.4151
X19.4953 Y70.437
X19.5408 Y70.484
X19.5863 Y70.5252
X19.6054 Y70.5409
X19.6604 Y70.5819
X19.7155 Y70.6171
X19.7473 Y70.6352
X19.7864 Y70.6553
X19.8256 Y70.6731
X19.8807 Y70.6947
X19.9357 Y70.7125
X19.9908 Y70.7267
X20.0458 Y70.7374
X20.1047 Y70.7452
X20.1559 Y70.749
X20.2661 Y70.75
X80.1514
X80.345 Z-4.0001
X80.5386 Z-4.0004
X80.7321 Z-4.0008
X80.9257 Z-4.0015
X81.1193 Z-4.0023
X81.3129 Z-4.0033
X81.5064 Z-4.0045
X81.7 Z-4.0058
X81.8936 Z-4.0073
X82.0872 Z-4.009
X82.2807 Z-4.0109
X82.4743 Z-4.0129
X82.6679 Z-4.0151
X82.8614 Z-4.0174
X83.055 Z-4.0199
X83.2486 Z-4.0225
X83.4422 Z-4.0253
X83.6357 Z-4.0283
X83.8293 Z-4.0314
X84.0229 Z-4.0347
X84.2165 Z-4.0381
X84.41 Z-4.0416
X84.6036 Z-4.0453
X84.7972 Z-4.0491
X84.9908 Z-4.0531
X85.1843 Z-4.0572
X85.3779 Z-4.0614
X85.5715 Z-4.0658
X85.7651 Z-4.0702
X85.9586 Z-4.0749
X86.1522 Z-4.0796
X86.3458 Z-4.0845
X86.5394 Z-4.0894
X86.6362 Z-4.092
X86.7329 Z-4.0945
X86.8297 Z-4.0971
X86.9265 Z-4.0997
X87.0233 Z-4.1024
X87.1201 Z-4.1051
X87.2169 Z-4.1078
X87.3137 Z-4.1105
X87.4105 Z-4.1133
X87.5072 Z-4.1161
X87.604 Z-4.1189
X87.7008 Z-4.1217
X87.7976 Z-4.1246
X87.8944 Z-4.1275
X87.9912 Z-4.1304
X88.088 Z-4.1334
X88.1847 Z-4.1363
X88.2815 Z-4.1393
X88.3783 Z-4.1423
X88.4751 Z-4.1454
X88.5719 Z-4.1485
X88.6687 Z-4.1516
X88.7655 Z-4.1547
X88.8623 Z-4.1578
X88.959 Z-4.161
X89.0558 Z-4.1642
X89.1526 Z-4.1674
X89.2494 Z-4.1706
X89.3462 Z-4.1739
X89.443 Z-4.1772
X89.5398 Z-4.1805
X89.6366 Z-4.1838
X89.7333 Z-4.1871
X89.9269 Z-4.1939
X90.0237 Z-4.1972
X90.1205 Z-4.2006
X90.2173 Z-4.204
X90.3141 Z-4.2074
X90.4109 Z-4.2108
X90.5076 Z-4.2141
X90.6044 Z-4.2175
X90.7012 Z-4.2209
X90.798 Z-4.2243
X90.8948 Z-4.2277
X90.9916 Z-4.231
X91.0884 Z-4.2344
X91.2819 Z-4.2412
X91.5723 Z-4.2513
X91.8627 Z-4.2614
X92.153 Z-4.2716
X92.4434 Z-4.2817
X92.7338 Z-4.2919
X93.0241 Z-4.302
X93.3145 Z-4.3121
X93.6048 Z-4.3223
X93.8952 Z-4.3324
X94.1856 Z-4.3426
X94.6695 Z-4.3595
X95.1534 Z-4.3764
X95.6374 Z-4.3933
X96.3149 Z-4.4169
X97.186 Z-4.4473
X98.6378 Z-4.498
X105.6065 Z-4.7413
X105.8968 Z-4.7515
X106.1872 Z-4.7616
X106.284 Z-4.765
X106.3808 Z-4.7684
X106.4776 Z-4.7717
X106.5743 Z-4.7751
X106.6711 Z-4.7785
X106.7679 Z-4.7819
X106.8647 Z-4.7853
X106.9615 Z-4.7886
X107.0583 Z-4.792
X107.1551 Z-4.7954
X107.2519 Z-4.7988
X107.3486 Z-4.8022
X107.4454 Z-4.8055
X107.5422 Z-4.8089
X107.639 Z-4.8123
X107.7358 Z-4.8156
X107.8326 Z-4.819
X107.9294 Z-4.8223
X108.0262 Z-4.8255
X108.1229 Z-4.8288
X108.2197 Z-4.832
X108.3165 Z-4.8353
X108.4133 Z-4.8385
X108.5101 Z-4.8416
X108.6069 Z-4.8448
X108.7037 Z-4.8479
X108.8005 Z-4.851
X108.8972 Z-4.8541
X108.994 Z-4.8571
X109.0908 Z-4.8601
X109.1876 Z-4.8631
X109.2844 Z-4.8661
X109.3812 Z-4.8691
X109.478 Z-4.872
X109.5748 Z-4.8749
X109.6715 Z-4.8778
X109.7683 Z-4.8806
X109.8651 Z-4.8834
X109.9619 Z-4.8862
X110.0587 Z-4.889
X110.1555 Z-4.8917
X110.2523 Z-4.8945
X110.3491 Z-4.8971
X110.4458 Z-4.8998
X110.5426 Z-4.9024
X110.6394 Z-4.905
X110.7362 Z-4.9076
X110.833 Z-4.9101
X110.9298 Z-4.9126
X111.1233 Z-4.9176
X111.3169 Z-4.9224
X111.5105 Z-4.9271
X111.7041 Z-4.9316
X111.8976 Z-4.9361
X112.0912 Z-4.9404
X112.2848 Z-4.9445
X112.4784 Z-4.9486
X112.6719 Z-4.9525
X112.8655 Z-4.9562
X113.0591 Z-4.9599
X113.2527 Z-4.9634
X113.4462 Z-4.9667
X113.6398 Z-4.9699
X113.8334 Z-4.9729
X114.027 Z-4.9758
X114.2205 Z-4.9786
X114.4141 Z-4.9812
X114.6077 Z-4.9836
X114.8013 Z-4.9859
X114.9948 Z-4.988
X115.1884 Z-4.9899
X115.382 Z-4.9917
X115.5756 Z-4.9933
X115.7691 Z-4.9948
X115.9627 Z-4.996
X116.1563 Z-4.9971
X116.3499 Z-4.9981
X116.5434 Z-4.9988
X116.737 Z-4.9994
X116.9306 Z-4.9998
X117.1242 Z-5
X117.238
X385.734
X385.8441 Y70.749
X385.8952 Y70.7452
X385.9542 Y70.7374
X386.0093 Y70.7267
X386.0643 Y70.7125
X386.1194 Y70.6947
X386.1744 Y70.6731
X386.2136 Y70.6552
X386.2527 Y70.6352
X386.2845 Y70.6171
X386.3396 Y70.5818
X386.3947 Y70.5408
X386.4137 Y70.5252
X386.4592 Y70.484
X386.5048 Y70.437
X386.5239 Y70.4151
X386.5673 Y70.3601
X386.6046 Y70.3051
X386.6149 Y70.2883
X386.6411 Y70.2417
X386.6639 Y70.1951
X386.687 Y70.1401
X386.7062 Y70.0851
X386.725 Y70.0163
X386.7337 Y69.9751
X386.7424 Y69.92
X386.7477 Y69.865
X386.75 Y69.755
Y20.245
X386.7477 Y20.135
X386.7424 Y20.08
X386.7337 Y20.0249
X386.725 Y19.9836
X386.7062 Y19.9149
X386.687 Y19.8599
X386.6639 Y19.8049
X386.6411 Y19.7583
X386.6149 Y19.7117
X386.6046 Y19.6949
X386.5673 Y19.6399
X386.5239 Y19.5849
X386.5048 Y19.563
X386.4592 Y19.516
X386.4137 Y19.4748
X386.3947 Y19.4592
X386.3396 Y19.4181
X386.2845 Y19.3829
X386.2527 Y19.3648
X386.2136 Y19.3448
X386.1744 Y19.3269
X386.1194 Y19.3053
X386.0643 Y19.2875
X386.0093 Y19.2733
X385.9542 Y19.2626
X385.8953 Y19.2548
X385.8441 Y19.251
X385.734 Y19.25
X20.2661
X20.1559 Y19.251
X20.1047 Y19.2548
X20.0458 Y19.2626
X19.9908 Y19.2733
X19.9357 Y19.2875
X19.8807 Y19.3053
X19.8256 Y19.3269
X19.7864 Y19.3447
X19.7473 Y19.3648
X19.7155 Y19.3828
X19.6604 Y19.4181
X19.6054 Y19.4591
X19.5863 Y19.4748
X19.5408 Y19.516
X19.4953 Y19.5629
X19.4761 Y19.5849
X19.4327 Y19.6399
X19.3954 Y19.6949
X19.3852 Y19.7116
X19.359 Y19.7583
X19.3361 Y19.8049
X19.313 Y19.8599
X19.2938 Y19.9149
X19.275 Y19.9834
X19.2663 Y20.0249
X19.2576 Y20.08
X19.2522 Y20.135
X19.25 Y20.245
Y69.755
X19.2522 Y69.865
X19.2576 Y69.92
X19.2663 Y69.9751
X19.275 Y70.0166
X19.2938 Y70.0851
X19.313 Y70.1401
X19.3361 Y70.1951
X19.359 Y70.2417
X19.3852 Y70.2884
X19.3954 Y70.3051
X19.4327 Y70.3601
X19.4761 Y70.4151
X19.4953 Y70.437
X19.5408 Y70.484
X19.5863 Y70.5252
X19.6054 Y70.5409
X19.6604 Y70.5819
X19.7155 Y70.6171
X19.7473 Y70.6352
X19.7864 Y70.6553
X19.8256 Y70.6731
X19.8807 Y70.6947
X19.9357 Y70.7125
X19.9908 Y70.7267
X20.0458 Y70.7374
X20.1047 Y70.7452
X20.1559 Y70.749
X20.2661 Y70.75
X80.1514
X117.238
X117.4315 Z-5.0001
X117.6251 Z-5.0004
X117.8187 Z-5.0008
X118.0123 Z-5.0015
X118.2058 Z-5.0023
X118.3994 Z-5.0033
X118.593 Z-5.0045
X118.7866 Z-5.0058
X118.9801 Z-5.0073
X119.1737 Z-5.009
X119.3673 Z-5.0109
X119.5609 Z-5.0129
X119.7544 Z-5.0151
X119.948 Z-5.0174
X120.1416 Z-5.0199
X120.3352 Z-5.0225
X120.5287 Z-5.0253
X120.7223 Z-5.0283
X120.9159 Z-5.0314
X121.1095 Z-5.0347
X121.303 Z-5.0381
X121.4966 Z-5.0416
X121.6902 Z-5.0453
X121.8838 Z-5.0491
X122.0773 Z-5.0531
X122.2709 Z-5.0572
X122.4645 Z-5.0614
X122.6581 Z-5.0658
X122.8516 Z-5.0702
X123.0452 Z-5.0749
X123.2388 Z-5.0796
X123.4324 Z-5.0845
X123.6259 Z-5.0894
X123.7227 Z-5.092
X123.8195 Z-5.0945
X123.9163 Z-5.0971
X124.0131 Z-5.0997
X124.1099 Z-5.1024
X124.2066 Z-5.1051
X124.3034 Z-5.1078
X124.4002 Z-5.1105
X124.497 Z-5.1133
X124.5938 Z-5.1161
X124.6906 Z-5.1189
X124.7874 Z-5.1217
X124.8842 Z-5.1246
X124.9809 Z-5.1275
X125.0777 Z-5.1304
X125.1745 Z-5.1334
X125.2713 Z-5.1363
X125.3681 Z-5.1393
X125.4649 Z-5.1423
X125.5617 Z-5.1454
X125.6585 Z-5.1485
X125.7552 Z-5.1516
X125.852 Z-5.1547
X125.9488 Z-5.1578
X126.0456 Z-5.161
X126.1424 Z-5.1642
X126.2392 Z-5.1674
X126.336 Z-5.1706
X126.4328 Z-5.1739
X126.5295 Z-5.1772
X126.6263 Z-5.1805
X126.7231 Z-5.1838
X126.8199 Z-5.1871
X127.0135 Z-5.1939
X127.1103 Z-5.1972
X127.2071 Z-5.2006
X127.3038 Z-5.204
X127.4006 Z-5.2074
X127.4974 Z-5.2108
X127.5942 Z-5.2141
X127.691 Z-5.2175
X127.7878 Z-5.2209
X127.8846 Z-5.2243
X127.9814 Z-5.2277
X128.0781 Z-5.231
X128.1749 Z-5.2344
X128.3685 Z-5.2412
X128.6589 Z-5.2513
X128.9492 Z-5.2614
X129.2396 Z-5.2716
X129.53 Z-5.2817
X129.8203 Z-5.2919
X130.1107 Z-5.302
X130.401 Z-5.3121
X130.6914 Z-5.3223
X130.9818 Z-5.3324
X131.2721 Z-5.3426
X131.7561 Z-5.3595
X132.24 Z-5.3764
X132.7239 Z-5.3933
X133.4014 Z-5.4169
X134.2725 Z-5.4473
X135.7243 Z-5.498
X142.693 Z-5.7413
X142.9834 Z-5.7515
X143.2738 Z-5.7616
X143.3705 Z-5.765
X143.4673 Z-5.7684
X143.5641 Z-5.7717
X143.6609 Z-5.7751
X143.7577 Z-5.7785
X143.8545 Z-5.7819
X143.9513 Z-5.7853
X144.048 Z-5.7886
X144.1449 Z-5.792
X144.2416 Z-5.7954
X144.3384 Z-5.7988
X144.4352 Z-5.8022
X144.532 Z-5.8055
X144.6288 Z-5.8089
X144.7256 Z-5.8123
X144.8224 Z-5.8156
X144.9191 Z-5.819
X145.0159 Z-5.8223
X145.1127 Z-5.8255
X145.2095 Z-5.8288
X145.3063 Z-5.832
X145.4031 Z-5.8353
X145.4999 Z-5.8385
X145.5966 Z-5.8416
X145.6934 Z-5.8448
X145.7902 Z-5.8479
X145.887 Z-5.851
X145.9838 Z-5.8541
X146.0806 Z-5.8571
X146.1774 Z-5.8601
X146.2742 Z-5.8631
X146.371 Z-5.8661
X146.4677 Z-5.8691
X146.5645 Z-5.872
X146.6613 Z-5.8749
X146.7581 Z-5.8778
X146.8549 Z-5.8806
X146.9517 Z-5.8834
X147.0485 Z-5.8862
X147.1452 Z-5.889
X147.242 Z-5.8917
X147.3388 Z-5.8945
X147.4356 Z-5.8971
X147.5324 Z-5.8998
X147.6292 Z-5.9024
X147.726 Z-5.905
X147.8228 Z-5.9076
X147.9196 Z-5.9101
X148.0163 Z-5.9126
X148.2099 Z-5.9176
X148.4035 Z-5.9224
X148.5971 Z-5.9271
X148.7906 Z-5.9316
X148.9842 Z-5.9361
X149.1778 Z-5.9404
X149.3714 Z-5.9445
X149.5649 Z-5.9486
X149.7585 Z-5.9525
X149.9521 Z-5.9562
X150.1457 Z-5.9599
X150.3392 Z-5.9634
X150.5328 Z-5.9667
X150.7264 Z-5.9699
X150.92 Z-5.9729
X151.1135 Z-5.9758
X151.3071 Z-5.9786
X151.5007 Z-5.9812
X151.6943 Z-5.9836
X151.8878 Z-5.9859
X152.0814 Z-5.988
X152.275 Z-5.9899
X152.4686 Z-5.9917
X152.6621 Z-5.9933
X152.8557 Z-5.9948
X153.0493 Z-5.996
X153.2429 Z-5.9971
X153.4364 Z-5.9981
X153.63 Z-5.9988
X153.8236 Z-5.9994
X154.0172 Z-5.9998
X154.2107 Z-6
X154.3245
X385.734
X385.8441 Y70.749
X385.8952 Y70.7452
X385.9542 Y70.7374
X386.0093 Y70.7267
X386.0643 Y70.7125
X386.1194 Y70.6947
X386.1744 Y70.6731
X386.2136 Y70.6552
X386.2527 Y70.6352
X386.2845 Y70.6171
X386.3396 Y70.5818
X386.3947 Y70.5408
X386.4137 Y70.5252
X386.4592 Y70.484
X386.5048 Y70.437
X386.5239 Y70.4151
X386.5673 Y70.3601
X386.6046 Y70.3051
X386.6149 Y70.2883
X386.6411 Y70.2417
X386.6639 Y70.1951
X386.687 Y70.1401
X386.7062 Y70.0851
X386.725 Y70.0163
X386.7337 Y69.9751
X386.7424 Y69.92
X386.7477 Y69.865
X386.75 Y69.755
Y20.245
X386.7477 Y20.135
X386.7424 Y20.08
X386.7337 Y20.0249
X386.725 Y19.9836
X386.7062 Y19.9149
X386.687 Y19.8599
X386.6639 Y19.8049
X386.6411 Y19.7583
X386.6149 Y19.7117
X386.6046 Y19.6949
X386.5673 Y19.6399
X386.5239 Y19.5849
X386.5048 Y19.563
X386.4592 Y19.516
X386.4137 Y19.4748
X386.3947 Y19.4592
X386.3396 Y19.4181
X386.2845 Y19.3829
X386.2527 Y19.3648
X386.2136 Y19.3448
X386.1744 Y19.3269
X386.1194 Y19.3053
X386.0643 Y19.2875
X386.0093 Y19.2733
X385.9542 Y19.2626
X385.8953 Y19.2548
X385.8441 Y19.251
X385.734 Y19.25
X20.2661
X20.1559 Y19.251
X20.1047 Y19.2548
X20.0458 Y19.2626
X19.9908 Y19.2733
X19.9357 Y19.2875
X19.8807 Y19.3053
X19.8256 Y19.3269
X19.7864 Y19.3447
X19.7473 Y19.3648
X19.7155 Y19.3828
X19.6604 Y19.4181
X19.6054 Y19.4591
X19.5863 Y19.4748
X19.5408 Y19.516
X19.4953 Y19.5629
X19.4761 Y19.5849
X19.4327 Y19.6399
X19.3954 Y19.6949
X19.3852 Y19.7116
X19.359 Y19.7583
X19.3361 Y19.8049
X19.313 Y19.8599
X19.2938 Y19.9149
X19.275 Y19.9834
X19.2663 Y20.0249
X19.2576 Y20.08
X19.2522 Y20.135
X19.25 Y20.245
Y69.755
X19.2522 Y69.865
X19.2576 Y69.92
X19.2663 Y69.9751
X19.275 Y70.0166
X19.2938 Y70.0851
X19.313 Y70.1401
X19.3361 Y70.1951
X19.359 Y70.2417
X19.3852 Y70.2884
X19.3954 Y70.3051
X19.4327 Y70.3601
X19.4761 Y70.4151
X19.4953 Y70.437
X19.5408 Y70.484
X19.5863 Y70.5252
X19.6054 Y70.5409
X19.6604 Y70.5819
X19.7155 Y70.6171
X19.7473 Y70.6352
X19.7864 Y70.6553
X19.8256 Y70.6731
X19.8807 Y70.6947
X19.9357 Y70.7125
X19.9908 Y70.7267
X20.0458 Y70.7374
X20.1047 Y70.7452
X20.1559 Y70.749
X20.2661 Y70.75
X117.238
X154.3245
X154.3737 Y70.7565
X154.4195 Y70.7755
X154.4589 Y70.8056
X154.4891 Y70.845
X154.5081 Y70.8908
X154.5145 Y70.94
X154.5146 Y70.9464
X155.2215 Y91.9271
G3 X153.467 Y92.2536 I-0.902 J0.0304
G1 X153.4648 Y92.2473 Z-6.0001 F1200
G3 X153.5281 Y92.3913 Z-6.1926 I0.8547 J-0.2898
X153.6155 Y92.5221 Z-6.385 I0.7914 J-0.4338
X153.7242 Y92.6358 Z-6.5774 I0.7041 J-0.5646
X153.8511 Y92.7289 Z-6.7699 I0.5953 J-0.6783
X153.9921 Y92.7985 Z-6.9623 I0.4685 J-0.7714
X153.4171 Y91.9641 Z-6.9999 I0.3274 J-0.841
G1 X153.417 Y91.9575 Z-7
Y91.8575 F3200
G3 X154.3245 Y90.95 I0.9075
G1 X405.9949
X406.05 Y90.9487
X406.105 Y90.9442
X406.1601 Y90.9364
X406.2151 Y90.9253
X406.2702 Y90.9108
X406.3253 Y90.8926
X406.3597 Y90.8793
X406.3976 Y90.8628
X406.4354 Y90.8444
X406.4904 Y90.8136
X406.5455 Y90.7778
X406.5575 Y90.7693
X406.6066 Y90.7312
X406.6556 Y90.6876
X406.6841 Y90.6592
X406.7277 Y90.6108
X406.7657 Y90.5623
X406.7752 Y90.5492
X406.8114 Y90.4942
X406.8424 Y90.4392
X406.8759 Y90.3681
X406.8912 Y90.3292
X406.9096 Y90.2742
X406.9244 Y90.2191
X406.9358 Y90.1641
X406.9438 Y90.1091
X406.9485 Y90.0541
X406.95 Y89.9991
Y0.0009
X406.9485 Y-0.0541
X406.9438 Y-0.1091
X406.9358 Y-0.1641
X406.9244 Y-0.2191
X406.9096 Y-0.2742
X406.8912 Y-0.3292
X406.8759 Y-0.3681
X406.8424 Y-0.4392
X406.8114 Y-0.4942
X406.7752 Y-0.5492
X406.7657 Y-0.5623
X406.7277 Y-0.6108
X406.6841 Y-0.6592
X406.6556 Y-0.6875
X406.6066 Y-0.7312
X406.5575 Y-0.7693
X406.5455 Y-0.7778
X406.4904 Y-0.8136
X406.4354 Y-0.8444
X406.3976 Y-0.8628
X406.3597 Y-0.8793
X406.3253 Y-0.8926
X406.2702 Y-0.9108
X406.2151 Y-0.9253
X406.1601 Y-0.9364
X406.105 Y-0.9442
X406.05 Y-0.9487
X405.9949 Y-0.95
X341.1379
X341.0277 Y-0.9472
X340.9727 Y-0.9414
X340.9176 Y-0.9323
X340.8626 Y-0.9198
X340.8075 Y-0.9039
X340.7404 Y-0.8793
X340.6974 Y-0.8605
X340.6424 Y-0.8325
X340.5873 Y-0.7998
X340.5426 Y-0.7693
X340.5099 Y-0.7445
X340.4772 Y-0.7173
X340.4466 Y-0.6896
X340.416 Y-0.6592
X340.3671 Y-0.6044
X340.3249 Y-0.5492
X340.2887 Y-0.4942
X340.2576 Y-0.4392
X340.257 Y-0.4379
X340.2309 Y-0.3835
X340.2089 Y-0.3292
X340.1904 Y-0.2742
X340.1756 Y-0.2191
X340.1643 Y-0.1641
X340.1563 Y-0.1091
X340.1516 Y-0.0541
X340.15 Y0.0009
Y18.2485
X340.1484 Y18.25
X261.8515
X261.85 Y18.2485
Y0.0009
X261.8485 Y-0.0541
X261.8437 Y-0.1091
X261.8357 Y-0.1641
X261.8244 Y-0.2191
X261.8096 Y-0.2742
X261.7912 Y-0.3292
X261.7703 Y-0.3809
X261.7458 Y-0.4327
X261.7424 Y-0.4392
X261.7113 Y-0.4942
X261.6752 Y-0.5492
X261.6357 Y-0.6011
X261.584 Y-0.6592
X261.5255 Y-0.715
X261.4915 Y-0.7434
X261.4575 Y-0.7693
X261.4154 Y-0.798
X261.3604 Y-0.831
X261.3053 Y-0.8592
X261.2597 Y-0.8793
X261.1952 Y-0.903
X261.1401 Y-0.9191
X261.0851 Y-0.9318
X261.03 Y-0.9411
X260.975 Y-0.947
X260.8649 Y-0.95
X0.0051
X-0.0499 Y-0.9487
X-0.105 Y-0.9442
X-0.1601 Y-0.9364
X-0.2151 Y-0.9253
X-0.2702 Y-0.9108
X-0.3252 Y-0.8926
X-0.3597 Y-0.8793
X-0.3975 Y-0.8628
X-0.4353 Y-0.8444
X-0.4904 Y-0.8136
X-0.5455 Y-0.7778
X-0.5574 Y-0.7693
X-0.6065 Y-0.7312
X-0.6556 Y-0.6875
X-0.684 Y-0.6592
X-0.7276 Y-0.6108
X-0.7657 Y-0.5623
X-0.7752 Y-0.5492
X-0.8113 Y-0.4942
X-0.8424 Y-0.4392
X-0.8758 Y-0.3681
X-0.8911 Y-0.3292
X-0.9096 Y-0.2742
X-0.9244 Y-0.2191
X-0.9357 Y-0.1641
X-0.9437 Y-0.1091
X-0.9485 Y-0.0541
X-0.95 Y0.0009
Y89.9991
X-0.9485 Y90.0541
X-0.9437 Y90.1091
X-0.9357 Y90.1641
X-0.9244 Y90.2191
X-0.9096 Y90.2742
X-0.8911 Y90.3292
X-0.8758 Y90.3681
X-0.8424 Y90.4392
X-0.8113 Y90.4942
X-0.7752 Y90.5492
X-0.7657 Y90.5623
X-0.7276 Y90.6108
X-0.684 Y90.6592
X-0.6556 Y90.6876
X-0.6065 Y90.7312
X-0.5574 Y90.7693
X-0.5455 Y90.7778
X-0.4904 Y90.8136
X-0.4353 Y90.8444
X-0.3975 Y90.8628
X-0.3597 Y90.8793
X-0.3252 Y90.8926
X-0.2702 Y90.9108
X-0.2151 Y90.9253
X-0.1601 Y90.9364
X-0.105 Y90.9442
X-0.0499 Y90.9487
X0.0051 Y90.95
X154.3245
X154.5181 Z-7.0001
X154.7117 Z-7.0004
X154.9053 Z-7.0008
X155.0988 Z-7.0015
X155.2924 Z-7.0023
X155.486 Z-7.0033
X155.6796 Z-7.0045
X155.8731 Z-7.0058
X156.0667 Z-7.0073
X156.2603 Z-7.009
X156.4539 Z-7.0109
X156.6474 Z-7.0129
X156.841 Z-7.0151
X157.0346 Z-7.0174
X157.2281 Z-7.0199
X157.4217 Z-7.0225
X157.6153 Z-7.0253
X157.8089 Z-7.0283
X158.0024 Z-7.0314
X158.196 Z-7.0347
X158.3896 Z-7.0381
X158.5832 Z-7.0416
X158.7767 Z-7.0453
X158.9703 Z-7.0491
X159.1639 Z-7.0531
X159.3575 Z-7.0572
X159.551 Z-7.0614
X159.7446 Z-7.0658
X159.9382 Z-7.0702
X160.1318 Z-7.0749
X160.3253 Z-7.0796
X160.5189 Z-7.0845
X160.7125 Z-7.0894
X160.8093 Z-7.092
X160.9061 Z-7.0945
X161.0029 Z-7.0971
X161.0996 Z-7.0997
X161.1964 Z-7.1024
X161.2932 Z-7.1051
X161.39 Z-7.1078
X161.4868 Z-7.1105
X161.5836 Z-7.1133
X161.6804 Z-7.1161
X161.7772 Z-7.1189
X161.8739 Z-7.1217
X161.9707 Z-7.1246
X162.0675 Z-7.1275
X162.1643 Z-7.1304
X162.2611 Z-7.1334
X162.3579 Z-7.1363
X162.4547 Z-7.1393
X162.5515 Z-7.1423
X162.6482 Z-7.1454
X162.745 Z-7.1485
X162.8418 Z-7.1516
X162.9386 Z-7.1547
X163.0354 Z-7.1578
X163.1322 Z-7.161
X163.229 Z-7.1642
X163.3257 Z-7.1674
X163.4225 Z-7.1706
X163.5193 Z-7.1739
X163.6161 Z-7.1772
X163.7129 Z-7.1805
X163.8097 Z-7.1838
X163.9065 Z-7.1871
X164.1001 Z-7.1939
X164.1968 Z-7.1972
X164.2936 Z-7.2006
X164.3904 Z-7.204
X164.4872 Z-7.2074
X164.584 Z-7.2108
X164.6808 Z-7.2141
X164.7776 Z-7.2175
X164.8743 Z-7.2209
X164.9711 Z-7.2243
X165.0679 Z-7.2277
X165.1647 Z-7.231
X165.2615 Z-7.2344
X165.4551 Z-7.2412
X165.7454 Z-7.2513
X166.0358 Z-7.2614
X166.3262 Z-7.2716
X166.6165 Z-7.2817
X166.9069 Z-7.2919
X167.1973 Z-7.302
X167.4876 Z-7.3121
X167.778 Z-7.3223
X168.0683 Z-7.3324
X168.3587 Z-7.3426
X168.8426 Z-7.3595
X169.3266 Z-7.3764
X169.8105 Z-7.3933
X170.488 Z-7.4169
X171.3591 Z-7.4473
X172.8109 Z-7.498
X179.7796 Z-7.7413
X180.07 Z-7.7515
X180.3603 Z-7.7616
X180.4571 Z-7.765
X180.5539 Z-7.7684
X180.6507 Z-7.7717
X180.7475 Z-7.7751
X180.8443 Z-7.7785
X180.941 Z-7.7819
X181.0378 Z-7.7853
X181.1346 Z-7.7886
X181.2314 Z-7.792
X181.3282 Z-7.7954
X181.425 Z-7.7988
X181.5218 Z-7.8022
X181.6186 Z-7.8055
X181.7153 Z-7.8089
X181.8121 Z-7.8123
X181.9089 Z-7.8156
X182.0057 Z-7.819
X182.1025 Z-7.8223
X182.1993 Z-7.8255
X182.2961 Z-7.8288
X182.3929 Z-7.832
X182.4896 Z-7.8353
X182.5864 Z-7.8385
X182.6832 Z-7.8416
X182.78 Z-7.8448
X182.8768 Z-7.8479
X182.9736 Z-7.851
X183.0704 Z-7.8541
X183.1672 Z-7.8571
X183.2639 Z-7.8601
X183.3607 Z-7.8631
X183.4575 Z-7.8661
X183.5543 Z-7.8691
X183.6511 Z-7.872
X183.7479 Z-7.8749
X183.8447 Z-7.8778
X183.9415 Z-7.8806
X184.0382 Z-7.8834
X184.135 Z-7.8862
X184.2318 Z-7.889
X184.3286 Z-7.8917
X184.4254 Z-7.8945
X184.5222 Z-7.8971
X184.619 Z-7.8998
X184.7158 Z-7.9024
X184.8125 Z-7.905
X184.9093 Z-7.9076
X185.0061 Z-7.9101
X185.1029 Z-7.9126
X185.2965 Z-7.9176
X185.4901 Z-7.9224
X185.6836 Z-7.9271
X185.8772 Z-7.9316
X186.0708 Z-7.9361
X186.2643 Z-7.9404
X186.4579 Z-7.9445
X186.6515 Z-7.9486
X186.8451 Z-7.9525
X187.0387 Z-7.9562
X187.2322 Z-7.9599
X187.4258 Z-7.9634
X187.6194 Z-7.9667
X187.8129 Z-7.9699
X188.0065 Z-7.9729
X188.2001 Z-7.9758
X188.3937 Z-7.9786
X188.5872 Z-7.9812
X188.7808 Z-7.9836
X188.9744 Z-7.9859
X189.168 Z-7.988
X189.3615 Z-7.9899
X189.5551 Z-7.9917
X189.7487 Z-7.9933
X189.9423 Z-7.9948
X190.1358 Z-7.996
X190.3294 Z-7.9971
X190.523 Z-7.9981
X190.7166 Z-7.9988
X190.9101 Z-7.9994
X191.1037 Z-7.9998
X191.2973 Z-8
X191.4111
X405.9949
X406.05 Y90.9487
X406.105 Y90.9442
X406.1601 Y90.9364
X406.2151 Y90.9253
X406.2702 Y90.9108
X406.3253 Y90.8926
X406.3597 Y90.8793
X406.3976 Y90.8628
X406.4354 Y90.8444
X406.4904 Y90.8136
X406.5455 Y90.7778
X406.5575 Y90.7693
X406.6066 Y90.7312
X406.6556 Y90.6876
X406.6841 Y90.6592
X406.7277 Y90.6108
X406.7657 Y90.5623
X406.7752 Y90.5492
X406.8114 Y90.4942
X406.8424 Y90.4392
X406.8759 Y90.3681
X406.8912 Y90.3292
X406.9096 Y90.2742
X406.9244 Y90.2191
X406.9358 Y90.1641
X406.9438 Y90.1091
X406.9485 Y90.0541
X406.95 Y89.9991
Y0.0009
X406.9485 Y-0.0541
X406.9438 Y-0.1091
X406.9358 Y-0.1641
X406.9244 Y-0.2191
X406.9096 Y-0.2742
X406.8912 Y-0.3292
X406.8759 Y-0.3681
X406.8424 Y-0.4392
X406.8114 Y-0.4942
X406.7752 Y-0.5492
X406.7657 Y-0.5623
X406.7277 Y-0.6108
X406.6841 Y-0.6592
X406.6556 Y-0.6875
X406.6066 Y-0.7312
X406.5575 Y-0.7693
X406.5455 Y-0.7778
X406.4904 Y-0.8136
X406.4354 Y-0.8444
X406.3976 Y-0.8628
X406.3597 Y-0.8793
X406.3253 Y-0.8926
X406.2702 Y-0.9108
X406.2151 Y-0.9253
X406.1601 Y-0.9364
X406.105 Y-0.9442
X406.05 Y-0.9487
X405.9949 Y-0.95
X341.1379
X341.0277 Y-0.9472
X340.9727 Y-0.9414
X340.9176 Y-0.9323
X340.8626 Y-0.9198
X340.8075 Y-0.9039
X340.7404 Y-0.8793
X340.6974 Y-0.8605
X340.6424 Y-0.8325
X340.5873 Y-0.7998
X340.5426 Y-0.7693
X340.5099 Y-0.7445
X340.4772 Y-0.7173
X340.4466 Y-0.6896
X340.416 Y-0.6592
X340.3671 Y-0.6044
X340.3249 Y-0.5492
X340.2887 Y-0.4942
X340.2576 Y-0.4392
X340.257 Y-0.4379
X340.2309 Y-0.3835
X340.2089 Y-0.3292
X340.1904 Y-0.2742
X340.1756 Y-0.2191
X340.1643 Y-0.1641
X340.1563 Y-0.1091
X340.1516 Y-0.0541
X340.15 Y0.0009
Y18.2485
X340.1484 Y18.25
X261.8515
X261.85 Y18.2485
Y0.0009
X261.8485 Y-0.0541
X261.8437 Y-0.1091
X261.8357 Y-0.1641
X261.8244 Y-0.2191
X261.8096 Y-0.2742
X261.7912 Y-0.3292
X261.7703 Y-0.3809
X261.7458 Y-0.4327
X261.7424 Y-0.4392
X261.7113 Y-0.4942
X261.6752 Y-0.5492
X261.6357 Y-0.6011
X261.584 Y-0.6592
X261.5255 Y-0.715
X261.4915 Y-0.7434
X261.4575 Y-0.7693
X261.4154 Y-0.798
X261.3604 Y-0.831
X261.3053 Y-0.8592
X261.2597 Y-0.8793
X261.1952 Y-0.903
X261.1401 Y-0.9191
X261.0851 Y-0.9318
X261.03 Y-0.9411
X260.975 Y-0.947
X260.8649 Y-0.95
X0.0051
X-0.0499 Y-0.9487
X-0.105 Y-0.9442
X-0.1601 Y-0.9364
X-0.2151 Y-0.9253
X-0.2702 Y-0.9108
X-0.3252 Y-0.8926
X-0.3597 Y-0.8793
X-0.3975 Y-0.8628
X-0.4353 Y-0.8444
X-0.4904 Y-0.8136
X-0.5455 Y-0.7778
X-0.5574 Y-0.7693
X-0.6065 Y-0.7312
X-0.6556 Y-0.6875
X-0.684 Y-0.6592
X-0.7276 Y-0.6108
X-0.7657 Y-0.5623
X-0.7752 Y-0.5492
X-0.8113 Y-0.4942
X-0.8424 Y-0.4392
X-0.8758 Y-0.3681
X-0.8911 Y-0.3292
X-0.9096 Y-0.2742
X-0.9244 Y-0.2191
X-0.9357 Y-0.1641
X-0.9437 Y-0.1091
X-0.9485 Y-0.0541
X-0.95 Y0.0009
Y89.9991
X-0.9485 Y90.0541
X-0.9437 Y90.1091
X-0.9357 Y90.1641
X-0.9244 Y90.2191
X-0.9096 Y90.2742
X-0.8911 Y90.3292
X-0.8758 Y90.3681
X-0.8424 Y90.4392
X-0.8113 Y90.4942
X-0.7752 Y90.5492
X-0.7657 Y90.5623
X-0.7276 Y90.6108
X-0.684 Y90.6592
X-0.6556 Y90.6876
X-0.6065 Y90.7312
X-0.5574 Y90.7693
X-0.5455 Y90.7778
X-0.4904 Y90.8136
X-0.4353 Y90.8444
X-0.3975 Y90.8628
X-0.3597 Y90.8793
X-0.3252 Y90.8926
X-0.2702 Y90.9108
X-0.2151 Y90.9253
X-0.1601 Y90.9364
X-0.105 Y90.9442
X-0.0499 Y90.9487
X0.0051 Y90.95
X154.3245
X191.4111
X191.6047 Z-8.0001
X191.7982 Z-8.0004
X191.9918 Z-8.0008
X192.1854 Z-8.0015
X192.379 Z-8.0023
X192.5725 Z-8.0033
X192.7661 Z-8.0045
X192.9597 Z-8.0058
X193.1533 Z-8.0073
X193.3468 Z-8.009
X193.5404 Z-8.0109
X193.734 Z-8.0129
X193.9276 Z-8.0151
X194.1211 Z-8.0174
X194.3147 Z-8.0199
X194.5083 Z-8.0225
X194.7019 Z-8.0253
X194.8954 Z-8.0283
X195.089 Z-8.0314
X195.2826 Z-8.0347
X195.4762 Z-8.0381
X195.6697 Z-8.0416
X195.8633 Z-8.0453
X196.0569 Z-8.0491
X196.2505 Z-8.0531
X196.444 Z-8.0572
X196.6376 Z-8.0614
X196.8312 Z-8.0658
X197.0248 Z-8.0702
X197.2183 Z-8.0749
X197.4119 Z-8.0796
X197.6055 Z-8.0845
X197.7991 Z-8.0894
X197.8958 Z-8.092
X197.9926 Z-8.0945
X198.0894 Z-8.0971
X198.1862 Z-8.0997
X198.283 Z-8.1024
X198.3798 Z-8.1051
X198.4766 Z-8.1078
X198.5733 Z-8.1105
X198.6702 Z-8.1133
X198.7669 Z-8.1161
X198.8637 Z-8.1189
X198.9605 Z-8.1217
X199.0573 Z-8.1246
X199.1541 Z-8.1275
X199.2509 Z-8.1304
X199.3477 Z-8.1334
X199.4444 Z-8.1363
X199.5412 Z-8.1393
X199.638 Z-8.1424
X199.7348 Z-8.1454
X199.8316 Z-8.1485
X199.9284 Z-8.1516
X200.0252 Z-8.1547
X200.1219 Z-8.1578
X200.2187 Z-8.161
X200.3155 Z-8.1642
X200.4123 Z-8.1674
X200.5091 Z-8.1706
X200.6059 Z-8.1739
X200.7027 Z-8.1772
X200.7995 Z-8.1805
X200.8963 Z-8.1838
X200.993 Z-8.1871
X201.1866 Z-8.1939
X201.2834 Z-8.1972
X201.3802 Z-8.2006
X201.477 Z-8.204
X201.5738 Z-8.2074
X201.6705 Z-8.2108
X201.7673 Z-8.2141
X201.8641 Z-8.2175
X201.9609 Z-8.2209
X202.0577 Z-8.2243
X202.1545 Z-8.2277
X202.2513 Z-8.231
X202.3481 Z-8.2344
X202.5416 Z-8.2412
X202.832 Z-8.2513
X203.1224 Z-8.2614
X203.4127 Z-8.2716
X203.7031 Z-8.2817
X203.9935 Z-8.2919
X204.2838 Z-8.302
X204.5742 Z-8.3121
X204.8645 Z-8.3223
X205.1549 Z-8.3324
X205.4453 Z-8.3426
X205.9292 Z-8.3595
X206.4131 Z-8.3764
X206.8971 Z-8.3933
X207.5746 Z-8.4169
X208.4457 Z-8.4473
X209.8975 Z-8.498
X216.8662 Z-8.7413
X217.1565 Z-8.7515
X217.4469 Z-8.7616
X217.5437 Z-8.765
X217.6405 Z-8.7684
X217.7372 Z-8.7717
X217.834 Z-8.7751
X217.9308 Z-8.7785
X218.0276 Z-8.7819
X218.1244 Z-8.7853
X218.2212 Z-8.7886
X218.318 Z-8.792
X218.4148 Z-8.7954
X218.5116 Z-8.7988
X218.6083 Z-8.8022
X218.7051 Z-8.8055
X218.8019 Z-8.8089
X218.8987 Z-8.8123
X218.9955 Z-8.8156
X219.0923 Z-8.819
X219.1891 Z-8.8223
X219.2858 Z-8.8255
X219.3826 Z-8.8288
X219.4794 Z-8.832
X219.5762 Z-8.8353
X219.673 Z-8.8385
X219.7698 Z-8.8416
X219.8666 Z-8.8448
X219.9634 Z-8.8479
X220.0602 Z-8.851
X220.1569 Z-8.8541
X220.2537 Z-8.8571
X220.3505 Z-8.8601
X220.4473 Z-8.8631
X220.5441 Z-8.8661
X220.6409 Z-8.8691
X220.7377 Z-8.872
X220.8344 Z-8.8749
X220.9312 Z-8.8778
X221.028 Z-8.8806
X221.1248 Z-8.8834
X221.2216 Z-8.8862
X221.3184 Z-8.889
X221.4152 Z-8.8917
X221.5119 Z-8.8945
X221.6087 Z-8.8971
X221.7055 Z-8.8998
X221.8023 Z-8.9024
X221.8991 Z-8.905
X221.9959 Z-8.9076
X222.0927 Z-8.9101
X222.1895 Z-8.9126
X222.383 Z-8.9176
X222.5766 Z-8.9224
X222.7702 Z-8.9271
X222.9638 Z-8.9316
X223.1573 Z-8.9361
X223.3509 Z-8.9404
X223.5445 Z-8.9445
X223.7381 Z-8.9486
X223.9316 Z-8.9525
X224.1252 Z-8.9562
X224.3188 Z-8.9599
X224.5124 Z-8.9634
X224.7059 Z-8.9667
X224.8995 Z-8.9699
X225.0931 Z-8.9729
X225.2867 Z-8.9758
X225.4802 Z-8.9786
X225.6738 Z-8.9812
X225.8674 Z-8.9836
X226.061 Z-8.9859
X226.2545 Z-8.988
X226.4481 Z-8.9899
X226.6417 Z-8.9917
X226.8353 Z-8.9933
X227.0288 Z-8.9948
X227.2224 Z-8.996
X227.416 Z-8.9971
X227.6096 Z-8.9981
X227.8031 Z-8.9988
X227.9967 Z-8.9994
X228.1903 Z-8.9998
X228.3839 Z-9
X228.4977
X405.9949
X406.05 Y90.9487
X406.105 Y90.9442
X406.1601 Y90.9364
X406.2151 Y90.9253
X406.2702 Y90.9108
X406.3253 Y90.8926
X406.3597 Y90.8793
X406.3976 Y90.8628
X406.4354 Y90.8444
X406.4904 Y90.8136
X406.5455 Y90.7778
X406.5575 Y90.7693
X406.6066 Y90.7312
X406.6556 Y90.6876
X406.6841 Y90.6592
X406.7277 Y90.6108
X406.7657 Y90.5623
X406.7752 Y90.5492
X406.8114 Y90.4942
X406.8424 Y90.4392
X406.8759 Y90.3681
X406.8912 Y90.3292
X406.9096 Y90.2742
X406.9244 Y90.2191
X406.9358 Y90.1641
X406.9438 Y90.1091
X406.9485 Y90.0541
X406.95 Y89.9991
Y0.0009
X406.9485 Y-0.0541
X406.9438 Y-0.1091
X406.9358 Y-0.1641
X406.9244 Y-0.2191
X406.9096 Y-0.2742
X406.8912 Y-0.3292
X406.8759 Y-0.3681
X406.8424 Y-0.4392
X406.8114 Y-0.4942
X406.7752 Y-0.5492
X406.7657 Y-0.5623
X406.7277 Y-0.6108
X406.6841 Y-0.6592
X406.6556 Y-0.6875
X406.6066 Y-0.7312
X406.5575 Y-0.7693
X406.5455 Y-0.7778
X406.4904 Y-0.8136
X406.4354 Y-0.8444
X406.3976 Y-0.8628
X406.3597 Y-0.8793
X406.3253 Y-0.8926
X406.2702 Y-0.9108
X406.2151 Y-0.9253
X406.1601 Y-0.9364
X406.105 Y-0.9442
X406.05 Y-0.9487
X405.9949 Y-0.95
X341.1379
X341.0277 Y-0.9472
X340.9727 Y-0.9414
X340.9176 Y-0.9323
X340.8626 Y-0.9198
X340.8075 Y-0.9039
X340.7404 Y-0.8793
X340.6974 Y-0.8605
X340.6424 Y-0.8325
X340.5873 Y-0.7998
X340.5426 Y-0.7693
X340.5099 Y-0.7445
X340.4772 Y-0.7173
X340.4466 Y-0.6896
X340.416 Y-0.6592
X340.3671 Y-0.6044
X340.3249 Y-0.5492
X340.2887 Y-0.4942
X340.2576 Y-0.4392
X340.257 Y-0.4379
X340.2309 Y-0.3835
X340.2089 Y-0.3292
X340.1904 Y-0.2742
X340.1756 Y-0.2191
X340.1643 Y-0.1641
X340.1563 Y-0.1091
X340.1516 Y-0.0541
X340.15 Y0.0009
Y18.2485
X340.1484 Y18.25
X261.8515
X261.85 Y18.2485
Y0.0009
X261.8485 Y-0.0541
X261.8437 Y-0.1091
X261.8357 Y-0.1641
X261.8244 Y-0.2191
X261.8096 Y-0.2742
X261.7912 Y-0.3292
X261.7703 Y-0.3809
X261.7458 Y-0.4327
X261.7424 Y-0.4392
X261.7113 Y-0.4942
X261.6752 Y-0.5492
X261.6357 Y-0.6011
X261.584 Y-0.6592
X261.5255 Y-0.715
X261.4915 Y-0.7434
X261.4575 Y-0.7693
X261.4154 Y-0.798
X261.3604 Y-0.831
X261.3053 Y-0.8592
X261.2597 Y-0.8793
X261.1952 Y-0.903
X261.1401 Y-0.9191
X261.0851 Y-0.9318
X261.03 Y-0.9411
X260.975 Y-0.947
X260.8649 Y-0.95
X0.0051
X-0.0499 Y-0.9487
X-0.105 Y-0.9442
X-0.1601 Y-0.9364
X-0.2151 Y-0.9253
X-0.2702 Y-0.9108
X-0.3252 Y-0.8926
X-0.3597 Y-0.8793
X-0.3975 Y-0.8628
X-0.4353 Y-0.8444
X-0.4904 Y-0.8136
X-0.5455 Y-0.7778
X-0.5574 Y-0.7693
X-0.6065 Y-0.7312
X-0.6556 Y-0.6875
X-0.684 Y-0.6592
X-0.7276 Y-0.6108
X-0.7657 Y-0.5623
X-0.7752 Y-0.5492
X-0.8113 Y-0.4942
X-0.8424 Y-0.4392
X-0.8758 Y-0.3681
X-0.8911 Y-0.3292
X-0.9096 Y-0.2742
X-0.9244 Y-0.2191
X-0.9357 Y-0.1641
X-0.9437 Y-0.1091
X-0.9485 Y-0.0541
X-0.95 Y0.0009
Y89.9991
X-0.9485 Y90.0541
X-0.9437 Y90.1091
X-0.9357 Y90.1641
X-0.9244 Y90.2191
X-0.9096 Y90.2742
X-0.8911 Y90.3292
X-0.8758 Y90.3681
X-0.8424 Y90.4392
X-0.8113 Y90.4942
X-0.7752 Y90.5492
X-0.7657 Y90.5623
X-0.7276 Y90.6108
X-0.684 Y90.6592
X-0.6556 Y90.6876
X-0.6065 Y90.7312
X-0.5574 Y90.7693
X-0.5455 Y90.7778
X-0.4904 Y90.8136
X-0.4353 Y90.8444
X-0.3975 Y90.8628
X-0.3597 Y90.8793
X-0.3252 Y90.8926
X-0.2702 Y90.9108
X-0.2151 Y90.9253
X-0.1601 Y90.9364
X-0.105 Y90.9442
X-0.0499 Y90.9487
X0.0051 Y90.95
X191.4111
X228.4977
X228.6912 Z-9.0001
X228.8848 Z-9.0004
X229.0784 Z-9.0008
X229.272 Z-9.0015
X229.4655 Z-9.0023
X229.6591 Z-9.0033
X229.8527 Z-9.0045
X230.0462 Z-9.0058
X230.2398 Z-9.0073
X230.4334 Z-9.009
X230.627 Z-9.0109
X230.8206 Z-9.0129
X231.0141 Z-9.0151
X231.2077 Z-9.0174
X231.4013 Z-9.0199
X231.5948 Z-9.0225
X231.7884 Z-9.0253
X231.982 Z-9.0283
X232.1756 Z-9.0314
X232.3692 Z-9.0347
X232.5627 Z-9.0381
X232.7563 Z-9.0416
X232.9499 Z-9.0453
X233.1434 Z-9.0491
X233.337 Z-9.0531
X233.5306 Z-9.0572
X233.7242 Z-9.0614
X233.9178 Z-9.0658
X234.1113 Z-9.0702
X234.3049 Z-9.0749
X234.4985 Z-9.0796
X234.692 Z-9.0845
X234.8856 Z-9.0894
X234.9824 Z-9.092
X235.0792 Z-9.0945
X235.176 Z-9.0971
X235.2728 Z-9.0997
X235.3696 Z-9.1024
X235.4663 Z-9.1051
X235.5631 Z-9.1078
X235.6599 Z-9.1105
X235.7567 Z-9.1133
X235.8535 Z-9.1161
X235.9503 Z-9.1189
X236.0471 Z-9.1217
X236.1439 Z-9.1246
X236.2406 Z-9.1275
X236.3374 Z-9.1304
X236.4342 Z-9.1334
X236.531 Z-9.1363
X236.6278 Z-9.1393
X236.7246 Z-9.1424
X236.8214 Z-9.1454
X236.9182 Z-9.1485
X237.0149 Z-9.1516
X237.1117 Z-9.1547
X237.2085 Z-9.1578
X237.3053 Z-9.161
X237.4021 Z-9.1642
X237.4989 Z-9.1674
X237.5957 Z-9.1706
X237.6925 Z-9.1739
X237.7892 Z-9.1772
X237.886 Z-9.1805
X237.9828 Z-9.1838
X238.0796 Z-9.1871
X238.2732 Z-9.1939
X238.37 Z-9.1972
X238.4668 Z-9.2006
X238.5635 Z-9.204
X238.6603 Z-9.2074
X238.7571 Z-9.2108
X238.8539 Z-9.2141
X238.9507 Z-9.2175
X239.0475 Z-9.2209
X239.1443 Z-9.2243
X239.2411 Z-9.2277
X239.3378 Z-9.231
X239.4346 Z-9.2344
X239.6282 Z-9.2412
X239.9186 Z-9.2513
X240.2089 Z-9.2614
X240.4993 Z-9.2716
X240.7896 Z-9.2817
X241.08 Z-9.2919
X241.3704 Z-9.302
X241.6607 Z-9.3121
X241.9511 Z-9.3223
X242.2415 Z-9.3324
X242.5318 Z-9.3426
X243.0158 Z-9.3595
X243.4997 Z-9.3764
X243.9836 Z-9.3933
X244.6611 Z-9.4169
X245.5322 Z-9.4473
X246.984 Z-9.498
X253.9527 Z-9.7413
X254.2431 Z-9.7515
X254.5334 Z-9.7616
X254.6302 Z-9.765
X254.727 Z-9.7684
X254.8238 Z-9.7717
X254.9206 Z-9.7751
X255.0174 Z-9.7785
X255.1142 Z-9.7819
X255.211 Z-9.7853
X255.3078 Z-9.7886
X255.4045 Z-9.792
X255.5013 Z-9.7954
X255.5981 Z-9.7988
X255.6949 Z-9.8022
X255.7917 Z-9.8055
X255.8885 Z-9.8089
X255.9853 Z-9.8123
X256.0821 Z-9.8156
X256.1788 Z-9.819
X256.2756 Z-9.8223
X256.3724 Z-9.8255
X256.4692 Z-9.8288
X256.566 Z-9.832
X256.6628 Z-9.8353
X256.7596 Z-9.8385
X256.8564 Z-9.8416
X256.9531 Z-9.8448
X257.0499 Z-9.8479
X257.1467 Z-9.851
X257.2435 Z-9.8541
X257.3403 Z-9.8571
X257.4371 Z-9.8601
X257.5338 Z-9.8631
X257.6306 Z-9.8661
X257.7274 Z-9.8691
X257.8242 Z-9.872
X257.921 Z-9.8749
X258.0178 Z-9.8778
X258.1146 Z-9.8806
X258.2114 Z-9.8834
X258.3082 Z-9.8862
X258.4049 Z-9.889
X258.5017 Z-9.8917
X258.5985 Z-9.8945
X258.6953 Z-9.8971
X258.7921 Z-9.8998
X258.8889 Z-9.9024
X258.9857 Z-9.905
X259.0825 Z-9.9076
X259.1792 Z-9.9101
X259.276 Z-9.9126
X259.4696 Z-9.9176
X259.6632 Z-9.9224
X259.8568 Z-9.9271
X260.0503 Z-9.9316
X260.2439 Z-9.9361
X260.4375 Z-9.9404
X260.631 Z-9.9445
X260.8246 Z-9.9486
X261.0182 Z-9.9525
X261.2118 Z-9.9562
X261.4054 Z-9.9599
X261.5989 Z-9.9634
X261.7925 Z-9.9667
X261.9861 Z-9.9699
X262.1797 Z-9.9729
X262.3732 Z-9.9758
X262.5668 Z-9.9786
X262.7604 Z-9.9812
X262.9539 Z-9.9836
X263.1475 Z-9.9859
X263.3411 Z-9.988
X263.5347 Z-9.9899
X263.7282 Z-9.9917
X263.9218 Z-9.9933
X264.1154 Z-9.9948
X264.309 Z-9.996
X264.5025 Z-9.9971
X264.6961 Z-9.9981
X264.8897 Z-9.9988
X265.0833 Z-9.9994
X265.2769 Z-9.9998
X265.4704 Z-10
X265.5842
X405.9949
X406.05 Y90.9487
X406.105 Y90.9442
X406.1601 Y90.9364
X406.2151 Y90.9253
X406.2702 Y90.9108
X406.3253 Y90.8926
X406.3597 Y90.8793
X406.3976 Y90.8628
X406.4354 Y90.8444
X406.4904 Y90.8136
X406.5455 Y90.7778
X406.5575 Y90.7693
X406.6066 Y90.7312
X406.6556 Y90.6876
X406.6841 Y90.6592
X406.7277 Y90.6108
X406.7657 Y90.5623
X406.7752 Y90.5492
X406.8114 Y90.4942
X406.8424 Y90.4392
X406.8759 Y90.3681
X406.8912 Y90.3292
X406.9096 Y90.2742
X406.9244 Y90.2191
X406.9358 Y90.1641
X406.9438 Y90.1091
X406.9485 Y90.0541
X406.95 Y89.9991
Y0.0009
X406.9485 Y-0.0541
X406.9438 Y-0.1091
X406.9358 Y-0.1641
X406.9244 Y-0.2191
X406.9096 Y-0.2742
X406.8912 Y-0.3292
X406.8759 Y-0.3681
X406.8424 Y-0.4392
X406.8114 Y-0.4942
X406.7752 Y-0.5492
X406.7657 Y-0.5623
X406.7277 Y-0.6108
X406.6841 Y-0.6592
X406.6556 Y-0.6875
X406.6066 Y-0.7312
X406.5575 Y-0.7693
X406.5455 Y-0.7778
X406.4904 Y-0.8136
X406.4354 Y-0.8444
X406.3976 Y-0.8628
X406.3597 Y-0.8793
X406.3253 Y-0.8926
X406.2702 Y-0.9108
X406.2151 Y-0.9253
X406.1601 Y-0.9364
X406.105 Y-0.9442
X406.05 Y-0.9487
X405.9949 Y-0.95
X341.1379
X341.0277 Y-0.9472
X340.9727 Y-0.9414
X340.9176 Y-0.9323
X340.8626 Y-0.9198
X340.8075 Y-0.9039
X340.7404 Y-0.8793
X340.6974 Y-0.8605
X340.6424 Y-0.8325
X340.5873 Y-0.7998
X340.5426 Y-0.7693
X340.5099 Y-0.7445
X340.4772 Y-0.7173
X340.4466 Y-0.6896
X340.416 Y-0.6592
X340.3671 Y-0.6044
X340.3249 Y-0.5492
X340.2887 Y-0.4942
X340.2576 Y-0.4392
X340.257 Y-0.4379
X340.2309 Y-0.3835
X340.2089 Y-0.3292
X340.1904 Y-0.2742
X340.1756 Y-0.2191
X340.1643 Y-0.1641
X340.1563 Y-0.1091
X340.1516 Y-0.0541
X340.15 Y0.0009
Y18.2485
X340.1484 Y18.25
X261.8515
X261.85 Y18.2485
Y0.0009
X261.8485 Y-0.0541
X261.8437 Y-0.1091
X261.8357 Y-0.1641
X261.8244 Y-0.2191
X261.8096 Y-0.2742
X261.7912 Y-0.3292
X261.7703 Y-0.3809
X261.7458 Y-0.4327
X261.7424 Y-0.4392
X261.7113 Y-0.4942
X261.6752 Y-0.5492
X261.6357 Y-0.6011
X261.584 Y-0.6592
X261.5255 Y-0.715
X261.4915 Y-0.7434
X261.4575 Y-0.7693
X261.4154 Y-0.798
X261.3604 Y-0.831
X261.3053 Y-0.8592
X261.2597 Y-0.8793
X261.1952 Y-0.903
X261.1401 Y-0.9191
X261.0851 Y-0.9318
X261.03 Y-0.9411
X260.975 Y-0.947
X260.8649 Y-0.95
X0.0051
X-0.0499 Y-0.9487
X-0.105 Y-0.9442
X-0.1601 Y-0.9364
X-0.2151 Y-0.9253
X-0.2702 Y-0.9108
X-0.3252 Y-0.8926
X-0.3597 Y-0.8793
X-0.3975 Y-0.8628
X-0.4353 Y-0.8444
X-0.4904 Y-0.8136
X-0.5455 Y-0.7778
X-0.5574 Y-0.7693
X-0.6065 Y-0.7312
X-0.6556 Y-0.6875
X-0.684 Y-0.6592
X-0.7276 Y-0.6108
X-0.7657 Y-0.5623
X-0.7752 Y-0.5492
X-0.8113 Y-0.4942
X-0.8424 Y-0.4392
X-0.8758 Y-0.3681
X-0.8911 Y-0.3292
X-0.9096 Y-0.2742
X-0.9244 Y-0.2191
X-0.9357 Y-0.1641
X-0.9437 Y-0.1091
X-0.9485 Y-0.0541
X-0.95 Y0.0009
Y89.9991
X-0.9485 Y90.0541
X-0.9437 Y90.1091
X-0.9357 Y90.1641
X-0.9244 Y90.2191
X-0.9096 Y90.2742
X-0.8911 Y90.3292
X-0.8758 Y90.3681
X-0.8424 Y90.4392
X-0.8113 Y90.4942
X-0.7752 Y90.5492
X-0.7657 Y90.5623
X-0.7276 Y90.6108
X-0.684 Y90.6592
X-0.6556 Y90.6876
X-0.6065 Y90.7312
X-0.5574 Y90.7693
X-0.5455 Y90.7778
X-0.4904 Y90.8136
X-0.4353 Y90.8444
X-0.3975 Y90.8628
X-0.3597 Y90.8793
X-0.3252 Y90.8926
X-0.2702 Y90.9108
X-0.2151 Y90.9253
X-0.1601 Y90.9364
X-0.105 Y90.9442
X-0.0499 Y90.9487
X0.0051 Y90.95
X228.4977
X265.5842
X265.7778 Z-10.0001
X265.9714 Z-10.0004
X266.1649 Z-10.0008
X266.3585 Z-10.0015
X266.5521 Z-10.0023
X266.7457 Z-10.0033
X266.9392 Z-10.0045
X267.1328 Z-10.0058
X267.3264 Z-10.0073
X267.52 Z-10.009
X267.7135 Z-10.0109
X267.9071 Z-10.0129
X268.1007 Z-10.0151
X268.2943 Z-10.0174
X268.4879 Z-10.0199
X268.6814 Z-10.0225
X268.875 Z-10.0253
X269.0686 Z-10.0283
X269.2621 Z-10.0314
X269.4557 Z-10.0347
X269.6493 Z-10.0381
X269.8429 Z-10.0416
X270.0364 Z-10.0453
X270.23 Z-10.0491
X270.4236 Z-10.0531
X270.6172 Z-10.0572
X270.8107 Z-10.0614
X271.0043 Z-10.0658
X271.1979 Z-10.0702
X271.3914 Z-10.0749
X271.585 Z-10.0796
X271.7786 Z-10.0845
X271.9722 Z-10.0894
X272.069 Z-10.092
X272.1658 Z-10.0945
X272.2625 Z-10.0971
X272.3593 Z-10.0997
X272.4561 Z-10.1024
X272.5529 Z-10.1051
X272.6497 Z-10.1078
X272.7465 Z-10.1105
X272.8433 Z-10.1133
X272.9401 Z-10.1161
X273.0368 Z-10.1189
X273.1336 Z-10.1217
X273.2304 Z-10.1246
X273.3272 Z-10.1275
X273.424 Z-10.1304
X273.5208 Z-10.1334
X273.6176 Z-10.1363
X273.7144 Z-10.1393
X273.8112 Z-10.1424
X273.9079 Z-10.1454
X274.0047 Z-10.1485
X274.1015 Z-10.1516
X274.1983 Z-10.1547
X274.2951 Z-10.1578
X274.3919 Z-10.161
X274.4886 Z-10.1642
X274.5854 Z-10.1674
X274.6822 Z-10.1706
X274.779 Z-10.1739
X274.8758 Z-10.1772
X274.9726 Z-10.1805
X275.0694 Z-10.1838
X275.1662 Z-10.1871
X275.3597 Z-10.1939
X275.4565 Z-10.1972
X275.5533 Z-10.2006
X275.6501 Z-10.204
X275.7469 Z-10.2074
X275.8437 Z-10.2108
X275.9405 Z-10.2141
X276.0373 Z-10.2175
X276.134 Z-10.2209
X276.2308 Z-10.2243
X276.3276 Z-10.2277
X276.4244 Z-10.231
X276.5212 Z-10.2344
X276.7148 Z-10.2412
X277.0051 Z-10.2513
X277.2955 Z-10.2614
X277.5858 Z-10.2716
X277.8762 Z-10.2817
X278.1666 Z-10.2919
X278.4569 Z-10.302
X278.7473 Z-10.3121
X279.0377 Z-10.3223
X279.328 Z-10.3324
X279.6184 Z-10.3426
X280.1023 Z-10.3595
X280.5863 Z-10.3764
X281.0702 Z-10.3933
X281.7477 Z-10.4169
X282.6188 Z-10.4473
X284.0706 Z-10.498
X291.0393 Z-10.7413
X291.3297 Z-10.7515
X291.62 Z-10.7616
X291.7168 Z-10.765
X291.8136 Z-10.7684
X291.9104 Z-10.7717
X292.0072 Z-10.7751
X292.1039 Z-10.7785
X292.2007 Z-10.7819
X292.2975 Z-10.7853
X292.3943 Z-10.7886
X292.4911 Z-10.792
X292.5879 Z-10.7954
X292.6847 Z-10.7988
X292.7815 Z-10.8022
X292.8783 Z-10.8055
X292.975 Z-10.8089
X293.0718 Z-10.8123
X293.1686 Z-10.8156
X293.2654 Z-10.819
X293.3622 Z-10.8223
X293.459 Z-10.8255
X293.5558 Z-10.8288
X293.6526 Z-10.832
X293.7493 Z-10.8353
X293.8461 Z-10.8385
X293.9429 Z-10.8416
X294.0397 Z-10.8448
X294.1365 Z-10.8479
X294.2333 Z-10.851
X294.33 Z-10.8541
X294.4268 Z-10.8571
X294.5236 Z-10.8601
X294.6204 Z-10.8631
X294.7172 Z-10.8661
X294.814 Z-10.8691
X294.9108 Z-10.872
X295.0076 Z-10.8749
X295.1044 Z-10.8778
X295.2011 Z-10.8806
X295.2979 Z-10.8834
X295.3947 Z-10.8862
X295.4915 Z-10.889
X295.5883 Z-10.8917
X295.6851 Z-10.8945
X295.7819 Z-10.8971
X295.8787 Z-10.8998
X295.9754 Z-10.9024
X296.0722 Z-10.905
X296.169 Z-10.9076
X296.2658 Z-10.9101
X296.3626 Z-10.9126
X296.5562 Z-10.9176
X296.7498 Z-10.9224
X296.9433 Z-10.9271
X297.1369 Z-10.9316
X297.3305 Z-10.9361
X297.524 Z-10.9404
X297.7176 Z-10.9445
X297.9112 Z-10.9486
X298.1048 Z-10.9525
X298.2983 Z-10.9562
X298.4919 Z-10.9599
X298.6855 Z-10.9634
X298.8791 Z-10.9667
X299.0726 Z-10.9699
X299.2662 Z-10.9729
X299.4598 Z-10.9758
X299.6534 Z-10.9786
X299.8469 Z-10.9812
X300.0405 Z-10.9836
X300.2341 Z-10.9859
X300.4277 Z-10.988
X300.6212 Z-10.9899
X300.8148 Z-10.9917
X301.0084 Z-10.9933
X301.202 Z-10.9948
X301.3955 Z-10.996
X301.5891 Z-10.9971
X301.7827 Z-10.9981
X301.9763 Z-10.9988
X302.1698 Z-10.9994
X302.3634 Z-10.9998
X302.557 Z-11
X302.6708
X405.9949
X406.05 Y90.9487
X406.105 Y90.9442
X406.1601 Y90.9364
X406.2151 Y90.9253
X406.2702 Y90.9108
X406.3253 Y90.8926
X406.3597 Y90.8793
X406.3976 Y90.8628
X406.4354 Y90.8444
X406.4904 Y90.8136
X406.5455 Y90.7778
X406.5575 Y90.7693
X406.6066 Y90.7312
X406.6556 Y90.6876
X406.6841 Y90.6592
X406.7277 Y90.6108
X406.7657 Y90.5623
X406.7752 Y90.5492
X406.8114 Y90.4942
X406.8424 Y90.4392
X406.8759 Y90.3681
X406.8912 Y90.3292
X406.9096 Y90.2742
X406.9244 Y90.2191
X406.9358 Y90.1641
X406.9438 Y90.1091
X406.9485 Y90.0541
X406.95 Y89.9991
Y0.0009
X406.9485 Y-0.0541
X406.9438 Y-0.1091
X406.9358 Y-0.1641
X406.9244 Y-0.2191
X406.9096 Y-0.2742
X406.8912 Y-0.3292
X406.8759 Y-0.3681
X406.8424 Y-0.4392
X406.8114 Y-0.4942
X406.7752 Y-0.5492
X406.7657 Y-0.5623
X406.7277 Y-0.6108
X406.6841 Y-0.6592
X406.6556 Y-0.6875
X406.6066 Y-0.7312
X406.5575 Y-0.7693
X406.5455 Y-0.7778
X406.4904 Y-0.8136
X406.4354 Y-0.8444
X406.3976 Y-0.8628
X406.3597 Y-0.8793
X406.3253 Y-0.8926
X406.2702 Y-0.9108
X406.2151 Y-0.9253
X406.1601 Y-0.9364
X406.105 Y-0.9442
X406.05 Y-0.9487
X405.9949 Y-0.95
X341.1379
X341.0277 Y-0.9472
X340.9727 Y-0.9414
X340.9176 Y-0.9323
X340.8626 Y-0.9198
X340.8075 Y-0.9039
X340.7404 Y-0.8793
X340.6974 Y-0.8605
X340.6424 Y-0.8325
X340.5873 Y-0.7998
X340.5426 Y-0.7693
X340.5099 Y-0.7445
X340.4772 Y-0.7173
X340.4466 Y-0.6896
X340.416 Y-0.6592
X340.3671 Y-0.6044
X340.3249 Y-0.5492
X340.2887 Y-0.4942
X340.2576 Y-0.4392
X340.257 Y-0.4379
X340.2309 Y-0.3835
X340.2089 Y-0.3292
X340.1904 Y-0.2742
X340.1756 Y-0.2191
X340.1643 Y-0.1641
X340.1563 Y-0.1091
X340.1516 Y-0.0541
X340.15 Y0.0009
Y18.2485
X340.1484 Y18.25
X261.8515
X261.85 Y18.2485
Y0.0009
X261.8485 Y-0.0541
X261.8437 Y-0.1091
X261.8357 Y-0.1641
X261.8244 Y-0.2191
X261.8096 Y-0.2742
X261.7912 Y-0.3292
X261.7703 Y-0.3809
X261.7458 Y-0.4327
X261.7424 Y-0.4392
X261.7113 Y-0.4942
X261.6752 Y-0.5492
X261.6357 Y-0.6011
X261.584 Y-0.6592
X261.5255 Y-0.715
X261.4915 Y-0.7434
X261.4575 Y-0.7693
X261.4154 Y-0.798
X261.3604 Y-0.831
X261.3053 Y-0.8592
X261.2597 Y-0.8793
X261.1952 Y-0.903
X261.1401 Y-0.9191
X261.0851 Y-0.9318
X261.03 Y-0.9411
X260.975 Y-0.947
X260.8649 Y-0.95
X0.0051
X-0.0499 Y-0.9487
X-0.105 Y-0.9442
X-0.1601 Y-0.9364
X-0.2151 Y-0.9253
X-0.2702 Y-0.9108
X-0.3252 Y-0.8926
X-0.3597 Y-0.8793
X-0.3975 Y-0.8628
X-0.4353 Y-0.8444
X-0.4904 Y-0.8136
X-0.5455 Y-0.7778
X-0.5574 Y-0.7693
X-0.6065 Y-0.7312
X-0.6556 Y-0.6875
X-0.684 Y-0.6592
X-0.7276 Y-0.6108
X-0.7657 Y-0.5623
X-0.7752 Y-0.5492
X-0.8113 Y-0.4942
X-0.8424 Y-0.4392
X-0.8758 Y-0.3681
X-0.8911 Y-0.3292
X-0.9096 Y-0.2742
X-0.9244 Y-0.2191
X-0.9357 Y-0.1641
X-0.9437 Y-0.1091
X-0.9485 Y-0.0541
X-0.95 Y0.0009
Y89.9991
X-0.9485 Y90.0541
X-0.9437 Y90.1091
X-0.9357 Y90.1641
X-0.9244 Y90.2191
X-0.9096 Y90.2742
X-0.8911 Y90.3292
X-0.8758 Y90.3681
X-0.8424 Y90.4392
X-0.8113 Y90.4942
X-0.7752 Y90.5492
X-0.7657 Y90.5623
X-0.7276 Y90.6108
X-0.684 Y90.6592
X-0.6556 Y90.6876
X-0.6065 Y90.7312
X-0.5574 Y90.7693
X-0.5455 Y90.7778
X-0.4904 Y90.8136
X-0.4353 Y90.8444
X-0.3975 Y90.8628
X-0.3597 Y90.8793
X-0.3252 Y90.8926
X-0.2702 Y90.9108
X-0.2151 Y90.9253
X-0.1601 Y90.9364
X-0.105 Y90.9442
X-0.0499 Y90.9487
X0.0051 Y90.95
X265.5842
X302.6708
X302.8643 Z-11.0001
X303.0579 Z-11.0004
X303.2515 Z-11.0008
X303.4451 Z-11.0015
X303.6387 Z-11.0023
X303.8322 Z-11.0033
X304.0258 Z-11.0045
X304.2194 Z-11.0058
X304.413 Z-11.0073
X304.6065 Z-11.009
X304.8001 Z-11.0109
X304.9937 Z-11.0129
X305.1873 Z-11.0151
X305.3808 Z-11.0174
X305.5744 Z-11.0199
X305.768 Z-11.0225
X305.9615 Z-11.0253
X306.1551 Z-11.0283
X306.3487 Z-11.0314
X306.5423 Z-11.0347
X306.7358 Z-11.0381
X306.9294 Z-11.0416
X307.123 Z-11.0453
X307.3166 Z-11.0491
X307.5102 Z-11.0531
X307.7037 Z-11.0572
X307.8973 Z-11.0614
X308.0909 Z-11.0658
X308.2845 Z-11.0702
X308.478 Z-11.0749
X308.6716 Z-11.0796
X308.8652 Z-11.0845
X309.0587 Z-11.0894
X309.1555 Z-11.092
X309.2523 Z-11.0945
X309.3491 Z-11.0971
X309.4459 Z-11.0997
X309.5427 Z-11.1024
X309.6395 Z-11.1051
X309.7363 Z-11.1078
X309.833 Z-11.1105
X309.9298 Z-11.1133
X310.0266 Z-11.1161
X310.1234 Z-11.1189
X310.2202 Z-11.1217
X310.317 Z-11.1246
X310.4138 Z-11.1275
X310.5106 Z-11.1304
X310.6074 Z-11.1334
X310.7041 Z-11.1363
X310.8009 Z-11.1393
X310.8977 Z-11.1424
X310.9945 Z-11.1454
X311.0913 Z-11.1485
X311.1881 Z-11.1516
X311.2849 Z-11.1547
X311.3817 Z-11.1578
X311.4784 Z-11.161
X311.5752 Z-11.1642
X311.672 Z-11.1674
X311.7688 Z-11.1706
X311.8656 Z-11.1739
X311.9624 Z-11.1772
X312.0591 Z-11.1805
X312.1559 Z-11.1838
X312.2527 Z-11.1871
X312.4463 Z-11.1939
X312.5431 Z-11.1972
X312.6399 Z-11.2006
X312.7367 Z-11.204
X312.8335 Z-11.2074
X312.9302 Z-11.2108
X313.027 Z-11.2141
X313.1238 Z-11.2175
X313.2206 Z-11.2209
X313.3174 Z-11.2243
X313.4142 Z-11.2277
X313.511 Z-11.231
X313.6078 Z-11.2344
X313.8013 Z-11.2412
X314.0917 Z-11.2513
X314.382 Z-11.2614
X314.6724 Z-11.2716
X314.9628 Z-11.2817
X315.2531 Z-11.2919
X315.5435 Z-11.302
X315.8339 Z-11.3121
X316.1242 Z-11.3223
X316.4146 Z-11.3324
X316.705 Z-11.3426
X317.1889 Z-11.3595
X317.6728 Z-11.3764
X318.1568 Z-11.3933
X318.8343 Z-11.4169
X319.7054 Z-11.4473
X321.1572 Z-11.498
X328.1259 Z-11.7413
X328.4162 Z-11.7515
X328.7066 Z-11.7616
X328.8034 Z-11.765
X328.9001 Z-11.7684
X328.9969 Z-11.7717
X329.0937 Z-11.7751
X329.1905 Z-11.7785
X329.2873 Z-11.7819
X329.3841 Z-11.7853
X329.4809 Z-11.7886
X329.5777 Z-11.792
X329.6744 Z-11.7954
X329.7712 Z-11.7988
X329.868 Z-11.8022
X329.9648 Z-11.8055
X330.0616 Z-11.8089
X330.1584 Z-11.8123
X330.2552 Z-11.8156
X330.352 Z-11.819
X330.4488 Z-11.8223
X330.5455 Z-11.8255
X330.6423 Z-11.8288
X330.7391 Z-11.832
X330.8359 Z-11.8353
X330.9327 Z-11.8385
X331.0295 Z-11.8416
X331.1263 Z-11.8448
X331.2231 Z-11.8479
X331.3198 Z-11.851
X331.4166 Z-11.8541
X331.5134 Z-11.8571
X331.6102 Z-11.8601
X331.707 Z-11.8631
X331.8038 Z-11.8661
X331.9006 Z-11.8691
X331.9973 Z-11.872
X332.0941 Z-11.8749
X332.1909 Z-11.8778
X332.2877 Z-11.8806
X332.3845 Z-11.8834
X332.4813 Z-11.8862
X332.5781 Z-11.889
X332.6749 Z-11.8917
X332.7716 Z-11.8945
X332.8684 Z-11.8971
X332.9652 Z-11.8998
X333.062 Z-11.9024
X333.1588 Z-11.905
X333.2556 Z-11.9076
X333.3524 Z-11.9101
X333.4492 Z-11.9126
X333.6427 Z-11.9176
X333.8363 Z-11.9224
X334.0299 Z-11.9271
X334.2234 Z-11.9316
X334.417 Z-11.9361
X334.6106 Z-11.9404
X334.8042 Z-11.9445
X334.9977 Z-11.9486
X335.1913 Z-11.9525
X335.3849 Z-11.9562
X335.5785 Z-11.9599
X335.7721 Z-11.9634
X335.9656 Z-11.9667
X336.1592 Z-11.9699
X336.3528 Z-11.9729
X336.5464 Z-11.9758
X336.7399 Z-11.9786
X336.9335 Z-11.9812
X337.1271 Z-11.9836
X337.3206 Z-11.9859
X337.5142 Z-11.988
X337.7078 Z-11.9899
X337.9014 Z-11.9917
X338.0949 Z-11.9933
X338.2885 Z-11.9948
X338.4821 Z-11.996
X338.6757 Z-11.9971
X338.8693 Z-11.9981
X339.0628 Z-11.9988
X339.2564 Z-11.9994
X339.45 Z-11.9998
X339.6436 Z-12
X339.7574
X405.9949
X406.05 Y90.9487
X406.105 Y90.9442
X406.1601 Y90.9364
X406.2151 Y90.9253
X406.2702 Y90.9108
X406.3253 Y90.8926
X406.3597 Y90.8793
X406.3976 Y90.8628
X406.4354 Y90.8444
X406.4904 Y90.8136
X406.5455 Y90.7778
X406.5575 Y90.7693
X406.6066 Y90.7312
X406.6556 Y90.6876
X406.6841 Y90.6592
X406.7277 Y90.6108
X406.7657 Y90.5623
X406.7752 Y90.5492
X406.8114 Y90.4942
X406.8424 Y90.4392
X406.8759 Y90.3681
X406.8912 Y90.3292
X406.9096 Y90.2742
X406.9244 Y90.2191
X406.9358 Y90.1641
X406.9438 Y90.1091
X406.9485 Y90.0541
X406.95 Y89.9991
Y0.0009
X406.9485 Y-0.0541
X406.9438 Y-0.1091
X406.9358 Y-0.1641
X406.9244 Y-0.2191
X406.9096 Y-0.2742
X406.8912 Y-0.3292
X406.8759 Y-0.3681
X406.8424 Y-0.4392
X406.8114 Y-0.4942
X406.7752 Y-0.5492
X406.7657 Y-0.5623
X406.7277 Y-0.6108
X406.6841 Y-0.6592
X406.6556 Y-0.6875
X406.6066 Y-0.7312
X406.5575 Y-0.7693
X406.5455 Y-0.7778
X406.4904 Y-0.8136
X406.4354 Y-0.8444
X406.3976 Y-0.8628
X406.3597 Y-0.8793
X406.3253 Y-0.8926
X406.2702 Y-0.9108
X406.2151 Y-0.9253
X406.1601 Y-0.9364
X406.105 Y-0.9442
X406.05 Y-0.9487
X405.9949 Y-0.95
X341.1379
X341.0277 Y-0.9472
X340.9727 Y-0.9414
X340.9176 Y-0.9323
X340.8626 Y-0.9198
X340.8075 Y-0.9039
X340.7404 Y-0.8793
X340.6974 Y-0.8605
X340.6424 Y-0.8325
X340.5873 Y-0.7998
X340.5426 Y-0.7693
X340.5099 Y-0.7445
X340.4772 Y-0.7173
X340.4466 Y-0.6896
X340.416 Y-0.6592
X340.3671 Y-0.6044
X340.3249 Y-0.5492
X340.2887 Y-0.4942
X340.2576 Y-0.4392
X340.257 Y-0.4379
X340.2309 Y-0.3835
X340.2089 Y-0.3292
X340.1904 Y-0.2742
X340.1756 Y-0.2191
X340.1643 Y-0.1641
X340.1563 Y-0.1091
X340.1516 Y-0.0541
X340.15 Y0.0009
Y18.2485
X340.1484 Y18.25
X261.8515
X261.85 Y18.2485
Y0.0009
X261.8485 Y-0.0541
X261.8437 Y-0.1091
X261.8357 Y-0.1641
X261.8244 Y-0.2191
X261.8096 Y-0.2742
X261.7912 Y-0.3292
X261.7703 Y-0.3809
X261.7458 Y-0.4327
X261.7424 Y-0.4392
X261.7113 Y-0.4942
X261.6752 Y-0.5492
X261.6357 Y-0.6011
X261.584 Y-0.6592
X261.5255 Y-0.715
X261.4915 Y-0.7434
X261.4575 Y-0.7693
X261.4154 Y-0.798
X261.3604 Y-0.831
X261.3053 Y-0.8592
X261.2597 Y-0.8793
X261.1952 Y-0.903
X261.1401 Y-0.9191
X261.0851 Y-0.9318
X261.03 Y-0.9411
X260.975 Y-0.947
X260.8649 Y-0.95
X0.0051
X-0.0499 Y-0.9487
X-0.105 Y-0.9442
X-0.1601 Y-0.9364
X-0.2151 Y-0.9253
X-0.2702 Y-0.9108
X-0.3252 Y-0.8926
X-0.3597 Y-0.8793
X-0.3975 Y-0.8628
X-0.4353 Y-0.8444
X-0.4904 Y-0.8136
X-0.5455 Y-0.7778
X-0.5574 Y-0.7693
X-0.6065 Y-0.7312
X-0.6556 Y-0.6875
X-0.684 Y-0.6592
X-0.7276 Y-0.6108
X-0.7657 Y-0.5623
X-0.7752 Y-0.5492
X-0.8113 Y-0.4942
X-0.8424 Y-0.4392
X-0.8758 Y-0.3681
X-0.8911 Y-0.3292
X-0.9096 Y-0.2742
X-0.9244 Y-0.2191
X-0.9357 Y-0.1641
X-0.9437 Y-0.1091
X-0.9485 Y-0.0541
X-0.95 Y0.0009
Y89.9991
X-0.9485 Y90.0541
X-0.9437 Y90.1091
X-0.9357 Y90.1641
X-0.9244 Y90.2191
X-0.9096 Y90.2742
X-0.8911 Y90.3292
X-0.8758 Y90.3681
X-0.8424 Y90.4392
X-0.8113 Y90.4942
X-0.7752 Y90.5492
X-0.7657 Y90.5623
X-0.7276 Y90.6108
X-0.684 Y90.6592
X-0.6556 Y90.6876
X-0.6065 Y90.7312
X-0.5574 Y90.7693
X-0.5455 Y90.7778
X-0.4904 Y90.8136
X-0.4353 Y90.8444
X-0.3975 Y90.8628
X-0.3597 Y90.8793
X-0.3252 Y90.8926
X-0.2702 Y90.9108
X-0.2151 Y90.9253
X-0.1601 Y90.9364
X-0.105 Y90.9442
X-0.0499 Y90.9487
X0.0051 Y90.95
X302.6708
X339.7574
X339.9509 Z-12.0001
X340.1445 Z-12.0004
X340.3381 Z-12.0008
X340.5316 Z-12.0015
X340.7252 Z-12.0023
X340.9188 Z-12.0033
X341.1124 Z-12.0045
X341.3059 Z-12.0058
X341.4995 Z-12.0073
X341.6931 Z-12.009
X341.8867 Z-12.0109
X342.0803 Z-12.0129
X342.2738 Z-12.0151
X342.4674 Z-12.0174
X342.661 Z-12.0199
X342.8546 Z-12.0225
X343.0481 Z-12.0253
X343.2417 Z-12.0283
X343.4353 Z-12.0314
X343.6288 Z-12.0347
X343.8224 Z-12.0381
X344.016 Z-12.0416
X344.2096 Z-12.0453
X344.4031 Z-12.0491
X344.5967 Z-12.0531
X344.7903 Z-12.0572
X344.9839 Z-12.0614
X345.1774 Z-12.0658
X345.371 Z-12.0702
X345.5646 Z-12.0749
X345.7582 Z-12.0796
X345.9518 Z-12.0845
X346.1453 Z-12.0894
X346.2421 Z-12.092
X346.3389 Z-12.0945
X346.4357 Z-12.0971
X346.5325 Z-12.0997
X346.6292 Z-12.1024
X346.726 Z-12.1051
X346.8228 Z-12.1078
X346.9196 Z-12.1105
X347.0164 Z-12.1133
X347.1132 Z-12.1161
X347.21 Z-12.1189
X347.3068 Z-12.1217
X347.4036 Z-12.1246
X347.5003 Z-12.1275
X347.5971 Z-12.1304
X347.6939 Z-12.1334
X347.7907 Z-12.1363
X347.8875 Z-12.1393
X347.9843 Z-12.1424
X348.0811 Z-12.1454
X348.1779 Z-12.1485
X348.2746 Z-12.1516
X348.3714 Z-12.1547
X348.4682 Z-12.1578
X348.565 Z-12.161
X348.6618 Z-12.1642
X348.7586 Z-12.1674
X348.8553 Z-12.1706
X348.9521 Z-12.1739
X349.0489 Z-12.1772
X349.1457 Z-12.1805
X349.2425 Z-12.1838
X349.3393 Z-12.1871
X349.5329 Z-12.1939
X349.6297 Z-12.1972
X349.7264 Z-12.2006
X349.8232 Z-12.204
X349.92 Z-12.2074
X350.0168 Z-12.2108
X350.1136 Z-12.2141
X350.2104 Z-12.2175
X350.3072 Z-12.2209
X350.404 Z-12.2243
X350.5007 Z-12.2277
X350.5975 Z-12.231
X350.6943 Z-12.2344
X350.8879 Z-12.2412
X351.1783 Z-12.2513
X351.4686 Z-12.2614
X351.759 Z-12.2716
X352.0493 Z-12.2817
X352.3397 Z-12.2919
X352.6301 Z-12.302
X352.9204 Z-12.3121
X353.2108 Z-12.3223
X353.5012 Z-12.3324
X353.7915 Z-12.3426
X354.2755 Z-12.3595
X354.7594 Z-12.3764
X355.2433 Z-12.3933
X355.9208 Z-12.4169
X356.7919 Z-12.4473
X358.2437 Z-12.498
X365.2124 Z-12.7413
X365.5028 Z-12.7515
X365.7932 Z-12.7616
X365.8899 Z-12.765
X365.9867 Z-12.7684
X366.0835 Z-12.7717
X366.1803 Z-12.7751
X366.2771 Z-12.7785
X366.3739 Z-12.7819
X366.4706 Z-12.7853
X366.5674 Z-12.7886
X366.6642 Z-12.792
X366.761 Z-12.7954
X366.8578 Z-12.7988
X366.9546 Z-12.8022
X367.0514 Z-12.8055
X367.1482 Z-12.8089
X367.245 Z-12.8123
X367.3417 Z-12.8156
X367.4385 Z-12.819
X367.5353 Z-12.8223
X367.6321 Z-12.8255
X367.7289 Z-12.8288
X367.8257 Z-12.832
X367.9225 Z-12.8353
X368.0193 Z-12.8385
X368.116 Z-12.8416
X368.2128 Z-12.8448
X368.3096 Z-12.8479
X368.4064 Z-12.851
X368.5032 Z-12.8541
X368.6 Z-12.8571
X368.6968 Z-12.8601
X368.7935 Z-12.8631
X368.8904 Z-12.8661
X368.9871 Z-12.8691
X369.0839 Z-12.872
X369.1807 Z-12.8749
X369.2775 Z-12.8778
X369.3743 Z-12.8806
X369.4711 Z-12.8834
X369.5678 Z-12.8862
X369.6646 Z-12.889
X369.7614 Z-12.8917
X369.8582 Z-12.8945
X369.955 Z-12.8971
X370.0518 Z-12.8998
X370.1486 Z-12.9024
X370.2454 Z-12.905
X370.3422 Z-12.9076
X370.4389 Z-12.9101
X370.5357 Z-12.9126
X370.7293 Z-12.9176
X370.9229 Z-12.9224
X371.1165 Z-12.9271
X371.31 Z-12.9316
X371.5036 Z-12.9361
X371.6972 Z-12.9404
X371.8907 Z-12.9445
X372.0843 Z-12.9486
X372.2779 Z-12.9525
X372.4715 Z-12.9562
X372.665 Z-12.9599
X372.8586 Z-12.9634
X373.0522 Z-12.9667
X373.2458 Z-12.9699
X373.4393 Z-12.9729
X373.6329 Z-12.9758
X373.8265 Z-12.9786
X374.0201 Z-12.9812
X374.2137 Z-12.9836
X374.4072 Z-12.9859
X374.6008 Z-12.988
X374.7944 Z-12.9899
X374.9879 Z-12.9917
X375.1815 Z-12.9933
X375.3751 Z-12.9948
X375.5687 Z-12.996
X375.7622 Z-12.9971
X375.9558 Z-12.9981
X376.1494 Z-12.9988
X376.343 Z-12.9994
X376.5365 Z-12.9998
X376.7301 Z-13
X376.8439
X405.9949
X406.05 Y90.9487
X406.105 Y90.9442
X406.1601 Y90.9364
X406.2151 Y90.9253
X406.2702 Y90.9108
X406.3253 Y90.8926
X406.3597 Y90.8793
X406.3976 Y90.8628
X406.4354 Y90.8444
X406.4904 Y90.8136
X406.5455 Y90.7778
X406.5575 Y90.7693
X406.6066 Y90.7312
X406.6556 Y90.6876
X406.6841 Y90.6592
X406.7277 Y90.6108
X406.7657 Y90.5623
X406.7752 Y90.5492
X406.8114 Y90.4942
X406.8424 Y90.4392
X406.8759 Y90.3681
X406.8912 Y90.3292
X406.9096 Y90.2742
X406.9244 Y90.2191
X406.9358 Y90.1641
X406.9438 Y90.1091
X406.9485 Y90.0541
X406.95 Y89.9991
Y0.0009
X406.9485 Y-0.0541
X406.9438 Y-0.1091
X406.9358 Y-0.1641
X406.9244 Y-0.2191
X406.9096 Y-0.2742
X406.8912 Y-0.3292
X406.8759 Y-0.3681
X406.8424 Y-0.4392
X406.8114 Y-0.4942
X406.7752 Y-0.5492
X406.7657 Y-0.5623
X406.7277 Y-0.6108
X406.6841 Y-0.6592
X406.6556 Y-0.6875
X406.6066 Y-0.7312
X406.5575 Y-0.7693
X406.5455 Y-0.7778
X406.4904 Y-0.8136
X406.4354 Y-0.8444
X406.3976 Y-0.8628
X406.3597 Y-0.8793
X406.3253 Y-0.8926
X406.2702 Y-0.9108
X406.2151 Y-0.9253
X406.1601 Y-0.9364
X406.105 Y-0.9442
X406.05 Y-0.9487
X405.9949 Y-0.95
X341.1379
X341.0277 Y-0.9472
X340.9727 Y-0.9414
X340.9176 Y-0.9323
X340.8626 Y-0.9198
X340.8075 Y-0.9039
X340.7404 Y-0.8793
X340.6974 Y-0.8605
X340.6424 Y-0.8325
X340.5873 Y-0.7998
X340.5426 Y-0.7693
X340.5099 Y-0.7445
X340.4772 Y-0.7173
X340.4466 Y-0.6896
X340.416 Y-0.6592
X340.3671 Y-0.6044
X340.3249 Y-0.5492
X340.2887 Y-0.4942
X340.2576 Y-0.4392
X340.257 Y-0.4379
X340.2309 Y-0.3835
X340.2089 Y-0.3292
X340.1904 Y-0.2742
X340.1756 Y-0.2191
X340.1643 Y-0.1641
X340.1563 Y-0.1091
X340.1516 Y-0.0541
X340.15 Y0.0009
Y18.2485
X340.1484 Y18.25
X261.8515
X261.85 Y18.2485
Y0.0009
X261.8485 Y-0.0541
X261.8437 Y-0.1091
X261.8357 Y-0.1641
X261.8244 Y-0.2191
X261.8096 Y-0.2742
X261.7912 Y-0.3292
X261.7703 Y-0.3809
X261.7458 Y-0.4327
X261.7424 Y-0.4392
X261.7113 Y-0.4942
X261.6752 Y-0.5492
X261.6357 Y-0.6011
X261.584 Y-0.6592
X261.5255 Y-0.715
X261.4915 Y-0.7434
X261.4575 Y-0.7693
X261.4154 Y-0.798
X261.3604 Y-0.831
X261.3053 Y-0.8592
X261.2597 Y-0.8793
X261.1952 Y-0.903
X261.1401 Y-0.9191
X261.0851 Y-0.9318
X261.03 Y-0.9411
X260.975 Y-0.947
X260.8649 Y-0.95
X0.0051
X-0.0499 Y-0.9487
X-0.105 Y-0.9442
X-0.1601 Y-0.9364
X-0.2151 Y-0.9253
X-0.2702 Y-0.9108
X-0.3252 Y-0.8926
X-0.3597 Y-0.8793
X-0.3975 Y-0.8628
X-0.4353 Y-0.8444
X-0.4904 Y-0.8136
X-0.5455 Y-0.7778
X-0.5574 Y-0.7693
X-0.6065 Y-0.7312
X-0.6556 Y-0.6875
X-0.684 Y-0.6592
X-0.7276 Y-0.6108
X-0.7657 Y-0.5623
X-0.7752 Y-0.5492
X-0.8113 Y-0.4942
X-0.8424 Y-0.4392
X-0.8758 Y-0.3681
X-0.8911 Y-0.3292
X-0.9096 Y-0.2742
X-0.9244 Y-0.2191
X-0.9357 Y-0.1641
X-0.9437 Y-0.1091
X-0.9485 Y-0.0541
X-0.95 Y0.0009
Y89.9991
X-0.9485 Y90.0541
X-0.9437 Y90.1091
X-0.9357 Y90.1641
X-0.9244 Y90.2191
X-0.9096 Y90.2742
X-0.8911 Y90.3292
X-0.8758 Y90.3681
X-0.8424 Y90.4392
X-0.8113 Y90.4942
X-0.7752 Y90.5492
X-0.7657 Y90.5623
X-0.7276 Y90.6108
X-0.684 Y90.6592
X-0.6556 Y90.6876
X-0.6065 Y90.7312
X-0.5574 Y90.7693
X-0.5455 Y90.7778
X-0.4904 Y90.8136
X-0.4353 Y90.8444
X-0.3975 Y90.8628
X-0.3597 Y90.8793
X-0.3252 Y90.8926
X-0.2702 Y90.9108
X-0.2151 Y90.9253
X-0.1601 Y90.9364
X-0.105 Y90.9442
X-0.0499 Y90.9487
X0.0051 Y90.95
X339.7574
X376.8439
X377.0376 Z-13.0001
X377.2313 Z-13.0004
X377.425 Z-13.0009
X377.6187 Z-13.0016
X377.8124 Z-13.0026
X378.0061 Z-13.0037
X378.1998 Z-13.005
X378.3935 Z-13.0064
X378.5872 Z-13.0081
X378.7809 Z-13.01
X378.9745 Z-13.012
X379.1682 Z-13.0143
X379.3619 Z-13.0167
X379.5556 Z-13.0192
X379.7493 Z-13.022
X379.943 Z-13.0249
X380.1367 Z-13.028
X380.3304 Z-13.0312
X380.5241 Z-13.0346
X380.7178 Z-13.0382
X380.9115 Z-13.0419
X381.1052 Z-13.0458
X381.2989 Z-13.0499
X381.4926 Z-13.054
X381.6863 Z-13.0584
X381.88 Z-13.0628
X382.0737 Z-13.0674
X382.2674 Z-13.0722
X382.4611 Z-13.0771
X382.5579 Z-13.0796
X382.6548 Z-13.0821
X382.7516 Z-13.0847
X382.8484 Z-13.0873
X382.9453 Z-13.0899
X383.0421 Z-13.0925
X383.139 Z-13.0952
X383.2358 Z-13.0979
X383.3327 Z-13.1007
X383.4295 Z-13.1035
X383.5264 Z-13.1063
X383.6232 Z-13.1091
X383.7201 Z-13.112
X383.8169 Z-13.1149
X383.9138 Z-13.1178
X384.0106 Z-13.1208
X384.1075 Z-13.1237
X384.2043 Z-13.1267
X384.3012 Z-13.1298
X384.398 Z-13.1328
X384.4949 Z-13.1359
X384.5917 Z-13.1391
X384.6886 Z-13.1422
X384.7854 Z-13.1454
X384.8823 Z-13.1486
X384.9791 Z-13.1518
X385.076 Z-13.155
X385.1728 Z-13.1583
X385.2697 Z-13.1616
X385.3665 Z-13.1649
X385.4633 Z-13.1683
X385.657 Z-13.175
X385.7539 Z-13.1784
X385.8507 Z-13.1818
X385.9476 Z-13.1852
X386.0444 Z-13.1885
X386.1413 Z-13.1919
X386.2381 Z-13.1953
X386.335 Z-13.1987
X386.4318 Z-13.2021
X386.5287 Z-13.2054
X386.6255 Z-13.2088
X386.7224 Z-13.2122
X386.8192 Z-13.2156
X386.916 Z-13.219
X387.0129 Z-13.2223
X387.1097 Z-13.2257
X387.3034 Z-13.2325
X387.594 Z-13.2426
X387.8845 Z-13.2528
X388.1751 Z-13.2629
X388.4656 Z-13.2731
X388.7562 Z-13.2832
X389.0467 Z-13.2934
X389.3372 Z-13.3035
X389.6278 Z-13.3137
X390.0152 Z-13.3272
X390.4994 Z-13.3441
X390.9836 Z-13.361
X391.6616 Z-13.3847
X392.5332 Z-13.4151
X394.4702 Z-13.4827
X395.9229 Z-13.5335
X396.6008 Z-13.5571
X397.085 Z-13.574
X397.5693 Z-13.5909
X397.8598 Z-13.6011
X398.1504 Z-13.6112
X398.4409 Z-13.6214
X398.7314 Z-13.6315
X399.022 Z-13.6417
X399.3125 Z-13.6518
X399.6031 Z-13.6619
X399.8936 Z-13.6721
X399.9904 Z-13.6755
X400.0873 Z-13.6788
X400.1841 Z-13.6822
X400.281 Z-13.6856
X400.3778 Z-13.689
X400.4747 Z-13.6924
X400.5715 Z-13.6958
X400.6684 Z-13.6991
X400.7652 Z-13.7025
X400.8621 Z-13.7059
X400.9589 Z-13.7093
X401.0558 Z-13.7127
X401.1526 Z-13.7161
X401.2495 Z-13.7194
X401.3463 Z-13.7228
X401.6369 Z-13.7329
X401.7337 Z-13.7363
X401.8306 Z-13.7396
X401.9274 Z-13.7429
X402.0243 Z-13.7461
X402.1211 Z-13.7494
X402.218 Z-13.7526
X402.3148 Z-13.7558
X402.4117 Z-13.7589
X402.5085 Z-13.7621
X402.6053 Z-13.7652
X402.7022 Z-13.7682
X402.799 Z-13.7713
X402.8959 Z-13.7743
X402.9927 Z-13.7773
X403.0896 Z-13.7803
X403.1864 Z-13.7832
X403.2833 Z-13.7862
X403.3801 Z-13.789
X403.477 Z-13.7919
X403.5738 Z-13.7947
X403.6707 Z-13.7975
X403.7675 Z-13.8003
X403.8643 Z-13.803
X403.9612 Z-13.8057
X404.058 Z-13.8084
X404.1549 Z-13.8111
X404.2517 Z-13.8137
X404.3486 Z-13.8162
X404.4454 Z-13.8188
X404.5423 Z-13.8213
X404.736 Z-13.8262
X404.9297 Z-13.831
X405.1234 Z-13.8357
X405.3171 Z-13.8402
X405.5108 Z-13.8446
X405.7045 Z-13.8488
X405.8982 Z-13.8529
X405.995 Z-13.8549
X406.0434 Y90.949 Z-13.8559
X406.0917 Y90.9456 Z-13.8568
X406.1398 Y90.9397 Z-13.8578
X406.1875 Y90.9313 Z-13.8587
X406.2347 Y90.9206 Z-13.8597
X406.2813 Y90.9074 Z-13.8606
X406.3272 Y90.8919 Z-13.8615
X406.3722 Y90.8741 Z-13.8624
X406.4163 Y90.854 Z-13.8633
X406.4592 Y90.8317 Z-13.8642
X406.501 Y90.8072 Z-13.8651
X406.5415 Y90.7806 Z-13.866
X406.5806 Y90.752 Z-13.8668
X406.6181 Y90.7214 Z-13.8677
X406.6541 Y90.689 Z-13.8685
X406.6884 Y90.6548 Z-13.8694
X406.7208 Y90.6189 Z-13.8702
X406.7514 Y90.5813 Z-13.871
X406.7801 Y90.5423 Z-13.8718
X406.8067 Y90.5018 Z-13.8726
X406.8312 Y90.4601 Z-13.8734
X406.8536 Y90.4171 Z-13.8741
X406.8737 Y90.3731 Z-13.8749
X406.8916 Y90.3281 Z-13.8756
X406.9072 Y90.2822 Z-13.8764
X406.9204 Y90.2356 Z-13.8771
X406.9312 Y90.1884 Z-13.8778
X406.9396 Y90.1407 Z-13.8785
X406.9455 Y90.0927 Z-13.8792
X406.949 Y90.0443 Z-13.8799
X406.95 Y89.8507 Z-13.8825
Y89.657 Z-13.885
Y89.4633 Z-13.8873
Y89.2696 Z-13.8894
Y89.0759 Z-13.8913
Y88.8822 Z-13.893
Y88.6885 Z-13.8946
Y88.4948 Z-13.8959
Y88.3011 Z-13.8971
Y88.1074 Z-13.8981
Y87.9137 Z-13.8989
Y87.72 Z-13.8994
Y87.5263 Z-13.8998
Y87.3326 Z-13.9
Y87.2701
Y0.0009
X406.9485 Y-0.0541
X406.9438 Y-0.1091
X406.9358 Y-0.1641
X406.9244 Y-0.2191
X406.9096 Y-0.2742
X406.8912 Y-0.3292
X406.8759 Y-0.3681
X406.8424 Y-0.4392
X406.8114 Y-0.4942
X406.7752 Y-0.5492
X406.7657 Y-0.5623
X406.7277 Y-0.6108
X406.6841 Y-0.6592
X406.6556 Y-0.6875
X406.6066 Y-0.7312
X406.5575 Y-0.7693
X406.5455 Y-0.7778
X406.4904 Y-0.8136
X406.4354 Y-0.8444
X406.3976 Y-0.8628
X406.3597 Y-0.8793
X406.3253 Y-0.8926
X406.2702 Y-0.9108
X406.2151 Y-0.9253
X406.1601 Y-0.9364
X406.105 Y-0.9442
X406.05 Y-0.9487
X405.9949 Y-0.95
X341.1379
X341.0277 Y-0.9472
X340.9727 Y-0.9414
X340.9176 Y-0.9323
X340.8626 Y-0.9198
X340.8075 Y-0.9039
X340.7404 Y-0.8793
X340.6974 Y-0.8605
X340.6424 Y-0.8325
X340.5873 Y-0.7998
X340.5426 Y-0.7693
X340.5099 Y-0.7445
X340.4772 Y-0.7173
X340.4466 Y-0.6896
X340.416 Y-0.6592
X340.3671 Y-0.6044
X340.3249 Y-0.5492
X340.2887 Y-0.4942
X340.2576 Y-0.4392
X340.257 Y-0.4379
X340.2309 Y-0.3835
X340.2089 Y-0.3292
X340.1904 Y-0.2742
X340.1756 Y-0.2191
X340.1643 Y-0.1641
X340.1563 Y-0.1091
X340.1516 Y-0.0541
X340.15 Y0.0009
Y18.2485
X340.1484 Y18.25
X261.8515
X261.85 Y18.2485
Y0.0009
X261.8485 Y-0.0541
X261.8437 Y-0.1091
X261.8357 Y-0.1641
X261.8244 Y-0.2191
X261.8096 Y-0.2742
X261.7912 Y-0.3292
X261.7703 Y-0.3809
X261.7458 Y-0.4327
X261.7424 Y-0.4392
X261.7113 Y-0.4942
X261.6752 Y-0.5492
X261.6357 Y-0.6011
X261.584 Y-0.6592
X261.5255 Y-0.715
X261.4915 Y-0.7434
X261.4575 Y-0.7693
X261.4154 Y-0.798
X261.3604 Y-0.831
X261.3053 Y-0.8592
X261.2597 Y-0.8793
X261.1952 Y-0.903
X261.1401 Y-0.9191
X261.0851 Y-0.9318
X261.03 Y-0.9411
X260.975 Y-0.947
X260.8649 Y-0.95
X0.0051
X-0.0499 Y-0.9487
X-0.105 Y-0.9442
X-0.1601 Y-0.9364
X-0.2151 Y-0.9253
X-0.2702 Y-0.9108
X-0.3252 Y-0.8926
X-0.3597 Y-0.8793
X-0.3975 Y-0.8628
X-0.4353 Y-0.8444
X-0.4904 Y-0.8136
X-0.5455 Y-0.7778
X-0.5574 Y-0.7693
X-0.6065 Y-0.7312
X-0.6556 Y-0.6875
X-0.684 Y-0.6592
X-0.7276 Y-0.6108
X-0.7657 Y-0.5623
X-0.7752 Y-0.5492
X-0.8113 Y-0.4942
X-0.8424 Y-0.4392
X-0.8758 Y-0.3681
X-0.8911 Y-0.3292
X-0.9096 Y-0.2742
X-0.9244 Y-0.2191
X-0.9357 Y-0.1641
X-0.9437 Y-0.1091
X-0.9485 Y-0.0541
X-0.95 Y0.0009
Y89.9991
X-0.9485 Y90.0541
X-0.9437 Y90.1091
X-0.9357 Y90.1641
X-0.9244 Y90.2191
X-0.9096 Y90.2742
X-0.8911 Y90.3292
X-0.8758 Y90.3681
X-0.8424 Y90.4392
X-0.8113 Y90.4942
X-0.7752 Y90.5492
X-0.7657 Y90.5623
X-0.7276 Y90.6108
X-0.684 Y90.6592
X-0.6556 Y90.6876
X-0.6065 Y90.7312
X-0.5574 Y90.7693
X-0.5455 Y90.7778
X-0.4904 Y90.8136
X-0.4353 Y90.8444
X-0.3975 Y90.8628
X-0.3597 Y90.8793
X-0.3252 Y90.8926
X-0.2702 Y90.9108
X-0.2151 Y90.9253
X-0.1601 Y90.9364
X-0.105 Y90.9442
X-0.0499 Y90.9487
X0.0051 Y90.95
X376.8439
X405.9949
X406.05 Y90.9487
X406.105 Y90.9442
X406.1601 Y90.9364
X406.2151 Y90.9253
X406.2702 Y90.9108
X406.3253 Y90.8926
X406.3597 Y90.8793
X406.3976 Y90.8628
X406.4354 Y90.8444
X406.4904 Y90.8136
X406.5455 Y90.7778
X406.5575 Y90.7693
X406.6066 Y90.7312
X406.6556 Y90.6876
X406.6841 Y90.6592
X406.7277 Y90.6108
X406.7657 Y90.5623
X406.7752 Y90.5492
X406.8114 Y90.4942
X406.8424 Y90.4392
X406.8759 Y90.3681
X406.8912 Y90.3292
X406.9096 Y90.2742
X406.9244 Y90.2191
X406.9358 Y90.1641
X406.9438 Y90.1091
X406.9485 Y90.0541
X406.95 Y89.9991
Y87.2701
X406.9574 Y87.2177
X406.9789 Y87.1694
X407.0129 Y87.1289
X407.0568 Y87.0993
X407.1071 Y87.083
X407.16 Y87.0811
X408.7638 Y87.2503
X408.8127 Y87.2555 Z-13.8935
X408.8582 Y87.2603 Z-13.8745
X408.8974 Y87.2644 Z-13.8443
X408.9274 Y87.2676 Z-13.805
X408.9463 Y87.2696 Z-13.7592
X408.9527 Y87.2702 Z-13.71
G0 Z5
X11.0997 Y10.0075
Z-4.9157
G1 Z-7 F3200
X11.1541 Y10.0026
X11.2077 Y10.0134
X11.2559 Y10.039
X11.2949 Y10.0773
X11.3214 Y10.1251
X11.3332 Y10.1785
X11.3293 Y10.233
X11.3052 Y10.343
X11.2712 Y10.453
X11.2548 Y10.4966
X11.2367 Y10.5401
X11.2264 Y10.563
X11.1698 Y10.6731
X11.1266 Y10.7431
X11.0994 Y10.7831
X11.0165 Y10.8876
X11.0116 Y10.8931
X10.9617 Y10.9467
X10.9341 Y10.974
X10.9064 Y11.0002
X10.903 Y11.0031
X10.7963 Y11.0895
X10.7632 Y11.1131
X10.6862 Y11.1621
X10.576 Y11.2204
X10.5705 Y11.2232
X10.4659 Y11.2667
X10.3558 Y11.3019
X10.2457 Y11.327
X10.2089 Y11.3332
X10.1356 Y11.3427
X10.0255 Y11.3492
X9.9154 Y11.3468
X9.8603 Y11.3422
X9.8052 Y11.3354
X9.7911 Y11.3332
X9.6951 Y11.3146
X9.585 Y11.2842
X9.4749 Y11.2432
X9.4295 Y11.2232
X9.3648 Y11.1906
X9.2547 Y11.125
X9.2368 Y11.1131
X9.1446 Y11.0439
X9.097 Y11.0031
X9.0344 Y10.9427
X8.9884 Y10.8931
X8.9243 Y10.815
X8.9006 Y10.7831
X8.8635 Y10.7281
X8.8302 Y10.6731
X8.8142 Y10.6443
X8.7736 Y10.563
X8.7288 Y10.453
X8.7041 Y10.3766
X8.6948 Y10.343
X8.6707 Y10.233
X8.656 Y10.1229
X8.6503 Y10.0129
X8.6538 Y9.9029
X8.6664 Y9.7929
X8.6883 Y9.6829
X8.7041 Y9.6232
X8.7199 Y9.5728
X8.762 Y9.4628
X8.8142 Y9.3557
X8.8158 Y9.3528
X8.8827 Y9.2428
X8.9243 Y9.185
X8.9661 Y9.1327
X9.0344 Y9.057
X9.0691 Y9.0227
X9.1446 Y8.9563
X9.2005 Y8.9127
X9.2547 Y8.8746
X9.2822 Y8.8572
X9.3097 Y8.8402
X9.3648 Y8.8092
X9.3775 Y8.8027
X9.4262 Y8.7786
X9.4749 Y8.7568
X9.585 Y8.7159
X9.6652 Y8.6927
X9.6951 Y8.6853
X9.8052 Y8.6645
X9.9154 Y8.653
X10.0255 Y8.6505
X10.1356 Y8.6573
X10.2457 Y8.673
X10.3348 Y8.6927
X10.3558 Y8.6982
X10.4109 Y8.7146
X10.4659 Y8.7335
X10.576 Y8.7796
X10.6225 Y8.8027
X10.6862 Y8.8378
X10.7412 Y8.872
X10.7963 Y8.9103
X10.7995 Y8.9127
X10.9064 Y9.0002
X10.9309 Y9.0227
X11.0165 Y9.1122
X11.0339 Y9.1327
X11.0779 Y9.1878
X11.1174 Y9.2428
X11.1266 Y9.2571
X11.1568 Y9.3049
X11.1843 Y9.3528
X11.2367 Y9.4598
X11.238 Y9.4628
X11.2801 Y9.5728
X11.3118 Y9.6829
X11.3336 Y9.7929
X11.3462 Y9.9029
X11.3468 Y9.915
X11.3497 Y10.0129
X11.3468 Y10.0856
X11.344 Y10.1229
X11.3293 Y10.233
X11.3092 Y10.3272
X11.2827 Y10.4198 Z-7.0001
X11.2493 Y10.5102 Z-7.0002
X11.2097 Y10.598 Z-7.0004
X11.1643 Y10.683 Z-7.0006
X11.1123 Y10.7641 Z-7.0008
X11.055 Y10.8415 Z-7.0011
X10.9924 Y10.9148 Z-7.0015
X10.9245 Y10.9831 Z-7.0018
X10.8888 Y11.0155 Z-7.0021
X10.852 Y11.0466 Z-7.0023
X10.7753 Y11.1048 Z-7.0027
X10.6944 Y11.1571 Z-7.0033
X10.6101 Y11.2038 Z-7.0038
X10.5227 Y11.2443 Z-7.0044
X10.4325 Y11.2783 Z-7.0051
X10.3403 Y11.306 Z-7.0058
X10.2462 Y11.3269 Z-7.0065
X10.1509 Y11.341 Z-7.0073
X10.0549 Y11.3486 Z-7.0081
X9.9585 Y11.3489 Z-7.0089
X9.8624 Y11.3425 Z-7.0098
X9.7669 Y11.3295 Z-7.0108
X9.6727 Y11.3092 Z-7.0117
X9.5802 Y11.2825 Z-7.0128
X9.4897 Y11.2495 Z-7.0138
X9.4019 Y11.2097 Z-7.0149
X9.3171 Y11.164 Z-7.0161
X9.2357 Y11.1124 Z-7.0172
X9.1585 Y11.0549 Z-7.0185
X9.0853 Y10.9923 Z-7.0197
X9.0168 Y10.9245 Z-7.021
X8.9534 Y10.8519 Z-7.0223
X8.8952 Y10.7752 Z-7.0237
X8.8428 Y10.6944 Z-7.0251
X8.7963 Y10.61 Z-7.0266
X8.7556 Y10.5227 Z-7.028
X8.7217 Y10.4325 Z-7.0296
X8.6941 Y10.3402 Z-7.0311
X8.6729 Y10.2462 Z-7.0327
X8.659 Y10.1509 Z-7.0344
X8.6516 Y10.0548 Z-7.036
X8.6509 Y9.9585 Z-7.0377
X8.6576 Y9.8624 Z-7.0395
X8.6707 Y9.767 Z-7.0412
X8.6906 Y9.6727 Z-7.043
X8.7175 Y9.5802 Z-7.0449
X8.7506 Y9.4897 Z-7.0468
X8.7902 Y9.4019 Z-7.0487
X8.8361 Y9.3171 Z-7.0506
X8.8876 Y9.2358 Z-7.0526
X8.945 Y9.1584 Z-7.0546
X9.0078 Y9.0853 Z-7.0567
X9.0754 Y9.0167 Z-7.0587
X9.148 Y8.9534 Z-7.0609
X9.2249 Y8.8953 Z-7.063
X9.2647 Y8.8683 Z-7.0641
X9.3055 Y8.8426 Z-7.0652
X9.3899 Y8.7963 Z-7.0674
X9.4333 Y8.7753 Z-7.0685
X9.4773 Y8.7558 Z-7.0696
X9.5674 Y8.7215 Z-7.0719
X9.6133 Y8.707 Z-7.073
X9.6597 Y8.6941 Z-7.0742
X9.7538 Y8.6731 Z-7.0765
X9.849 Y8.6588 Z-7.0789
X9.9451 Y8.6516 Z-7.0813
X9.9933 Y8.6505 Z-7.0825
X10.0414 Y8.6511 Z-7.0837
X10.1376 Y8.6574 Z-7.0862
X10.233 Y8.6708 Z-7.0887
X10.3273 Y8.6906 Z-7.0912
X10.4198 Y8.7174 Z-7.0937
X10.5102 Y8.7507 Z-7.0963
X10.5981 Y8.7901 Z-7.0989
X10.6828 Y8.8359 Z-7.1015
X10.7239 Y8.8611 Z-7.1028
X10.7641 Y8.8877 Z-7.1042
X10.8416 Y8.9449 Z-7.1069
X10.9146 Y9.0077 Z-7.1096
X10.9831 Y9.0755 Z-7.1123
X11.0467 Y9.1478 Z-7.1151
X11.1046 Y9.2248 Z-7.1179
X11.1572 Y9.3056 Z-7.1207
X11.2039 Y9.3898 Z-7.1235
X11.2441 Y9.4773 Z-7.1264
X11.2784 Y9.5674 Z-7.1293
X11.306 Y9.6597 Z-7.1322
X11.3173 Y9.7065 Z-7.1337
X11.3268 Y9.7538 Z-7.1352
X11.3411 Y9.849 Z-7.1382
X11.3485 Y9.9451 Z-7.1412
X11.3495 Y9.9933 Z-7.1427
X11.3488 Y10.0414 Z-7.1442
X11.3426 Y10.1376 Z-7.1472
X11.3293 Y10.233 Z-7.1503
X11.3092 Y10.3272 Z-7.1534
X11.2827 Y10.4198 Z-7.1565
X11.2493 Y10.5102 Z-7.1596
X11.2097 Y10.598 Z-7.1628
X11.1643 Y10.683 Z-7.166
X11.1123 Y10.7641 Z-7.1692
X11.055 Y10.8415 Z-7.1724
X10.9924 Y10.9148 Z-7.1757
X10.9245 Y10.9831 Z-7.179
X10.8888 Y11.0155 Z-7.1806
X10.852 Y11.0466 Z-7.1823
X10.7753 Y11.1048 Z-7.1856
X10.6944 Y11.1571 Z-7.1889
X10.6101 Y11.2038 Z-7.1923
X10.5227 Y11.2443 Z-7.1956
X10.4325 Y11.2783 Z-7.199
X10.3403 Y11.306 Z-7.2024
X10.2462 Y11.3269 Z-7.2057
X10.1509 Y11.341 Z-7.2091
X10.0549 Y11.3486 Z-7.2124
X9.9585 Y11.3489 Z-7.2158
X9.8624 Y11.3425 Z-7.2192
X9.7669 Y11.3295 Z-7.2225
X9.6727 Y11.3092 Z-7.2259
X9.5802 Y11.2825 Z-7.2293
X9.4897 Y11.2495 Z-7.2326
X9.4019 Y11.2097 Z-7.236
X9.3171 Y11.164 Z-7.2393
X9.2357 Y11.1124 Z-7.2427
X9.1585 Y11.0549 Z-7.2461
X9.0853 Y10.9923 Z-7.2494
X9.0168 Y10.9245 Z-7.2528
X8.9534 Y10.8519 Z-7.2562
X8.8952 Y10.7752 Z-7.2595
X8.8428 Y10.6944 Z-7.2629
X8.7963 Y10.61 Z-7.2662
X8.7556 Y10.5227 Z-7.2696
X8.7217 Y10.4325 Z-7.273
X8.6941 Y10.3402 Z-7.2763
X8.6729 Y10.2462 Z-7.2797
X8.659 Y10.1509 Z-7.283
X8.6516 Y10.0548 Z-7.2864
X8.6509 Y9.9585 Z-7.2898
X8.6576 Y9.8624 Z-7.2931
X8.6707 Y9.767 Z-7.2965
X8.6906 Y9.6727 Z-7.2999
X8.7175 Y9.5802 Z-7.3032
X8.7506 Y9.4897 Z-7.3066
X8.7902 Y9.4019 Z-7.3099
X8.8361 Y9.3171 Z-7.3133
X8.8876 Y9.2358 Z-7.3167
X8.945 Y9.1584 Z-7.32
X9.0078 Y9.0853 Z-7.3234
X9.0754 Y9.0167 Z-7.3267
X9.148 Y8.9534 Z-7.3301
X9.2249 Y8.8953 Z-7.3335
X9.2647 Y8.8683 Z-7.3352
X9.3055 Y8.8426 Z-7.3368
X9.3899 Y8.7963 Z-7.3402
X9.4333 Y8.7753 Z-7.3419
X9.4773 Y8.7558 Z-7.3436
X9.5674 Y8.7215 Z-7.3469
X9.6133 Y8.707 Z-7.3486
X9.6597 Y8.6941 Z-7.3503
X9.7538 Y8.6731 Z-7.3536
X9.849 Y8.6588 Z-7.357
X9.9451 Y8.6516 Z-7.3604
X9.9933 Y8.6505 Z-7.362
X10.0414 Y8.6511 Z-7.3637
X10.1376 Y8.6574 Z-7.3671
X10.233 Y8.6708 Z-7.3705
X10.3273 Y8.6906 Z-7.3738
X10.4198 Y8.7174 Z-7.3772
X10.5102 Y8.7507 Z-7.3805
X10.5981 Y8.7901 Z-7.3839
X10.6828 Y8.8359 Z-7.3873
X10.7239 Y8.8611 Z-7.3889
X10.7641 Y8.8877 Z-7.3906
X10.8416 Y8.9449 Z-7.394
X10.9146 Y9.0077 Z-7.3973
X10.9831 Y9.0755 Z-7.4007
X11.0467 Y9.1478 Z-7.4041
X11.1046 Y9.2248 Z-7.4074
X11.1572 Y9.3056 Z-7.4108
X11.2039 Y9.3898 Z-7.4142
X11.2441 Y9.4773 Z-7.4175
X11.2784 Y9.5674 Z-7.4209
X11.306 Y9.6597 Z-7.4242
X11.3173 Y9.7065 Z-7.4259
X11.3268 Y9.7538 Z-7.4276
X11.3411 Y9.849 Z-7.431
X11.3485 Y9.9451 Z-7.4343
X11.3495 Y9.9933 Z-7.436
X11.3488 Y10.0414 Z-7.4377
X11.3426 Y10.1376 Z-7.441
X11.3293 Y10.233 Z-7.4444
X11.3092 Y10.3272 Z-7.4478
X11.2827 Y10.4198 Z-7.4511
X11.2493 Y10.5102 Z-7.4545
X11.2097 Y10.598 Z-7.4579
X11.1643 Y10.683 Z-7.4612
X11.1123 Y10.7641 Z-7.4646
X11.055 Y10.8415 Z-7.4679
X10.9924 Y10.9148 Z-7.4713
X10.9245 Y10.9831 Z-7.4747
X10.8888 Y11.0155 Z-7.4763
X10.852 Y11.0466 Z-7.478
X10.7753 Y11.1048 Z-7.4814
X10.6944 Y11.1571 Z-7.4848
X10.6101 Y11.2038 Z-7.4881
X10.5227 Y11.2443 Z-7.4915
X10.4325 Y11.2783 Z-7.4948
X10.3403 Y11.306 Z-7.4982
X10.2462 Y11.3269 Z-7.5016
X10.1509 Y11.341 Z-7.5049
X10.0549 Y11.3486 Z-7.5083
X9.9585 Y11.3489 Z-7.5116
X9.8624 Y11.3425 Z-7.515
X9.7669 Y11.3295 Z-7.5184
X9.6727 Y11.3092 Z-7.5217
X9.5802 Y11.2825 Z-7.5251
X9.4897 Y11.2495 Z-7.5285
X9.4019 Y11.2097 Z-7.5318
X9.3171 Y11.164 Z-7.5352
X9.2357 Y11.1124 Z-7.5385
X9.1585 Y11.0549 Z-7.5419
X9.0853 Y10.9923 Z-7.5453
X9.0168 Y10.9245 Z-7.5486
X8.9534 Y10.8519 Z-7.552
X8.8952 Y10.7752 Z-7.5553
X8.8428 Y10.6944 Z-7.5587
X8.7963 Y10.61 Z-7.5621
X8.7556 Y10.5227 Z-7.5654
X8.7217 Y10.4325 Z-7.5688
X8.6941 Y10.3402 Z-7.5722
X8.6729 Y10.2462 Z-7.5755
X8.659 Y10.1509 Z-7.5789
X8.6516 Y10.0548 Z-7.5822
X8.6509 Y9.9585 Z-7.5856
X8.6576 Y9.8624 Z-7.589
X8.6707 Y9.767 Z-7.5923
X8.6906 Y9.6727 Z-7.5957
X8.7175 Y9.5802 Z-7.599
X8.7506 Y9.4897 Z-7.6024
X8.7902 Y9.4019 Z-7.6058
X8.8361 Y9.3171 Z-7.6091
X8.8876 Y9.2358 Z-7.6125
X8.945 Y9.1584 Z-7.6159
X9.0078 Y9.0853 Z-7.6192
X9.0754 Y9.0167 Z-7.6226
X9.148 Y8.9534 Z-7.6259
X9.2249 Y8.8953 Z-7.6293
X9.2647 Y8.8683 Z-7.631
X9.3055 Y8.8426 Z-7.6327
X9.3899 Y8.7963 Z-7.636
X9.4333 Y8.7753 Z-7.6377
X9.4773 Y8.7558 Z-7.6394
X9.5674 Y8.7215 Z-7.6427
X9.6133 Y8.707 Z-7.6444
X9.6597 Y8.6941 Z-7.6461
X9.7538 Y8.6731 Z-7.6495
X9.849 Y8.6588 Z-7.6528
X9.9451 Y8.6516 Z-7.6562
X9.9933 Y8.6505 Z-7.6579
X10.0414 Y8.6511 Z-7.6595
X10.1376 Y8.6574 Z-7.6629
X10.233 Y8.6708 Z-7.6663
X10.3273 Y8.6906 Z-7.6696
X10.4198 Y8.7174 Z-7.673
X10.5102 Y8.7507 Z-7.6764
X10.5981 Y8.7901 Z-7.6797
X10.6828 Y8.8359 Z-7.6831
X10.7239 Y8.8611 Z-7.6848
X10.7641 Y8.8877 Z-7.6864
X10.8416 Y8.9449 Z-7.6898
X10.9146 Y9.0077 Z-7.6932
X10.9831 Y9.0755 Z-7.6965
X11.0467 Y9.1478 Z-7.6999
X11.1046 Y9.2248 Z-7.7032
X11.1572 Y9.3056 Z-7.7066
X11.2039 Y9.3898 Z-7.71
X11.2441 Y9.4773 Z-7.7133
X11.2784 Y9.5674 Z-7.7167
X11.306 Y9.6597 Z-7.72
X11.3173 Y9.7065 Z-7.7217
X11.3268 Y9.7538 Z-7.7234
X11.3411 Y9.849 Z-7.7268
X11.3485 Y9.9451 Z-7.7301
X11.3495 Y9.9933 Z-7.7318
X11.3488 Y10.0414 Z-7.7335
X11.3426 Y10.1376 Z-7.7369
X11.3293 Y10.233 Z-7.7402
X11.3092 Y10.3272 Z-7.7436
X11.2827 Y10.4198 Z-7.7469
X11.2493 Y10.5102 Z-7.7503
X11.2097 Y10.598 Z-7.7537
X11.1643 Y10.683 Z-7.757
X11.1123 Y10.7641 Z-7.7604
X11.055 Y10.8415 Z-7.7638
X10.9924 Y10.9148 Z-7.7671
X10.9245 Y10.9831 Z-7.7705
X10.8888 Y11.0155 Z-7.7722
X10.852 Y11.0466 Z-7.7738
X10.7753 Y11.1048 Z-7.7772
X10.6944 Y11.1571 Z-7.7806
X10.6101 Y11.2038 Z-7.7839
X10.5227 Y11.2443 Z-7.7873
X10.4325 Y11.2783 Z-7.7906
X10.3403 Y11.306 Z-7.794
X10.2462 Y11.3269 Z-7.7974
X10.1509 Y11.341 Z-7.8007
X10.0549 Y11.3486 Z-7.8041
X9.9585 Y11.3489 Z-7.8074
X9.8624 Y11.3425 Z-7.8108
X9.7669 Y11.3295 Z-7.8141
X9.6727 Y11.3092 Z-7.8175
X9.5802 Y11.2825 Z-7.8208
X9.4897 Y11.2495 Z-7.824
X9.4019 Y11.2097 Z-7.8273
X9.3171 Y11.164 Z-7.8305
X9.2357 Y11.1124 Z-7.8337
X9.1585 Y11.0549 Z-7.8369
X9.0853 Y10.9923 Z-7.8401
X9.0168 Y10.9245 Z-7.8432
X8.9534 Y10.8519 Z-7.8464
X8.8952 Y10.7752 Z-7.8495
X8.8428 Y10.6944 Z-7.8525
X8.7963 Y10.61 Z-7.8556
X8.7556 Y10.5227 Z-7.8586
X8.7217 Y10.4325 Z-7.8616
X8.6941 Y10.3402 Z-7.8646
X8.6729 Y10.2462 Z-7.8675
X8.659 Y10.1509 Z-7.8705
X8.6516 Y10.0548 Z-7.8734
X8.6509 Y9.9585 Z-7.8762
X8.6576 Y9.8624 Z-7.8791
X8.6707 Y9.767 Z-7.8819
X8.6906 Y9.6727 Z-7.8847
X8.7175 Y9.5802 Z-7.8875
X8.7506 Y9.4897 Z-7.8902
X8.7902 Y9.4019 Z-7.8929
X8.8361 Y9.3171 Z-7.8956
X8.8876 Y9.2358 Z-7.8983
X8.945 Y9.1584 Z-7.9009
X9.0078 Y9.0853 Z-7.9035
X9.0754 Y9.0167 Z-7.9061
X9.148 Y8.9534 Z-7.9086
X9.2249 Y8.8953 Z-7.9111
X9.2647 Y8.8683 Z-7.9124
X9.3055 Y8.8426 Z-7.9136
X9.3899 Y8.7963 Z-7.9161
X9.4333 Y8.7753 Z-7.9173
X9.4773 Y8.7558 Z-7.9185
X9.5674 Y8.7215 Z-7.9209
X9.6133 Y8.707 Z-7.9221
X9.6597 Y8.6941 Z-7.9233
X9.7538 Y8.6731 Z-7.9256
X9.849 Y8.6588 Z-7.9279
X9.9451 Y8.6516 Z-7.9302
X9.9933 Y8.6505 Z-7.9313
X10.0414 Y8.6511 Z-7.9324
X10.1376 Y8.6574 Z-7.9346
X10.233 Y8.6708 Z-7.9368
X10.3273 Y8.6906 Z-7.939
X10.4198 Y8.7174 Z-7.9411
X10.5102 Y8.7507 Z-7.9432
X10.5981 Y8.7901 Z-7.9452
X10.6828 Y8.8359 Z-7.9472
X10.7239 Y8.8611 Z-7.9482
X10.7641 Y8.8877 Z-7.9492
X10.8416 Y8.9449 Z-7.9512
X10.9146 Y9.0077 Z-7.9531
X10.9831 Y9.0755 Z-7.955
X11.0467 Y9.1478 Z-7.9568
X11.1046 Y9.2248 Z-7.9586
X11.1572 Y9.3056 Z-7.9604
X11.2039 Y9.3898 Z-7.9621
X11.2441 Y9.4773 Z-7.9638
X11.2784 Y9.5674 Z-7.9655
X11.306 Y9.6597 Z-7.9671
X11.3173 Y9.7065 Z-7.9679
X11.3268 Y9.7538 Z-7.9687
X11.3411 Y9.849 Z-7.9703
X11.3485 Y9.9451 Z-7.9718
X11.3495 Y9.9933 Z-7.9726
X11.3488 Y10.0414 Z-7.9733
X11.3426 Y10.1376 Z-7.9748
X11.3293 Y10.233 Z-7.9762
X11.3092 Y10.3272 Z-7.9776
X11.2827 Y10.4198 Z-7.9789
X11.2493 Y10.5102 Z-7.9802
X11.2097 Y10.598 Z-7.9814
X11.1643 Y10.683 Z-7.9827
X11.1123 Y10.7641 Z-7.9838
X11.055 Y10.8415 Z-7.985
X10.9924 Y10.9148 Z-7.9861
X10.9245 Y10.9831 Z-7.9872
X10.8888 Y11.0155 Z-7.9877
X10.852 Y11.0466 Z-7.9882
X10.7753 Y11.1048 Z-7.9892
X10.6944 Y11.1571 Z-7.9901
X10.6101 Y11.2038 Z-7.991
X10.5227 Y11.2443 Z-7.9919
X10.4325 Y11.2783 Z-7.9927
X10.3403 Y11.306 Z-7.9934
X10.2462 Y11.3269 Z-7.9942
X10.1509 Y11.341 Z-7.9949
X10.0549 Y11.3486 Z-7.9955
X9.9585 Y11.3489 Z-7.9961
X9.8624 Y11.3425 Z-7.9967
X9.7669 Y11.3295 Z-7.9972
X9.6727 Y11.3092 Z-7.9977
X9.5802 Y11.2825 Z-7.9981
X9.4897 Y11.2495 Z-7.9985
X9.4019 Y11.2097 Z-7.9989
X9.3171 Y11.164 Z-7.9992
X9.2357 Y11.1124 Z-7.9994
X9.1585 Y11.0549 Z-7.9996
X9.0853 Y10.9923 Z-7.9998
X9.0168 Y10.9245 Z-7.9999
X8.9534 Y10.8519 Z-8
X8.8912 Y10.7691
X8.8635 Y10.7281
X8.8302 Y10.6731
X8.8142 Y10.6443
X8.7736 Y10.563
X8.7288 Y10.453
X8.7041 Y10.3766
X8.6948 Y10.343
X8.6707 Y10.233
X8.656 Y10.1229
X8.6503 Y10.0129
X8.6538 Y9.9029
X8.6664 Y9.7929
X8.6883 Y9.6829
X8.7041 Y9.6232
X8.7199 Y9.5728
X8.762 Y9.4628
X8.8142 Y9.3557
X8.8158 Y9.3528
