%
(Made in : Autodesk CAM Post Processor)
(G Code optimized for OpenBuilds OX CNC 1000 x 750 with GRBL V0.9j controller)

(Program Name : 1001)
(2 Operations :)
(1 : Contour2)
(  Tool : Flat End Mill 2 Flutes, Diam = 1.9mm, Len = 12.7mm)
(  Spindle : RPM = 30000, set router dial to 6)
(  Machining time : 9 min 32 sec)
(2 : Horizontal1)
(  Tool : Flat End Mill 2 Flutes, Diam = 1.9mm, Len = 12.7mm)
(  Spindle : RPM = 30000, set router dial to 6)
(  Machining time : 6 min 10 sec)

G90 G94
G17
G21

(Operation 1 of 2 : Contour2)

G53 G0 Z5
G54
S30000 M3
G4 P1.0
X17.827 Y19.2422
Z6
Z1.1879
G1 Z-0.81 F3200
X17.8332 Y19.2442 Z-0.8592
X17.8512 Y19.2502 Z-0.905
X17.8799 Y19.2596 Z-0.9444
X17.9173 Y19.2719 Z-0.9745
X17.9608 Y19.2862 Z-0.9935
X18.0075 Y19.3016 Z-1
X19.1699 Y19.684
X19.2146 Y19.7055
X19.2522 Y19.7378
X19.2802 Y19.7788
X19.2965 Y19.8256
X19.3003 Y19.8751
X19.291 Y19.9238
X19.2831 Y19.9515
X19.2699 Y20.0065
X19.2601 Y20.0616
X19.2537 Y20.1166
X19.2504 Y20.1717
X19.25 Y20.2818
Y69.7182
X19.2504 Y69.8283
X19.2537 Y69.8834
X19.2602 Y69.9384
X19.2699 Y69.9935
X19.2831 Y70.0485
X19.291 Y70.0762
X19.3046 Y70.1174
X19.3203 Y70.1586
X19.3448 Y70.2137
X19.3737 Y70.2687
X19.4011 Y70.3141
X19.4467 Y70.3788
X19.4773 Y70.4166
X19.5112 Y70.4543
X19.5459 Y70.4889
X19.5836 Y70.5229
X19.6214 Y70.5534
X19.6862 Y70.599
X19.7315 Y70.6264
X19.7865 Y70.6553
X19.8416 Y70.6798
X19.883 Y70.6955
X19.9244 Y70.7091
X19.9517 Y70.717
X20.0067 Y70.7301
X20.0618 Y70.7399
X20.1168 Y70.7463
X20.1719 Y70.7496
X20.282 Y70.75
X385.7181
X385.8282 Y70.7496
X385.8832 Y70.7463
X385.9383 Y70.7399
X385.9933 Y70.7301
X386.0484 Y70.7169
X386.0756 Y70.7091
X386.117 Y70.6955
X386.1585 Y70.6798
X386.2135 Y70.6553
X386.2686 Y70.6264
X386.3138 Y70.599
X386.3787 Y70.5534
X386.4164 Y70.5229
X386.4541 Y70.4889
X386.4888 Y70.4542
X386.5227 Y70.4165
X386.5533 Y70.3788
X386.5989 Y70.314
X386.6263 Y70.2687
X386.6552 Y70.2137
X386.6797 Y70.1586
X386.6954 Y70.1173
X386.709 Y70.076
X386.7169 Y70.0485
X386.7301 Y69.9935
X386.7398 Y69.9384
X386.7463 Y69.8834
X386.7495 Y69.8283
X386.75 Y69.7182
Y20.2818
X386.7495 Y20.1717
X386.7463 Y20.1166
X386.7398 Y20.0616
X386.7301 Y20.0065
X386.7169 Y19.9515
X386.709 Y19.924
X386.6954 Y19.8827
X386.6797 Y19.8414
X386.6552 Y19.7863
X386.6263 Y19.7313
X386.5989 Y19.686
X386.5533 Y19.6212
X386.5227 Y19.5835
X386.4888 Y19.5458
X386.4541 Y19.5111
X386.4164 Y19.4771
X386.3787 Y19.4466
X386.3138 Y19.401
X386.2686 Y19.3736
X386.2135 Y19.3447
X386.1585 Y19.3202
X386.117 Y19.3045
X386.0756 Y19.2909
X386.0484 Y19.283
X385.9933 Y19.2699
X385.9383 Y19.2601
X385.8832 Y19.2537
X385.8282 Y19.2504
X385.7181 Y19.25
X20.282
X20.1719 Y19.2504
X20.1168 Y19.2536
X20.0618 Y19.2601
X20.0067 Y19.2699
X19.9517 Y19.283
X19.9244 Y19.2909
X19.883 Y19.3045
X19.8416 Y19.3202
X19.7865 Y19.3447
X19.7315 Y19.3736
X19.6862 Y19.401
X19.6214 Y19.4466
X19.5836 Y19.4771
X19.5459 Y19.5111
X19.5112 Y19.5457
X19.4773 Y19.5834
X19.4467 Y19.6212
X19.4011 Y19.6859
X19.3737 Y19.7313
X19.3448 Y19.7863
X19.3203 Y19.8414
X19.3046 Y19.8826
X19.291 Y19.9238
X19.2782 Y19.9705
X19.2677 Y20.0177
X19.2596 Y20.0654 Z-1.0001
X19.254 Y20.1135
X19.2508 Y20.1618
X19.25 Y20.2102 Z-1.0002
Y20.307 Z-1.0004
Y20.5005 Z-1.0008
Y20.6941 Z-1.0015
Y20.8877 Z-1.0023
Y21.0813 Z-1.0033
Y21.2748 Z-1.0045
Y21.4684 Z-1.0058
Y21.662 Z-1.0073
Y21.8556 Z-1.009
Y22.0491 Z-1.0109
Y22.2427 Z-1.0129
Y22.4363 Z-1.0151
Y22.6299 Z-1.0174
Y22.8234 Z-1.0199
Y23.017 Z-1.0225
Y23.2106 Z-1.0253
Y23.4042 Z-1.0283
Y23.5977 Z-1.0314
Y23.7913 Z-1.0347
Y23.9849 Z-1.0381
Y24.1785 Z-1.0416
Y24.372 Z-1.0453
Y24.5656 Z-1.0491
Y24.7592 Z-1.0531
Y24.9528 Z-1.0572
Y25.1463 Z-1.0614
Y25.3399 Z-1.0658
Y25.5335 Z-1.0702
Y25.7271 Z-1.0749
Y25.9206 Z-1.0796
Y26.1142 Z-1.0845
Y26.3078 Z-1.0894
Y26.4046 Z-1.092
Y26.5014 Z-1.0945
Y26.5981 Z-1.0971
Y26.6949 Z-1.0997
Y26.7917 Z-1.1024
Y26.8885 Z-1.1051
Y26.9853 Z-1.1078
Y27.0821 Z-1.1105
Y27.1789 Z-1.1133
Y27.2757 Z-1.1161
Y27.3724 Z-1.1189
Y27.4692 Z-1.1217
Y27.566 Z-1.1246
Y27.6628 Z-1.1275
Y27.7596 Z-1.1304
Y27.8564 Z-1.1334
Y27.9532 Z-1.1363
Y28.05 Z-1.1393
Y28.1467 Z-1.1423
Y28.2435 Z-1.1454
Y28.3403 Z-1.1485
Y28.4371 Z-1.1516
Y28.5339 Z-1.1547
Y28.6307 Z-1.1578
Y28.7275 Z-1.161
Y28.8243 Z-1.1642
Y28.921 Z-1.1674
Y29.0178 Z-1.1706
Y29.1146 Z-1.1739
Y29.2114 Z-1.1772
Y29.3082 Z-1.1805
Y29.405 Z-1.1838
Y29.5018 Z-1.1871
Y29.6953 Z-1.1939
Y29.7921 Z-1.1972
Y29.8889 Z-1.2006
Y29.9857 Z-1.204
Y30.0825 Z-1.2074
Y30.1793 Z-1.2108
Y30.2761 Z-1.2141
Y30.3728 Z-1.2175
Y30.4696 Z-1.2209
Y30.5664 Z-1.2243
Y30.6632 Z-1.2277
Y30.76 Z-1.231
Y30.8568 Z-1.2344
Y31.0504 Z-1.2412
Y31.3407 Z-1.2513
Y31.6311 Z-1.2614
Y31.9214 Z-1.2716
Y32.2118 Z-1.2817
Y32.5022 Z-1.2919
Y32.7925 Z-1.302
Y33.0829 Z-1.3121
Y33.3733 Z-1.3223
Y33.6636 Z-1.3324
Y33.954 Z-1.3426
Y34.4379 Z-1.3595
Y34.9219 Z-1.3764
Y35.4058 Z-1.3933
Y36.0833 Z-1.4169
Y36.9544 Z-1.4473
Y38.4062 Z-1.498
Y45.3749 Z-1.7413
Y45.6652 Z-1.7515
Y45.9556 Z-1.7616
Y46.0524 Z-1.765
Y46.1492 Z-1.7684
Y46.246 Z-1.7717
Y46.3428 Z-1.7751
Y46.4395 Z-1.7785
Y46.5363 Z-1.7819
Y46.6331 Z-1.7853
Y46.7299 Z-1.7886
Y46.8267 Z-1.792
Y46.9235 Z-1.7954
Y47.0203 Z-1.7988
Y47.1171 Z-1.8022
Y47.2138 Z-1.8055
Y47.3106 Z-1.8089
Y47.4074 Z-1.8123
Y47.5042 Z-1.8156
Y47.601 Z-1.819
Y47.6978 Z-1.8223
Y47.7946 Z-1.8255
Y47.8914 Z-1.8288
Y47.9881 Z-1.832
Y48.0849 Z-1.8353
Y48.1817 Z-1.8385
Y48.2785 Z-1.8416
Y48.3753 Z-1.8448
Y48.4721 Z-1.8479
Y48.5689 Z-1.851
Y48.6657 Z-1.8541
Y48.7624 Z-1.8571
Y48.8592 Z-1.8601
Y48.956 Z-1.8631
Y49.0528 Z-1.8661
Y49.1496 Z-1.8691
Y49.2464 Z-1.872
Y49.3432 Z-1.8749
Y49.44 Z-1.8778
Y49.5367 Z-1.8806
Y49.6335 Z-1.8834
Y49.7303 Z-1.8862
Y49.8271 Z-1.889
Y49.9239 Z-1.8917
Y50.0207 Z-1.8945
Y50.1175 Z-1.8971
Y50.2143 Z-1.8998
Y50.311 Z-1.9024
Y50.4078 Z-1.905
Y50.5046 Z-1.9076
Y50.6014 Z-1.9101
Y50.6982 Z-1.9126
Y50.8918 Z-1.9176
Y51.0853 Z-1.9224
Y51.2789 Z-1.9271
Y51.4725 Z-1.9316
Y51.6661 Z-1.9361
Y51.8596 Z-1.9404
Y52.0532 Z-1.9445
Y52.2468 Z-1.9486
Y52.4404 Z-1.9525
Y52.6339 Z-1.9562
Y52.8275 Z-1.9599
Y53.0211 Z-1.9634
Y53.2147 Z-1.9667
Y53.4082 Z-1.9699
Y53.6018 Z-1.9729
Y53.7954 Z-1.9758
Y53.989 Z-1.9786
Y54.1825 Z-1.9812
Y54.3761 Z-1.9836
Y54.5697 Z-1.9859
Y54.7633 Z-1.988
Y54.9568 Z-1.9899
Y55.1504 Z-1.9917
Y55.344 Z-1.9933
Y55.5376 Z-1.9948
Y55.7311 Z-1.996
Y55.9247 Z-1.9971
Y56.1183 Z-1.9981
Y56.3119 Z-1.9988
Y56.5054 Z-1.9994
Y56.699 Z-1.9998
Y56.8926 Z-2
Y57.0064
Y69.7182
X19.2504 Y69.8283
X19.2537 Y69.8834
X19.2602 Y69.9384
X19.2699 Y69.9935
X19.2831 Y70.0485
X19.291 Y70.0762
X19.3046 Y70.1174
X19.3203 Y70.1586
X19.3448 Y70.2137
X19.3737 Y70.2687
X19.4011 Y70.3141
X19.4467 Y70.3788
X19.4773 Y70.4166
X19.5112 Y70.4543
X19.5459 Y70.4889
X19.5836 Y70.5229
X19.6214 Y70.5534
X19.6862 Y70.599
X19.7315 Y70.6264
X19.7865 Y70.6553
X19.8416 Y70.6798
X19.883 Y70.6955
X19.9244 Y70.7091
X19.9517 Y70.717
X20.0067 Y70.7301
X20.0618 Y70.7399
X20.1168 Y70.7463
X20.1719 Y70.7496
X20.282 Y70.75
X385.7181
X385.8282 Y70.7496
X385.8832 Y70.7463
X385.9383 Y70.7399
X385.9933 Y70.7301
X386.0484 Y70.7169
X386.0756 Y70.7091
X386.117 Y70.6955
X386.1585 Y70.6798
X386.2135 Y70.6553
X386.2686 Y70.6264
X386.3138 Y70.599
X386.3787 Y70.5534
X386.4164 Y70.5229
X386.4541 Y70.4889
X386.4888 Y70.4542
X386.5227 Y70.4165
X386.5533 Y70.3788
X386.5989 Y70.314
X386.6263 Y70.2687
X386.6552 Y70.2137
X386.6797 Y70.1586
X386.6954 Y70.1173
X386.709 Y70.076
X386.7169 Y70.0485
X386.7301 Y69.9935
X386.7398 Y69.9384
X386.7463 Y69.8834
X386.7495 Y69.8283
X386.75 Y69.7182
Y20.2818
X386.7495 Y20.1717
X386.7463 Y20.1166
X386.7398 Y20.0616
X386.7301 Y20.0065
X386.7169 Y19.9515
X386.709 Y19.924
X386.6954 Y19.8827
X386.6797 Y19.8414
X386.6552 Y19.7863
X386.6263 Y19.7313
X386.5989 Y19.686
X386.5533 Y19.6212
X386.5227 Y19.5835
X386.4888 Y19.5458
X386.4541 Y19.5111
X386.4164 Y19.4771
X386.3787 Y19.4466
X386.3138 Y19.401
X386.2686 Y19.3736
X386.2135 Y19.3447
X386.1585 Y19.3202
X386.117 Y19.3045
X386.0756 Y19.2909
X386.0484 Y19.283
X385.9933 Y19.2699
X385.9383 Y19.2601
X385.8832 Y19.2537
X385.8282 Y19.2504
X385.7181 Y19.25
X20.282
X20.1719 Y19.2504
X20.1168 Y19.2536
X20.0618 Y19.2601
X20.0067 Y19.2699
X19.9517 Y19.283
X19.9244 Y19.2909
X19.883 Y19.3045
X19.8416 Y19.3202
X19.7865 Y19.3447
X19.7315 Y19.3736
X19.6862 Y19.401
X19.6214 Y19.4466
X19.5836 Y19.4771
X19.5459 Y19.5111
X19.5112 Y19.5457
X19.4773 Y19.5834
X19.4467 Y19.6212
X19.4011 Y19.6859
X19.3737 Y19.7313
X19.3448 Y19.7863
X19.3203 Y19.8414
X19.3046 Y19.8826
X19.291 Y19.9238
X19.2831 Y19.9515
X19.2699 Y20.0065
X19.2601 Y20.0616
X19.2537 Y20.1166
X19.2504 Y20.1717
X19.25 Y20.2818
Y57.0064
Y57.2 Z-2.0001
Y57.3935 Z-2.0004
Y57.5871 Z-2.0008
Y57.7807 Z-2.0015
Y57.9743 Z-2.0023
Y58.1678 Z-2.0033
Y58.3614 Z-2.0045
Y58.555 Z-2.0058
Y58.7486 Z-2.0073
Y58.9421 Z-2.009
Y59.1357 Z-2.0109
Y59.3293 Z-2.0129
Y59.5229 Z-2.0151
Y59.7164 Z-2.0174
Y59.91 Z-2.0199
Y60.1036 Z-2.0225
Y60.2971 Z-2.0253
Y60.4907 Z-2.0283
Y60.6843 Z-2.0314
Y60.8779 Z-2.0347
Y61.0714 Z-2.0381
Y61.265 Z-2.0416
Y61.4586 Z-2.0453
Y61.6522 Z-2.0491
Y61.8457 Z-2.0531
Y62.0393 Z-2.0572
Y62.2329 Z-2.0614
Y62.4265 Z-2.0658
Y62.62 Z-2.0702
Y62.8136 Z-2.0749
Y63.0072 Z-2.0796
Y63.2008 Z-2.0845
Y63.3943 Z-2.0894
Y63.4911 Z-2.092
Y63.5879 Z-2.0945
Y63.6847 Z-2.0971
Y63.7815 Z-2.0997
Y63.8783 Z-2.1024
Y63.9751 Z-2.1051
Y64.0719 Z-2.1078
Y64.1686 Z-2.1105
Y64.2654 Z-2.1133
Y64.3622 Z-2.1161
Y64.459 Z-2.1189
Y64.5558 Z-2.1217
Y64.6526 Z-2.1246
Y64.7494 Z-2.1275
Y64.8462 Z-2.1304
Y64.9429 Z-2.1334
Y65.0397 Z-2.1363
Y65.1365 Z-2.1393
Y65.2333 Z-2.1423
Y65.3301 Z-2.1454
Y65.4269 Z-2.1485
Y65.5237 Z-2.1516
Y65.6205 Z-2.1547
Y65.7172 Z-2.1578
Y65.814 Z-2.161
Y65.9108 Z-2.1642
Y66.0076 Z-2.1674
Y66.1044 Z-2.1706
Y66.2012 Z-2.1739
Y66.298 Z-2.1772
Y66.3948 Z-2.1805
Y66.4915 Z-2.1838
Y66.5883 Z-2.1871
Y66.7819 Z-2.1939
Y66.8787 Z-2.1972
Y66.9755 Z-2.2006
Y67.0723 Z-2.204
Y67.1691 Z-2.2074
Y67.2658 Z-2.2108
Y67.3626 Z-2.2141
Y67.4594 Z-2.2175
Y67.5562 Z-2.2209
Y67.653 Z-2.2243
Y67.7498 Z-2.2277
Y67.8466 Z-2.231
Y67.9434 Z-2.2344
Y68.1369 Z-2.2412
Y68.4273 Z-2.2513
Y68.7177 Z-2.2614
Y69.008 Z-2.2716
Y69.2984 Z-2.2817
Y69.5887 Z-2.2919
Y69.7823 Z-2.2986
X19.2533 Y69.879 Z-2.302
X19.2586 Y69.9271 Z-2.3037
X19.2663 Y69.9749 Z-2.3054
X19.2764 Y70.0222 Z-2.3071
X19.2889 Y70.069 Z-2.3087
X19.3038 Y70.115 Z-2.3104
X19.321 Y70.1603 Z-2.3121
X19.3405 Y70.2046 Z-2.3138
X19.3622 Y70.2478 Z-2.3155
X19.3861 Y70.2899 Z-2.3172
X19.4121 Y70.3307 Z-2.3189
X19.4401 Y70.3701 Z-2.3206
X19.4701 Y70.4081 Z-2.3222
X19.5021 Y70.4445 Z-2.3239
X19.5358 Y70.4792 Z-2.3256
X19.5712 Y70.5121 Z-2.3273
X19.6083 Y70.5432 Z-2.329
X19.6469 Y70.5724 Z-2.3307
X19.687 Y70.5996 Z-2.3324
X19.7284 Y70.6247 Z-2.3341
X19.771 Y70.6476 Z-2.3357
X19.8147 Y70.6684 Z-2.3374
X19.8594 Y70.6869 Z-2.3391
X19.905 Y70.703 Z-2.3408
X19.9514 Y70.7169 Z-2.3425
X19.9984 Y70.7284 Z-2.3442
X20.046 Y70.7374 Z-2.3459
X20.0939 Y70.7441 Z-2.3476
X20.1421 Y70.7482 Z-2.3492
X20.2389 Y70.75 Z-2.3526
X20.7228 Z-2.3695
X21.2068 Z-2.3864
X21.8843 Z-2.4101
X22.6586 Z-2.4371
X23.7232 Z-2.4743
X27.5947 Z-2.6095
X28.2722 Z-2.6331
X28.7562 Z-2.65
X29.2401 Z-2.6669
X29.5305 Z-2.677
X29.8208 Z-2.6872
X30.1112 Z-2.6973
X30.4016 Z-2.7075
X30.6919 Z-2.7176
X30.9823 Z-2.7277
X31.2726 Z-2.7379
X31.563 Z-2.748
X31.8534 Z-2.7581
X32.1437 Z-2.7683
X32.2405 Z-2.7717
X32.3373 Z-2.775
X32.4341 Z-2.7784
X32.5309 Z-2.7818
X32.6277 Z-2.7852
X32.7244 Z-2.7886
X32.8212 Z-2.7919
X32.918 Z-2.7953
X33.0148 Z-2.7987
X33.1116 Z-2.8021
X33.2084 Z-2.8054
X33.3052 Z-2.8088
X33.402 Z-2.8122
X33.4987 Z-2.8156
X33.5955 Z-2.8189
X33.6923 Z-2.8222
X33.7891 Z-2.8255
X33.8859 Z-2.8287
X33.9827 Z-2.832
X34.0795 Z-2.8352
X34.1763 Z-2.8384
X34.273 Z-2.8415
X34.3698 Z-2.8447
X34.4666 Z-2.8478
X34.5634 Z-2.8509
X34.6602 Z-2.854
X34.757 Z-2.857
X34.8538 Z-2.8601
X34.9506 Z-2.8631
X35.0473 Z-2.866
X35.1441 Z-2.869
X35.2409 Z-2.8719
X35.3377 Z-2.8748
X35.4345 Z-2.8777
X35.5313 Z-2.8805
X35.6281 Z-2.8834
X35.7249 Z-2.8862
X35.8216 Z-2.8889
X35.9184 Z-2.8917
X36.0152 Z-2.8944
X36.112 Z-2.8971
X36.2088 Z-2.8997
X36.3056 Z-2.9024
X36.4024 Z-2.905
X36.4992 Z-2.9075
X36.5959 Z-2.9101
X36.6927 Z-2.9126
X36.8863 Z-2.9175
X37.0799 Z-2.9223
X37.2735 Z-2.927
X37.467 Z-2.9316
X37.6606 Z-2.936
X37.8542 Z-2.9403
X38.0478 Z-2.9445
X38.2413 Z-2.9485
X38.4349 Z-2.9524
X38.6285 Z-2.9562
X38.8221 Z-2.9598
X39.0156 Z-2.9633
X39.2092 Z-2.9667
X39.4028 Z-2.9699
X39.5964 Z-2.9729
X39.7899 Z-2.9758
X39.9835 Z-2.9785
X40.1771 Z-2.9811
X40.3707 Z-2.9836
X40.5642 Z-2.9858
X40.7578 Z-2.9879
X40.9514 Z-2.9899
X41.1449 Z-2.9917
X41.3385 Z-2.9933
X41.5321 Z-2.9947
X41.7257 Z-2.996
X41.9192 Z-2.9971
X42.1128 Z-2.9981
X42.3064 Z-2.9988
X42.5 Z-2.9994
X42.6935 Z-2.9998
X42.8871 Z-3
X43.0033
X385.7181
X385.8282 Y70.7496
X385.8832 Y70.7463
X385.9383 Y70.7399
X385.9933 Y70.7301
X386.0484 Y70.7169
X386.0756 Y70.7091
X386.117 Y70.6955
X386.1585 Y70.6798
X386.2135 Y70.6553
X386.2686 Y70.6264
X386.3138 Y70.599
X386.3787 Y70.5534
X386.4164 Y70.5229
X386.4541 Y70.4889
X386.4888 Y70.4542
X386.5227 Y70.4165
X386.5533 Y70.3788
X386.5989 Y70.314
X386.6263 Y70.2687
X386.6552 Y70.2137
X386.6797 Y70.1586
X386.6954 Y70.1173
X386.709 Y70.076
X386.7169 Y70.0485
X386.7301 Y69.9935
X386.7398 Y69.9384
X386.7463 Y69.8834
X386.7495 Y69.8283
X386.75 Y69.7182
Y20.2818
X386.7495 Y20.1717
X386.7463 Y20.1166
X386.7398 Y20.0616
X386.7301 Y20.0065
X386.7169 Y19.9515
X386.709 Y19.924
X386.6954 Y19.8827
X386.6797 Y19.8414
X386.6552 Y19.7863
X386.6263 Y19.7313
X386.5989 Y19.686
X386.5533 Y19.6212
X386.5227 Y19.5835
X386.4888 Y19.5458
X386.4541 Y19.5111
X386.4164 Y19.4771
X386.3787 Y19.4466
X386.3138 Y19.401
X386.2686 Y19.3736
X386.2135 Y19.3447
X386.1585 Y19.3202
X386.117 Y19.3045
X386.0756 Y19.2909
X386.0484 Y19.283
X385.9933 Y19.2699
X385.9383 Y19.2601
X385.8832 Y19.2537
X385.8282 Y19.2504
X385.7181 Y19.25
X20.282
X20.1719 Y19.2504
X20.1168 Y19.2536
X20.0618 Y19.2601
X20.0067 Y19.2699
X19.9517 Y19.283
X19.9244 Y19.2909
X19.883 Y19.3045
X19.8416 Y19.3202
X19.7865 Y19.3447
X19.7315 Y19.3736
X19.6862 Y19.401
X19.6214 Y19.4466
X19.5836 Y19.4771
X19.5459 Y19.5111
X19.5112 Y19.5457
X19.4773 Y19.5834
X19.4467 Y19.6212
X19.4011 Y19.6859
X19.3737 Y19.7313
X19.3448 Y19.7863
X19.3203 Y19.8414
X19.3046 Y19.8826
X19.291 Y19.9238
X19.2831 Y19.9515
X19.2699 Y20.0065
X19.2601 Y20.0616
X19.2537 Y20.1166
X19.2504 Y20.1717
X19.25 Y20.2818
Y57.0064
Y69.7182
X19.2504 Y69.8283
X19.2537 Y69.8834
X19.2602 Y69.9384
X19.2699 Y69.9935
X19.2831 Y70.0485
X19.291 Y70.0762
X19.3046 Y70.1174
X19.3203 Y70.1586
X19.3448 Y70.2137
X19.3737 Y70.2687
X19.4011 Y70.3141
X19.4467 Y70.3788
X19.4773 Y70.4166
X19.5112 Y70.4543
X19.5459 Y70.4889
X19.5836 Y70.5229
X19.6214 Y70.5534
X19.6862 Y70.599
X19.7315 Y70.6264
X19.7865 Y70.6553
X19.8416 Y70.6798
X19.883 Y70.6955
X19.9244 Y70.7091
X19.9517 Y70.717
X20.0067 Y70.7301
X20.0618 Y70.7399
X20.1168 Y70.7463
X20.1719 Y70.7496
X20.282 Y70.75
X43.0033
X43.1969 Z-3.0001
X43.3904 Z-3.0004
X43.584 Z-3.0008
X43.7776 Z-3.0015
X43.9712 Z-3.0023
X44.1647 Z-3.0033
X44.3583 Z-3.0045
X44.5519 Z-3.0058
X44.7455 Z-3.0073
X44.939 Z-3.009
X45.1326 Z-3.0109
X45.3262 Z-3.0129
X45.5198 Z-3.0151
X45.7133 Z-3.0174
X45.9069 Z-3.0199
X46.1005 Z-3.0225
X46.2941 Z-3.0253
X46.4876 Z-3.0283
X46.6812 Z-3.0314
X46.8748 Z-3.0347
X47.0684 Z-3.0381
X47.2619 Z-3.0416
X47.4555 Z-3.0453
X47.6491 Z-3.0491
X47.8427 Z-3.0531
X48.0362 Z-3.0572
X48.2298 Z-3.0614
X48.4234 Z-3.0658
X48.617 Z-3.0702
X48.8105 Z-3.0749
X49.0041 Z-3.0796
X49.1977 Z-3.0845
X49.3913 Z-3.0894
X49.488 Z-3.092
X49.5848 Z-3.0945
X49.6816 Z-3.0971
X49.7784 Z-3.0997
X49.8752 Z-3.1024
X49.972 Z-3.1051
X50.0688 Z-3.1078
X50.1656 Z-3.1105
X50.2623 Z-3.1133
X50.3591 Z-3.1161
X50.4559 Z-3.1189
X50.5527 Z-3.1217
X50.6495 Z-3.1246
X50.7463 Z-3.1275
X50.8431 Z-3.1304
X50.9399 Z-3.1334
X51.0366 Z-3.1363
X51.1334 Z-3.1393
X51.2302 Z-3.1423
X51.327 Z-3.1454
X51.4238 Z-3.1485
X51.5206 Z-3.1516
X51.6174 Z-3.1547
X51.7142 Z-3.1578
X51.8109 Z-3.161
X51.9077 Z-3.1642
X52.0045 Z-3.1674
X52.1013 Z-3.1706
X52.1981 Z-3.1739
X52.2949 Z-3.1772
X52.3917 Z-3.1805
X52.4885 Z-3.1838
X52.5852 Z-3.1871
X52.7788 Z-3.1939
X52.8756 Z-3.1972
X52.9724 Z-3.2006
X53.0692 Z-3.204
X53.166 Z-3.2074
X53.2628 Z-3.2108
X53.3595 Z-3.2141
X53.4563 Z-3.2175
X53.5531 Z-3.2209
X53.6499 Z-3.2243
X53.7467 Z-3.2277
X53.8435 Z-3.231
X53.9403 Z-3.2344
X54.1338 Z-3.2412
X54.4242 Z-3.2513
X54.7146 Z-3.2614
X55.0049 Z-3.2716
X55.2953 Z-3.2817
X55.5856 Z-3.2919
X55.876 Z-3.302
X56.1664 Z-3.3121
X56.4567 Z-3.3223
X56.7471 Z-3.3324
X57.0375 Z-3.3426
X57.5214 Z-3.3595
X58.0053 Z-3.3764
X58.4893 Z-3.3933
X59.1668 Z-3.4169
X60.0379 Z-3.4473
X61.4897 Z-3.498
X68.4584 Z-3.7413
X68.7487 Z-3.7515
X69.0391 Z-3.7616
X69.1359 Z-3.765
X69.2327 Z-3.7684
X69.3295 Z-3.7717
X69.4262 Z-3.7751
X69.523 Z-3.7785
X69.6198 Z-3.7819
X69.7166 Z-3.7853
X69.8134 Z-3.7886
X69.9102 Z-3.792
X70.007 Z-3.7954
X70.1037 Z-3.7988
X70.2005 Z-3.8022
X70.2973 Z-3.8055
X70.3941 Z-3.8089
X70.4909 Z-3.8123
X70.5877 Z-3.8156
X70.6845 Z-3.819
X70.7813 Z-3.8223
X70.878 Z-3.8255
X70.9748 Z-3.8288
X71.0716 Z-3.832
X71.1684 Z-3.8353
X71.2652 Z-3.8385
X71.362 Z-3.8416
X71.4588 Z-3.8448
X71.5556 Z-3.8479
X71.6523 Z-3.851
X71.7491 Z-3.8541
X71.8459 Z-3.8571
X71.9427 Z-3.8601
X72.0395 Z-3.8631
X72.1363 Z-3.8661
X72.2331 Z-3.8691
X72.3299 Z-3.872
X72.4266 Z-3.8749
X72.5234 Z-3.8778
X72.6202 Z-3.8806
X72.717 Z-3.8834
X72.8138 Z-3.8862
X72.9106 Z-3.889
X73.0074 Z-3.8917
X73.1042 Z-3.8945
X73.2009 Z-3.8971
X73.2977 Z-3.8998
X73.3945 Z-3.9024
X73.4913 Z-3.905
X73.5881 Z-3.9076
X73.6849 Z-3.9101
X73.7817 Z-3.9126
X73.9752 Z-3.9176
X74.1688 Z-3.9224
X74.3624 Z-3.9271
X74.556 Z-3.9316
X74.7495 Z-3.9361
X74.9431 Z-3.9404
X75.1367 Z-3.9445
X75.3303 Z-3.9486
X75.5238 Z-3.9525
X75.7174 Z-3.9562
X75.911 Z-3.9599
X76.1046 Z-3.9634
X76.2981 Z-3.9667
X76.4917 Z-3.9699
X76.6853 Z-3.9729
X76.8789 Z-3.9758
X77.0724 Z-3.9786
X77.266 Z-3.9812
X77.4596 Z-3.9836
X77.6532 Z-3.9859
X77.8467 Z-3.988
X78.0403 Z-3.9899
X78.2339 Z-3.9917
X78.4275 Z-3.9933
X78.621 Z-3.9948
X78.8146 Z-3.996
X79.0082 Z-3.9971
X79.2018 Z-3.9981
X79.3953 Z-3.9988
X79.5889 Z-3.9994
X79.7825 Z-3.9998
X79.9761 Z-4
X80.0899
X385.7181
X385.8282 Y70.7496
X385.8832 Y70.7463
X385.9383 Y70.7399
X385.9933 Y70.7301
X386.0484 Y70.7169
X386.0756 Y70.7091
X386.117 Y70.6955
X386.1585 Y70.6798
X386.2135 Y70.6553
X386.2686 Y70.6264
X386.3138 Y70.599
X386.3787 Y70.5534
X386.4164 Y70.5229
X386.4541 Y70.4889
X386.4888 Y70.4542
X386.5227 Y70.4165
X386.5533 Y70.3788
X386.5989 Y70.314
X386.6263 Y70.2687
X386.6552 Y70.2137
X386.6797 Y70.1586
X386.6954 Y70.1173
X386.709 Y70.076
X386.7169 Y70.0485
X386.7301 Y69.9935
X386.7398 Y69.9384
X386.7463 Y69.8834
X386.7495 Y69.8283
X386.75 Y69.7182
Y20.2818
X386.7495 Y20.1717
X386.7463 Y20.1166
X386.7398 Y20.0616
X386.7301 Y20.0065
X386.7169 Y19.9515
X386.709 Y19.924
X386.6954 Y19.8827
X386.6797 Y19.8414
X386.6552 Y19.7863
X386.6263 Y19.7313
X386.5989 Y19.686
X386.5533 Y19.6212
X386.5227 Y19.5835
X386.4888 Y19.5458
X386.4541 Y19.5111
X386.4164 Y19.4771
X386.3787 Y19.4466
X386.3138 Y19.401
X386.2686 Y19.3736
X386.2135 Y19.3447
X386.1585 Y19.3202
X386.117 Y19.3045
X386.0756 Y19.2909
X386.0484 Y19.283
X385.9933 Y19.2699
X385.9383 Y19.2601
X385.8832 Y19.2537
X385.8282 Y19.2504
X385.7181 Y19.25
X20.282
X20.1719 Y19.2504
X20.1168 Y19.2536
X20.0618 Y19.2601
X20.0067 Y19.2699
X19.9517 Y19.283
X19.9244 Y19.2909
X19.883 Y19.3045
X19.8416 Y19.3202
X19.7865 Y19.3447
X19.7315 Y19.3736
X19.6862 Y19.401
X19.6214 Y19.4466
X19.5836 Y19.4771
X19.5459 Y19.5111
X19.5112 Y19.5457
X19.4773 Y19.5834
X19.4467 Y19.6212
X19.4011 Y19.6859
X19.3737 Y19.7313
X19.3448 Y19.7863
X19.3203 Y19.8414
X19.3046 Y19.8826
X19.291 Y19.9238
X19.2831 Y19.9515
X19.2699 Y20.0065
X19.2601 Y20.0616
X19.2537 Y20.1166
X19.2504 Y20.1717
X19.25 Y20.2818
Y69.7182
X19.2504 Y69.8283
X19.2537 Y69.8834
X19.2602 Y69.9384
X19.2699 Y69.9935
X19.2831 Y70.0485
X19.291 Y70.0762
X19.3046 Y70.1174
X19.3203 Y70.1586
X19.3448 Y70.2137
X19.3737 Y70.2687
X19.4011 Y70.3141
X19.4467 Y70.3788
X19.4773 Y70.4166
X19.5112 Y70.4543
X19.5459 Y70.4889
X19.5836 Y70.5229
X19.6214 Y70.5534
X19.6862 Y70.599
X19.7315 Y70.6264
X19.7865 Y70.6553
X19.8416 Y70.6798
X19.883 Y70.6955
X19.9244 Y70.7091
X19.9517 Y70.717
X20.0067 Y70.7301
X20.0618 Y70.7399
X20.1168 Y70.7463
X20.1719 Y70.7496
X20.282 Y70.75
X80.0899
X80.2834 Z-4.0001
X80.477 Z-4.0004
X80.6706 Z-4.0008
X80.8642 Z-4.0015
X81.0577 Z-4.0023
X81.2513 Z-4.0033
X81.4449 Z-4.0045
X81.6385 Z-4.0058
X81.832 Z-4.0073
X82.0256 Z-4.009
X82.2192 Z-4.0109
X82.4128 Z-4.0129
X82.6063 Z-4.0151
X82.7999 Z-4.0174
X82.9935 Z-4.0199
X83.187 Z-4.0225
X83.3806 Z-4.0253
X83.5742 Z-4.0283
X83.7678 Z-4.0314
X83.9613 Z-4.0347
X84.1549 Z-4.0381
X84.3485 Z-4.0416
X84.5421 Z-4.0453
X84.7356 Z-4.0491
X84.9292 Z-4.0531
X85.1228 Z-4.0572
X85.3164 Z-4.0614
X85.5099 Z-4.0658
X85.7035 Z-4.0702
X85.8971 Z-4.0749
X86.0907 Z-4.0796
X86.2842 Z-4.0845
X86.4778 Z-4.0894
X86.5746 Z-4.092
X86.6714 Z-4.0945
X86.7682 Z-4.0971
X86.865 Z-4.0997
X86.9618 Z-4.1024
X87.0585 Z-4.1051
X87.1553 Z-4.1078
X87.2521 Z-4.1105
X87.3489 Z-4.1133
X87.4457 Z-4.1161
X87.5425 Z-4.1189
X87.6393 Z-4.1217
X87.7361 Z-4.1246
X87.8328 Z-4.1275
X87.9296 Z-4.1304
X88.0264 Z-4.1334
X88.1232 Z-4.1363
X88.22 Z-4.1393
X88.3168 Z-4.1423
X88.4136 Z-4.1454
X88.5104 Z-4.1485
X88.6071 Z-4.1516
X88.7039 Z-4.1547
X88.8007 Z-4.1578
X88.8975 Z-4.161
X88.9943 Z-4.1642
X89.0911 Z-4.1674
X89.1879 Z-4.1706
X89.2847 Z-4.1739
X89.3814 Z-4.1772
X89.4782 Z-4.1805
X89.575 Z-4.1838
X89.6718 Z-4.1871
X89.8654 Z-4.1939
X89.9622 Z-4.1972
X90.059 Z-4.2006
X90.1557 Z-4.204
X90.2525 Z-4.2074
X90.3493 Z-4.2108
X90.4461 Z-4.2141
X90.5429 Z-4.2175
X90.6397 Z-4.2209
X90.7365 Z-4.2243
X90.8333 Z-4.2277
X90.93 Z-4.231
X91.0268 Z-4.2344
X91.2204 Z-4.2412
X91.5108 Z-4.2513
X91.8011 Z-4.2614
X92.0915 Z-4.2716
X92.3819 Z-4.2817
X92.6722 Z-4.2919
X92.9626 Z-4.302
X93.2529 Z-4.3121
X93.5433 Z-4.3223
X93.8337 Z-4.3324
X94.124 Z-4.3426
X94.608 Z-4.3595
X95.0919 Z-4.3764
X95.5758 Z-4.3933
X96.2533 Z-4.4169
X97.1244 Z-4.4473
X98.5762 Z-4.498
X105.5449 Z-4.7413
X105.8353 Z-4.7515
X106.1256 Z-4.7616
X106.2224 Z-4.765
X106.3192 Z-4.7684
X106.416 Z-4.7717
X106.5128 Z-4.7751
X106.6096 Z-4.7785
X106.7064 Z-4.7819
X106.8032 Z-4.7853
X106.8999 Z-4.7886
X106.9967 Z-4.792
X107.0935 Z-4.7954
X107.1903 Z-4.7988
X107.2871 Z-4.8022
X107.3839 Z-4.8055
X107.4807 Z-4.8089
X107.5775 Z-4.8123
X107.6742 Z-4.8156
X107.771 Z-4.819
X107.8678 Z-4.8223
X107.9646 Z-4.8255
X108.0614 Z-4.8288
X108.1582 Z-4.832
X108.255 Z-4.8353
X108.3518 Z-4.8385
X108.4485 Z-4.8416
X108.5453 Z-4.8448
X108.6421 Z-4.8479
X108.7389 Z-4.851
X108.8357 Z-4.8541
X108.9325 Z-4.8571
X109.0293 Z-4.8601
X109.1261 Z-4.8631
X109.2228 Z-4.8661
X109.3196 Z-4.8691
X109.4164 Z-4.872
X109.5132 Z-4.8749
X109.61 Z-4.8778
X109.7068 Z-4.8806
X109.8036 Z-4.8834
X109.9004 Z-4.8862
X109.9971 Z-4.889
X110.0939 Z-4.8917
X110.1907 Z-4.8945
X110.2875 Z-4.8971
X110.3843 Z-4.8998
X110.4811 Z-4.9024
X110.5779 Z-4.905
X110.6747 Z-4.9076
X110.7714 Z-4.9101
X110.8682 Z-4.9126
X111.0618 Z-4.9176
X111.2554 Z-4.9224
X111.449 Z-4.9271
X111.6425 Z-4.9316
X111.8361 Z-4.9361
X112.0297 Z-4.9404
X112.2233 Z-4.9445
X112.4168 Z-4.9486
X112.6104 Z-4.9525
X112.804 Z-4.9562
X112.9976 Z-4.9599
X113.1911 Z-4.9634
X113.3847 Z-4.9667
X113.5783 Z-4.9699
X113.7719 Z-4.9729
X113.9654 Z-4.9758
X114.159 Z-4.9786
X114.3526 Z-4.9812
X114.5462 Z-4.9836
X114.7397 Z-4.9859
X114.9333 Z-4.988
X115.1269 Z-4.9899
X115.3204 Z-4.9917
X115.514 Z-4.9933
X115.7076 Z-4.9948
X115.9012 Z-4.996
X116.0947 Z-4.9971
X116.2883 Z-4.9981
X116.4819 Z-4.9988
X116.6755 Z-4.9994
X116.869 Z-4.9998
X117.0626 Z-5
X117.1764
X385.7181
X385.8282 Y70.7496
X385.8832 Y70.7463
X385.9383 Y70.7399
X385.9933 Y70.7301
X386.0484 Y70.7169
X386.0756 Y70.7091
X386.117 Y70.6955
X386.1585 Y70.6798
X386.2135 Y70.6553
X386.2686 Y70.6264
X386.3138 Y70.599
X386.3787 Y70.5534
X386.4164 Y70.5229
X386.4541 Y70.4889
X386.4888 Y70.4542
X386.5227 Y70.4165
X386.5533 Y70.3788
X386.5989 Y70.314
X386.6263 Y70.2687
X386.6552 Y70.2137
X386.6797 Y70.1586
X386.6954 Y70.1173
X386.709 Y70.076
X386.7169 Y70.0485
X386.7301 Y69.9935
X386.7398 Y69.9384
X386.7463 Y69.8834
X386.7495 Y69.8283
X386.75 Y69.7182
Y20.2818
X386.7495 Y20.1717
X386.7463 Y20.1166
X386.7398 Y20.0616
X386.7301 Y20.0065
X386.7169 Y19.9515
X386.709 Y19.924
X386.6954 Y19.8827
X386.6797 Y19.8414
X386.6552 Y19.7863
X386.6263 Y19.7313
X386.5989 Y19.686
X386.5533 Y19.6212
X386.5227 Y19.5835
X386.4888 Y19.5458
X386.4541 Y19.5111
X386.4164 Y19.4771
X386.3787 Y19.4466
X386.3138 Y19.401
X386.2686 Y19.3736
X386.2135 Y19.3447
X386.1585 Y19.3202
X386.117 Y19.3045
X386.0756 Y19.2909
X386.0484 Y19.283
X385.9933 Y19.2699
X385.9383 Y19.2601
X385.8832 Y19.2537
X385.8282 Y19.2504
X385.7181 Y19.25
X20.282
X20.1719 Y19.2504
X20.1168 Y19.2536
X20.0618 Y19.2601
X20.0067 Y19.2699
X19.9517 Y19.283
X19.9244 Y19.2909
X19.883 Y19.3045
X19.8416 Y19.3202
X19.7865 Y19.3447
X19.7315 Y19.3736
X19.6862 Y19.401
X19.6214 Y19.4466
X19.5836 Y19.4771
X19.5459 Y19.5111
X19.5112 Y19.5457
X19.4773 Y19.5834
X19.4467 Y19.6212
X19.4011 Y19.6859
X19.3737 Y19.7313
X19.3448 Y19.7863
X19.3203 Y19.8414
X19.3046 Y19.8826
X19.291 Y19.9238
X19.2831 Y19.9515
X19.2699 Y20.0065
X19.2601 Y20.0616
X19.2537 Y20.1166
X19.2504 Y20.1717
X19.25 Y20.2818
Y69.7182
X19.2504 Y69.8283
X19.2537 Y69.8834
X19.2602 Y69.9384
X19.2699 Y69.9935
X19.2831 Y70.0485
X19.291 Y70.0762
X19.3046 Y70.1174
X19.3203 Y70.1586
X19.3448 Y70.2137
X19.3737 Y70.2687
X19.4011 Y70.3141
X19.4467 Y70.3788
X19.4773 Y70.4166
X19.5112 Y70.4543
X19.5459 Y70.4889
X19.5836 Y70.5229
X19.6214 Y70.5534
X19.6862 Y70.599
X19.7315 Y70.6264
X19.7865 Y70.6553
X19.8416 Y70.6798
X19.883 Y70.6955
X19.9244 Y70.7091
X19.9517 Y70.717
X20.0067 Y70.7301
X20.0618 Y70.7399
X20.1168 Y70.7463
X20.1719 Y70.7496
X20.282 Y70.75
X80.0899
X117.1764
X117.37 Z-5.0001
X117.5636 Z-5.0004
X117.7571 Z-5.0008
X117.9507 Z-5.0015
X118.1443 Z-5.0023
X118.3379 Z-5.0033
X118.5314 Z-5.0045
X118.725 Z-5.0058
X118.9186 Z-5.0073
X119.1122 Z-5.009
X119.3057 Z-5.0109
X119.4993 Z-5.0129
X119.6929 Z-5.0151
X119.8865 Z-5.0174
X120.08 Z-5.0199
X120.2736 Z-5.0225
X120.4672 Z-5.0253
X120.6608 Z-5.0283
X120.8543 Z-5.0314
X121.0479 Z-5.0347
X121.2415 Z-5.0381
X121.4351 Z-5.0416
X121.6286 Z-5.0453
X121.8222 Z-5.0491
X122.0158 Z-5.0531
X122.2094 Z-5.0572
X122.4029 Z-5.0614
X122.5965 Z-5.0658
X122.7901 Z-5.0702
X122.9837 Z-5.0749
X123.1772 Z-5.0796
X123.3708 Z-5.0845
X123.5644 Z-5.0894
X123.6612 Z-5.092
X123.758 Z-5.0945
X123.8548 Z-5.0971
X123.9515 Z-5.0997
X124.0483 Z-5.1024
X124.1451 Z-5.1051
X124.2419 Z-5.1078
X124.3387 Z-5.1105
X124.4355 Z-5.1133
X124.5323 Z-5.1161
X124.629 Z-5.1189
X124.7258 Z-5.1217
X124.8226 Z-5.1246
X124.9194 Z-5.1275
X125.0162 Z-5.1304
X125.113 Z-5.1334
X125.2098 Z-5.1363
X125.3066 Z-5.1393
X125.4033 Z-5.1423
X125.5001 Z-5.1454
X125.5969 Z-5.1485
X125.6937 Z-5.1516
X125.7905 Z-5.1547
X125.8873 Z-5.1578
X125.9841 Z-5.161
X126.0809 Z-5.1642
X126.1776 Z-5.1674
X126.2744 Z-5.1706
X126.3712 Z-5.1739
X126.468 Z-5.1772
X126.5648 Z-5.1805
X126.6616 Z-5.1838
X126.7584 Z-5.1871
X126.9519 Z-5.1939
X127.0487 Z-5.1972
X127.1455 Z-5.2006
X127.2423 Z-5.204
X127.3391 Z-5.2074
X127.4359 Z-5.2108
X127.5327 Z-5.2141
X127.6295 Z-5.2175
X127.7262 Z-5.2209
X127.823 Z-5.2243
X127.9198 Z-5.2277
X128.0166 Z-5.231
X128.1134 Z-5.2344
X128.307 Z-5.2412
X128.5973 Z-5.2513
X128.8877 Z-5.2614
X129.1781 Z-5.2716
X129.4684 Z-5.2817
X129.7588 Z-5.2919
X130.0491 Z-5.302
X130.3395 Z-5.3121
X130.6299 Z-5.3223
X130.9202 Z-5.3324
X131.2106 Z-5.3426
X131.6945 Z-5.3595
X132.1785 Z-5.3764
X132.6624 Z-5.3933
X133.3399 Z-5.4169
X134.211 Z-5.4473
X135.6628 Z-5.498
X142.6315 Z-5.7413
X142.9219 Z-5.7515
X143.2122 Z-5.7616
X143.309 Z-5.765
X143.4058 Z-5.7684
X143.5026 Z-5.7717
X143.5994 Z-5.7751
X143.6962 Z-5.7785
X143.7929 Z-5.7819
X143.8897 Z-5.7853
X143.9865 Z-5.7886
X144.0833 Z-5.792
X144.1801 Z-5.7954
X144.2769 Z-5.7988
X144.3737 Z-5.8022
X144.4704 Z-5.8055
X144.5672 Z-5.8089
X144.664 Z-5.8123
X144.7608 Z-5.8156
X144.8576 Z-5.819
X144.9544 Z-5.8223
X145.0512 Z-5.8255
X145.148 Z-5.8288
X145.2448 Z-5.832
X145.3415 Z-5.8353
X145.4383 Z-5.8385
X145.5351 Z-5.8416
X145.6319 Z-5.8448
X145.7287 Z-5.8479
X145.8255 Z-5.851
X145.9223 Z-5.8541
X146.019 Z-5.8571
X146.1158 Z-5.8601
X146.2126 Z-5.8631
X146.3094 Z-5.8661
X146.4062 Z-5.8691
X146.503 Z-5.872
X146.5998 Z-5.8749
X146.6966 Z-5.8778
X146.7934 Z-5.8806
X146.8901 Z-5.8834
X146.9869 Z-5.8862
X147.0837 Z-5.889
X147.1805 Z-5.8917
X147.2773 Z-5.8945
X147.3741 Z-5.8971
X147.4709 Z-5.8998
X147.5676 Z-5.9024
X147.6644 Z-5.905
X147.7612 Z-5.9076
X147.858 Z-5.9101
X147.9548 Z-5.9126
X148.1484 Z-5.9176
X148.3419 Z-5.9224
X148.5355 Z-5.9271
X148.7291 Z-5.9316
X148.9227 Z-5.9361
X149.1162 Z-5.9404
X149.3098 Z-5.9445
X149.5034 Z-5.9486
X149.697 Z-5.9525
X149.8905 Z-5.9562
X150.0841 Z-5.9599
X150.2777 Z-5.9634
X150.4713 Z-5.9667
X150.6648 Z-5.9699
X150.8584 Z-5.9729
X151.052 Z-5.9758
X151.2456 Z-5.9786
X151.4391 Z-5.9812
X151.6327 Z-5.9836
X151.8263 Z-5.9859
X152.0199 Z-5.988
X152.2134 Z-5.9899
X152.407 Z-5.9917
X152.6006 Z-5.9933
X152.7942 Z-5.9948
X152.9877 Z-5.996
X153.1813 Z-5.9971
X153.3749 Z-5.9981
X153.5685 Z-5.9988
X153.762 Z-5.9994
X153.9556 Z-5.9998
X154.1492 Z-6
X154.263
X385.7181
X385.8282 Y70.7496
X385.8832 Y70.7463
X385.9383 Y70.7399
X385.9933 Y70.7301
X386.0484 Y70.7169
X386.0756 Y70.7091
X386.117 Y70.6955
X386.1585 Y70.6798
X386.2135 Y70.6553
X386.2686 Y70.6264
X386.3138 Y70.599
X386.3787 Y70.5534
X386.4164 Y70.5229
X386.4541 Y70.4889
X386.4888 Y70.4542
X386.5227 Y70.4165
X386.5533 Y70.3788
X386.5989 Y70.314
X386.6263 Y70.2687
X386.6552 Y70.2137
X386.6797 Y70.1586
X386.6954 Y70.1173
X386.709 Y70.076
X386.7169 Y70.0485
X386.7301 Y69.9935
X386.7398 Y69.9384
X386.7463 Y69.8834
X386.7495 Y69.8283
X386.75 Y69.7182
Y20.2818
X386.7495 Y20.1717
X386.7463 Y20.1166
X386.7398 Y20.0616
X386.7301 Y20.0065
X386.7169 Y19.9515
X386.709 Y19.924
X386.6954 Y19.8827
X386.6797 Y19.8414
X386.6552 Y19.7863
X386.6263 Y19.7313
X386.5989 Y19.686
X386.5533 Y19.6212
X386.5227 Y19.5835
X386.4888 Y19.5458
X386.4541 Y19.5111
X386.4164 Y19.4771
X386.3787 Y19.4466
X386.3138 Y19.401
X386.2686 Y19.3736
X386.2135 Y19.3447
X386.1585 Y19.3202
X386.117 Y19.3045
X386.0756 Y19.2909
X386.0484 Y19.283
X385.9933 Y19.2699
X385.9383 Y19.2601
X385.8832 Y19.2537
X385.8282 Y19.2504
X385.7181 Y19.25
X20.282
X20.1719 Y19.2504
X20.1168 Y19.2536
X20.0618 Y19.2601
X20.0067 Y19.2699
X19.9517 Y19.283
X19.9244 Y19.2909
X19.883 Y19.3045
X19.8416 Y19.3202
X19.7865 Y19.3447
X19.7315 Y19.3736
X19.6862 Y19.401
X19.6214 Y19.4466
X19.5836 Y19.4771
X19.5459 Y19.5111
X19.5112 Y19.5457
X19.4773 Y19.5834
X19.4467 Y19.6212
X19.4011 Y19.6859
X19.3737 Y19.7313
X19.3448 Y19.7863
X19.3203 Y19.8414
X19.3046 Y19.8826
X19.291 Y19.9238
X19.2831 Y19.9515
X19.2699 Y20.0065
X19.2601 Y20.0616
X19.2537 Y20.1166
X19.2504 Y20.1717
X19.25 Y20.2818
Y69.7182
X19.2504 Y69.8283
X19.2537 Y69.8834
X19.2602 Y69.9384
X19.2699 Y69.9935
X19.2831 Y70.0485
X19.291 Y70.0762
X19.3046 Y70.1174
X19.3203 Y70.1586
X19.3448 Y70.2137
X19.3737 Y70.2687
X19.4011 Y70.3141
X19.4467 Y70.3788
X19.4773 Y70.4166
X19.5112 Y70.4543
X19.5459 Y70.4889
X19.5836 Y70.5229
X19.6214 Y70.5534
X19.6862 Y70.599
X19.7315 Y70.6264
X19.7865 Y70.6553
X19.8416 Y70.6798
X19.883 Y70.6955
X19.9244 Y70.7091
X19.9517 Y70.717
X20.0067 Y70.7301
X20.0618 Y70.7399
X20.1168 Y70.7463
X20.1719 Y70.7496
X20.282 Y70.75
X117.1764
X154.263
X154.3122 Y70.7565
X154.358 Y70.7755
X154.3973 Y70.8056
X154.4275 Y70.845
X154.4465 Y70.8908
X154.453 Y70.94
X154.4531 Y70.9464
X155.16 Y91.9271
G3 X153.4054 Y92.2536 I-0.902 J0.0304
G1 X153.4033 Y92.2473 Z-6.0001 F1200
G3 X153.4666 Y92.3913 Z-6.1926 I0.8547 J-0.2898
X153.5539 Y92.5221 Z-6.385 I0.7914 J-0.4338
X153.6627 Y92.6358 Z-6.5774 I0.704 J-0.5646
X153.7895 Y92.7289 Z-6.7699 I0.5953 J-0.6783
X153.9306 Y92.7985 Z-6.9623 I0.4685 J-0.7714
X153.3555 Y91.9641 Z-6.9999 I0.3274 J-0.841
G1 Y91.9575 Z-7
Y91.8575 F3200
G3 X154.263 Y90.95 I0.9075
G1 X405.9773
X406.0323 Y90.9495
X406.0874 Y90.946
X406.1424 Y90.9393
X406.1974 Y90.9293
X406.2525 Y90.9158
X406.3076 Y90.8988
X406.3577 Y90.8801
X406.4078 Y90.8581
X406.4177 Y90.8533
X406.4727 Y90.8241
X406.5278 Y90.7899
X406.5858 Y90.748
X406.6379 Y90.704
X406.671 Y90.6726
X406.7041 Y90.6379
X406.748 Y90.5857
X406.79 Y90.5277
X406.8241 Y90.4727
X406.8533 Y90.4176
X406.8581 Y90.4078
X406.8802 Y90.3577
X406.8989 Y90.3075
X406.9159 Y90.2525
X406.9293 Y90.1974
X406.9393 Y90.1424
X406.946 Y90.0873
X406.9495 Y90.0323
X406.95 Y89.9772
Y0.0228
X406.9495 Y-0.0323
X406.946 Y-0.0873
X406.9393 Y-0.1424
X406.9293 Y-0.1974
X406.9159 Y-0.2525
X406.8989 Y-0.3075
X406.8802 Y-0.3576
X406.8581 Y-0.4078
X406.8533 Y-0.4176
X406.8241 Y-0.4727
X406.79 Y-0.5277
X406.748 Y-0.5857
X406.7041 Y-0.6379
X406.671 Y-0.6726
X406.6379 Y-0.704
X406.5858 Y-0.748
X406.5278 Y-0.7899
X406.4727 Y-0.8241
X406.4177 Y-0.8533
X406.4078 Y-0.8581
X406.3577 Y-0.8801
X406.3076 Y-0.8988
X406.2525 Y-0.9158
X406.1974 Y-0.9293
X406.1424 Y-0.9393
X406.0874 Y-0.946
X406.0323 Y-0.9495
X405.9773 Y-0.95
X310.9573
X310.8472 Y-0.9485
X310.7921 Y-0.9439
X310.7371 Y-0.9359
X310.682 Y-0.9246
X310.627 Y-0.9099
X310.5719 Y-0.8915
X310.5168 Y-0.8693
X310.4923 Y-0.8581
X310.4495 Y-0.8364
X310.4067 Y-0.8119
X310.3605 Y-0.782
X310.3143 Y-0.748
X310.2966 Y-0.7338
X310.2463 Y-0.6893
X310.196 Y-0.6379
X310.1865 Y-0.6273
X310.1457 Y-0.5775
X310.1101 Y-0.5277
X310.0764 Y-0.4735
X310.0468 Y-0.4176
X310.0219 Y-0.3626
X310.0012 Y-0.3075
X309.9842 Y-0.2525
X309.9708 Y-0.1974
X309.9663 Y-0.1753
X309.9591 Y-0.1313
X309.954 Y-0.0873
X309.9506 Y-0.0323
X309.95 Y0.0228
Y18.7476
X309.9485 Y18.75
X231.652
X231.65 Y18.7476
Y0.0228
X231.6494 Y-0.0323
X231.646 Y-0.0873
X231.6393 Y-0.1424
X231.6293 Y-0.1974
X231.6158 Y-0.2525
X231.5988 Y-0.3075
X231.5721 Y-0.3768
X231.5533 Y-0.4176
X231.524 Y-0.4727
X231.4899 Y-0.5277
X231.462 Y-0.5673
X231.4344 Y-0.6026
X231.404 Y-0.6379
X231.3519 Y-0.6911
X231.3188 Y-0.7208
X231.2857 Y-0.748
X231.2418 Y-0.7804
X231.1867 Y-0.8158
X231.1317 Y-0.8463
X231.1077 Y-0.8581
X231.0646 Y-0.8772
X231.0216 Y-0.8939
X230.9665 Y-0.9119
X230.9115 Y-0.9262
X230.8564 Y-0.937
X230.8013 Y-0.9446
X230.7463 Y-0.9489
X230.6913 Y-0.95
X0.0228
X-0.0323 Y-0.9495
X-0.0873 Y-0.946
X-0.1424 Y-0.9393
X-0.1974 Y-0.9293
X-0.2525 Y-0.9158
X-0.3075 Y-0.8988
X-0.3576 Y-0.8801
X-0.4077 Y-0.8581
X-0.4176 Y-0.8533
X-0.4727 Y-0.8241
X-0.5277 Y-0.7899
X-0.5857 Y-0.748
X-0.6378 Y-0.704
X-0.6709 Y-0.6726
X-0.704 Y-0.6379
X-0.7479 Y-0.5857
X-0.7899 Y-0.5277
X-0.824 Y-0.4727
X-0.8533 Y-0.4176
X-0.858 Y-0.4078
X-0.8801 Y-0.3576
X-0.8988 Y-0.3075
X-0.9158 Y-0.2525
X-0.9293 Y-0.1974
X-0.9393 Y-0.1424
X-0.946 Y-0.0873
X-0.9495 Y-0.0323
X-0.95 Y0.0228
Y89.9772
X-0.9495 Y90.0323
X-0.946 Y90.0873
X-0.9393 Y90.1424
X-0.9293 Y90.1974
X-0.9158 Y90.2525
X-0.8988 Y90.3075
X-0.8801 Y90.3577
X-0.858 Y90.4078
X-0.8533 Y90.4176
X-0.824 Y90.4727
X-0.7899 Y90.5277
X-0.7479 Y90.5857
X-0.704 Y90.6379
X-0.6709 Y90.6726
X-0.6378 Y90.704
X-0.5857 Y90.748
X-0.5277 Y90.7899
X-0.4727 Y90.8241
X-0.4176 Y90.8533
X-0.4077 Y90.8581
X-0.3576 Y90.8801
X-0.3075 Y90.8988
X-0.2525 Y90.9158
X-0.1974 Y90.9293
X-0.1424 Y90.9393
X-0.0873 Y90.946
X-0.0323 Y90.9495
X0.0228 Y90.95
X154.263
X154.4566 Z-7.0001
X154.6501 Z-7.0004
X154.8437 Z-7.0008
X155.0373 Z-7.0015
X155.2309 Z-7.0023
X155.4244 Z-7.0033
X155.618 Z-7.0045
X155.8116 Z-7.0058
X156.0052 Z-7.0073
X156.1987 Z-7.009
X156.3923 Z-7.0109
X156.5859 Z-7.0129
X156.7794 Z-7.0151
X156.973 Z-7.0174
X157.1666 Z-7.0199
X157.3602 Z-7.0225
X157.5538 Z-7.0253
X157.7473 Z-7.0283
X157.9409 Z-7.0314
X158.1345 Z-7.0347
X158.328 Z-7.0381
X158.5216 Z-7.0416
X158.7152 Z-7.0453
X158.9088 Z-7.0491
X159.1024 Z-7.0531
X159.2959 Z-7.0572
X159.4895 Z-7.0614
X159.6831 Z-7.0658
X159.8766 Z-7.0702
X160.0702 Z-7.0749
X160.2638 Z-7.0796
X160.4574 Z-7.0845
X160.651 Z-7.0894
X160.7477 Z-7.092
X160.8445 Z-7.0945
X160.9413 Z-7.0971
X161.0381 Z-7.0997
X161.1349 Z-7.1024
X161.2317 Z-7.1051
X161.3285 Z-7.1078
X161.4252 Z-7.1105
X161.522 Z-7.1133
X161.6188 Z-7.1161
X161.7156 Z-7.1189
X161.8124 Z-7.1217
X161.9092 Z-7.1246
X162.006 Z-7.1275
X162.1028 Z-7.1304
X162.1996 Z-7.1334
X162.2963 Z-7.1363
X162.3931 Z-7.1393
X162.4899 Z-7.1423
X162.5867 Z-7.1454
X162.6835 Z-7.1485
X162.7803 Z-7.1516
X162.8771 Z-7.1547
X162.9738 Z-7.1578
X163.0706 Z-7.161
X163.1674 Z-7.1642
X163.2642 Z-7.1674
X163.361 Z-7.1706
X163.4578 Z-7.1739
X163.5546 Z-7.1772
X163.6514 Z-7.1805
X163.7481 Z-7.1838
X163.8449 Z-7.1871
X164.0385 Z-7.1939
X164.1353 Z-7.1972
X164.2321 Z-7.2006
X164.3289 Z-7.204
X164.4257 Z-7.2074
X164.5224 Z-7.2108
X164.6192 Z-7.2141
X164.716 Z-7.2175
X164.8128 Z-7.2209
X164.9096 Z-7.2243
X165.0064 Z-7.2277
X165.1032 Z-7.231
X165.2 Z-7.2344
X165.3935 Z-7.2412
X165.6839 Z-7.2513
X165.9743 Z-7.2614
X166.2646 Z-7.2716
X166.555 Z-7.2817
X166.8453 Z-7.2919
X167.1357 Z-7.302
X167.4261 Z-7.3121
X167.7164 Z-7.3223
X168.0068 Z-7.3324
X168.2971 Z-7.3426
X168.7811 Z-7.3595
X169.265 Z-7.3764
X169.749 Z-7.3933
X170.4265 Z-7.4169
X171.2976 Z-7.4473
X172.7494 Z-7.498
X179.718 Z-7.7413
X180.0084 Z-7.7515
X180.2988 Z-7.7616
X180.3956 Z-7.765
X180.4924 Z-7.7684
X180.5891 Z-7.7717
X180.6859 Z-7.7751
X180.7827 Z-7.7785
X180.8795 Z-7.7819
X180.9763 Z-7.7853
X181.0731 Z-7.7886
X181.1699 Z-7.792
X181.2666 Z-7.7954
X181.3634 Z-7.7988
X181.4602 Z-7.8022
X181.557 Z-7.8055
X181.6538 Z-7.8089
X181.7506 Z-7.8123
X181.8474 Z-7.8156
X181.9442 Z-7.819
X182.041 Z-7.8223
X182.1377 Z-7.8255
X182.2345 Z-7.8288
X182.3313 Z-7.832
X182.4281 Z-7.8353
X182.5249 Z-7.8385
X182.6217 Z-7.8416
X182.7185 Z-7.8448
X182.8152 Z-7.8479
X182.912 Z-7.851
X183.0088 Z-7.8541
X183.1056 Z-7.8571
X183.2024 Z-7.8601
X183.2992 Z-7.8631
X183.396 Z-7.8661
X183.4928 Z-7.8691
X183.5896 Z-7.872
X183.6863 Z-7.8749
X183.7831 Z-7.8778
X183.8799 Z-7.8806
X183.9767 Z-7.8834
X184.0735 Z-7.8862
X184.1703 Z-7.889
X184.2671 Z-7.8917
X184.3638 Z-7.8945
X184.4606 Z-7.8971
X184.5574 Z-7.8998
X184.6542 Z-7.9024
X184.751 Z-7.905
X184.8478 Z-7.9076
X184.9446 Z-7.9101
X185.0414 Z-7.9126
X185.2349 Z-7.9176
X185.4285 Z-7.9224
X185.6221 Z-7.9271
X185.8157 Z-7.9316
X186.0092 Z-7.9361
X186.2028 Z-7.9404
X186.3964 Z-7.9445
X186.59 Z-7.9486
X186.7835 Z-7.9525
X186.9771 Z-7.9562
X187.1707 Z-7.9599
X187.3643 Z-7.9634
X187.5578 Z-7.9667
X187.7514 Z-7.9699
X187.945 Z-7.9729
X188.1385 Z-7.9758
X188.3321 Z-7.9786
X188.5257 Z-7.9812
X188.7193 Z-7.9836
X188.9129 Z-7.9859
X189.1064 Z-7.988
X189.3 Z-7.9899
X189.4936 Z-7.9917
X189.6871 Z-7.9933
X189.8807 Z-7.9948
X190.0743 Z-7.996
X190.2679 Z-7.9971
X190.4615 Z-7.9981
X190.655 Z-7.9988
X190.8486 Z-7.9994
X191.0422 Z-7.9998
X191.2357 Z-8
X191.3495
X405.9773
X406.0323 Y90.9495
X406.0874 Y90.946
X406.1424 Y90.9393
X406.1974 Y90.9293
X406.2525 Y90.9158
X406.3076 Y90.8988
X406.3577 Y90.8801
X406.4078 Y90.8581
X406.4177 Y90.8533
X406.4727 Y90.8241
X406.5278 Y90.7899
X406.5858 Y90.748
X406.6379 Y90.704
X406.671 Y90.6726
X406.7041 Y90.6379
X406.748 Y90.5857
X406.79 Y90.5277
X406.8241 Y90.4727
X406.8533 Y90.4176
X406.8581 Y90.4078
X406.8802 Y90.3577
X406.8989 Y90.3075
X406.9159 Y90.2525
X406.9293 Y90.1974
X406.9393 Y90.1424
X406.946 Y90.0873
X406.9495 Y90.0323
X406.95 Y89.9772
Y0.0228
X406.9495 Y-0.0323
X406.946 Y-0.0873
X406.9393 Y-0.1424
X406.9293 Y-0.1974
X406.9159 Y-0.2525
X406.8989 Y-0.3075
X406.8802 Y-0.3576
X406.8581 Y-0.4078
X406.8533 Y-0.4176
X406.8241 Y-0.4727
X406.79 Y-0.5277
X406.748 Y-0.5857
X406.7041 Y-0.6379
X406.671 Y-0.6726
X406.6379 Y-0.704
X406.5858 Y-0.748
X406.5278 Y-0.7899
X406.4727 Y-0.8241
X406.4177 Y-0.8533
X406.4078 Y-0.8581
X406.3577 Y-0.8801
X406.3076 Y-0.8988
X406.2525 Y-0.9158
X406.1974 Y-0.9293
X406.1424 Y-0.9393
X406.0874 Y-0.946
X406.0323 Y-0.9495
X405.9773 Y-0.95
X310.9573
X310.8472 Y-0.9485
X310.7921 Y-0.9439
X310.7371 Y-0.9359
X310.682 Y-0.9246
X310.627 Y-0.9099
X310.5719 Y-0.8915
X310.5168 Y-0.8693
X310.4923 Y-0.8581
X310.4495 Y-0.8364
X310.4067 Y-0.8119
X310.3605 Y-0.782
X310.3143 Y-0.748
X310.2966 Y-0.7338
X310.2463 Y-0.6893
X310.196 Y-0.6379
X310.1865 Y-0.6273
X310.1457 Y-0.5775
X310.1101 Y-0.5277
X310.0764 Y-0.4735
X310.0468 Y-0.4176
X310.0219 Y-0.3626
X310.0012 Y-0.3075
X309.9842 Y-0.2525
X309.9708 Y-0.1974
X309.9663 Y-0.1753
X309.9591 Y-0.1313
X309.954 Y-0.0873
X309.9506 Y-0.0323
X309.95 Y0.0228
Y18.7476
X309.9485 Y18.75
X231.652
X231.65 Y18.7476
Y0.0228
X231.6494 Y-0.0323
X231.646 Y-0.0873
X231.6393 Y-0.1424
X231.6293 Y-0.1974
X231.6158 Y-0.2525
X231.5988 Y-0.3075
X231.5721 Y-0.3768
X231.5533 Y-0.4176
X231.524 Y-0.4727
X231.4899 Y-0.5277
X231.462 Y-0.5673
X231.4344 Y-0.6026
X231.404 Y-0.6379
X231.3519 Y-0.6911
X231.3188 Y-0.7208
X231.2857 Y-0.748
X231.2418 Y-0.7804
X231.1867 Y-0.8158
X231.1317 Y-0.8463
X231.1077 Y-0.8581
X231.0646 Y-0.8772
X231.0216 Y-0.8939
X230.9665 Y-0.9119
X230.9115 Y-0.9262
X230.8564 Y-0.937
X230.8013 Y-0.9446
X230.7463 Y-0.9489
X230.6913 Y-0.95
X0.0228
X-0.0323 Y-0.9495
X-0.0873 Y-0.946
X-0.1424 Y-0.9393
X-0.1974 Y-0.9293
X-0.2525 Y-0.9158
X-0.3075 Y-0.8988
X-0.3576 Y-0.8801
X-0.4077 Y-0.8581
X-0.4176 Y-0.8533
X-0.4727 Y-0.8241
X-0.5277 Y-0.7899
X-0.5857 Y-0.748
X-0.6378 Y-0.704
X-0.6709 Y-0.6726
X-0.704 Y-0.6379
X-0.7479 Y-0.5857
X-0.7899 Y-0.5277
X-0.824 Y-0.4727
X-0.8533 Y-0.4176
X-0.858 Y-0.4078
X-0.8801 Y-0.3576
X-0.8988 Y-0.3075
X-0.9158 Y-0.2525
X-0.9293 Y-0.1974
X-0.9393 Y-0.1424
X-0.946 Y-0.0873
X-0.9495 Y-0.0323
X-0.95 Y0.0228
Y89.9772
X-0.9495 Y90.0323
X-0.946 Y90.0873
X-0.9393 Y90.1424
X-0.9293 Y90.1974
X-0.9158 Y90.2525
X-0.8988 Y90.3075
X-0.8801 Y90.3577
X-0.858 Y90.4078
X-0.8533 Y90.4176
X-0.824 Y90.4727
X-0.7899 Y90.5277
X-0.7479 Y90.5857
X-0.704 Y90.6379
X-0.6709 Y90.6726
X-0.6378 Y90.704
X-0.5857 Y90.748
X-0.5277 Y90.7899
X-0.4727 Y90.8241
X-0.4176 Y90.8533
X-0.4077 Y90.8581
X-0.3576 Y90.8801
X-0.3075 Y90.8988
X-0.2525 Y90.9158
X-0.1974 Y90.9293
X-0.1424 Y90.9393
X-0.0873 Y90.946
X-0.0323 Y90.9495
X0.0228 Y90.95
X154.263
X191.3495
X191.5431 Z-8.0001
X191.7367 Z-8.0004
X191.9303 Z-8.0008
X192.1239 Z-8.0015
X192.3174 Z-8.0023
X192.511 Z-8.0033
X192.7046 Z-8.0045
X192.8981 Z-8.0058
X193.0917 Z-8.0073
X193.2853 Z-8.009
X193.4789 Z-8.0109
X193.6724 Z-8.0129
X193.866 Z-8.0151
X194.0596 Z-8.0174
X194.2532 Z-8.0199
X194.4467 Z-8.0225
X194.6403 Z-8.0253
X194.8339 Z-8.0283
X195.0275 Z-8.0314
X195.221 Z-8.0347
X195.4146 Z-8.0381
X195.6082 Z-8.0416
X195.8018 Z-8.0453
X195.9953 Z-8.0491
X196.1889 Z-8.0531
X196.3825 Z-8.0572
X196.5761 Z-8.0614
X196.7696 Z-8.0658
X196.9632 Z-8.0702
X197.1568 Z-8.0749
X197.3504 Z-8.0796
X197.5439 Z-8.0845
X197.7375 Z-8.0894
X197.8343 Z-8.092
X197.9311 Z-8.0945
X198.0279 Z-8.0971
X198.1247 Z-8.0997
X198.2215 Z-8.1024
X198.3182 Z-8.1051
X198.415 Z-8.1078
X198.5118 Z-8.1105
X198.6086 Z-8.1133
X198.7054 Z-8.1161
X198.8022 Z-8.1189
X198.899 Z-8.1217
X198.9957 Z-8.1246
X199.0925 Z-8.1275
X199.1893 Z-8.1304
X199.2861 Z-8.1334
X199.3829 Z-8.1363
X199.4797 Z-8.1393
X199.5765 Z-8.1424
X199.6733 Z-8.1454
X199.7701 Z-8.1485
X199.8668 Z-8.1516
X199.9636 Z-8.1547
X200.0604 Z-8.1578
X200.1572 Z-8.161
X200.254 Z-8.1642
X200.3508 Z-8.1674
X200.4476 Z-8.1706
X200.5443 Z-8.1739
X200.6411 Z-8.1772
X200.7379 Z-8.1805
X200.8347 Z-8.1838
X200.9315 Z-8.1871
X201.1251 Z-8.1939
X201.2219 Z-8.1972
X201.3186 Z-8.2006
X201.4154 Z-8.204
X201.5122 Z-8.2074
X201.609 Z-8.2108
X201.7058 Z-8.2141
X201.8026 Z-8.2175
X201.8994 Z-8.2209
X201.9962 Z-8.2243
X202.0929 Z-8.2277
X202.1897 Z-8.231
X202.2865 Z-8.2344
X202.4801 Z-8.2412
X202.7705 Z-8.2513
X203.0608 Z-8.2614
X203.3512 Z-8.2716
X203.6415 Z-8.2817
X203.9319 Z-8.2919
X204.2223 Z-8.302
X204.5126 Z-8.3121
X204.803 Z-8.3223
X205.0934 Z-8.3324
X205.3837 Z-8.3426
X205.8676 Z-8.3595
X206.3516 Z-8.3764
X206.8355 Z-8.3933
X207.513 Z-8.4169
X208.3841 Z-8.4473
X209.8359 Z-8.498
X216.8046 Z-8.7413
X217.095 Z-8.7515
X217.3853 Z-8.7616
X217.4821 Z-8.765
X217.5789 Z-8.7684
X217.6757 Z-8.7717
X217.7725 Z-8.7751
X217.8693 Z-8.7785
X217.9661 Z-8.7819
X218.0629 Z-8.7853
X218.1596 Z-8.7886
X218.2564 Z-8.792
X218.3532 Z-8.7954
X218.45 Z-8.7988
X218.5468 Z-8.8022
X218.6436 Z-8.8055
X218.7404 Z-8.8089
X218.8372 Z-8.8123
X218.9339 Z-8.8156
X219.0307 Z-8.819
X219.1275 Z-8.8223
X219.2243 Z-8.8255
X219.3211 Z-8.8288
X219.4179 Z-8.832
X219.5147 Z-8.8353
X219.6115 Z-8.8385
X219.7082 Z-8.8416
X219.805 Z-8.8448
X219.9018 Z-8.8479
X219.9986 Z-8.851
X220.0954 Z-8.8541
X220.1922 Z-8.8571
X220.289 Z-8.8601
X220.3858 Z-8.8631
X220.4825 Z-8.8661
X220.5793 Z-8.8691
X220.6761 Z-8.872
X220.7729 Z-8.8749
X220.8697 Z-8.8778
X220.9665 Z-8.8806
X221.0633 Z-8.8834
X221.16 Z-8.8862
X221.2568 Z-8.889
X221.3536 Z-8.8917
X221.4504 Z-8.8945
X221.5472 Z-8.8971
X221.644 Z-8.8998
X221.7408 Z-8.9024
X221.8376 Z-8.905
X221.9343 Z-8.9076
X222.0311 Z-8.9101
X222.1279 Z-8.9126
X222.3215 Z-8.9176
X222.5151 Z-8.9224
X222.7086 Z-8.9271
X222.9022 Z-8.9316
X223.0958 Z-8.9361
X223.2894 Z-8.9404
X223.4829 Z-8.9445
X223.6765 Z-8.9486
X223.8701 Z-8.9525
X224.0637 Z-8.9562
X224.2572 Z-8.9599
X224.4508 Z-8.9634
X224.6444 Z-8.9667
X224.838 Z-8.9699
X225.0315 Z-8.9729
X225.2251 Z-8.9758
X225.4187 Z-8.9786
X225.6123 Z-8.9812
X225.8058 Z-8.9836
X225.9994 Z-8.9859
X226.193 Z-8.988
X226.3866 Z-8.9899
X226.5801 Z-8.9917
X226.7737 Z-8.9933
X226.9673 Z-8.9948
X227.1609 Z-8.996
X227.3544 Z-8.9971
X227.548 Z-8.9981
X227.7416 Z-8.9988
X227.9352 Z-8.9994
X228.1287 Z-8.9998
X228.3223 Z-9
X228.4361
X405.9773
X406.0323 Y90.9495
X406.0874 Y90.946
X406.1424 Y90.9393
X406.1974 Y90.9293
X406.2525 Y90.9158
X406.3076 Y90.8988
X406.3577 Y90.8801
X406.4078 Y90.8581
X406.4177 Y90.8533
X406.4727 Y90.8241
X406.5278 Y90.7899
X406.5858 Y90.748
X406.6379 Y90.704
X406.671 Y90.6726
X406.7041 Y90.6379
X406.748 Y90.5857
X406.79 Y90.5277
X406.8241 Y90.4727
X406.8533 Y90.4176
X406.8581 Y90.4078
X406.8802 Y90.3577
X406.8989 Y90.3075
X406.9159 Y90.2525
X406.9293 Y90.1974
X406.9393 Y90.1424
X406.946 Y90.0873
X406.9495 Y90.0323
X406.95 Y89.9772
Y0.0228
X406.9495 Y-0.0323
X406.946 Y-0.0873
X406.9393 Y-0.1424
X406.9293 Y-0.1974
X406.9159 Y-0.2525
X406.8989 Y-0.3075
X406.8802 Y-0.3576
X406.8581 Y-0.4078
X406.8533 Y-0.4176
X406.8241 Y-0.4727
X406.79 Y-0.5277
X406.748 Y-0.5857
X406.7041 Y-0.6379
X406.671 Y-0.6726
X406.6379 Y-0.704
X406.5858 Y-0.748
X406.5278 Y-0.7899
X406.4727 Y-0.8241
X406.4177 Y-0.8533
X406.4078 Y-0.8581
X406.3577 Y-0.8801
X406.3076 Y-0.8988
X406.2525 Y-0.9158
X406.1974 Y-0.9293
X406.1424 Y-0.9393
X406.0874 Y-0.946
X406.0323 Y-0.9495
X405.9773 Y-0.95
X310.9573
X310.8472 Y-0.9485
X310.7921 Y-0.9439
X310.7371 Y-0.9359
X310.682 Y-0.9246
X310.627 Y-0.9099
X310.5719 Y-0.8915
X310.5168 Y-0.8693
X310.4923 Y-0.8581
X310.4495 Y-0.8364
X310.4067 Y-0.8119
X310.3605 Y-0.782
X310.3143 Y-0.748
X310.2966 Y-0.7338
X310.2463 Y-0.6893
X310.196 Y-0.6379
X310.1865 Y-0.6273
X310.1457 Y-0.5775
X310.1101 Y-0.5277
X310.0764 Y-0.4735
X310.0468 Y-0.4176
X310.0219 Y-0.3626
X310.0012 Y-0.3075
X309.9842 Y-0.2525
X309.9708 Y-0.1974
X309.9663 Y-0.1753
X309.9591 Y-0.1313
X309.954 Y-0.0873
X309.9506 Y-0.0323
X309.95 Y0.0228
Y18.7476
X309.9485 Y18.75
X231.652
X231.65 Y18.7476
Y0.0228
X231.6494 Y-0.0323
X231.646 Y-0.0873
X231.6393 Y-0.1424
X231.6293 Y-0.1974
X231.6158 Y-0.2525
X231.5988 Y-0.3075
X231.5721 Y-0.3768
X231.5533 Y-0.4176
X231.524 Y-0.4727
X231.4899 Y-0.5277
X231.462 Y-0.5673
X231.4344 Y-0.6026
X231.404 Y-0.6379
X231.3519 Y-0.6911
X231.3188 Y-0.7208
X231.2857 Y-0.748
X231.2418 Y-0.7804
X231.1867 Y-0.8158
X231.1317 Y-0.8463
X231.1077 Y-0.8581
X231.0646 Y-0.8772
X231.0216 Y-0.8939
X230.9665 Y-0.9119
X230.9115 Y-0.9262
X230.8564 Y-0.937
X230.8013 Y-0.9446
X230.7463 Y-0.9489
X230.6913 Y-0.95
X0.0228
X-0.0323 Y-0.9495
X-0.0873 Y-0.946
X-0.1424 Y-0.9393
X-0.1974 Y-0.9293
X-0.2525 Y-0.9158
X-0.3075 Y-0.8988
X-0.3576 Y-0.8801
X-0.4077 Y-0.8581
X-0.4176 Y-0.8533
X-0.4727 Y-0.8241
X-0.5277 Y-0.7899
X-0.5857 Y-0.748
X-0.6378 Y-0.704
X-0.6709 Y-0.6726
X-0.704 Y-0.6379
X-0.7479 Y-0.5857
X-0.7899 Y-0.5277
X-0.824 Y-0.4727
X-0.8533 Y-0.4176
X-0.858 Y-0.4078
X-0.8801 Y-0.3576
X-0.8988 Y-0.3075
X-0.9158 Y-0.2525
X-0.9293 Y-0.1974
X-0.9393 Y-0.1424
X-0.946 Y-0.0873
X-0.9495 Y-0.0323
X-0.95 Y0.0228
Y89.9772
X-0.9495 Y90.0323
X-0.946 Y90.0873
X-0.9393 Y90.1424
X-0.9293 Y90.1974
X-0.9158 Y90.2525
X-0.8988 Y90.3075
X-0.8801 Y90.3577
X-0.858 Y90.4078
X-0.8533 Y90.4176
X-0.824 Y90.4727
X-0.7899 Y90.5277
X-0.7479 Y90.5857
X-0.704 Y90.6379
X-0.6709 Y90.6726
X-0.6378 Y90.704
X-0.5857 Y90.748
X-0.5277 Y90.7899
X-0.4727 Y90.8241
X-0.4176 Y90.8533
X-0.4077 Y90.8581
X-0.3576 Y90.8801
X-0.3075 Y90.8988
X-0.2525 Y90.9158
X-0.1974 Y90.9293
X-0.1424 Y90.9393
X-0.0873 Y90.946
X-0.0323 Y90.9495
X0.0228 Y90.95
X191.3495
X228.4361
X228.6297 Z-9.0001
X228.8233 Z-9.0004
X229.0168 Z-9.0008
X229.2104 Z-9.0015
X229.404 Z-9.0023
X229.5976 Z-9.0033
X229.7911 Z-9.0045
X229.9847 Z-9.0058
X230.1783 Z-9.0073
X230.3719 Z-9.009
X230.5654 Z-9.0109
X230.759 Z-9.0129
X230.9526 Z-9.0151
X231.1462 Z-9.0174
X231.3397 Z-9.0199
X231.5333 Z-9.0225
X231.7269 Z-9.0253
X231.9205 Z-9.0283
X232.114 Z-9.0314
X232.3076 Z-9.0347
X232.5012 Z-9.0381
X232.6948 Z-9.0416
X232.8883 Z-9.0453
X233.0819 Z-9.0491
X233.2755 Z-9.0531
X233.4691 Z-9.0572
X233.6626 Z-9.0614
X233.8562 Z-9.0658
X234.0498 Z-9.0702
X234.2433 Z-9.0749
X234.4369 Z-9.0796
X234.6305 Z-9.0845
X234.8241 Z-9.0894
X234.9209 Z-9.092
X235.0177 Z-9.0945
X235.1144 Z-9.0971
X235.2112 Z-9.0997
X235.308 Z-9.1024
X235.4048 Z-9.1051
X235.5016 Z-9.1078
X235.5984 Z-9.1105
X235.6952 Z-9.1133
X235.7919 Z-9.1161
X235.8887 Z-9.1189
X235.9855 Z-9.1217
X236.0823 Z-9.1246
X236.1791 Z-9.1275
X236.2759 Z-9.1304
X236.3727 Z-9.1334
X236.4695 Z-9.1363
X236.5663 Z-9.1393
X236.663 Z-9.1424
X236.7598 Z-9.1454
X236.8566 Z-9.1485
X236.9534 Z-9.1516
X237.0502 Z-9.1547
X237.147 Z-9.1578
X237.2438 Z-9.161
X237.3405 Z-9.1642
X237.4373 Z-9.1674
X237.5341 Z-9.1706
X237.6309 Z-9.1739
X237.7277 Z-9.1772
X237.8245 Z-9.1805
X237.9213 Z-9.1838
X238.0181 Z-9.1871
X238.2116 Z-9.1939
X238.3084 Z-9.1972
X238.4052 Z-9.2006
X238.502 Z-9.204
X238.5988 Z-9.2074
X238.6956 Z-9.2108
X238.7924 Z-9.2141
X238.8891 Z-9.2175
X238.9859 Z-9.2209
X239.0827 Z-9.2243
X239.1795 Z-9.2277
X239.2763 Z-9.231
X239.3731 Z-9.2344
X239.5667 Z-9.2412
X239.857 Z-9.2513
X240.1474 Z-9.2614
X240.4377 Z-9.2716
X240.7281 Z-9.2817
X241.0185 Z-9.2919
X241.3088 Z-9.302
X241.5992 Z-9.3121
X241.8896 Z-9.3223
X242.1799 Z-9.3324
X242.4703 Z-9.3426
X242.9542 Z-9.3595
X243.4382 Z-9.3764
X243.9221 Z-9.3933
X244.5996 Z-9.4169
X245.4707 Z-9.4473
X246.9225 Z-9.498
X253.8912 Z-9.7413
X254.1815 Z-9.7515
X254.4719 Z-9.7616
X254.5687 Z-9.765
X254.6655 Z-9.7684
X254.7623 Z-9.7717
X254.8591 Z-9.7751
X254.9558 Z-9.7785
X255.0526 Z-9.7819
X255.1494 Z-9.7853
X255.2462 Z-9.7886
X255.343 Z-9.792
X255.4398 Z-9.7954
X255.5366 Z-9.7988
X255.6334 Z-9.8022
X255.7301 Z-9.8055
X255.8269 Z-9.8089
X255.9237 Z-9.8123
X256.0205 Z-9.8156
X256.1173 Z-9.819
X256.2141 Z-9.8223
X256.3109 Z-9.8255
X256.4077 Z-9.8288
X256.5045 Z-9.832
X256.6012 Z-9.8353
X256.698 Z-9.8385
X256.7948 Z-9.8416
X256.8916 Z-9.8448
X256.9884 Z-9.8479
X257.0852 Z-9.851
X257.1819 Z-9.8541
X257.2787 Z-9.8571
X257.3755 Z-9.8601
X257.4723 Z-9.8631
X257.5691 Z-9.8661
X257.6659 Z-9.8691
X257.7627 Z-9.872
X257.8595 Z-9.8749
X257.9562 Z-9.8778
X258.053 Z-9.8806
X258.1498 Z-9.8834
X258.2466 Z-9.8862
X258.3434 Z-9.889
X258.4402 Z-9.8917
X258.537 Z-9.8945
X258.6338 Z-9.8971
X258.7306 Z-9.8998
X258.8273 Z-9.9024
X258.9241 Z-9.905
X259.0209 Z-9.9076
X259.1177 Z-9.9101
X259.2145 Z-9.9126
X259.4081 Z-9.9176
X259.6016 Z-9.9224
X259.7952 Z-9.9271
X259.9888 Z-9.9316
X260.1824 Z-9.9361
X260.3759 Z-9.9404
X260.5695 Z-9.9445
X260.7631 Z-9.9486
X260.9567 Z-9.9525
X261.1502 Z-9.9562
X261.3438 Z-9.9599
X261.5374 Z-9.9634
X261.731 Z-9.9667
X261.9245 Z-9.9699
X262.1181 Z-9.9729
X262.3117 Z-9.9758
X262.5052 Z-9.9786
X262.6988 Z-9.9812
X262.8924 Z-9.9836
X263.086 Z-9.9859
X263.2795 Z-9.988
X263.4731 Z-9.9899
X263.6667 Z-9.9917
X263.8603 Z-9.9933
X264.0539 Z-9.9948
X264.2474 Z-9.996
X264.441 Z-9.9971
X264.6346 Z-9.9981
X264.8282 Z-9.9988
X265.0217 Z-9.9994
X265.2153 Z-9.9998
X265.4089 Z-10
X265.5227
X405.9773
X406.0323 Y90.9495
X406.0874 Y90.946
X406.1424 Y90.9393
X406.1974 Y90.9293
X406.2525 Y90.9158
X406.3076 Y90.8988
X406.3577 Y90.8801
X406.4078 Y90.8581
X406.4177 Y90.8533
X406.4727 Y90.8241
X406.5278 Y90.7899
X406.5858 Y90.748
X406.6379 Y90.704
X406.671 Y90.6726
X406.7041 Y90.6379
X406.748 Y90.5857
X406.79 Y90.5277
X406.8241 Y90.4727
X406.8533 Y90.4176
X406.8581 Y90.4078
X406.8802 Y90.3577
X406.8989 Y90.3075
X406.9159 Y90.2525
X406.9293 Y90.1974
X406.9393 Y90.1424
X406.946 Y90.0873
X406.9495 Y90.0323
X406.95 Y89.9772
Y0.0228
X406.9495 Y-0.0323
X406.946 Y-0.0873
X406.9393 Y-0.1424
X406.9293 Y-0.1974
X406.9159 Y-0.2525
X406.8989 Y-0.3075
X406.8802 Y-0.3576
X406.8581 Y-0.4078
X406.8533 Y-0.4176
X406.8241 Y-0.4727
X406.79 Y-0.5277
X406.748 Y-0.5857
X406.7041 Y-0.6379
X406.671 Y-0.6726
X406.6379 Y-0.704
X406.5858 Y-0.748
X406.5278 Y-0.7899
X406.4727 Y-0.8241
X406.4177 Y-0.8533
X406.4078 Y-0.8581
X406.3577 Y-0.8801
X406.3076 Y-0.8988
X406.2525 Y-0.9158
X406.1974 Y-0.9293
X406.1424 Y-0.9393
X406.0874 Y-0.946
X406.0323 Y-0.9495
X405.9773 Y-0.95
X310.9573
X310.8472 Y-0.9485
X310.7921 Y-0.9439
X310.7371 Y-0.9359
X310.682 Y-0.9246
X310.627 Y-0.9099
X310.5719 Y-0.8915
X310.5168 Y-0.8693
X310.4923 Y-0.8581
X310.4495 Y-0.8364
X310.4067 Y-0.8119
X310.3605 Y-0.782
X310.3143 Y-0.748
X310.2966 Y-0.7338
X310.2463 Y-0.6893
X310.196 Y-0.6379
X310.1865 Y-0.6273
X310.1457 Y-0.5775
X310.1101 Y-0.5277
X310.0764 Y-0.4735
X310.0468 Y-0.4176
X310.0219 Y-0.3626
X310.0012 Y-0.3075
X309.9842 Y-0.2525
X309.9708 Y-0.1974
X309.9663 Y-0.1753
X309.9591 Y-0.1313
X309.954 Y-0.0873
X309.9506 Y-0.0323
X309.95 Y0.0228
Y18.7476
X309.9485 Y18.75
X231.652
X231.65 Y18.7476
Y0.0228
X231.6494 Y-0.0323
X231.646 Y-0.0873
X231.6393 Y-0.1424
X231.6293 Y-0.1974
X231.6158 Y-0.2525
X231.5988 Y-0.3075
X231.5721 Y-0.3768
X231.5533 Y-0.4176
X231.524 Y-0.4727
X231.4899 Y-0.5277
X231.462 Y-0.5673
X231.4344 Y-0.6026
X231.404 Y-0.6379
X231.3519 Y-0.6911
X231.3188 Y-0.7208
X231.2857 Y-0.748
X231.2418 Y-0.7804
X231.1867 Y-0.8158
X231.1317 Y-0.8463
X231.1077 Y-0.8581
X231.0646 Y-0.8772
X231.0216 Y-0.8939
X230.9665 Y-0.9119
X230.9115 Y-0.9262
X230.8564 Y-0.937
X230.8013 Y-0.9446
X230.7463 Y-0.9489
X230.6913 Y-0.95
X0.0228
X-0.0323 Y-0.9495
X-0.0873 Y-0.946
X-0.1424 Y-0.9393
X-0.1974 Y-0.9293
X-0.2525 Y-0.9158
X-0.3075 Y-0.8988
X-0.3576 Y-0.8801
X-0.4077 Y-0.8581
X-0.4176 Y-0.8533
X-0.4727 Y-0.8241
X-0.5277 Y-0.7899
X-0.5857 Y-0.748
X-0.6378 Y-0.704
X-0.6709 Y-0.6726
X-0.704 Y-0.6379
X-0.7479 Y-0.5857
X-0.7899 Y-0.5277
X-0.824 Y-0.4727
X-0.8533 Y-0.4176
X-0.858 Y-0.4078
X-0.8801 Y-0.3576
X-0.8988 Y-0.3075
X-0.9158 Y-0.2525
X-0.9293 Y-0.1974
X-0.9393 Y-0.1424
X-0.946 Y-0.0873
X-0.9495 Y-0.0323
X-0.95 Y0.0228
Y89.9772
X-0.9495 Y90.0323
X-0.946 Y90.0873
X-0.9393 Y90.1424
X-0.9293 Y90.1974
X-0.9158 Y90.2525
X-0.8988 Y90.3075
X-0.8801 Y90.3577
X-0.858 Y90.4078
X-0.8533 Y90.4176
X-0.824 Y90.4727
X-0.7899 Y90.5277
X-0.7479 Y90.5857
X-0.704 Y90.6379
X-0.6709 Y90.6726
X-0.6378 Y90.704
X-0.5857 Y90.748
X-0.5277 Y90.7899
X-0.4727 Y90.8241
X-0.4176 Y90.8533
X-0.4077 Y90.8581
X-0.3576 Y90.8801
X-0.3075 Y90.8988
X-0.2525 Y90.9158
X-0.1974 Y90.9293
X-0.1424 Y90.9393
X-0.0873 Y90.946
X-0.0323 Y90.9495
X0.0228 Y90.95
X228.4361
X265.5227
X265.7162 Z-10.0001
X265.9098 Z-10.0004
X266.1034 Z-10.0008
X266.297 Z-10.0015
X266.4905 Z-10.0023
X266.6841 Z-10.0033
X266.8777 Z-10.0045
X267.0713 Z-10.0058
X267.2649 Z-10.0073
X267.4584 Z-10.009
X267.652 Z-10.0109
X267.8456 Z-10.0129
X268.0392 Z-10.0151
X268.2327 Z-10.0174
X268.4263 Z-10.0199
X268.6199 Z-10.0225
X268.8134 Z-10.0253
X269.007 Z-10.0283
X269.2006 Z-10.0314
X269.3942 Z-10.0347
X269.5877 Z-10.0381
X269.7813 Z-10.0416
X269.9749 Z-10.0453
X270.1685 Z-10.0491
X270.3621 Z-10.0531
X270.5556 Z-10.0572
X270.7492 Z-10.0614
X270.9428 Z-10.0658
X271.1364 Z-10.0702
X271.3299 Z-10.0749
X271.5235 Z-10.0796
X271.7171 Z-10.0845
X271.9106 Z-10.0894
X272.0074 Z-10.092
X272.1042 Z-10.0945
X272.201 Z-10.0971
X272.2978 Z-10.0997
X272.3946 Z-10.1024
X272.4914 Z-10.1051
X272.5882 Z-10.1078
X272.6849 Z-10.1105
X272.7817 Z-10.1133
X272.8785 Z-10.1161
X272.9753 Z-10.1189
X273.0721 Z-10.1217
X273.1689 Z-10.1246
X273.2657 Z-10.1275
X273.3625 Z-10.1304
X273.4592 Z-10.1334
X273.556 Z-10.1363
X273.6528 Z-10.1393
X273.7496 Z-10.1424
X273.8464 Z-10.1454
X273.9432 Z-10.1485
X274.04 Z-10.1516
X274.1367 Z-10.1547
X274.2336 Z-10.1578
X274.3303 Z-10.161
X274.4271 Z-10.1642
X274.5239 Z-10.1674
X274.6207 Z-10.1706
X274.7175 Z-10.1739
X274.8143 Z-10.1772
X274.911 Z-10.1805
X275.0078 Z-10.1838
X275.1046 Z-10.1871
X275.2982 Z-10.1939
X275.395 Z-10.1972
X275.4918 Z-10.2006
X275.5886 Z-10.204
X275.6854 Z-10.2074
X275.7821 Z-10.2108
X275.8789 Z-10.2141
X275.9757 Z-10.2175
X276.0725 Z-10.2209
X276.1693 Z-10.2243
X276.2661 Z-10.2277
X276.3629 Z-10.231
X276.4597 Z-10.2344
X276.6532 Z-10.2412
X276.9436 Z-10.2513
X277.2339 Z-10.2614
X277.5243 Z-10.2716
X277.8147 Z-10.2817
X278.105 Z-10.2919
X278.3954 Z-10.302
X278.6858 Z-10.3121
X278.9761 Z-10.3223
X279.2665 Z-10.3324
X279.5569 Z-10.3426
X280.0408 Z-10.3595
X280.5247 Z-10.3764
X281.0087 Z-10.3933
X281.6862 Z-10.4169
X282.5573 Z-10.4473
X284.0091 Z-10.498
X290.9778 Z-10.7413
X291.2681 Z-10.7515
X291.5585 Z-10.7616
X291.6553 Z-10.765
X291.752 Z-10.7684
X291.8488 Z-10.7717
X291.9456 Z-10.7751
X292.0424 Z-10.7785
X292.1392 Z-10.7819
X292.236 Z-10.7853
X292.3328 Z-10.7886
X292.4296 Z-10.792
X292.5263 Z-10.7954
X292.6231 Z-10.7988
X292.7199 Z-10.8022
X292.8167 Z-10.8055
X292.9135 Z-10.8089
X293.0103 Z-10.8123
X293.1071 Z-10.8156
X293.2039 Z-10.819
X293.3007 Z-10.8223
X293.3974 Z-10.8255
X293.4942 Z-10.8288
X293.591 Z-10.832
X293.6878 Z-10.8353
X293.7846 Z-10.8385
X293.8814 Z-10.8416
X293.9781 Z-10.8448
X294.075 Z-10.8479
X294.1717 Z-10.851
X294.2685 Z-10.8541
X294.3653 Z-10.8571
X294.4621 Z-10.8601
X294.5589 Z-10.8631
X294.6557 Z-10.8661
X294.7524 Z-10.8691
X294.8492 Z-10.872
X294.946 Z-10.8749
X295.0428 Z-10.8778
X295.1396 Z-10.8806
X295.2364 Z-10.8834
X295.3332 Z-10.8862
X295.43 Z-10.889
X295.5268 Z-10.8917
X295.6235 Z-10.8945
X295.7203 Z-10.8971
X295.8171 Z-10.8998
X295.9139 Z-10.9024
X296.0107 Z-10.905
X296.1075 Z-10.9076
X296.2043 Z-10.9101
X296.3011 Z-10.9126
X296.4946 Z-10.9176
X296.6882 Z-10.9224
X296.8818 Z-10.9271
X297.0753 Z-10.9316
X297.2689 Z-10.9361
X297.4625 Z-10.9404
X297.6561 Z-10.9445
X297.8496 Z-10.9486
X298.0432 Z-10.9525
X298.2368 Z-10.9562
X298.4304 Z-10.9599
X298.624 Z-10.9634
X298.8175 Z-10.9667
X299.0111 Z-10.9699
X299.2047 Z-10.9729
X299.3983 Z-10.9758
X299.5918 Z-10.9786
X299.7854 Z-10.9812
X299.979 Z-10.9836
X300.1725 Z-10.9859
X300.3661 Z-10.988
X300.5597 Z-10.9899
X300.7533 Z-10.9917
X300.9468 Z-10.9933
X301.1404 Z-10.9948
X301.334 Z-10.996
X301.5276 Z-10.9971
X301.7211 Z-10.9981
X301.9147 Z-10.9988
X302.1083 Z-10.9994
X302.3019 Z-10.9998
X302.4955 Z-11
X302.6093
X405.9773
X406.0323 Y90.9495
X406.0874 Y90.946
X406.1424 Y90.9393
X406.1974 Y90.9293
X406.2525 Y90.9158
X406.3076 Y90.8988
X406.3577 Y90.8801
X406.4078 Y90.8581
X406.4177 Y90.8533
X406.4727 Y90.8241
X406.5278 Y90.7899
X406.5858 Y90.748
X406.6379 Y90.704
X406.671 Y90.6726
X406.7041 Y90.6379
X406.748 Y90.5857
X406.79 Y90.5277
X406.8241 Y90.4727
X406.8533 Y90.4176
X406.8581 Y90.4078
X406.8802 Y90.3577
X406.8989 Y90.3075
X406.9159 Y90.2525
X406.9293 Y90.1974
X406.9393 Y90.1424
X406.946 Y90.0873
X406.9495 Y90.0323
X406.95 Y89.9772
Y0.0228
X406.9495 Y-0.0323
X406.946 Y-0.0873
X406.9393 Y-0.1424
X406.9293 Y-0.1974
X406.9159 Y-0.2525
X406.8989 Y-0.3075
X406.8802 Y-0.3576
X406.8581 Y-0.4078
X406.8533 Y-0.4176
X406.8241 Y-0.4727
X406.79 Y-0.5277
X406.748 Y-0.5857
X406.7041 Y-0.6379
X406.671 Y-0.6726
X406.6379 Y-0.704
X406.5858 Y-0.748
X406.5278 Y-0.7899
X406.4727 Y-0.8241
X406.4177 Y-0.8533
X406.4078 Y-0.8581
X406.3577 Y-0.8801
X406.3076 Y-0.8988
X406.2525 Y-0.9158
X406.1974 Y-0.9293
X406.1424 Y-0.9393
X406.0874 Y-0.946
X406.0323 Y-0.9495
X405.9773 Y-0.95
X310.9573
X310.8472 Y-0.9485
X310.7921 Y-0.9439
X310.7371 Y-0.9359
X310.682 Y-0.9246
X310.627 Y-0.9099
X310.5719 Y-0.8915
X310.5168 Y-0.8693
X310.4923 Y-0.8581
X310.4495 Y-0.8364
X310.4067 Y-0.8119
X310.3605 Y-0.782
X310.3143 Y-0.748
X310.2966 Y-0.7338
X310.2463 Y-0.6893
X310.196 Y-0.6379
X310.1865 Y-0.6273
X310.1457 Y-0.5775
X310.1101 Y-0.5277
X310.0764 Y-0.4735
X310.0468 Y-0.4176
X310.0219 Y-0.3626
X310.0012 Y-0.3075
X309.9842 Y-0.2525
X309.9708 Y-0.1974
X309.9663 Y-0.1753
X309.9591 Y-0.1313
X309.954 Y-0.0873
X309.9506 Y-0.0323
X309.95 Y0.0228
Y18.7476
X309.9485 Y18.75
X231.652
X231.65 Y18.7476
Y0.0228
X231.6494 Y-0.0323
X231.646 Y-0.0873
X231.6393 Y-0.1424
X231.6293 Y-0.1974
X231.6158 Y-0.2525
X231.5988 Y-0.3075
X231.5721 Y-0.3768
X231.5533 Y-0.4176
X231.524 Y-0.4727
X231.4899 Y-0.5277
X231.462 Y-0.5673
X231.4344 Y-0.6026
X231.404 Y-0.6379
X231.3519 Y-0.6911
X231.3188 Y-0.7208
X231.2857 Y-0.748
X231.2418 Y-0.7804
X231.1867 Y-0.8158
X231.1317 Y-0.8463
X231.1077 Y-0.8581
X231.0646 Y-0.8772
X231.0216 Y-0.8939
X230.9665 Y-0.9119
X230.9115 Y-0.9262
X230.8564 Y-0.937
X230.8013 Y-0.9446
X230.7463 Y-0.9489
X230.6913 Y-0.95
X0.0228
X-0.0323 Y-0.9495
X-0.0873 Y-0.946
X-0.1424 Y-0.9393
X-0.1974 Y-0.9293
X-0.2525 Y-0.9158
X-0.3075 Y-0.8988
X-0.3576 Y-0.8801
X-0.4077 Y-0.8581
X-0.4176 Y-0.8533
X-0.4727 Y-0.8241
X-0.5277 Y-0.7899
X-0.5857 Y-0.748
X-0.6378 Y-0.704
X-0.6709 Y-0.6726
X-0.704 Y-0.6379
X-0.7479 Y-0.5857
X-0.7899 Y-0.5277
X-0.824 Y-0.4727
X-0.8533 Y-0.4176
X-0.858 Y-0.4078
X-0.8801 Y-0.3576
X-0.8988 Y-0.3075
X-0.9158 Y-0.2525
X-0.9293 Y-0.1974
X-0.9393 Y-0.1424
X-0.946 Y-0.0873
X-0.9495 Y-0.0323
X-0.95 Y0.0228
Y89.9772
X-0.9495 Y90.0323
X-0.946 Y90.0873
X-0.9393 Y90.1424
X-0.9293 Y90.1974
X-0.9158 Y90.2525
X-0.8988 Y90.3075
X-0.8801 Y90.3577
X-0.858 Y90.4078
X-0.8533 Y90.4176
X-0.824 Y90.4727
X-0.7899 Y90.5277
X-0.7479 Y90.5857
X-0.704 Y90.6379
X-0.6709 Y90.6726
X-0.6378 Y90.704
X-0.5857 Y90.748
X-0.5277 Y90.7899
X-0.4727 Y90.8241
X-0.4176 Y90.8533
X-0.4077 Y90.8581
X-0.3576 Y90.8801
X-0.3075 Y90.8988
X-0.2525 Y90.9158
X-0.1974 Y90.9293
X-0.1424 Y90.9393
X-0.0873 Y90.946
X-0.0323 Y90.9495
X0.0228 Y90.95
X265.5227
X302.6093
X302.8028 Z-11.0001
X302.9964 Z-11.0004
X303.19 Z-11.0008
X303.3835 Z-11.0015
X303.5771 Z-11.0023
X303.7707 Z-11.0033
X303.9643 Z-11.0045
X304.1578 Z-11.0058
X304.3514 Z-11.0073
X304.545 Z-11.009
X304.7386 Z-11.0109
X304.9321 Z-11.0129
X305.1257 Z-11.0151
X305.3193 Z-11.0174
X305.5129 Z-11.0199
X305.7065 Z-11.0225
X305.9 Z-11.0253
X306.0936 Z-11.0283
X306.2872 Z-11.0314
X306.4807 Z-11.0347
X306.6743 Z-11.0381
X306.8679 Z-11.0416
X307.0615 Z-11.0453
X307.255 Z-11.0491
X307.4486 Z-11.0531
X307.6422 Z-11.0572
X307.8358 Z-11.0614
X308.0293 Z-11.0658
X308.2229 Z-11.0702
X308.4165 Z-11.0749
X308.61 Z-11.0796
X308.8036 Z-11.0845
X308.9972 Z-11.0894
X309.094 Z-11.092
X309.1908 Z-11.0945
X309.2876 Z-11.0971
X309.3844 Z-11.0997
X309.4811 Z-11.1024
X309.5779 Z-11.1051
X309.6747 Z-11.1078
X309.7715 Z-11.1105
X309.8683 Z-11.1133
X309.9651 Z-11.1161
X310.0619 Z-11.1189
X310.1587 Z-11.1217
X310.2554 Z-11.1246
X310.3522 Z-11.1275
X310.449 Z-11.1304
X310.5458 Z-11.1334
X310.6426 Z-11.1363
X310.7394 Z-11.1393
X310.8362 Z-11.1424
X310.933 Z-11.1454
X311.0298 Z-11.1485
X311.1265 Z-11.1516
X311.2233 Z-11.1547
X311.3201 Z-11.1578
X311.4169 Z-11.161
X311.5137 Z-11.1642
X311.6105 Z-11.1674
X311.7072 Z-11.1706
X311.804 Z-11.1739
X311.9008 Z-11.1772
X311.9976 Z-11.1805
X312.0944 Z-11.1838
X312.1912 Z-11.1871
X312.3848 Z-11.1939
X312.4815 Z-11.1972
X312.5783 Z-11.2006
X312.6751 Z-11.204
X312.7719 Z-11.2074
X312.8687 Z-11.2108
X312.9655 Z-11.2141
X313.0623 Z-11.2175
X313.1591 Z-11.2209
X313.2559 Z-11.2243
X313.3526 Z-11.2277
X313.4494 Z-11.231
X313.5462 Z-11.2344
X313.7398 Z-11.2412
X314.0302 Z-11.2513
X314.3205 Z-11.2614
X314.6109 Z-11.2716
X314.9012 Z-11.2817
X315.1916 Z-11.2919
X315.482 Z-11.302
X315.7723 Z-11.3121
X316.0627 Z-11.3223
X316.3531 Z-11.3324
X316.6434 Z-11.3426
X317.1273 Z-11.3595
X317.6113 Z-11.3764
X318.0952 Z-11.3933
X318.7727 Z-11.4169
X319.6438 Z-11.4473
X321.0956 Z-11.498
X328.0643 Z-11.7413
X328.3547 Z-11.7515
X328.6451 Z-11.7616
X328.7418 Z-11.765
X328.8386 Z-11.7684
X328.9354 Z-11.7717
X329.0322 Z-11.7751
X329.129 Z-11.7785
X329.2258 Z-11.7819
X329.3225 Z-11.7853
X329.4193 Z-11.7886
X329.5161 Z-11.792
X329.6129 Z-11.7954
X329.7097 Z-11.7988
X329.8065 Z-11.8022
X329.9033 Z-11.8055
X330.0001 Z-11.8089
X330.0968 Z-11.8123
X330.1936 Z-11.8156
X330.2904 Z-11.819
X330.3872 Z-11.8223
X330.484 Z-11.8255
X330.5808 Z-11.8288
X330.6776 Z-11.832
X330.7744 Z-11.8353
X330.8712 Z-11.8385
X330.9679 Z-11.8416
X331.0647 Z-11.8448
X331.1615 Z-11.8479
X331.2583 Z-11.851
X331.3551 Z-11.8541
X331.4519 Z-11.8571
X331.5486 Z-11.8601
X331.6454 Z-11.8631
X331.7422 Z-11.8661
X331.839 Z-11.8691
X331.9358 Z-11.872
X332.0326 Z-11.8749
X332.1294 Z-11.8778
X332.2262 Z-11.8806
X332.323 Z-11.8834
X332.4197 Z-11.8862
X332.5165 Z-11.889
X332.6133 Z-11.8917
X332.7101 Z-11.8945
X332.8069 Z-11.8971
X332.9037 Z-11.8998
X333.0005 Z-11.9024
X333.0973 Z-11.905
X333.194 Z-11.9076
X333.2908 Z-11.9101
X333.3876 Z-11.9126
X333.5812 Z-11.9176
X333.7748 Z-11.9224
X333.9684 Z-11.9271
X334.1619 Z-11.9316
X334.3555 Z-11.9361
X334.5491 Z-11.9404
X334.7426 Z-11.9445
X334.9362 Z-11.9486
X335.1298 Z-11.9525
X335.3234 Z-11.9562
X335.5169 Z-11.9599
X335.7105 Z-11.9634
X335.9041 Z-11.9667
X336.0977 Z-11.9699
X336.2912 Z-11.9729
X336.4848 Z-11.9758
X336.6784 Z-11.9786
X336.8719 Z-11.9812
X337.0655 Z-11.9836
X337.2591 Z-11.9859
X337.4527 Z-11.988
X337.6463 Z-11.9899
X337.8398 Z-11.9917
X338.0334 Z-11.9933
X338.227 Z-11.9948
X338.4206 Z-11.996
X338.6141 Z-11.9971
X338.8077 Z-11.9981
X339.0013 Z-11.9988
X339.1949 Z-11.9994
X339.3884 Z-11.9998
X339.582 Z-12
X339.6958
X405.9773
X406.0323 Y90.9495
X406.0874 Y90.946
X406.1424 Y90.9393
X406.1974 Y90.9293
X406.2525 Y90.9158
X406.3076 Y90.8988
X406.3577 Y90.8801
X406.4078 Y90.8581
X406.4177 Y90.8533
X406.4727 Y90.8241
X406.5278 Y90.7899
X406.5858 Y90.748
X406.6379 Y90.704
X406.671 Y90.6726
X406.7041 Y90.6379
X406.748 Y90.5857
X406.79 Y90.5277
X406.8241 Y90.4727
X406.8533 Y90.4176
X406.8581 Y90.4078
X406.8802 Y90.3577
X406.8989 Y90.3075
X406.9159 Y90.2525
X406.9293 Y90.1974
X406.9393 Y90.1424
X406.946 Y90.0873
X406.9495 Y90.0323
X406.95 Y89.9772
Y0.0228
X406.9495 Y-0.0323
X406.946 Y-0.0873
X406.9393 Y-0.1424
X406.9293 Y-0.1974
X406.9159 Y-0.2525
X406.8989 Y-0.3075
X406.8802 Y-0.3576
X406.8581 Y-0.4078
X406.8533 Y-0.4176
X406.8241 Y-0.4727
X406.79 Y-0.5277
X406.748 Y-0.5857
X406.7041 Y-0.6379
X406.671 Y-0.6726
X406.6379 Y-0.704
X406.5858 Y-0.748
X406.5278 Y-0.7899
X406.4727 Y-0.8241
X406.4177 Y-0.8533
X406.4078 Y-0.8581
X406.3577 Y-0.8801
X406.3076 Y-0.8988
X406.2525 Y-0.9158
X406.1974 Y-0.9293
X406.1424 Y-0.9393
X406.0874 Y-0.946
X406.0323 Y-0.9495
X405.9773 Y-0.95
X310.9573
X310.8472 Y-0.9485
X310.7921 Y-0.9439
X310.7371 Y-0.9359
X310.682 Y-0.9246
X310.627 Y-0.9099
X310.5719 Y-0.8915
X310.5168 Y-0.8693
X310.4923 Y-0.8581
X310.4495 Y-0.8364
X310.4067 Y-0.8119
X310.3605 Y-0.782
X310.3143 Y-0.748
X310.2966 Y-0.7338
X310.2463 Y-0.6893
X310.196 Y-0.6379
X310.1865 Y-0.6273
X310.1457 Y-0.5775
X310.1101 Y-0.5277
X310.0764 Y-0.4735
X310.0468 Y-0.4176
X310.0219 Y-0.3626
X310.0012 Y-0.3075
X309.9842 Y-0.2525
X309.9708 Y-0.1974
X309.9663 Y-0.1753
X309.9591 Y-0.1313
X309.954 Y-0.0873
X309.9506 Y-0.0323
X309.95 Y0.0228
Y18.7476
X309.9485 Y18.75
X231.652
X231.65 Y18.7476
Y0.0228
X231.6494 Y-0.0323
X231.646 Y-0.0873
X231.6393 Y-0.1424
X231.6293 Y-0.1974
X231.6158 Y-0.2525
X231.5988 Y-0.3075
X231.5721 Y-0.3768
X231.5533 Y-0.4176
X231.524 Y-0.4727
X231.4899 Y-0.5277
X231.462 Y-0.5673
X231.4344 Y-0.6026
X231.404 Y-0.6379
X231.3519 Y-0.6911
X231.3188 Y-0.7208
X231.2857 Y-0.748
X231.2418 Y-0.7804
X231.1867 Y-0.8158
X231.1317 Y-0.8463
X231.1077 Y-0.8581
X231.0646 Y-0.8772
X231.0216 Y-0.8939
X230.9665 Y-0.9119
X230.9115 Y-0.9262
X230.8564 Y-0.937
X230.8013 Y-0.9446
X230.7463 Y-0.9489
X230.6913 Y-0.95
X0.0228
X-0.0323 Y-0.9495
X-0.0873 Y-0.946
X-0.1424 Y-0.9393
X-0.1974 Y-0.9293
X-0.2525 Y-0.9158
X-0.3075 Y-0.8988
X-0.3576 Y-0.8801
X-0.4077 Y-0.8581
X-0.4176 Y-0.8533
X-0.4727 Y-0.8241
X-0.5277 Y-0.7899
X-0.5857 Y-0.748
X-0.6378 Y-0.704
X-0.6709 Y-0.6726
X-0.704 Y-0.6379
X-0.7479 Y-0.5857
X-0.7899 Y-0.5277
X-0.824 Y-0.4727
X-0.8533 Y-0.4176
X-0.858 Y-0.4078
X-0.8801 Y-0.3576
X-0.8988 Y-0.3075
X-0.9158 Y-0.2525
X-0.9293 Y-0.1974
X-0.9393 Y-0.1424
X-0.946 Y-0.0873
X-0.9495 Y-0.0323
X-0.95 Y0.0228
Y89.9772
X-0.9495 Y90.0323
X-0.946 Y90.0873
X-0.9393 Y90.1424
X-0.9293 Y90.1974
X-0.9158 Y90.2525
X-0.8988 Y90.3075
X-0.8801 Y90.3577
X-0.858 Y90.4078
X-0.8533 Y90.4176
X-0.824 Y90.4727
X-0.7899 Y90.5277
X-0.7479 Y90.5857
X-0.704 Y90.6379
X-0.6709 Y90.6726
X-0.6378 Y90.704
X-0.5857 Y90.748
X-0.5277 Y90.7899
X-0.4727 Y90.8241
X-0.4176 Y90.8533
X-0.4077 Y90.8581
X-0.3576 Y90.8801
X-0.3075 Y90.8988
X-0.2525 Y90.9158
X-0.1974 Y90.9293
X-0.1424 Y90.9393
X-0.0873 Y90.946
X-0.0323 Y90.9495
X0.0228 Y90.95
X302.6093
X339.6958
X339.8894 Z-12.0001
X340.0829 Z-12.0004
X340.2765 Z-12.0008
X340.4701 Z-12.0015
X340.6637 Z-12.0023
X340.8573 Z-12.0033
X341.0508 Z-12.0045
X341.2444 Z-12.0058
X341.438 Z-12.0073
X341.6316 Z-12.009
X341.8251 Z-12.0109
X342.0187 Z-12.0129
X342.2123 Z-12.0151
X342.4059 Z-12.0174
X342.5994 Z-12.0199
X342.793 Z-12.0225
X342.9866 Z-12.0253
X343.1801 Z-12.0283
X343.3737 Z-12.0314
X343.5673 Z-12.0347
X343.7609 Z-12.0381
X343.9544 Z-12.0416
X344.148 Z-12.0453
X344.3416 Z-12.0491
X344.5352 Z-12.0531
X344.7288 Z-12.0572
X344.9223 Z-12.0614
X345.1159 Z-12.0658
X345.3095 Z-12.0702
X345.5031 Z-12.0749
X345.6966 Z-12.0796
X345.8902 Z-12.0845
X346.0838 Z-12.0894
X346.1806 Z-12.092
X346.2773 Z-12.0945
X346.3741 Z-12.0971
X346.4709 Z-12.0997
X346.5677 Z-12.1024
X346.6645 Z-12.1051
X346.7613 Z-12.1078
X346.8581 Z-12.1105
X346.9549 Z-12.1133
X347.0516 Z-12.1161
X347.1484 Z-12.1189
X347.2452 Z-12.1217
X347.342 Z-12.1246
X347.4388 Z-12.1275
X347.5356 Z-12.1304
X347.6324 Z-12.1334
X347.7292 Z-12.1363
X347.826 Z-12.1393
X347.9227 Z-12.1424
X348.0195 Z-12.1454
X348.1163 Z-12.1485
X348.2131 Z-12.1516
X348.3099 Z-12.1547
X348.4067 Z-12.1578
X348.5034 Z-12.161
X348.6003 Z-12.1642
X348.697 Z-12.1674
X348.7938 Z-12.1706
X348.8906 Z-12.1739
X348.9874 Z-12.1772
X349.0842 Z-12.1805
X349.181 Z-12.1838
X349.2777 Z-12.1871
X349.4713 Z-12.1939
X349.5681 Z-12.1972
X349.6649 Z-12.2006
X349.7617 Z-12.204
X349.8585 Z-12.2074
X349.9553 Z-12.2108
X350.0521 Z-12.2141
X350.1488 Z-12.2175
X350.2456 Z-12.2209
X350.3424 Z-12.2243
X350.4392 Z-12.2277
X350.536 Z-12.231
X350.6328 Z-12.2344
X350.8264 Z-12.2412
X351.1167 Z-12.2513
X351.4071 Z-12.2614
X351.6974 Z-12.2716
X351.9878 Z-12.2817
X352.2782 Z-12.2919
X352.5685 Z-12.302
X352.8589 Z-12.3121
X353.1493 Z-12.3223
X353.4396 Z-12.3324
X353.73 Z-12.3426
X354.2139 Z-12.3595
X354.6978 Z-12.3764
X355.1818 Z-12.3933
X355.8593 Z-12.4169
X356.7304 Z-12.4473
X358.1822 Z-12.498
X365.1509 Z-12.7413
X365.4413 Z-12.7515
X365.7316 Z-12.7616
X365.8284 Z-12.765
X365.9252 Z-12.7684
X366.022 Z-12.7717
X366.1187 Z-12.7751
X366.2155 Z-12.7785
X366.3123 Z-12.7819
X366.4091 Z-12.7853
X366.5059 Z-12.7886
X366.6027 Z-12.792
X366.6995 Z-12.7954
X366.7963 Z-12.7988
X366.893 Z-12.8022
X366.9898 Z-12.8055
X367.0866 Z-12.8089
X367.1834 Z-12.8123
X367.2802 Z-12.8156
X367.377 Z-12.819
X367.4738 Z-12.8223
X367.5706 Z-12.8255
X367.6674 Z-12.8288
X367.7641 Z-12.832
X367.8609 Z-12.8353
X367.9577 Z-12.8385
X368.0545 Z-12.8416
X368.1513 Z-12.8448
X368.2481 Z-12.8479
X368.3448 Z-12.851
X368.4417 Z-12.8541
X368.5384 Z-12.8571
X368.6352 Z-12.8601
X368.732 Z-12.8631
X368.8288 Z-12.8661
X368.9256 Z-12.8691
X369.0224 Z-12.872
X369.1192 Z-12.8749
X369.2159 Z-12.8778
X369.3127 Z-12.8806
X369.4095 Z-12.8834
X369.5063 Z-12.8862
X369.6031 Z-12.889
X369.6999 Z-12.8917
X369.7967 Z-12.8945
X369.8935 Z-12.8971
X369.9902 Z-12.8998
X370.087 Z-12.9024
X370.1838 Z-12.905
X370.2806 Z-12.9076
X370.3774 Z-12.9101
X370.4742 Z-12.9126
X370.6678 Z-12.9176
X370.8613 Z-12.9224
X371.0549 Z-12.9271
X371.2485 Z-12.9316
X371.442 Z-12.9361
X371.6356 Z-12.9404
X371.8292 Z-12.9445
X372.0228 Z-12.9486
X372.2163 Z-12.9525
X372.4099 Z-12.9562
X372.6035 Z-12.9599
X372.7971 Z-12.9634
X372.9907 Z-12.9667
X373.1842 Z-12.9699
X373.3778 Z-12.9729
X373.5714 Z-12.9758
X373.765 Z-12.9786
X373.9585 Z-12.9812
X374.1521 Z-12.9836
X374.3457 Z-12.9859
X374.5392 Z-12.988
X374.7328 Z-12.9899
X374.9264 Z-12.9917
X375.12 Z-12.9933
X375.3135 Z-12.9948
X375.5071 Z-12.996
X375.7007 Z-12.9971
X375.8943 Z-12.9981
X376.0879 Z-12.9988
X376.2814 Z-12.9994
X376.475 Z-12.9998
X376.6686 Z-13
X376.7824
X405.9773
X406.0323 Y90.9495
X406.0874 Y90.946
X406.1424 Y90.9393
X406.1974 Y90.9293
X406.2525 Y90.9158
X406.3076 Y90.8988
X406.3577 Y90.8801
X406.4078 Y90.8581
X406.4177 Y90.8533
X406.4727 Y90.8241
X406.5278 Y90.7899
X406.5858 Y90.748
X406.6379 Y90.704
X406.671 Y90.6726
X406.7041 Y90.6379
X406.748 Y90.5857
X406.79 Y90.5277
X406.8241 Y90.4727
X406.8533 Y90.4176
X406.8581 Y90.4078
X406.8802 Y90.3577
X406.8989 Y90.3075
X406.9159 Y90.2525
X406.9293 Y90.1974
X406.9393 Y90.1424
X406.946 Y90.0873
X406.9495 Y90.0323
X406.95 Y89.9772
Y0.0228
X406.9495 Y-0.0323
X406.946 Y-0.0873
X406.9393 Y-0.1424
X406.9293 Y-0.1974
X406.9159 Y-0.2525
X406.8989 Y-0.3075
X406.8802 Y-0.3576
X406.8581 Y-0.4078
X406.8533 Y-0.4176
X406.8241 Y-0.4727
X406.79 Y-0.5277
X406.748 Y-0.5857
X406.7041 Y-0.6379
X406.671 Y-0.6726
X406.6379 Y-0.704
X406.5858 Y-0.748
X406.5278 Y-0.7899
X406.4727 Y-0.8241
X406.4177 Y-0.8533
X406.4078 Y-0.8581
X406.3577 Y-0.8801
X406.3076 Y-0.8988
X406.2525 Y-0.9158
X406.1974 Y-0.9293
X406.1424 Y-0.9393
X406.0874 Y-0.946
X406.0323 Y-0.9495
X405.9773 Y-0.95
X310.9573
X310.8472 Y-0.9485
X310.7921 Y-0.9439
X310.7371 Y-0.9359
X310.682 Y-0.9246
X310.627 Y-0.9099
X310.5719 Y-0.8915
X310.5168 Y-0.8693
X310.4923 Y-0.8581
X310.4495 Y-0.8364
X310.4067 Y-0.8119
X310.3605 Y-0.782
X310.3143 Y-0.748
X310.2966 Y-0.7338
X310.2463 Y-0.6893
X310.196 Y-0.6379
X310.1865 Y-0.6273
X310.1457 Y-0.5775
X310.1101 Y-0.5277
X310.0764 Y-0.4735
X310.0468 Y-0.4176
X310.0219 Y-0.3626
X310.0012 Y-0.3075
X309.9842 Y-0.2525
X309.9708 Y-0.1974
X309.9663 Y-0.1753
X309.9591 Y-0.1313
X309.954 Y-0.0873
X309.9506 Y-0.0323
X309.95 Y0.0228
Y18.7476
X309.9485 Y18.75
X231.652
X231.65 Y18.7476
Y0.0228
X231.6494 Y-0.0323
X231.646 Y-0.0873
X231.6393 Y-0.1424
X231.6293 Y-0.1974
X231.6158 Y-0.2525
X231.5988 Y-0.3075
X231.5721 Y-0.3768
X231.5533 Y-0.4176
X231.524 Y-0.4727
X231.4899 Y-0.5277
X231.462 Y-0.5673
X231.4344 Y-0.6026
X231.404 Y-0.6379
X231.3519 Y-0.6911
X231.3188 Y-0.7208
X231.2857 Y-0.748
X231.2418 Y-0.7804
X231.1867 Y-0.8158
X231.1317 Y-0.8463
X231.1077 Y-0.8581
X231.0646 Y-0.8772
X231.0216 Y-0.8939
X230.9665 Y-0.9119
X230.9115 Y-0.9262
X230.8564 Y-0.937
X230.8013 Y-0.9446
X230.7463 Y-0.9489
X230.6913 Y-0.95
X0.0228
X-0.0323 Y-0.9495
X-0.0873 Y-0.946
X-0.1424 Y-0.9393
X-0.1974 Y-0.9293
X-0.2525 Y-0.9158
X-0.3075 Y-0.8988
X-0.3576 Y-0.8801
X-0.4077 Y-0.8581
X-0.4176 Y-0.8533
X-0.4727 Y-0.8241
X-0.5277 Y-0.7899
X-0.5857 Y-0.748
X-0.6378 Y-0.704
X-0.6709 Y-0.6726
X-0.704 Y-0.6379
X-0.7479 Y-0.5857
X-0.7899 Y-0.5277
X-0.824 Y-0.4727
X-0.8533 Y-0.4176
X-0.858 Y-0.4078
X-0.8801 Y-0.3576
X-0.8988 Y-0.3075
X-0.9158 Y-0.2525
X-0.9293 Y-0.1974
X-0.9393 Y-0.1424
X-0.946 Y-0.0873
X-0.9495 Y-0.0323
X-0.95 Y0.0228
Y89.9772
X-0.9495 Y90.0323
X-0.946 Y90.0873
X-0.9393 Y90.1424
X-0.9293 Y90.1974
X-0.9158 Y90.2525
X-0.8988 Y90.3075
X-0.8801 Y90.3577
X-0.858 Y90.4078
X-0.8533 Y90.4176
X-0.824 Y90.4727
X-0.7899 Y90.5277
X-0.7479 Y90.5857
X-0.704 Y90.6379
X-0.6709 Y90.6726
X-0.6378 Y90.704
X-0.5857 Y90.748
X-0.5277 Y90.7899
X-0.4727 Y90.8241
X-0.4176 Y90.8533
X-0.4077 Y90.8581
X-0.3576 Y90.8801
X-0.3075 Y90.8988
X-0.2525 Y90.9158
X-0.1974 Y90.9293
X-0.1424 Y90.9393
X-0.0873 Y90.946
X-0.0323 Y90.9495
X0.0228 Y90.95
X339.6958
X376.7824
X376.9761 Z-13.0001
X377.1698 Z-13.0004
X377.3635 Z-13.0009
X377.5572 Z-13.0016
X377.7509 Z-13.0026
X377.9445 Z-13.0037
X378.1382 Z-13.005
X378.3319 Z-13.0064
X378.5256 Z-13.0081
X378.7193 Z-13.01
X378.913 Z-13.012
X379.1067 Z-13.0143
X379.3004 Z-13.0167
X379.4941 Z-13.0192
X379.6878 Z-13.022
X379.8815 Z-13.0249
X380.0752 Z-13.028
X380.2689 Z-13.0312
X380.4626 Z-13.0346
X380.6563 Z-13.0382
X380.85 Z-13.0419
X381.0437 Z-13.0458
X381.2374 Z-13.0499
X381.4311 Z-13.054
X381.6248 Z-13.0584
X381.8185 Z-13.0628
X382.0121 Z-13.0674
X382.2058 Z-13.0722
X382.3995 Z-13.0771
X382.4964 Z-13.0796
X382.5932 Z-13.0821
X382.6901 Z-13.0847
X382.7869 Z-13.0873
X382.8838 Z-13.0899
X382.9806 Z-13.0925
X383.0775 Z-13.0952
X383.1743 Z-13.0979
X383.2711 Z-13.1007
X383.368 Z-13.1035
X383.4648 Z-13.1063
X383.5617 Z-13.1091
X383.6585 Z-13.112
X383.7554 Z-13.1149
X383.8522 Z-13.1178
X383.9491 Z-13.1208
X384.0459 Z-13.1237
X384.1428 Z-13.1267
X384.2396 Z-13.1298
X384.3365 Z-13.1328
X384.4333 Z-13.1359
X384.5302 Z-13.1391
X384.627 Z-13.1422
X384.7239 Z-13.1454
X384.8207 Z-13.1486
X384.9176 Z-13.1518
X385.0144 Z-13.155
X385.1113 Z-13.1583
X385.2081 Z-13.1616
X385.305 Z-13.1649
X385.4018 Z-13.1683
X385.5955 Z-13.175
X385.6924 Z-13.1784
X385.7892 Z-13.1818
X385.886 Z-13.1852
X385.9829 Z-13.1885
X386.0797 Z-13.1919
X386.1766 Z-13.1953
X386.2734 Z-13.1987
X386.3703 Z-13.2021
X386.4671 Z-13.2054
X386.564 Z-13.2088
X386.6608 Z-13.2122
X386.7577 Z-13.2156
X386.8545 Z-13.219
X386.9514 Z-13.2223
X387.0482 Z-13.2257
X387.2419 Z-13.2325
X387.5324 Z-13.2426
X387.823 Z-13.2528
X388.1135 Z-13.2629
X388.4041 Z-13.2731
X388.6946 Z-13.2832
X388.9851 Z-13.2934
X389.2757 Z-13.3035
X389.5662 Z-13.3137
X389.9536 Z-13.3272
X390.4379 Z-13.3441
X390.9221 Z-13.361
X391.6 Z-13.3847
X392.4716 Z-13.4151
X394.4086 Z-13.4827
X395.8613 Z-13.5335
X396.5392 Z-13.5571
X397.0235 Z-13.574
X397.5077 Z-13.5909
X397.7983 Z-13.6011
X398.0888 Z-13.6112
X398.3794 Z-13.6214
X398.6699 Z-13.6315
X398.9604 Z-13.6417
X399.251 Z-13.6518
X399.5415 Z-13.6619
X399.8321 Z-13.6721
X399.9289 Z-13.6755
X400.0258 Z-13.6788
X400.1226 Z-13.6822
X400.2195 Z-13.6856
X400.3163 Z-13.689
X400.4131 Z-13.6924
X400.51 Z-13.6958
X400.6068 Z-13.6991
X400.7037 Z-13.7025
X400.8005 Z-13.7059
X400.8974 Z-13.7093
X400.9942 Z-13.7127
X401.0911 Z-13.7161
X401.1879 Z-13.7194
X401.2848 Z-13.7228
X401.5753 Z-13.7329
X401.6722 Z-13.7363
X401.769 Z-13.7396
X401.8659 Z-13.7429
X401.9627 Z-13.7461
X402.0596 Z-13.7494
X402.1564 Z-13.7526
X402.2533 Z-13.7558
X402.3501 Z-13.7589
X402.447 Z-13.7621
X402.5438 Z-13.7652
X402.6407 Z-13.7682
X402.7375 Z-13.7713
X402.8344 Z-13.7743
X402.9312 Z-13.7773
X403.028 Z-13.7803
X403.1249 Z-13.7832
X403.2217 Z-13.7862
X403.3186 Z-13.789
X403.4154 Z-13.7919
X403.5123 Z-13.7947
X403.6091 Z-13.7975
X403.706 Z-13.8003
X403.8028 Z-13.803
X403.8997 Z-13.8057
X403.9965 Z-13.8084
X404.0934 Z-13.8111
X404.1902 Z-13.8137
X404.287 Z-13.8162
X404.3839 Z-13.8188
X404.4807 Z-13.8213
X404.6744 Z-13.8262
X404.8681 Z-13.831
X405.0618 Z-13.8357
X405.2555 Z-13.8402
X405.4492 Z-13.8446
X405.6429 Z-13.8488
X405.8366 Z-13.8529
X406.0303 Y90.9495 Z-13.8568
X406.0786 Y90.9467 Z-13.8578
X406.1268 Y90.9415 Z-13.8587
X406.1746 Y90.9338 Z-13.8597
X406.222 Y90.9237 Z-13.8606
X406.2687 Y90.9112 Z-13.8615
X406.3148 Y90.8963 Z-13.8624
X406.3601 Y90.8791 Z-13.8633
X406.4044 Y90.8596 Z-13.8642
X406.4477 Y90.8379 Z-13.8651
X406.4898 Y90.814 Z-13.866
X406.5307 Y90.788 Z-13.8668
X406.5701 Y90.7599 Z-13.8677
X406.6081 Y90.7299 Z-13.8685
X406.6445 Y90.698 Z-13.8694
X406.6793 Y90.6642 Z-13.8702
X406.7122 Y90.6287 Z-13.871
X406.7433 Y90.5916 Z-13.8718
X406.7725 Y90.553 Z-13.8726
X406.7997 Y90.5129 Z-13.8734
X406.8248 Y90.4715 Z-13.8741
X406.8477 Y90.4288 Z-13.8749
X406.8685 Y90.3851 Z-13.8756
X406.887 Y90.3403 Z-13.8764
X406.9032 Y90.2947 Z-13.8771
X406.917 Y90.2483 Z-13.8778
X406.9285 Y90.2012 Z-13.8785
X406.9375 Y90.1537 Z-13.8792
X406.9442 Y90.1057 Z-13.8799
X406.9483 Y90.0574 Z-13.8806
X406.95 Y90.009 Z-13.8812
Y89.9122 Z-13.8825
Y89.7185 Z-13.885
Y89.5248 Z-13.8873
Y89.3311 Z-13.8894
Y89.1374 Z-13.8913
Y88.9437 Z-13.893
Y88.75 Z-13.8946
Y88.5563 Z-13.8959
Y88.3626 Z-13.8971
Y88.1689 Z-13.8981
Y87.9753 Z-13.8989
Y87.7816 Z-13.8994
Y87.5879 Z-13.8998
Y87.3942 Z-13.9
Y87.3316
Y0.0228
X406.9495 Y-0.0323
X406.946 Y-0.0873
X406.9393 Y-0.1424
X406.9293 Y-0.1974
X406.9159 Y-0.2525
X406.8989 Y-0.3075
X406.8802 Y-0.3576
X406.8581 Y-0.4078
X406.8533 Y-0.4176
X406.8241 Y-0.4727
X406.79 Y-0.5277
X406.748 Y-0.5857
X406.7041 Y-0.6379
X406.671 Y-0.6726
X406.6379 Y-0.704
X406.5858 Y-0.748
X406.5278 Y-0.7899
X406.4727 Y-0.8241
X406.4177 Y-0.8533
X406.4078 Y-0.8581
X406.3577 Y-0.8801
X406.3076 Y-0.8988
X406.2525 Y-0.9158
X406.1974 Y-0.9293
X406.1424 Y-0.9393
X406.0874 Y-0.946
X406.0323 Y-0.9495
X405.9773 Y-0.95
X310.9573
X310.8472 Y-0.9485
X310.7921 Y-0.9439
X310.7371 Y-0.9359
X310.682 Y-0.9246
X310.627 Y-0.9099
X310.5719 Y-0.8915
X310.5168 Y-0.8693
X310.4923 Y-0.8581
X310.4495 Y-0.8364
X310.4067 Y-0.8119
X310.3605 Y-0.782
X310.3143 Y-0.748
X310.2966 Y-0.7338
X310.2463 Y-0.6893
X310.196 Y-0.6379
X310.1865 Y-0.6273
X310.1457 Y-0.5775
X310.1101 Y-0.5277
X310.0764 Y-0.4735
X310.0468 Y-0.4176
X310.0219 Y-0.3626
X310.0012 Y-0.3075
X309.9842 Y-0.2525
X309.9708 Y-0.1974
X309.9663 Y-0.1753
X309.9591 Y-0.1313
X309.954 Y-0.0873
X309.9506 Y-0.0323
X309.95 Y0.0228
Y18.7476
X309.9485 Y18.75
X231.652
X231.65 Y18.7476
Y0.0228
X231.6494 Y-0.0323
X231.646 Y-0.0873
X231.6393 Y-0.1424
X231.6293 Y-0.1974
X231.6158 Y-0.2525
X231.5988 Y-0.3075
X231.5721 Y-0.3768
X231.5533 Y-0.4176
X231.524 Y-0.4727
X231.4899 Y-0.5277
X231.462 Y-0.5673
X231.4344 Y-0.6026
X231.404 Y-0.6379
X231.3519 Y-0.6911
X231.3188 Y-0.7208
X231.2857 Y-0.748
X231.2418 Y-0.7804
X231.1867 Y-0.8158
X231.1317 Y-0.8463
X231.1077 Y-0.8581
X231.0646 Y-0.8772
X231.0216 Y-0.8939
X230.9665 Y-0.9119
X230.9115 Y-0.9262
X230.8564 Y-0.937
X230.8013 Y-0.9446
X230.7463 Y-0.9489
X230.6913 Y-0.95
X0.0228
X-0.0323 Y-0.9495
X-0.0873 Y-0.946
X-0.1424 Y-0.9393
X-0.1974 Y-0.9293
X-0.2525 Y-0.9158
X-0.3075 Y-0.8988
X-0.3576 Y-0.8801
X-0.4077 Y-0.8581
X-0.4176 Y-0.8533
X-0.4727 Y-0.8241
X-0.5277 Y-0.7899
X-0.5857 Y-0.748
X-0.6378 Y-0.704
X-0.6709 Y-0.6726
X-0.704 Y-0.6379
X-0.7479 Y-0.5857
X-0.7899 Y-0.5277
X-0.824 Y-0.4727
X-0.8533 Y-0.4176
X-0.858 Y-0.4078
X-0.8801 Y-0.3576
X-0.8988 Y-0.3075
X-0.9158 Y-0.2525
X-0.9293 Y-0.1974
X-0.9393 Y-0.1424
X-0.946 Y-0.0873
X-0.9495 Y-0.0323
X-0.95 Y0.0228
Y89.9772
X-0.9495 Y90.0323
X-0.946 Y90.0873
X-0.9393 Y90.1424
X-0.9293 Y90.1974
X-0.9158 Y90.2525
X-0.8988 Y90.3075
X-0.8801 Y90.3577
X-0.858 Y90.4078
X-0.8533 Y90.4176
X-0.824 Y90.4727
X-0.7899 Y90.5277
X-0.7479 Y90.5857
X-0.704 Y90.6379
X-0.6709 Y90.6726
X-0.6378 Y90.704
X-0.5857 Y90.748
X-0.5277 Y90.7899
X-0.4727 Y90.8241
X-0.4176 Y90.8533
X-0.4077 Y90.8581
X-0.3576 Y90.8801
X-0.3075 Y90.8988
X-0.2525 Y90.9158
X-0.1974 Y90.9293
X-0.1424 Y90.9393
X-0.0873 Y90.946
X-0.0323 Y90.9495
X0.0228 Y90.95
X376.7824
X405.9773
X406.0323 Y90.9495
X406.0874 Y90.946
X406.1424 Y90.9393
X406.1974 Y90.9293
X406.2525 Y90.9158
X406.3076 Y90.8988
X406.3577 Y90.8801
X406.4078 Y90.8581
X406.4177 Y90.8533
X406.4727 Y90.8241
X406.5278 Y90.7899
X406.5858 Y90.748
X406.6379 Y90.704
X406.671 Y90.6726
X406.7041 Y90.6379
X406.748 Y90.5857
X406.79 Y90.5277
X406.8241 Y90.4727
X406.8533 Y90.4176
X406.8581 Y90.4078
X406.8802 Y90.3577
X406.8989 Y90.3075
X406.9159 Y90.2525
X406.9293 Y90.1974
X406.9393 Y90.1424
X406.946 Y90.0873
X406.9495 Y90.0323
X406.95 Y89.9772
Y87.3316
X406.9574 Y87.2792
X406.9789 Y87.2309
X407.0129 Y87.1904
X407.0568 Y87.1608
X407.1071 Y87.1445
X407.16 Y87.1427
X408.7638 Y87.3119
X408.8127 Y87.317 Z-13.8935
X408.8582 Y87.3218 Z-13.8745
X408.8974 Y87.3259 Z-13.8443
X408.9274 Y87.3291 Z-13.805
X408.9463 Y87.3311 Z-13.7592
X408.9527 Y87.3318 Z-13.71
G0 Z5
X11.5807 Y10.148
Z-4.9172
G1 Z-7 F3200
X11.6352 Y10.1428
X11.6889 Y10.1533
X11.7373 Y10.1787
X11.7766 Y10.2168
X11.8033 Y10.2645
X11.8154 Y10.3179
X11.8117 Y10.3725
X11.804 Y10.4085
X11.7855 Y10.4826
X11.7522 Y10.5927
X11.7111 Y10.7028
X11.6938 Y10.7429
X11.6614 Y10.8129
X11.6028 Y10.923
X11.5837 Y10.9555
X11.5342 Y11.0331
X11.4736 Y11.1179
X11.454 Y11.1432
X11.3635 Y11.2498
X11.3604 Y11.2533
X11.3092 Y11.3068
X11.2534 Y11.3603
X11.2499 Y11.3634
X11.1433 Y11.4539
X11.1181 Y11.4735
X11.0332 Y11.5341
X10.9557 Y11.5836
X10.9231 Y11.6027
X10.813 Y11.6614
X10.7432 Y11.6937
X10.7029 Y11.711
X10.5928 Y11.7521
X10.4827 Y11.7855
X10.409 Y11.8038
X10.3726 Y11.8117
X10.2625 Y11.8311
X10.1524 Y11.8433
X10.0423 Y11.8491
X9.9322 Y11.8486
X9.8221 Y11.8411
X9.712 Y11.827
X9.6019 Y11.8064
X9.591 Y11.8038
X9.4918 Y11.7785
X9.3817 Y11.7431
X9.2716 Y11.7001
X9.2569 Y11.6937
X9.1614 Y11.6486
X9.0513 Y11.5879
X9.0444 Y11.5836
X8.9412 Y11.5168
X8.882 Y11.4735
X8.8311 Y11.4336
X8.7501 Y11.3634
X8.721 Y11.3361
X8.6396 Y11.2533
X8.6109 Y11.2213
X8.546 Y11.1432
X8.5008 Y11.0832
X8.4659 Y11.0331
X8.3972 Y10.923
X8.3907 Y10.9116
X8.3386 Y10.8129
X8.289 Y10.7028
X8.2806 Y10.6816
X8.2478 Y10.5927
X8.2145 Y10.4826
X8.1883 Y10.3725
X8.1705 Y10.2727
X8.1689 Y10.2624
X8.1567 Y10.1523
X8.1509 Y10.0422
X8.1514 Y9.9321
X8.159 Y9.822
X8.1705 Y9.7273
X8.173 Y9.7119
X8.1936 Y9.6018
X8.2216 Y9.4917
X8.2569 Y9.3816
X8.2806 Y9.3184
X8.2999 Y9.2715
X8.3514 Y9.1613
X8.3907 Y9.0884
X8.4121 Y9.0512
X8.4833 Y8.9411
X8.5008 Y8.9168
X8.5665 Y8.831
X8.6109 Y8.7787
X8.664 Y8.7209
X8.721 Y8.6639
X8.7788 Y8.6108
X8.8311 Y8.5664
X8.9169 Y8.5007
X8.9412 Y8.4832
X9.0513 Y8.4121
X9.0886 Y8.3906
X9.1614 Y8.3513
X9.2716 Y8.2999
X9.3185 Y8.2805
X9.3817 Y8.2569
X9.4918 Y8.2215
X9.6019 Y8.1936
X9.712 Y8.173
X9.7279 Y8.1704
X9.8221 Y8.1589
X9.9322 Y8.1514
X10.0423 Y8.1509
X10.1524 Y8.1567
X10.2625 Y8.1689
X10.2721 Y8.1704
X10.3726 Y8.1883
X10.4827 Y8.2145
X10.5928 Y8.2479
X10.6815 Y8.2805
X10.7029 Y8.289
X10.813 Y8.3386
X10.9115 Y8.3906
X10.9231 Y8.3973
X11.0332 Y8.4659
X11.0831 Y8.5007
X11.1433 Y8.5461
X11.2213 Y8.6108
X11.2534 Y8.6397
X11.336 Y8.7209
X11.3635 Y8.7502
X11.4335 Y8.831
X11.4736 Y8.8821
X11.5167 Y8.9411
X11.5837 Y9.0445
X11.5879 Y9.0512
X11.6486 Y9.1613
X11.6938 Y9.2571
X11.7001 Y9.2715
X11.7431 Y9.3816
X11.7784 Y9.4917
X11.804 Y9.5915
X11.8064 Y9.6018
X11.827 Y9.7119
X11.8411 Y9.822
X11.8486 Y9.9321
X11.8491 Y10.0422
X11.8434 Y10.1523
X11.8311 Y10.2624
X11.8117 Y10.3725
X11.7902 Y10.4653
X11.7638 Y10.5568 Z-7.0001
X11.7331 Y10.6469 Z-7.0002
X11.6972 Y10.7352 Z-7.0004
X11.6572 Y10.8216 Z-7.0006
X11.6126 Y10.9058 Z-7.0008
X11.5639 Y10.9876 Z-7.0011
X11.511 Y11.0669 Z-7.0014
X11.454 Y11.1432 Z-7.0018
X11.3933 Y11.2166 Z-7.0022
X11.2609 Y11.3535 Z-7.0032
X11.1894 Y11.4164 Z-7.0037
X11.115 Y11.4759 Z-7.0043
X11.0375 Y11.5312 Z-7.005
X10.9573 Y11.5826 Z-7.0056
X10.8746 Y11.6298 Z-7.0063
X10.7895 Y11.6726 Z-7.0071
X10.7024 Y11.7112 Z-7.0079
X10.6133 Y11.7449 Z-7.0087
X10.5227 Y11.7744 Z-7.0096
X10.4306 Y11.7987 Z-7.0105
X10.3375 Y11.8186 Z-7.0115
X10.2434 Y11.8335 Z-7.0125
X10.1487 Y11.8437 Z-7.0135
X10.0536 Y11.8489 Z-7.0146
X9.9584 Y11.8491 Z-7.0157
X9.8632 Y11.8447 Z-7.0169
X9.6742 Y11.8209 Z-7.0193
X9.581 Y11.8015 Z-7.0205
X9.4888 Y11.7777 Z-7.0219
X9.398 Y11.7489 Z-7.0232
X9.3087 Y11.7156 Z-7.0246
X9.2213 Y11.6778 Z-7.026
X9.136 Y11.6354 Z-7.0274
X9.0529 Y11.5889 Z-7.0289
X8.9725 Y11.5379 Z-7.0305
X8.8945 Y11.4831 Z-7.032
X8.8198 Y11.4241 Z-7.0336
X8.748 Y11.3615 Z-7.0352
X8.6796 Y11.2952 Z-7.0369
X8.6147 Y11.2255 Z-7.0386
X8.5533 Y11.1526 Z-7.0403
X8.496 Y11.0765 Z-7.0421
X8.4424 Y10.9978 Z-7.0439
X8.3481 Y10.8324 Z-7.0476
X8.3076 Y10.7461 Z-7.0495
X8.2713 Y10.658 Z-7.0515
X8.2398 Y10.5682 Z-7.0535
X8.2129 Y10.4768 Z-7.0555
X8.1906 Y10.3842 Z-7.0575
X8.1734 Y10.2905 Z-7.0596
X8.1606 Y10.1961 Z-7.0617
X8.1532 Y10.1012 Z-7.0638
X8.1503 Y10.006 Z-7.066
X8.1526 Y9.9107 Z-7.0682
X8.1595 Y9.8157 Z-7.0704
X8.1715 Y9.7212 Z-7.0726
X8.1883 Y9.6275 Z-7.0749
X8.2098 Y9.5347 Z-7.0772
X8.2363 Y9.4432 Z-7.0796
X8.267 Y9.353 Z-7.082
X8.3428 Y9.1783 Z-7.0868
X8.3874 Y9.0942 Z-7.0893
X8.4361 Y9.0123 Z-7.0918
X8.489 Y8.9331 Z-7.0943
X8.546 Y8.8568 Z-7.0968
X8.6067 Y8.7834 Z-7.0994
X8.6713 Y8.7134 Z-7.102
X8.7391 Y8.6465 Z-7.1046
X8.8106 Y8.5836 Z-7.1073
X8.885 Y8.5241 Z-7.11
X8.9625 Y8.4688 Z-7.1127
X9.0427 Y8.4174 Z-7.1154
X9.1254 Y8.3702 Z-7.1182
X9.2105 Y8.3274 Z-7.121
X9.2976 Y8.2888 Z-7.1238
X9.3867 Y8.2551 Z-7.1267
X9.4773 Y8.2256 Z-7.1295
X9.5694 Y8.2013 Z-7.1324
X9.6625 Y8.1814 Z-7.1353
X9.7566 Y8.1665 Z-7.1383
X9.8513 Y8.1563 Z-7.1412
X9.9464 Y8.1511 Z-7.1442
X10.0416 Y8.1509 Z-7.1472
X10.1368 Y8.1553 Z-7.1503
X10.2315 Y8.165 Z-7.1533
X10.3257 Y8.1791 Z-7.1564
X10.419 Y8.1985 Z-7.1595
X10.5112 Y8.2223 Z-7.1626
X10.602 Y8.2511 Z-7.1658
X10.6913 Y8.2844 Z-7.169
X10.7787 Y8.3222 Z-7.1722
X10.864 Y8.3646 Z-7.1754
X10.9471 Y8.4111 Z-7.1786
X11.0276 Y8.4621 Z-7.1819
X11.1055 Y8.5169 Z-7.1851
X11.1802 Y8.5759 Z-7.1884
X11.2521 Y8.6385 Z-7.1918
X11.3204 Y8.7048 Z-7.1951
X11.3854 Y8.7745 Z-7.1984
X11.4467 Y8.8474 Z-7.2017
X11.504 Y8.9234 Z-7.2051
X11.5576 Y9.0022 Z-7.2084
X11.6067 Y9.0838 Z-7.2117
X11.6519 Y9.1676 Z-7.215
X11.6924 Y9.2538 Z-7.2184
X11.7287 Y9.3419 Z-7.2217
X11.7602 Y9.4318 Z-7.225
X11.7871 Y9.5232 Z-7.2283
X11.8094 Y9.6158 Z-7.2317
X11.8266 Y9.7095 Z-7.235
X11.8394 Y9.8038 Z-7.2383
X11.8468 Y9.8988 Z-7.2416
X11.8497 Y9.994 Z-7.245
X11.8474 Y10.0892 Z-7.2483
X11.8405 Y10.1843 Z-7.2516
X11.8285 Y10.2787 Z-7.2549
X11.8117 Y10.3725 Z-7.2583
X11.7902 Y10.4653 Z-7.2616
X11.7638 Y10.5568 Z-7.2649
X11.7331 Y10.6469 Z-7.2682
X11.6972 Y10.7352 Z-7.2715
X11.6572 Y10.8216 Z-7.2749
X11.6126 Y10.9058 Z-7.2782
X11.5639 Y10.9876 Z-7.2815
X11.511 Y11.0669 Z-7.2848
X11.454 Y11.1432 Z-7.2882
X11.3933 Y11.2166 Z-7.2915
X11.3287 Y11.2866 Z-7.2948
X11.2609 Y11.3535 Z-7.2981
X11.1894 Y11.4164 Z-7.3015
X11.115 Y11.4759 Z-7.3048
X11.0375 Y11.5312 Z-7.3081
X10.9573 Y11.5826 Z-7.3114
X10.8746 Y11.6298 Z-7.3148
X10.7895 Y11.6726 Z-7.3181
X10.7024 Y11.7112 Z-7.3214
X10.6133 Y11.7449 Z-7.3247
X10.5227 Y11.7744 Z-7.3281
X10.4306 Y11.7987 Z-7.3314
X10.3375 Y11.8186 Z-7.3347
X10.2434 Y11.8335 Z-7.338
X10.1487 Y11.8437 Z-7.3414
X10.0536 Y11.8489 Z-7.3447
X9.9584 Y11.8491 Z-7.348
X9.8632 Y11.8447 Z-7.3513
X9.7685 Y11.835 Z-7.3547
X9.6742 Y11.8209 Z-7.358
X9.581 Y11.8015 Z-7.3613
X9.4888 Y11.7777 Z-7.3646
X9.398 Y11.7489 Z-7.368
X9.3087 Y11.7156 Z-7.3713
X9.2213 Y11.6778 Z-7.3746
X9.136 Y11.6354 Z-7.3779
X9.0529 Y11.5889 Z-7.3813
X8.9725 Y11.5379 Z-7.3846
X8.8945 Y11.4831 Z-7.3879
X8.8198 Y11.4241 Z-7.3912
X8.748 Y11.3615 Z-7.3946
X8.6796 Y11.2952 Z-7.3979
X8.6147 Y11.2255 Z-7.4012
X8.5533 Y11.1526 Z-7.4045
X8.496 Y11.0765 Z-7.4079
X8.4424 Y10.9978 Z-7.4112
X8.3933 Y10.9162 Z-7.4145
X8.3481 Y10.8324 Z-7.4178
X8.3076 Y10.7461 Z-7.4212
X8.2713 Y10.658 Z-7.4245
X8.2398 Y10.5682 Z-7.4278
X8.2129 Y10.4768 Z-7.4311
X8.1906 Y10.3842 Z-7.4345
X8.1734 Y10.2905 Z-7.4378
X8.1606 Y10.1961 Z-7.4411
X8.1532 Y10.1012 Z-7.4444
X8.1503 Y10.006 Z-7.4478
X8.1526 Y9.9107 Z-7.4511
X8.1595 Y9.8157 Z-7.4544
X8.1715 Y9.7212 Z-7.4577
X8.1883 Y9.6275 Z-7.4611
X8.2098 Y9.5347 Z-7.4644
X8.2363 Y9.4432 Z-7.4677
X8.267 Y9.353 Z-7.471
X8.3028 Y9.2648 Z-7.4744
X8.3428 Y9.1783 Z-7.4777
X8.3874 Y9.0942 Z-7.481
X8.4361 Y9.0123 Z-7.4843
X8.489 Y8.9331 Z-7.4877
X8.546 Y8.8568 Z-7.491
X8.6067 Y8.7834 Z-7.4943
X8.6713 Y8.7134 Z-7.4976
X8.7391 Y8.6465 Z-7.501
X8.8106 Y8.5836 Z-7.5043
X8.885 Y8.5241 Z-7.5076
X8.9625 Y8.4688 Z-7.5109
X9.0427 Y8.4174 Z-7.5143
X9.1254 Y8.3702 Z-7.5176
X9.2105 Y8.3274 Z-7.5209
X9.2976 Y8.2888 Z-7.5242
X9.3867 Y8.2551 Z-7.5276
X9.4773 Y8.2256 Z-7.5309
X9.5694 Y8.2013 Z-7.5342
X9.6625 Y8.1814 Z-7.5375
X9.7566 Y8.1665 Z-7.5409
X9.8513 Y8.1563 Z-7.5442
X9.9464 Y8.1511 Z-7.5475
X10.0416 Y8.1509 Z-7.5508
X10.1368 Y8.1553 Z-7.5542
X10.2315 Y8.165 Z-7.5575
X10.3257 Y8.1791 Z-7.5608
X10.419 Y8.1985 Z-7.5641
X10.5112 Y8.2223 Z-7.5674
X10.602 Y8.2511 Z-7.5708
X10.6913 Y8.2844 Z-7.5741
X10.7787 Y8.3222 Z-7.5774
X10.864 Y8.3646 Z-7.5807
X10.9471 Y8.4111 Z-7.5841
X11.0276 Y8.4621 Z-7.5874
X11.1055 Y8.5169 Z-7.5907
X11.1802 Y8.5759 Z-7.594
X11.2521 Y8.6385 Z-7.5974
X11.3204 Y8.7048 Z-7.6007
X11.3854 Y8.7745 Z-7.604
X11.4467 Y8.8474 Z-7.6073
X11.504 Y8.9234 Z-7.6107
X11.5576 Y9.0022 Z-7.614
X11.6067 Y9.0838 Z-7.6173
X11.6519 Y9.1676 Z-7.6206
X11.6924 Y9.2538 Z-7.624
X11.7287 Y9.3419 Z-7.6273
X11.7602 Y9.4318 Z-7.6306
X11.7871 Y9.5232 Z-7.6339
X11.8094 Y9.6158 Z-7.6373
X11.8266 Y9.7095 Z-7.6406
X11.8394 Y9.8038 Z-7.6439
X11.8468 Y9.8988 Z-7.6472
X11.8497 Y9.994 Z-7.6506
X11.8474 Y10.0892 Z-7.6539
X11.8405 Y10.1843 Z-7.6572
X11.8285 Y10.2787 Z-7.6605
X11.8117 Y10.3725 Z-7.6639
X11.7902 Y10.4653 Z-7.6672
X11.7638 Y10.5568 Z-7.6705
X11.7331 Y10.6469 Z-7.6738
X11.6972 Y10.7352 Z-7.6772
X11.6572 Y10.8216 Z-7.6805
X11.6126 Y10.9058 Z-7.6838
X11.5639 Y10.9876 Z-7.6871
X11.511 Y11.0669 Z-7.6904
X11.454 Y11.1432 Z-7.6938
X11.3933 Y11.2166 Z-7.6971
X11.3287 Y11.2866 Z-7.7004
X11.2609 Y11.3535 Z-7.7037
X11.1894 Y11.4164 Z-7.7071
X11.115 Y11.4759 Z-7.7104
X11.0375 Y11.5312 Z-7.7137
X10.9573 Y11.5826 Z-7.717
X10.8746 Y11.6298 Z-7.7204
X10.7895 Y11.6726 Z-7.7237
X10.7024 Y11.7112 Z-7.727
X10.6133 Y11.7449 Z-7.7303
X10.5227 Y11.7744 Z-7.7337
X10.4306 Y11.7987 Z-7.737
X10.3375 Y11.8186 Z-7.7403
X10.2434 Y11.8335 Z-7.7436
X10.1487 Y11.8437 Z-7.747
X10.0536 Y11.8489 Z-7.7503
X9.9584 Y11.8491 Z-7.7536
X9.8632 Y11.8447 Z-7.7569
X9.7685 Y11.835 Z-7.7603
X9.6742 Y11.8209 Z-7.7636
X9.581 Y11.8015 Z-7.7669
X9.4888 Y11.7777 Z-7.7702
X9.398 Y11.7489 Z-7.7736
X9.3087 Y11.7156 Z-7.7769
X9.2213 Y11.6778 Z-7.7802
X9.136 Y11.6354 Z-7.7835
X9.0529 Y11.5889 Z-7.7869
X8.9725 Y11.5379 Z-7.7902
X8.8945 Y11.4831 Z-7.7935
X8.8198 Y11.4241 Z-7.7968
X8.748 Y11.3615 Z-7.8002
X8.6796 Y11.2952 Z-7.8035
X8.6147 Y11.2255 Z-7.8068
X8.5533 Y11.1526 Z-7.8101
X8.496 Y11.0765 Z-7.8134
X8.4424 Y10.9978 Z-7.8167
X8.3933 Y10.9162 Z-7.82
X8.3481 Y10.8324 Z-7.8232
X8.3076 Y10.7461 Z-7.8265
X8.2713 Y10.658 Z-7.8297
X8.2398 Y10.5682 Z-7.8328
X8.2129 Y10.4768 Z-7.836
X8.1906 Y10.3842 Z-7.8391
X8.1734 Y10.2905 Z-7.8422
X8.1606 Y10.1961 Z-7.8453
X8.1532 Y10.1012 Z-7.8484
X8.1503 Y10.006 Z-7.8515
X8.1526 Y9.9107 Z-7.8545
X8.1595 Y9.8157 Z-7.8575
X8.1715 Y9.7212 Z-7.8605
X8.1883 Y9.6275 Z-7.8634
X8.2098 Y9.5347 Z-7.8663
X8.2363 Y9.4432 Z-7.8692
X8.267 Y9.353 Z-7.8721
X8.3028 Y9.2648 Z-7.875
X8.3428 Y9.1783 Z-7.8778
X8.3874 Y9.0942 Z-7.8806
X8.4361 Y9.0123 Z-7.8834
X8.489 Y8.9331 Z-7.8861
X8.546 Y8.8568 Z-7.8888
X8.6067 Y8.7834 Z-7.8915
X8.6713 Y8.7134 Z-7.8942
X8.7391 Y8.6465 Z-7.8969
X8.8106 Y8.5836 Z-7.8995
X8.885 Y8.5241 Z-7.9021
X8.9625 Y8.4688 Z-7.9046
X9.0427 Y8.4174 Z-7.9072
X9.1254 Y8.3702 Z-7.9097
X9.2105 Y8.3274 Z-7.9121
X9.2976 Y8.2888 Z-7.9146
X9.4773 Y8.2256 Z-7.9194
X9.5694 Y8.2013 Z-7.9218
X9.6625 Y8.1814 Z-7.9241
X9.7566 Y8.1665 Z-7.9264
X9.8513 Y8.1563 Z-7.9287
X9.9464 Y8.1511 Z-7.9309
X10.0416 Y8.1509 Z-7.9331
X10.1368 Y8.1553 Z-7.9353
X10.2315 Y8.165 Z-7.9374
X10.3257 Y8.1791 Z-7.9395
X10.419 Y8.1985 Z-7.9416
X10.5112 Y8.2223 Z-7.9437
X10.602 Y8.2511 Z-7.9457
X10.6913 Y8.2844 Z-7.9477
X10.7787 Y8.3222 Z-7.9496
X10.864 Y8.3646 Z-7.9515
X10.9471 Y8.4111 Z-7.9534
X11.1055 Y8.5169 Z-7.9571
X11.1802 Y8.5759 Z-7.9589
X11.2521 Y8.6385 Z-7.9606
X11.3204 Y8.7048 Z-7.9624
X11.3854 Y8.7745 Z-7.964
X11.4467 Y8.8474 Z-7.9657
X11.504 Y8.9234 Z-7.9673
X11.5576 Y9.0022 Z-7.9689
X11.6067 Y9.0838 Z-7.9704
X11.6519 Y9.1676 Z-7.9719
X11.6924 Y9.2538 Z-7.9734
X11.7287 Y9.3419 Z-7.9748
X11.7602 Y9.4318 Z-7.9762
X11.7871 Y9.5232 Z-7.9776
X11.8094 Y9.6158 Z-7.9789
X11.8266 Y9.7095 Z-7.9802
X11.8394 Y9.8038 Z-7.9814
X11.8497 Y9.994 Z-7.9838
X11.8474 Y10.0892 Z-7.9849
X11.8405 Y10.1843 Z-7.986
X11.8285 Y10.2787 Z-7.9871
X11.8117 Y10.3725 Z-7.9881
X11.7902 Y10.4653 Z-7.9891
X11.7638 Y10.5568 Z-7.99
X11.7331 Y10.6469 Z-7.9909
X11.6972 Y10.7352 Z-7.9917
X11.6572 Y10.8216 Z-7.9926
X11.6126 Y10.9058 Z-7.9933
X11.5639 Y10.9876 Z-7.9941
X11.511 Y11.0669 Z-7.9948
X11.454 Y11.1432 Z-7.9954
X11.3933 Y11.2166 Z-7.996
X11.2609 Y11.3535 Z-7.9971
X11.1894 Y11.4164 Z-7.9976
X11.115 Y11.4759 Z-7.998
X11.0375 Y11.5312 Z-7.9984
X10.9573 Y11.5826 Z-7.9988
