%
(Made in : Autodesk CAM Post Processor)
(G Code optimized for OpenBuilds OX CNC 1000 x 750 with GRBL V0.9j controller)

(Program Name : 1001)
(2 Operations :)
(1 : Adaptive3)
(  Tool : Flat End Mill 2 Flutes, Diam = 1.9mm, Len = 12.7mm)
(  Spindle : RPM = 30000, set router dial to 6)
(  Machining time : 4 min 4 sec)
(2 : Scallop1)
(  Tool : Flat End Mill 2 Flutes, Diam = 1.9mm, Len = 12.7mm)
(  Spindle : RPM = 30000, set router dial to 6)
(  Machining time : 25 sec)

G90 G94
G17
G21

(Operation 1 of 2 : Adaptive3)

G53 G0 Z5
G54
S30000 M3
G4 P1.0
X-176.7865 Y-2.4507
Z6
Z5
Z-1.72
G1 Z-1.91 F3200
X-176.7892 Y-2.4448 Z-1.9592
X-176.7974 Y-2.4277 Z-2.005
X-176.8104 Y-2.4005 Z-2.0443
X-176.8274 Y-2.365 Z-2.0745
X-176.8471 Y-2.3236 Z-2.0935
X-176.8683 Y-2.2792 Z-2.1
G3 X-177.694 Y-0.943 I-6.5794 J-3.1423
G1 X-177.7384 Y-0.8899
X-177.8118 Y-0.7878
X-177.9054 Y-0.6705
X-178.0287 Y-0.585
X-178.1614 Y-0.5153
X-178.3031 Y-0.4567
X-178.5609 Y-0.2907
X-178.7493 Y-0.0487
X-179.0159 Y0.5036
X-179.1176 Y1.1084
X-179.1537 Y1.7206
X-179.1662 Y2.3337
X-179.1705 Y2.947
X-179.1724 Y4.1735
X-179.1698 Y48.9429
X-179.1682 Y74.0066
X-179.202 Y74.1763
X-179.298 Y74.3201
X-179.4419 Y74.4163
X-179.6115 Y74.45
X-179.663 Y74.441
X-179.71 Y74.4184
X-179.7491 Y74.3838
X-179.7773 Y74.3399
X-179.7926 Y74.29
X-179.7936 Y74.2378
X-179.7804 Y74.1873
X-179.754 Y74.1423
X-179.7163 Y74.1062
X-179.6702 Y74.0817
X-179.6192 Y74.0707
X-179.5671 Y74.0739
X-179.5179 Y74.0912
X-179.4752 Y74.1213
X-179.4423 Y74.1618
X-179.4169 Y74.2039 Z-2.0935
X-179.3932 Y74.2431 Z-2.0745
X-179.3728 Y74.2768 Z-2.0444
X-179.3572 Y74.3026 Z-2.005
X-179.3474 Y74.3189 Z-1.9592
X-179.344 Y74.3244 Z-1.91
G0 Z5
X-177.535 Y-1.7181
Z-1.72
G1 Z-1.91 F3200
X-177.5356 Y-1.7116 Z-1.9592
X-177.5372 Y-1.6927 Z-2.005
X-177.5399 Y-1.6626 Z-2.0444
X-177.5433 Y-1.6234 Z-2.0745
X-177.5473 Y-1.5778 Z-2.0935
X-177.5515 Y-1.5288 Z-2.1
G3 X-177.8118 Y-0.7878 I-1.5766 J-0.1376
G1 X-177.8385 Y-0.7507
X-177.9186 Y-0.5931
X-177.9669 Y-0.4721
X-178.0107 Y-0.3328
X-178.0231 Y-0.2562
X-178.1509 Y0.3436
X-178.2899 Y0.9409
X-178.3596 Y1.5502
X-178.3909 Y2.1627
X-178.404 Y2.7758
X-178.4093 Y3.3891
X-178.4114 Y4.0023
X-178.4125 Y6.4554
X-178.4097 Y49.9982
X-178.4083 Y73.3028
X-178.4173 Y73.6084
X-178.4355 Y73.7733
X-178.4665 Y73.9344
X-178.5066 Y74.079
X-178.5372 Y74.1612
X-178.6317 Y74.3124
X-178.778 Y74.4142
X-178.9527 Y74.45
X-179.0041 Y74.441
X-179.0511 Y74.4184
X-179.0902 Y74.3838
X-179.1185 Y74.3399
X-179.1337 Y74.29
X-179.1347 Y74.2378
X-179.1215 Y74.1873
X-179.0951 Y74.1423
X-179.0574 Y74.1062
X-179.0114 Y74.0817
X-178.9603 Y74.0707
X-178.9083 Y74.0739
X-178.859 Y74.0912
X-178.8163 Y74.1213
X-178.7835 Y74.1618
X-178.758 Y74.2039 Z-2.0935
X-178.7343 Y74.2431 Z-2.0745
X-178.7139 Y74.2768 Z-2.0444
X-178.6983 Y74.3026 Z-2.005
X-178.6885 Y74.3189 Z-1.9592
X-178.6852 Y74.3244 Z-1.91
G0 Z5
X-178.1913 Y-1.2122
Z-1.72
G1 Z-1.91 F3200
X-178.189 Y-1.2061 Z-1.9592
X-178.182 Y-1.1885 Z-2.005
X-178.1709 Y-1.1604 Z-2.0444
X-178.1564 Y-1.1238 Z-2.0745
X-178.1396 Y-1.0812 Z-2.0935
X-178.1215 Y-1.0355 Z-2.1
G3 X-178.0231 Y-0.2562 I-1.4718 J0.5817
G1 X-178.0332 Y-0.1936
X-178.0449 Y-0.0543
X-178.05 Y0.3635
X-178.0498 Y24.8753
X-178.0483 Y25.0146
X-178.0379 Y25.1538
X-178.0199 Y25.2931
X-177.9804 Y25.4324
X-177.9289 Y25.5716
X-177.8768 Y25.7123
X-177.8069 Y25.9846
X-177.7347 Y26.4024
X-177.6792 Y27.0131
X-177.6606 Y27.6261
X-177.6544 Y28.2394
X-177.6522 Y28.8527
X-177.6509 Y31.3058
X-177.6489 Y63.8421
X-177.6611 Y63.9455
X-177.6971 Y64.0433
X-177.755 Y64.1299
X-177.772 Y64.1498
X-177.8616 Y64.2891
X-177.9289 Y64.4284
X-177.9804 Y64.5676
X-178.0199 Y64.7069
X-178.0379 Y64.8462
X-178.0483 Y64.9855
X-178.0498 Y65.1247
X-178.05 Y73.9754
Y74.0099
Y74.0381
X-178.0575 Y74.1879
X-178.1337 Y74.3242
X-178.2593 Y74.4171
X-178.4119 Y74.45
X-178.463 Y74.4411
X-178.5098 Y74.4188
X-178.5488 Y74.3846
X-178.5772 Y74.3411
X-178.5927 Y74.2916
X-178.5942 Y74.2398
X-178.5817 Y74.1895
X-178.556 Y74.1444
X-178.3906 Y73.929
X-178.3539 Y73.8927
X-178.3088 Y73.8677
X-178.2586 Y73.8556
X-178.207 Y73.8576
X-178.1579 Y73.8733
X-178.1148 Y73.9017
X-178.0809 Y73.9406
X-178.0588 Y73.9872
X-178.05 Y74.0381
Y74.2408
X-178.0513 Y74.2725
X-178.0579 Y74.3042
X-178.0621 Y74.3166
X-178.072 Y74.3387
X-178.0856 Y74.3607
X-178.1041 Y74.3827
X-178.1297 Y74.4048
X-178.1635 Y74.4275
X-178.1804 Y74.4355
X-178.1973 Y74.4416
X-178.2147 Y74.4461
X-178.2321 Y74.4488
X-178.267 Y74.45
X-178.9527
X-179.0041 Y74.441
X-179.0511 Y74.4184
X-179.0902 Y74.3838
X-179.1185 Y74.3399
X-179.1337 Y74.29
X-179.1347 Y74.2378
X-179.1215 Y74.1873
X-179.0951 Y74.1423
X-179.0574 Y74.1062
X-179.0114 Y74.0817
X-178.9603 Y74.0707
X-178.9083 Y74.0739
X-178.859 Y74.0912
X-178.8163 Y74.1213
X-178.7835 Y74.1618
X-178.758 Y74.2039 Z-2.0935
X-178.7343 Y74.2431 Z-2.0745
X-178.7139 Y74.2768 Z-2.0444
X-178.6983 Y74.3026 Z-2.005
X-178.6885 Y74.3189 Z-1.9592
X-178.6852 Y74.3244 Z-1.91
G0 Z5
X-178.601 Y24.8715
Z-1.72
G1 Z-1.91 F3200
X-178.5957 Y24.8751 Z-1.9592
X-178.5801 Y24.8859 Z-2.005
X-178.5552 Y24.903 Z-2.0443
X-178.5228 Y24.9254 Z-2.0745
X-178.4851 Y24.9514 Z-2.0935
X-178.4446 Y24.9793 Z-2.1
G3 X-177.9289 Y25.5716 I-0.8983 J1.3029
G1 X-177.8616 Y25.7109
X-177.772 Y25.8502
X-177.6398 Y26.0044
X-177.5725 Y26.0747
X-177.5355 Y26.1044
X-177.4234 Y26.204
X-177.3383 Y26.3276
X-177.2668 Y26.4594
X-177.1964 Y26.6216
X-177.1232 Y26.8359
X-177.05 Y27.1243
X-176.9746 Y27.5675
X-176.9207 Y28.1784
X-176.9016 Y28.7914
X-176.8948 Y29.4047
X-176.8924 Y30.0179
X-176.891 Y31.8578
X-176.8889 Y63.135
X-176.8919 Y63.2705
X-176.9289 Y63.4384
X-177.0271 Y63.5797
X-177.1716 Y63.6729
X-177.2218 Y63.6928
X-177.3611 Y63.7667
X-177.5052 Y63.8713
X-177.5725 Y63.9253
X-177.6398 Y63.9957
X-177.755 Y64.1299
X-177.7952 Y64.1632
X-177.8429 Y64.1843
X-177.8946 Y64.1916
X-177.9463 Y64.1846
X-177.9942 Y64.1637
X-178.0346 Y64.1306
X-178.0644 Y64.0878
X-178.0815 Y64.0385
X-178.0845 Y63.9864
X-178.0732 Y63.9354
X-178.0485 Y63.8895
X-178.0122 Y63.852
X-177.9671 Y63.8258
X-177.9165 Y63.8128
X-177.8643 Y63.8141
X-177.8158 Y63.8221 Z-2.0935
X-177.7706 Y63.8295 Z-2.0745
X-177.7318 Y63.8359 Z-2.0444
X-177.702 Y63.8408 Z-2.005
X-177.6832 Y63.8438 Z-1.9592
X-177.6768 Y63.8449 Z-1.91
G0 Z5
X-178.4498 Y25.7785
Z-1.72
G1 Z-1.91 F3200
X-178.4434 Y25.7794 Z-1.9592
X-178.4246 Y25.7821 Z-2.005
X-178.3947 Y25.7863 Z-2.0444
X-178.3557 Y25.7918 Z-2.0745
X-178.3103 Y25.7982 Z-2.0935
X-178.2616 Y25.8051 Z-2.1
G3 X-177.5355 Y26.1044 I-0.2212 J1.567
G1 X-177.5005 Y26.1322
X-177.3611 Y26.2333
X-177.2218 Y26.3072
X-177.1451 Y26.3376
X-177.0086 Y26.3998
X-176.8887 Y26.4899
X-176.7841 Y26.5974
X-176.6933 Y26.7168
X-176.6138 Y26.844
X-176.5348 Y26.9977
X-176.448 Y27.2063
X-176.3661 Y27.4584
X-176.2841 Y27.8033
X-176.2039 Y28.3221
X-176.1593 Y28.9337
X-176.1419 Y29.5468
X-176.1352 Y30.16
X-176.1325 Y30.7733
X-176.1309 Y32.6131
X-176.1289 Y62.6638
X-176.1438 Y62.9235
X-176.1651 Y63.0769
X-176.2004 Y63.2365
X-176.203 Y63.2447
X-176.2633 Y63.3682
X-176.3585 Y63.4674
X-176.4795 Y63.5326
X-176.6147 Y63.5576
X-176.6643 Y63.5589
X-176.8037 Y63.5665
X-176.9431 Y63.5942
X-177.0824 Y63.6375
X-177.1716 Y63.6729
X-177.2227 Y63.6835
X-177.2747 Y63.6798
X-177.3238 Y63.6621
X-177.3663 Y63.6317
X-177.3988 Y63.5909
X-177.419 Y63.5428
X-177.4254 Y63.491
X-177.4175 Y63.4394
X-177.3958 Y63.392
X-177.362 Y63.3522
X-177.3186 Y63.3231
X-177.269 Y63.3069
X-177.2168 Y63.3049
X-177.1661 Y63.3171
X-177.1206 Y63.3426
X-177.0814 Y63.3723 Z-2.0935
X-177.0449 Y63.4 Z-2.0745
X-177.0136 Y63.4238 Z-2.0443
X-176.9895 Y63.4421 Z-2.005
X-176.9744 Y63.4536 Z-1.9592
X-176.9692 Y63.4575 Z-1.91
G0 Z5
X-178.1148 Y26.2954
Z-1.72
G1 Z-1.91 F3200
X-178.1084 Y26.2944 Z-1.9592
X-178.0897 Y26.2914 Z-2.005
X-178.0599 Y26.2866 Z-2.0444
X-178.021 Y26.2804 Z-2.0745
X-177.9757 Y26.2732 Z-2.0935
X-177.9272 Y26.2654 Z-2.1
G3 X-177.1451 Y26.3376 I0.2501 J1.5627
G1 X-177.0824 Y26.3625
X-176.9431 Y26.4058
X-176.8037 Y26.4335
X-176.7615 Y26.4358
X-176.6124 Y26.4514
X-176.4717 Y26.5035
X-176.3436 Y26.5815
X-176.2282 Y26.6774
X-176.1244 Y26.7857
X-176.0305 Y26.9063
X-175.9421 Y27.0409
X-175.8482 Y27.2125
X-175.7459 Y27.4412
X-175.6582 Y27.689
X-175.562 Y28.0511
X-175.4759 Y28.5256
X-175.4152 Y29.1359
X-175.3894 Y29.7486
X-175.3786 Y30.3618
X-175.374 Y30.9751
X-175.3721 Y31.5883
X-175.3708 Y34.0415
X-175.369 Y62.2523
X-175.3865 Y62.6355
X-175.4143 Y62.8542
X-175.4507 Y63.0279
X-175.4931 Y63.1718
X-175.5311 Y63.2686
X-175.6264 Y63.4162
X-175.7716 Y63.5152
X-175.9438 Y63.55
X-176.2462
X-176.3856 Y63.5513
X-176.6147 Y63.5576
X-176.6663 Y63.55
X-176.714 Y63.5287
X-176.754 Y63.4952
X-176.7834 Y63.452
X-176.8 Y63.4025
X-176.8024 Y63.3504
X-176.7906 Y63.2996
X-176.7654 Y63.2539
X-176.7287 Y63.2167
X-176.6833 Y63.191
X-176.6326 Y63.1786
X-176.5805 Y63.1804
X-176.5308 Y63.1964
X-176.4873 Y63.2253
X-176.4533 Y63.2649
X-176.4268 Y63.3063 Z-2.0935
X-176.402 Y63.3448 Z-2.0745
X-176.3807 Y63.3779 Z-2.0443
X-176.3644 Y63.4033 Z-2.005
X-176.3542 Y63.4193 Z-1.9592
X-176.3507 Y63.4248 Z-1.91
G0 Z5
X-177.6943 Y26.7042
Z-1.72
G1 Z-1.91 F3200
X-177.6886 Y26.7011 Z-1.9592
X-177.6718 Y26.6923 Z-2.005
X-177.645 Y26.6783 Z-2.0444
X-177.6101 Y26.6601 Z-2.0745
X-177.5695 Y26.6388 Z-2.0935
X-177.526 Y26.616 Z-2.1
G3 X-176.7615 Y26.4358 I0.734 J1.4021
G1 X-176.6643 Y26.4411
X-176.3856 Y26.4487
X-176.2462 Y26.45
X-176.0964 Y26.4575
X-175.9517 Y26.4969
X-175.8165 Y26.5618
X-175.6918 Y26.6453
X-175.5774 Y26.7422
X-175.4733 Y26.8503
X-175.3756 Y26.9703
X-175.2643 Y27.1319
X-175.164 Y27.3059
X-175.0495 Y27.5477
X-174.95 Y27.8104
X-174.8403 Y28.1892
X-174.7483 Y28.64
X-174.6743 Y29.2488
X-174.6395 Y29.8611
X-174.6236 Y30.4742
X-174.6164 Y31.0874
X-174.6132 Y31.7007
X-174.6112 Y32.9272
X-174.609 Y61.7514
X-174.62 Y62.2937
X-174.6545 Y62.6362
X-174.6969 Y62.8678
X-174.7501 Y63.0669
X-174.8016 Y63.2116
X-174.836 Y63.2882
X-174.9331 Y63.4262
X-175.0748 Y63.5179
X-175.2404 Y63.55
X-175.9438
X-175.9952 Y63.541
X-176.0423 Y63.5184
X-176.0814 Y63.4838
X-176.1096 Y63.4399
X-176.1248 Y63.39
X-176.1259 Y63.3378
X-176.1127 Y63.2873
X-176.0863 Y63.2423
X-176.0486 Y63.2062
X-176.0025 Y63.1817
X-175.9515 Y63.1707
X-175.8994 Y63.1739
X-175.8501 Y63.1912
X-175.8075 Y63.2213
X-175.7746 Y63.2618
X-175.7491 Y63.3039 Z-2.0935
X-175.7254 Y63.3431 Z-2.0745
X-175.7051 Y63.3768 Z-2.0444
X-175.6894 Y63.4026 Z-2.005
X-175.6796 Y63.4189 Z-1.9592
X-175.6763 Y63.4244 Z-1.91
G0 Z5
X-177.1631 Y26.7684
Z-1.72
G1 Z-1.91 F3200
X-177.1576 Y26.7651 Z-1.9592
X-177.1413 Y26.7554 Z-2.005
X-177.1153 Y26.74 Z-2.0444
X-177.0815 Y26.7199 Z-2.0745
X-177.0421 Y26.6965 Z-2.0935
X-176.9998 Y26.6713 Z-2.1
G3 X-176.2462 Y26.45 I0.8088 J1.3603
G1 X-175.6122
X-175.4624 Y26.4575
X-175.3187 Y26.5006
X-175.1835 Y26.5657
X-175.0577 Y26.6473
X-174.9414 Y26.7421
X-174.8339 Y26.8473
X-174.724 Y26.9738
X-174.6101 Y27.1284
X-174.4909 Y27.3207
X-174.3736 Y27.5491
X-174.2574 Y27.8288
X-174.142 Y28.1844
X-174.0372 Y28.6254
X-173.9437 Y29.2315
X-173.896 Y29.8429
X-173.8723 Y30.4558
X-173.8608 Y31.0689
X-173.8554 Y31.6822
X-173.8528 Y32.2955
X-173.8512 Y33.522
X-173.849 Y61.1196
X-173.8529 Y61.7328
X-173.8752 Y62.2488
X-173.922 Y62.6263
X-173.9743 Y62.8794
X-174.0316 Y63.0756
X-174.0903 Y63.2294
X-174.1228 Y63.2975
X-174.2206 Y63.4309
X-174.3605 Y63.5191
X-174.523 Y63.55
X-175.2404
X-175.2918 Y63.541
X-175.3389 Y63.5184
X-175.378 Y63.4838
X-175.4062 Y63.4399
X-175.4214 Y63.39
X-175.4225 Y63.3378
X-175.4093 Y63.2873
X-175.3829 Y63.2423
X-175.3452 Y63.2062
X-175.2991 Y63.1817
X-175.2481 Y63.1707
X-175.196 Y63.1739
X-175.1468 Y63.1912
X-175.1041 Y63.2213
X-175.0712 Y63.2618
X-175.0458 Y63.3039 Z-2.0935
X-175.0221 Y63.3431 Z-2.0745
X-175.0017 Y63.3768 Z-2.0444
X-174.9861 Y63.4026 Z-2.005
X-174.9763 Y63.4189 Z-1.9592
X-174.9729 Y63.4244 Z-1.91
G0 Z5
X-176.5291 Y26.7684
Z-1.72
G1 Z-1.91 F3200
X-176.5235 Y26.7651 Z-1.9592
X-176.5072 Y26.7554 Z-2.005
X-176.4812 Y26.74 Z-2.0444
X-176.4474 Y26.7199 Z-2.0745
X-176.408 Y26.6965 Z-2.0935
X-176.3657 Y26.6713 Z-2.1
G3 X-175.6122 Y26.45 I0.8088 J1.3603
G1 X-174.992
X-174.8422 Y26.4575
X-174.6967 Y26.494
X-174.5589 Y26.5532
X-174.4295 Y26.6291
X-174.3093 Y26.7189
X-174.1978 Y26.8192
X-174.0785 Y26.9456
X-173.9618 Y27.0912
X-173.8341 Y27.2797
X-173.712 Y27.4955
X-173.5846 Y27.7697
X-173.4609 Y28.1043
X-173.3433 Y28.5224
X-173.2339 Y29.0806
X-173.1645 Y29.6899
X-173.1279 Y30.3021
X-173.109 Y30.9151
X-173.0996 Y31.5283
X-173.0949 Y32.1416
X-173.0927 Y32.7549
X-173.0909 Y34.5947
X-173.0891 Y60.3524
X-173.0897 Y60.9657
X-173.0959 Y61.5789
X-173.1249 Y62.1752
X-173.1755 Y62.5662
X-173.2384 Y62.8623
X-173.2968 Y63.0583
X-173.3616 Y63.2256
X-173.3974 Y63.2996
X-173.4953 Y63.4319
X-173.6348 Y63.5194
X-173.7965 Y63.55
X-174.523
X-174.5744 Y63.541
X-174.6214 Y63.5184
X-174.6605 Y63.4838
X-174.6888 Y63.4399
X-174.704 Y63.39
X-174.705 Y63.3378
X-174.6918 Y63.2873
X-174.6654 Y63.2423
X-174.6277 Y63.2062
X-174.5817 Y63.1817
X-174.5306 Y63.1707
X-174.4785 Y63.1739
X-174.4293 Y63.1912
X-174.3866 Y63.2213
X-174.3537 Y63.2618
X-174.3283 Y63.3039 Z-2.0935
X-174.3046 Y63.3431 Z-2.0745
X-174.2842 Y63.3768 Z-2.0444
X-174.2686 Y63.4026 Z-2.005
X-174.2588 Y63.4189 Z-1.9592
X-174.2554 Y63.4244 Z-1.91
G0 Z5
X-175.9089 Y26.7684
Z-1.72
G1 Z-1.91 F3200
X-175.9033 Y26.7651 Z-1.9592
X-175.887 Y26.7554 Z-2.005
X-175.8611 Y26.74 Z-2.0444
X-175.8272 Y26.7199 Z-2.0745
X-175.7878 Y26.6965 Z-2.0935
X-175.7456 Y26.6713 Z-2.1
G3 X-174.992 Y26.45 I0.8088 J1.3603
G1 X-174.2952
X-174.1454 Y26.4575
X-174.001 Y26.4981
X-173.8642 Y26.5597
X-173.7359 Y26.6374
X-173.6158 Y26.7272
X-173.4937 Y26.8374
X-173.3771 Y26.9608
X-173.2437 Y27.1271
X-173.1206 Y27.3087
X-172.9795 Y27.5576
X-172.8554 Y27.8245
X-172.7173 Y28.1972
X-172.5951 Y28.6313
X-172.4822 Y29.2053
X-172.4126 Y29.8146
X-172.3739 Y30.4267
X-172.3529 Y31.0396
X-172.3419 Y31.6528
X-172.3362 Y32.266
X-172.3334 Y32.8793
X-172.3313 Y34.1058
X-172.3291 Y59.8636
X-172.3294 Y60.4768
X-172.3325 Y61.0901
X-172.3483 Y61.7032
X-172.388 Y62.2372
X-172.4499 Y62.6345
X-172.5149 Y62.9059
X-172.58 Y63.1054
X-172.6443 Y63.2594
X-172.6703 Y63.3098
X-172.7687 Y63.4371
X-172.9061 Y63.5208
X-173.0643 Y63.55
X-173.7965
X-173.848 Y63.541
X-173.895 Y63.5184
X-173.9341 Y63.4838
X-173.9623 Y63.4399
X-173.9776 Y63.39
X-173.9786 Y63.3378
X-173.9654 Y63.2873
X-173.939 Y63.2423
X-173.9013 Y63.2062
X-173.8552 Y63.1817
X-173.8042 Y63.1707
X-173.7521 Y63.1739
X-173.7029 Y63.1912
X-173.6602 Y63.2213
X-173.6273 Y63.2618
X-173.6019 Y63.3039 Z-2.0935
X-173.5782 Y63.3431 Z-2.0745
X-173.5578 Y63.3768 Z-2.0444
X-173.5422 Y63.4026 Z-2.005
X-173.5324 Y63.4189 Z-1.9592
X-173.529 Y63.4244 Z-1.91
G0 Z5
X-175.2121 Y26.7684
Z-1.72
G1 Z-1.91 F3200
X-175.2065 Y26.7651 Z-1.9592
X-175.1902 Y26.7554 Z-2.005
X-175.1643 Y26.74 Z-2.0444
X-175.1304 Y26.7199 Z-2.0745
X-175.0911 Y26.6965 Z-2.0935
X-175.0488 Y26.6713 Z-2.1
G3 X-174.2952 Y26.45 I0.8088 J1.3603
G1 X-173.6611
X-173.5113 Y26.4575
X-173.3644 Y26.4878
X-173.2241 Y26.5409
X-173.0916 Y26.6111
X-172.9677 Y26.6957
X-172.8516 Y26.7907
X-172.7243 Y26.9139
X-172.6027 Y27.0523
X-172.4616 Y27.2416
X-172.3318 Y27.4485
X-172.1885 Y27.7237
X-172.0527 Y28.0453
X-171.9192 Y28.4491
X-171.7926 Y28.9686
X-171.6957 Y29.5742
X-171.6396 Y30.1849
X-171.6078 Y30.7973
X-171.5902 Y31.4104
X-171.5808 Y32.0236
X-171.5758 Y32.6368
X-171.5732 Y33.2501
X-171.5713 Y34.4767
X-171.5692 Y59.6211
X-171.5695 Y60.2344
X-171.5726 Y60.8476
X-171.585 Y61.4608
X-171.6223 Y62.0717
X-171.6876 Y62.5302
X-171.7606 Y62.8541
X-171.8226 Y63.0533
X-171.8942 Y63.2312
X-171.9308 Y63.3046
X-172.029 Y63.4344
X-172.1674 Y63.5201
X-172.3275 Y63.55
X-173.0643
X-173.1157 Y63.541
X-173.1628 Y63.5184
X-173.2019 Y63.4838
X-173.2301 Y63.4399
X-173.2453 Y63.39
X-173.2464 Y63.3378
X-173.2332 Y63.2873
X-173.2068 Y63.2423
X-173.1691 Y63.2062
X-173.123 Y63.1817
X-173.072 Y63.1707
X-173.0199 Y63.1739
X-172.9706 Y63.1912
X-172.928 Y63.2213
X-172.8951 Y63.2618
X-172.8696 Y63.3039 Z-2.0935
X-172.8459 Y63.3431 Z-2.0745
X-172.8256 Y63.3768 Z-2.0443
X-172.81 Y63.4026 Z-2.005
X-172.8001 Y63.4189 Z-1.9592
X-172.7968 Y63.4244 Z-1.91
G0 Z5
X-174.578 Y26.7684
Z-1.72
G1 Z-1.91 F3200
X-174.5724 Y26.7651 Z-1.9592
X-174.5561 Y26.7554 Z-2.005
X-174.5302 Y26.74 Z-2.0444
X-174.4963 Y26.7199 Z-2.0745
X-174.457 Y26.6965 Z-2.0935
X-174.4147 Y26.6713 Z-2.1
G3 X-173.6611 Y26.45 I0.8088 J1.3603
G1 X-172.9643
X-172.8145 Y26.4575
X-172.6674 Y26.487
X-172.5269 Y26.5395
X-172.3941 Y26.6093
X-172.2692 Y26.6922
X-172.1442 Y26.7934
X-172.024 Y26.908
X-171.8857 Y27.0628
X-171.7563 Y27.2333
X-171.6067 Y27.4675
X-171.473 Y27.7192
X-171.323 Y28.0664
X-171.1848 Y28.473
X-171.0568 Y28.9804
X-170.9549 Y29.5852
X-170.8933 Y30.1954
X-170.8569 Y30.8076
X-170.8359 Y31.4205
X-170.8242 Y32.0336
X-170.8177 Y32.6469
X-170.8143 Y33.2602
X-170.8116 Y34.4867
X-170.8104 Y40.0062
X-170.8093 Y59.6311
X-170.8105 Y60.2444
X-170.8161 Y60.8577
X-170.8342 Y61.4707
X-170.8781 Y62.0824
X-170.9439 Y62.5265
X-171.0206 Y62.8576
X-171.0854 Y63.0616
X-171.1572 Y63.2371
X-171.1925 Y63.3069
X-171.2908 Y63.4356
X-171.4288 Y63.5204
X-171.5881 Y63.55
X-172.3275
X-172.3789 Y63.541
X-172.4259 Y63.5184
X-172.4651 Y63.4838
X-172.4933 Y63.4399
X-172.5085 Y63.39
X-172.5096 Y63.3378
X-172.4964 Y63.2873
X-172.4699 Y63.2423
X-172.4323 Y63.2062
X-172.3862 Y63.1817
X-172.3352 Y63.1707
X-172.2831 Y63.1739
X-172.2338 Y63.1912
X-172.1911 Y63.2213
X-172.1583 Y63.2618
X-172.1328 Y63.3039 Z-2.0935
X-172.1091 Y63.3431 Z-2.0745
X-172.0888 Y63.3768 Z-2.0443
X-172.0731 Y63.4026 Z-2.005
X-172.0633 Y63.4189 Z-1.9592
X-172.06 Y63.4244 Z-1.91
G0 Z5
X-173.8812 Y26.7684
Z-1.72
G1 Z-1.91 F3200
X-173.8756 Y26.7651 Z-1.9592
X-173.8593 Y26.7554 Z-2.005
X-173.8334 Y26.74 Z-2.0444
X-173.7996 Y26.7199 Z-2.0745
X-173.7602 Y26.6965 Z-2.0935
X-173.7179 Y26.6713 Z-2.1
G3 X-172.9643 Y26.45 I0.8088 J1.3603
G1 X-172.2048
X-172.055 Y26.4575
X-171.9102 Y26.4967
X-171.7722 Y26.5555
X-171.6422 Y26.6303
X-171.5197 Y26.7169
X-171.3922 Y26.8251
X-171.267 Y26.9498
X-171.1231 Y27.1183
X-170.987 Y27.3064
X-170.8365 Y27.554
X-170.6897 Y27.846
X-170.5456 Y28.2011
X-170.3979 Y28.6702
X-170.2672 Y29.2415
X-170.179 Y29.8483
X-170.1252 Y30.4593
X-170.0931 Y31.0717
X-170.0744 Y31.6847
X-170.0636 Y32.2979
X-170.0576 Y32.9111
X-170.0543 Y33.5244
X-170.0516 Y34.751
X-170.0504 Y40.2705
X-170.0493 Y59.2821
X-170.05 Y59.8954
X-170.0539 Y60.5087
X-170.0664 Y61.1218
X-170.0977 Y61.7343
X-170.1543 Y62.2708
X-170.2316 Y62.6832
X-170.3036 Y62.9475
X-170.3763 Y63.1491
X-170.4427 Y63.2952
X-170.4575 Y63.3219
X-170.5563 Y63.4431
X-170.6911 Y63.5224
X-170.8451 Y63.55
X-171.5881
X-171.6395 Y63.541
X-171.6865 Y63.5184
X-171.7256 Y63.4838
X-171.7539 Y63.4399
X-171.7691 Y63.39
X-171.7701 Y63.3378
X-171.7569 Y63.2873
X-171.7305 Y63.2423
X-171.6928 Y63.2062
X-171.6467 Y63.1817
X-171.5957 Y63.1707
X-171.5436 Y63.1739
X-171.4944 Y63.1912
X-171.4517 Y63.2213
X-171.4188 Y63.2618
X-171.3934 Y63.3039 Z-2.0935
X-171.3697 Y63.3431 Z-2.0745
X-171.3493 Y63.3768 Z-2.0443
X-171.3337 Y63.4026 Z-2.005
X-171.3239 Y63.4189 Z-1.9592
X-171.3205 Y63.4244 Z-1.91
G0 Z5
X-173.1217 Y26.7684
Z-1.72
G1 Z-1.91 F3200
X-173.1161 Y26.7651 Z-1.9592
X-173.0998 Y26.7554 Z-2.005
X-173.0739 Y26.74 Z-2.0444
X-173.04 Y26.7199 Z-2.0745
X-173.0007 Y26.6965 Z-2.0935
X-172.9584 Y26.6713 Z-2.1
G3 X-172.2048 Y26.45 I0.8088 J1.3603
G1 X-171.508
X-171.3582 Y26.4575
X-171.2124 Y26.4928
X-171.0733 Y26.549
X-170.9417 Y26.621
X-170.8181 Y26.7059
X-170.6968 Y26.805
X-170.5616 Y26.935
X-170.4282 Y27.0857
X-170.2818 Y27.2807
X-170.1363 Y27.5108
X-169.983 Y27.8027
X-169.8239 Y28.1756
X-169.6851 Y28.5903
X-169.5463 Y29.1515
X-169.4473 Y29.7567
X-169.3847 Y30.3668
X-169.3459 Y30.9789
X-169.3224 Y31.5917
X-169.3085 Y32.2048
X-169.3005 Y32.8181
X-169.296 Y33.4313
X-169.2935 Y34.0446
X-169.2914 Y35.2711
X-169.2901 Y44.4703
X-169.2894 Y59.189
X-169.2908 Y59.8023
X-169.2957 Y60.4156
X-169.3096 Y61.0287
X-169.3407 Y61.6412
X-169.4021 Y62.2382
X-169.4783 Y62.6502
X-169.5575 Y62.9442
X-169.6258 Y63.1352
X-169.6962 Y63.2911
X-169.7126 Y63.3208
X-169.8114 Y63.4426
X-169.9464 Y63.5223
X-170.1007 Y63.55
X-170.8451
X-170.8965 Y63.541
X-170.9435 Y63.5184
X-170.9826 Y63.4838
X-171.0109 Y63.4399
X-171.0261 Y63.39
X-171.0271 Y63.3378
X-171.014 Y63.2873
X-170.9875 Y63.2423
X-170.9499 Y63.2062
X-170.9038 Y63.1817
X-170.8528 Y63.1707
X-170.8007 Y63.1739
X-170.7514 Y63.1912
X-170.7087 Y63.2213
X-170.6759 Y63.2618
X-170.6504 Y63.3039 Z-2.0935
X-170.6267 Y63.3431 Z-2.0745
X-170.6063 Y63.3768 Z-2.0444
X-170.5907 Y63.4026 Z-2.005
X-170.5809 Y63.4189 Z-1.9592
X-170.5775 Y63.4244 Z-1.91
G0 Z5
X-172.4249 Y26.7684
Z-1.72
G1 Z-1.91 F3200
X-172.4193 Y26.7651 Z-1.9592
X-172.403 Y26.7554 Z-2.005
X-172.3771 Y26.74 Z-2.0444
X-172.3432 Y26.7199 Z-2.0745
X-172.3039 Y26.6965 Z-2.0935
X-172.2616 Y26.6713 Z-2.1
G3 X-171.508 Y26.45 I0.8088 J1.3603
G1 X-170.8112
X-170.6614 Y26.4575
X-170.5146 Y26.4882
X-170.3742 Y26.541
X-170.2411 Y26.6102
X-170.1157 Y26.6926
X-169.9923 Y26.7902
X-169.8593 Y26.9141
X-169.7227 Y27.0634
X-169.5734 Y27.2557
X-169.4232 Y27.4849
X-169.2736 Y27.7588
X-169.1076 Y28.1311
X-168.9687 Y28.525
X-168.8243 Y29.0708
X-168.7155 Y29.6743
X-168.6448 Y30.2835
X-168.5997 Y30.8952
X-168.5715 Y31.5078
X-168.5543 Y32.1208
X-168.5441 Y32.734
X-168.5381 Y33.3473
X-168.5347 Y33.9605
X-168.5318 Y35.1871
X-168.5305 Y38.8668
X-168.5293 Y58.4917
X-168.5297 Y59.105
X-168.5316 Y59.7182
X-168.5377 Y60.3315
X-168.5526 Y60.9446
X-168.5841 Y61.5571
X-168.6431 Y62.1663
X-168.7231 Y62.6135
X-168.8047 Y62.9236
X-168.8726 Y63.1171
X-168.9449 Y63.2799
X-168.9659 Y63.3185
X-169.0647 Y63.4414
X-169.2002 Y63.522
X-169.3553 Y63.55
X-170.1007
X-170.1521 Y63.541
X-170.1992 Y63.5184
X-170.2383 Y63.4838
X-170.2665 Y63.4399
X-170.2817 Y63.39
X-170.2828 Y63.3378
X-170.2696 Y63.2873
X-170.2432 Y63.2423
X-170.2055 Y63.2062
X-170.1594 Y63.1817
X-170.1084 Y63.1707
X-170.0563 Y63.1739
X-170.0071 Y63.1912
X-169.9644 Y63.2213
X-169.9315 Y63.2618
X-169.9061 Y63.3039 Z-2.0935
X-169.8823 Y63.3431 Z-2.0745
X-169.862 Y63.3768 Z-2.0444
X-169.8464 Y63.4026 Z-2.005
X-169.8365 Y63.4189 Z-1.9592
X-169.8332 Y63.4244 Z-1.91
G0 Z5
X-171.7281 Y26.7684
Z-1.72
G1 Z-1.91 F3200
X-171.7225 Y26.7651 Z-1.9592
X-171.7062 Y26.7554 Z-2.005
X-171.6803 Y26.74 Z-2.0444
X-171.6464 Y26.7199 Z-2.0745
X-171.6071 Y26.6965 Z-2.0935
X-171.5648 Y26.6713 Z-2.1
G3 X-170.8112 Y26.45 I0.8088 J1.3603
G1 X-170.0723
X-169.9225 Y26.4575
X-169.7762 Y26.491
X-169.6364 Y26.5454
X-169.5041 Y26.616
X-169.3791 Y26.6989
X-169.2482 Y26.8036
X-169.1202 Y26.9241
X-168.9739 Y27.0857
X-168.8288 Y27.2746
X-168.6676 Y27.5234
X-168.5236 Y27.7905
X-168.3597 Y28.1634
X-168.2062 Y28.6061
X-168.0644 Y29.1535
X-167.9588 Y29.7576
X-167.8892 Y30.3669
X-167.8438 Y30.9785
X-167.8149 Y31.5911
X-167.7968 Y32.2041
X-167.7858 Y32.8173
X-167.7793 Y33.4305
X-167.7755 Y34.0438
X-167.772 Y35.2704
X-167.7705 Y38.3368
X-167.7695 Y58.575
X-167.7704 Y59.1882
X-167.7738 Y59.8015
X-167.7826 Y60.4147
X-167.8021 Y61.0277
X-167.8397 Y61.6398
X-167.907 Y62.2494
X-167.9853 Y62.6578
X-168.066 Y62.95
X-168.1373 Y63.1454
X-168.2073 Y63.2978
X-168.2216 Y63.3233
X-168.3205 Y63.4438
X-168.4549 Y63.5226
X-168.6084 Y63.55
X-169.3553
X-169.4068 Y63.541
X-169.4538 Y63.5184
X-169.4929 Y63.4838
X-169.5211 Y63.4399
X-169.5364 Y63.39
X-169.5374 Y63.3378
X-169.5242 Y63.2873
X-169.4978 Y63.2423
X-169.4601 Y63.2062
X-169.414 Y63.1817
X-169.363 Y63.1707
X-169.3109 Y63.1739
X-169.2617 Y63.1912
X-169.219 Y63.2213
X-169.1861 Y63.2618
X-169.1607 Y63.3039 Z-2.0935
X-169.137 Y63.3431 Z-2.0745
X-169.1166 Y63.3768 Z-2.0443
X-169.101 Y63.4026 Z-2.005
X-169.0912 Y63.4189 Z-1.9592
X-169.0878 Y63.4244 Z-1.91
G0 Z5
X-170.9891 Y26.7684
Z-1.72
G1 Z-1.91 F3200
X-170.9836 Y26.7651 Z-1.9592
X-170.9673 Y26.7554 Z-2.005
X-170.9413 Y26.74 Z-2.0443
X-170.9075 Y26.7199 Z-2.0745
X-170.8681 Y26.6965 Z-2.0935
X-170.8258 Y26.6713 Z-2.1
G3 X-170.0723 Y26.45 I0.8088 J1.3603
G1 X-169.341
X-169.1912 Y26.4575
X-169.045 Y26.4911
X-168.9052 Y26.5456
X-168.7728 Y26.6161
X-168.6479 Y26.6991
X-168.5199 Y26.8007
X-168.3877 Y26.9243
X-168.2453 Y27.0806
X-168.0965 Y27.2729
X-167.9381 Y27.5156
X-167.785 Y27.7974
X-167.6146 Y28.1816
X-167.4681 Y28.5993
X-167.3201 Y29.1627
X-167.2125 Y29.7665
X-167.1403 Y30.3755
X-167.0924 Y30.9869
X-167.0611 Y31.5994
X-167.0412 Y32.2123
X-167.0287 Y32.8255
X-167.0212 Y33.4387
X-167.0166 Y34.052
X-167.014 Y34.6652
X-167.0116 Y35.8918
X-167.0103 Y40.798
X-167.0093 Y57.9698
X-167.0098 Y58.5831
X-167.0114 Y59.1964
X-167.016 Y59.8097
X-167.0269 Y60.4228
X-167.0491 Y61.0357
X-167.0897 Y61.6476
X-167.1585 Y62.2547
X-167.2395 Y62.6684
X-167.3212 Y62.9596
X-167.3922 Y63.1517
X-167.4626 Y63.3037
X-167.4746 Y63.3249
X-167.5735 Y63.4446
X-167.7077 Y63.5228
X-167.8605 Y63.55
X-168.6084
X-168.6598 Y63.541
X-168.7068 Y63.5184
X-168.7459 Y63.4838
X-168.7742 Y63.4399
X-168.7894 Y63.39
X-168.7904 Y63.3378
X-168.7773 Y63.2873
X-168.7508 Y63.2423
X-168.7131 Y63.2062
X-168.6671 Y63.1817
X-168.616 Y63.1707
X-168.5639 Y63.1739
X-168.5147 Y63.1912
X-168.472 Y63.2213
X-168.4391 Y63.2618
X-168.4137 Y63.3039 Z-2.0935
X-168.39 Y63.3431 Z-2.0745
X-168.3696 Y63.3768 Z-2.0443
X-168.354 Y63.4026 Z-2.005
X-168.3442 Y63.4189 Z-1.9592
X-168.3409 Y63.4244 Z-1.91
G0 Z5
X-170.2579 Y26.7684
Z-1.72
G1 Z-1.91 F3200
X-170.2523 Y26.7651 Z-1.9592
X-170.236 Y26.7554 Z-2.005
X-170.21 Y26.74 Z-2.0444
X-170.1762 Y26.7199 Z-2.0745
X-170.1368 Y26.6965 Z-2.0935
X-170.0945 Y26.6713 Z-2.1
G3 X-169.341 Y26.45 I0.8088 J1.3603
G1 X-168.6097
X-168.4599 Y26.4575
X-168.3136 Y26.4908
X-168.1738 Y26.5451
X-168.0412 Y26.6153
X-167.9161 Y26.698
X-167.7873 Y26.7999
X-167.6532 Y26.9248
X-167.5097 Y27.0818
X-167.357 Y27.2783
X-167.1971 Y27.5225
X-167.045 Y27.8013
X-166.8721 Y28.189
X-166.7234 Y28.611
X-166.5726 Y29.1813
X-166.4639 Y29.7849
X-166.3899 Y30.3937
X-166.34 Y31.0049
X-166.3069 Y31.6173
X-166.2854 Y32.2302
X-166.2716 Y32.8433
X-166.2631 Y33.4566
X-166.2579 Y34.0698
X-166.2548 Y34.6831
X-166.2519 Y35.9097
X-166.2504 Y39.5893
X-166.2495 Y57.9877
X-166.2503 Y58.601
X-166.2527 Y59.2142
X-166.2587 Y59.8275
X-166.2718 Y60.4406
X-166.2967 Y61.0534
X-166.3401 Y61.6651
X-166.4117 Y62.2721
X-166.4939 Y62.6824
X-166.5757 Y62.9692
X-166.6473 Y63.1603
X-166.7176 Y63.3101
X-166.727 Y63.3266
X-166.8259 Y63.4454
X-166.9597 Y63.523
X-167.1119 Y63.55
X-167.8605
X-167.912 Y63.541
X-167.959 Y63.5184
X-167.9981 Y63.4838
X-168.0263 Y63.4399
X-168.0415 Y63.39
X-168.0426 Y63.3378
X-168.0294 Y63.2873
X-168.003 Y63.2423
X-167.9653 Y63.2062
X-167.9192 Y63.1817
X-167.8682 Y63.1707
X-167.8161 Y63.1739
X-167.7669 Y63.1912
X-167.7242 Y63.2213
X-167.6913 Y63.2618
X-167.6659 Y63.3039 Z-2.0935
X-167.6422 Y63.3431 Z-2.0745
X-167.6218 Y63.3768 Z-2.0444
X-167.6062 Y63.4026 Z-2.005
X-167.5964 Y63.4189 Z-1.9592
X-167.593 Y63.4244 Z-1.91
G0 Z5
X-169.5266 Y26.7684
Z-1.72
G1 Z-1.91 F3200
X-169.521 Y26.7651 Z-1.9592
X-169.5047 Y26.7554 Z-2.005
X-169.4787 Y26.74 Z-2.0444
X-169.4449 Y26.7199 Z-2.0745
X-169.4055 Y26.6965 Z-2.0935
X-169.3633 Y26.6713 Z-2.1
G3 X-168.6097 Y26.45 I0.8088 J1.3603
G1 X-167.8847
X-167.7348 Y26.4575
X-167.5882 Y26.4891
X-167.4478 Y26.542
X-167.3146 Y26.6109
X-167.1889 Y26.6927
X-167.0618 Y26.7916
X-166.9262 Y26.9158
X-166.7846 Y27.0681
X-166.6294 Y27.2645
X-166.4721 Y27.5005
X-166.3158 Y27.7814
X-166.1399 Y28.1673
X-165.9925 Y28.5748
X-165.8374 Y29.1425
X-165.7237 Y29.7451
X-165.6453 Y30.3534
X-165.5917 Y30.9643
X-165.5555 Y31.5765
X-165.5314 Y32.1893
X-165.5158 Y32.8024
X-165.5059 Y33.4156
X-165.4997 Y34.0289
X-165.4959 Y34.6421
X-165.4923 Y35.8687
X-165.4906 Y38.3218
X-165.4897 Y57.9467
X-165.4908 Y58.56
X-165.4938 Y59.1733
X-165.5008 Y59.7865
X-165.515 Y60.3996
X-165.5409 Y61.0124
X-165.5845 Y61.6241
X-165.6549 Y62.2333
X-165.7404 Y62.6664
X-165.8239 Y62.9618
X-165.8947 Y63.1522
X-165.9661 Y63.3055
X-165.9775 Y63.3256
X-166.0764 Y63.4449
X-166.2104 Y63.5229
X-166.363 Y63.55
X-167.1119
X-167.1634 Y63.541
X-167.2104 Y63.5184
X-167.2495 Y63.4838
X-167.2777 Y63.4399
X-167.2929 Y63.39
X-167.294 Y63.3378
X-167.2808 Y63.2873
X-167.2544 Y63.2423
X-167.2167 Y63.2062
X-167.1706 Y63.1817
X-167.1196 Y63.1707
X-167.0675 Y63.1739
X-167.0183 Y63.1912
X-166.9756 Y63.2213
X-166.9427 Y63.2618
X-166.9173 Y63.3039 Z-2.0935
X-166.8936 Y63.3431 Z-2.0745
X-166.8732 Y63.3768 Z-2.0444
X-166.8576 Y63.4026 Z-2.005
X-166.8478 Y63.4189 Z-1.9592
X-166.8444 Y63.4244 Z-1.91
G0 Z5
X-168.8015 Y26.7684
Z-1.72
G1 Z-1.91 F3200
X-168.796 Y26.7651 Z-1.9592
X-168.7797 Y26.7554 Z-2.005
X-168.7537 Y26.74 Z-2.0444
X-168.7199 Y26.7199 Z-2.0745
X-168.6805 Y26.6965 Z-2.0935
X-168.6382 Y26.6713 Z-2.1
G3 X-167.8847 Y26.45 I0.8088 J1.3603
G1 X-167.1112
X-166.9614 Y26.4575
X-166.8164 Y26.4959
X-166.6778 Y26.5533
X-166.5466 Y26.626
X-166.4225 Y26.7103
X-166.2861 Y26.8211
X-166.1542 Y26.947
X-166.0006 Y27.1193
X-165.8504 Y27.3179
X-165.6821 Y27.582
X-165.5302 Y27.8687
X-165.3597 Y28.2646
X-165.1943 Y28.7535
X-165.0449 Y29.3483
X-164.9429 Y29.9531
X-164.8727 Y30.5623
X-164.8243 Y31.1737
X-164.7913 Y31.7861
X-164.7692 Y32.3989
X-164.7547 Y33.012
X-164.7453 Y33.6253
X-164.7395 Y34.2385
X-164.7358 Y34.8518
X-164.7323 Y36.0783
X-164.7306 Y38.5314
X-164.7295 Y57.5431
X-164.7302 Y58.1564
X-164.7323 Y58.7696
X-164.7372 Y59.3829
X-164.7475 Y59.9961
X-164.7667 Y60.6091
X-164.7995 Y61.2215
X-164.8525 Y61.8325
X-164.9306 Y62.385
X-165.0193 Y62.78
X-165.0932 Y63.018
X-165.1693 Y63.2078
X-165.2173 Y63.3042
X-165.3154 Y63.4342
X-165.454 Y63.5201
X-165.6142 Y63.55
X-166.363
X-166.4144 Y63.541
X-166.4614 Y63.5184
X-166.5005 Y63.4838
X-166.5288 Y63.4399
X-166.544 Y63.39
X-166.545 Y63.3378
X-166.5319 Y63.2873
X-166.5054 Y63.2423
X-166.4678 Y63.2062
X-166.4217 Y63.1817
X-166.3707 Y63.1707
X-166.3186 Y63.1739
X-166.2693 Y63.1912
X-166.2266 Y63.2213
X-166.1938 Y63.2618
X-166.1683 Y63.3039 Z-2.0935
X-166.1446 Y63.3431 Z-2.0745
X-166.1242 Y63.3768 Z-2.0443
X-166.1086 Y63.4026 Z-2.005
X-166.0988 Y63.4189 Z-1.9592
X-166.0955 Y63.4244 Z-1.91
G0 Z5
X-168.0281 Y26.7684
Z-1.72
G1 Z-1.91 F3200
X-168.0225 Y26.7651 Z-1.9592
X-168.0062 Y26.7554 Z-2.005
X-167.9803 Y26.74 Z-2.0444
X-167.9464 Y26.7199 Z-2.0745
X-167.907 Y26.6965 Z-2.0935
X-167.8648 Y26.6713 Z-2.1
G3 X-167.1112 Y26.45 I0.8088 J1.3603
G1 X-166.4144
X-166.2646 Y26.4575
X-166.1178 Y26.4881
X-165.977 Y26.5399
X-165.8431 Y26.6075
X-165.7169 Y26.6887
X-165.5951 Y26.7817
X-165.4528 Y26.9098
X-165.3181 Y27.0521
X-165.1568 Y27.2526
X-165.0086 Y27.4704
X-164.8338 Y27.778
X-164.6739 Y28.1208
X-164.5068 Y28.5699
X-164.3473 Y29.1333
X-164.2282 Y29.7349
X-164.1454 Y30.3426
X-164.0877 Y30.9531
X-164.0479 Y31.5651
X-164.0207 Y32.1778
X-164.0025 Y32.7908
X-163.9906 Y33.404
X-163.9828 Y34.0172
X-163.978 Y34.6305
X-163.975 Y35.2437
X-163.972 Y36.4703
X-163.9705 Y39.5367
X-163.9696 Y57.3218
X-163.9702 Y57.935
X-163.9721 Y58.5483
X-163.9764 Y59.1616
X-163.9854 Y59.7748
X-164.0021 Y60.3879
X-164.0302 Y61.0005
X-164.0752 Y61.6121
X-164.1475 Y62.2187
X-164.2388 Y62.6717
X-164.319 Y62.9513
X-164.3978 Y63.1609
X-164.466 Y63.3057
X-164.4782 Y63.3271
X-164.5772 Y63.4457
X-164.7108 Y63.5231
X-164.8629 Y63.55
X-165.6142
X-165.6656 Y63.541
X-165.7126 Y63.5184
X-165.7517 Y63.4838
X-165.7799 Y63.4399
X-165.7952 Y63.39
X-165.7962 Y63.3378
X-165.783 Y63.2873
X-165.7566 Y63.2423
X-165.7189 Y63.2062
X-165.6728 Y63.1817
X-165.6218 Y63.1707
X-165.5697 Y63.1739
X-165.5205 Y63.1912
X-165.4778 Y63.2213
X-165.4449 Y63.2618
X-165.4195 Y63.3039 Z-2.0935
X-165.3958 Y63.3431 Z-2.0745
X-165.3754 Y63.3768 Z-2.0443
X-165.3598 Y63.4026 Z-2.005
X-165.35 Y63.4189 Z-1.9592
X-165.3466 Y63.4244 Z-1.91
G0 Z5
X-167.3313 Y26.7684
Z-1.72
G1 Z-1.91 F3200
X-167.3257 Y26.7651 Z-1.9592
X-167.3094 Y26.7554 Z-2.005
X-167.2835 Y26.74 Z-2.0444
X-167.2496 Y26.7199 Z-2.0745
X-167.2103 Y26.6965 Z-2.0935
X-167.168 Y26.6713 Z-2.1
G3 X-166.4144 Y26.45 I0.8088 J1.3603
G1 X-165.6549
X-165.5051 Y26.4575
X-165.359 Y26.4917
X-165.2191 Y26.5457
X-165.0865 Y26.6158
X-164.9609 Y26.6979
X-164.8252 Y26.8049
X-164.6907 Y26.9296
X-164.5378 Y27.0962
X-164.3915 Y27.2839
X-164.2194 Y27.5454
X-164.0655 Y27.826
X-163.8887 Y28.2208
X-163.7208 Y28.6941
X-163.5654 Y29.2772
X-163.4554 Y29.8805
X-163.3783 Y30.489
X-163.324 Y31.0998
X-163.2861 Y31.7119
X-163.2601 Y32.3247
X-163.2424 Y32.9377
X-163.2307 Y33.5508
X-163.2231 Y34.1641
X-163.2182 Y34.7773
X-163.2152 Y35.3906
X-163.2121 Y36.6172
X-163.2105 Y39.6836
X-163.2095 Y56.8554
X-163.211 Y58.0819
X-163.2139 Y58.6952
X-163.22 Y59.3084
X-163.2317 Y59.9216
X-163.252 Y60.5346
X-163.2851 Y61.1469
X-163.3376 Y61.758
X-163.419 Y62.3477
X-163.5077 Y62.7493
X-163.5866 Y63.0064
X-163.6624 Y63.1972
X-163.7146 Y63.3029
X-163.8127 Y63.4336
X-163.9515 Y63.5199
X-164.1121 Y63.55
X-164.8629
X-164.9143 Y63.541
X-164.9614 Y63.5184
X-165.0005 Y63.4838
X-165.0287 Y63.4399
X-165.0439 Y63.39
X-165.0449 Y63.3378
X-165.0318 Y63.2873
X-165.0053 Y63.2423
X-164.9677 Y63.2062
X-164.9216 Y63.1817
X-164.8706 Y63.1707
X-164.8185 Y63.1739
X-164.7692 Y63.1912
X-164.7266 Y63.2213
X-164.6937 Y63.2618
X-164.6682 Y63.3039 Z-2.0935
X-164.6445 Y63.3431 Z-2.0745
X-164.6242 Y63.3768 Z-2.0444
X-164.6085 Y63.4026 Z-2.005
X-164.5987 Y63.4189 Z-1.9592
X-164.5954 Y63.4244 Z-1.91
G0 Z5
X-166.5718 Y26.7684
Z-1.72
G1 Z-1.91 F3200
X-166.5662 Y26.7651 Z-1.9592
X-166.5499 Y26.7554 Z-2.005
X-166.524 Y26.74 Z-2.0443
X-166.4901 Y26.7199 Z-2.0745
X-166.4507 Y26.6965 Z-2.0935
X-166.4085 Y26.6713 Z-2.1
G3 X-165.6549 Y26.45 I0.8088 J1.3603
G1 X-164.9159
X-164.7661 Y26.4575
X-164.6199 Y26.4907
X-164.4799 Y26.5446
X-164.347 Y26.6142
X-164.2215 Y26.6963
X-164.0936 Y26.7959
X-163.954 Y26.9238
X-163.8114 Y27.0772
X-163.6516 Y27.2797
X-163.4928 Y27.5179
X-163.3243 Y27.8208
X-163.1439 Y28.2168
X-162.9889 Y28.6457
X-162.8273 Y29.2373
X-162.7135 Y29.8399
X-162.6326 Y30.4478
X-162.5752 Y31.0584
X-162.5347 Y31.6704
X-162.5064 Y32.283
X-162.487 Y32.896
X-162.474 Y33.5091
X-162.4653 Y34.1223
X-162.4597 Y34.7356
X-162.4562 Y35.3488
X-162.4525 Y36.5754
X-162.4506 Y39.0285
X-162.4496 Y56.8136
X-162.4516 Y58.0402
X-162.4549 Y58.6534
X-162.4616 Y59.2667
X-162.474 Y59.8798
X-162.4949 Y60.4927
X-162.5285 Y61.1051
X-162.5809 Y61.7161
X-162.661 Y62.3153
X-162.7501 Y62.7265
X-162.8287 Y62.9867
X-162.909 Y63.1914
X-162.975 Y63.3263
X-162.9787 Y63.3326
X-163.0777 Y63.4484
X-163.21 Y63.5238
X-163.3601 Y63.55
X-164.1121
X-164.1636 Y63.541
X-164.2106 Y63.5184
X-164.2497 Y63.4838
X-164.2779 Y63.4399
X-164.2931 Y63.39
X-164.2942 Y63.3378
X-164.281 Y63.2873
X-164.2546 Y63.2423
X-164.2169 Y63.2062
X-164.1708 Y63.1817
X-164.1198 Y63.1706
X-164.0677 Y63.1739
X-164.0185 Y63.1912
X-163.9758 Y63.2213
X-163.9429 Y63.2618
X-163.9175 Y63.3039 Z-2.0935
X-163.8938 Y63.3431 Z-2.0745
X-163.8734 Y63.3768 Z-2.0443
X-163.8578 Y63.4026 Z-2.005
X-163.848 Y63.4189 Z-1.9592
X-163.8446 Y63.4244 Z-1.91
G0 Z5
X-165.8328 Y26.7684
Z-1.72
G1 Z-1.91 F3200
X-165.8273 Y26.7651 Z-1.9592
X-165.8109 Y26.7554 Z-2.005
X-165.785 Y26.74 Z-2.0444
X-165.7512 Y26.7199 Z-2.0745
X-165.7118 Y26.6965 Z-2.0935
X-165.6695 Y26.6713 Z-2.1
G3 X-164.9159 Y26.45 I0.8088 J1.3603
G1 X-164.1847
X-164.0348 Y26.4575
X-163.8881 Y26.4887
X-163.7476 Y26.5411
X-163.614 Y26.6094
X-163.4878 Y26.6904
X-163.3592 Y26.7893
X-163.2185 Y26.9167
X-163.0749 Y27.0695
X-162.9133 Y27.2718
X-162.7529 Y27.5093
X-162.5895 Y27.799
X-162.4069 Y28.1939
X-162.2519 Y28.6147
X-162.0873 Y29.2039
X-161.9702 Y29.8059
X-161.8862 Y30.4134
X-161.826 Y31.0237
X-161.7831 Y31.6355
X-161.7528 Y32.248
X-161.7317 Y32.861
X-161.7174 Y33.4741
X-161.7077 Y34.0873
X-161.7014 Y34.7005
X-161.6973 Y35.3138
X-161.693 Y36.5403
X-161.6909 Y38.3802
X-161.6897 Y56.7785
X-161.6904 Y57.3918
X-161.6922 Y58.0051
X-161.696 Y58.6184
X-161.7033 Y59.2316
X-161.7164 Y59.8447
X-161.738 Y60.4576
X-161.7721 Y61.07
X-161.8244 Y61.681
X-161.904 Y62.2891
X-161.9937 Y62.7093
X-162.0783 Y62.9921
X-162.1512 Y63.1794
X-162.2254 Y63.3314
X-162.3244 Y63.4478
X-162.457 Y63.5237
X-162.6076 Y63.55
X-163.3601
X-163.4115 Y63.541
X-163.4586 Y63.5184
X-163.4977 Y63.4838
X-163.5259 Y63.4399
X-163.5411 Y63.39
X-163.5422 Y63.3378
X-163.529 Y63.2873
X-163.5026 Y63.2423
X-163.4649 Y63.2062
X-163.4188 Y63.1817
X-163.3678 Y63.1706
X-163.3157 Y63.1739
X-163.2664 Y63.1912
X-163.2238 Y63.2213
X-163.1909 Y63.2618
X-163.1654 Y63.3039 Z-2.0935
X-163.1417 Y63.3431 Z-2.0745
X-163.1214 Y63.3768 Z-2.0443
X-163.1058 Y63.4026 Z-2.005
X-163.0959 Y63.4189 Z-1.9592
X-163.0926 Y63.4244 Z-1.91
G0 Z5
X-165.1015 Y26.7684
Z-1.72
G1 Z-1.91 F3200
X-165.096 Y26.7651 Z-1.9592
X-165.0797 Y26.7554 Z-2.005
X-165.0537 Y26.74 Z-2.0443
X-165.0199 Y26.7199 Z-2.0745
X-164.9805 Y26.6965 Z-2.0935
X-164.9382 Y26.6713 Z-2.1
G3 X-164.1847 Y26.45 I0.8088 J1.3603
G1 X-163.4251
X-163.2753 Y26.4575
X-163.1293 Y26.4918
X-162.9895 Y26.5461
X-162.8568 Y26.616
X-162.7312 Y26.698
X-162.598 Y26.8021
X-162.4607 Y26.9285
X-162.3112 Y27.0901
X-162.1529 Y27.2915
X-161.9842 Y27.5456
X-161.8268 Y27.8301
X-161.6436 Y28.2347
X-161.4823 Y28.6837
X-161.322 Y29.2757
X-161.2084 Y29.8783
X-161.1266 Y30.4861
X-161.0674 Y31.0965
X-161.0248 Y31.7083
X-160.9946 Y32.3209
X-160.9734 Y32.9338
X-160.9587 Y33.5469
X-160.9488 Y34.1601
X-160.9422 Y34.7733
X-160.9378 Y35.3866
X-160.935 Y35.9999
X-160.9321 Y37.2264
X-160.9305 Y40.2928
X-160.9296 Y56.2381
X-160.931 Y57.4646
X-160.9333 Y58.0779
X-160.9381 Y58.6912
X-160.9469 Y59.3044
X-160.9619 Y59.9175
X-160.9861 Y60.5303
X-161.0233 Y61.1424
X-161.0795 Y61.7531
X-161.1639 Y62.355
X-161.2522 Y62.7502
X-161.3335 Y63.013
X-161.4085 Y63.2008
X-161.4596 Y63.3038
X-161.5578 Y63.434
X-161.6964 Y63.52
X-161.8567 Y63.55
X-162.6076
X-162.659 Y63.541
X-162.706 Y63.5184
X-162.7451 Y63.4838
X-162.7733 Y63.4399
X-162.7886 Y63.39
X-162.7896 Y63.3378
X-162.7764 Y63.2873
X-162.75 Y63.2423
X-162.7123 Y63.2062
X-162.6662 Y63.1817
X-162.6152 Y63.1706
X-162.5631 Y63.1739
X-162.5139 Y63.1912
X-162.4712 Y63.2213
X-162.4383 Y63.2618
X-162.4129 Y63.3039 Z-2.0935
X-162.3892 Y63.3431 Z-2.0745
X-162.3688 Y63.3768 Z-2.0443
X-162.3532 Y63.4026 Z-2.005
X-162.3434 Y63.4189 Z-1.9592
X-162.34 Y63.4244 Z-1.91
G0 Z5
X-164.342 Y26.7684
Z-1.72
G1 Z-1.91 F3200
X-164.3365 Y26.7651 Z-1.9592
X-164.3201 Y26.7554 Z-2.005
X-164.2942 Y26.74 Z-2.0444
X-164.2604 Y26.7199 Z-2.0745
X-164.221 Y26.6965 Z-2.0935
X-164.1787 Y26.6713 Z-2.1
G3 X-163.4251 Y26.45 I0.8088 J1.3603
G1 X-162.6862
X-162.5364 Y26.4575
X-162.39 Y26.4903
X-162.2499 Y26.5438
X-162.1168 Y26.613
X-161.9909 Y26.6946
X-161.8627 Y26.7936
X-161.7215 Y26.9219
X-161.5784 Y27.0746
X-161.415 Y27.2797
X-161.2554 Y27.5171
X-161.0875 Y27.8159
X-160.9057 Y28.2107
X-160.7468 Y28.6445
X-160.5827 Y29.2354
X-160.4655 Y29.8374
X-160.3804 Y30.4447
X-160.3185 Y31.0549
X-160.2735 Y31.6665
X-160.2413 Y32.2789
X-160.2184 Y32.8918
X-160.2024 Y33.5049
X-160.1914 Y34.1181
X-160.184 Y34.7313
X-160.1791 Y35.3445
X-160.1759 Y35.9578
X-160.1725 Y37.1844
X-160.1706 Y39.6375
X-160.1696 Y56.196
X-160.1714 Y57.4226
X-160.1741 Y58.0358
X-160.1793 Y58.6491
X-160.1886 Y59.2623
X-160.2041 Y59.8754
X-160.2287 Y60.4882
X-160.266 Y61.1003
X-160.3215 Y61.7111
X-160.4032 Y62.313
X-160.4943 Y62.7299
X-160.5734 Y62.9895
X-160.654 Y63.1938
X-160.7229 Y63.3333
X-160.8219 Y63.4487
X-160.9541 Y63.5239
X-161.1039 Y63.55
X-161.8567
X-161.9082 Y63.541
X-161.9552 Y63.5184
X-161.9943 Y63.4838
X-162.0225 Y63.4399
X-162.0377 Y63.39
X-162.0388 Y63.3378
X-162.0256 Y63.2873
X-161.9992 Y63.2423
X-161.9615 Y63.2062
X-161.9154 Y63.1817
X-161.8644 Y63.1707
X-161.8123 Y63.1739
X-161.7631 Y63.1912
X-161.7204 Y63.2213
X-161.6875 Y63.2618
X-161.6621 Y63.3039 Z-2.0935
X-161.6384 Y63.3431 Z-2.0745
X-161.618 Y63.3768 Z-2.0444
X-161.6024 Y63.4026 Z-2.005
X-161.5926 Y63.4189 Z-1.9592
X-161.5892 Y63.4244 Z-1.91
G0 Z5
X-163.6031 Y26.7684
Z-1.72
G1 Z-1.91 F3200
X-163.5975 Y26.7651 Z-1.9592
X-163.5812 Y26.7554 Z-2.005
X-163.5552 Y26.74 Z-2.0444
X-163.5214 Y26.7199 Z-2.0745
X-163.482 Y26.6965 Z-2.0935
X-163.4398 Y26.6713 Z-2.1
G3 X-162.6862 Y26.45 I0.8088 J1.3603
G1 X-161.9549
X-161.8051 Y26.4575
X-161.6582 Y26.4877
X-161.5173 Y26.5392
X-161.3833 Y26.6067
X-161.2567 Y26.6871
X-161.1281 Y26.7847
X-160.9871 Y26.911
X-160.8434 Y27.0621
X-160.6811 Y27.2629
X-160.5204 Y27.4979
X-160.3547 Y27.7878
X-160.1713 Y28.1785
X-160.0122 Y28.6032
X-159.8438 Y29.1929
X-159.7228 Y29.7941
X-159.6345 Y30.401
X-159.5699 Y31.0109
X-159.5226 Y31.6224
X-159.4883 Y32.2347
X-159.4637 Y32.8475
X-159.4464 Y33.4605
X-159.4343 Y34.0737
X-159.4261 Y34.6869
X-159.4205 Y35.3001
X-159.4169 Y35.9134
X-159.4129 Y37.1399
X-159.4107 Y39.5931
X-159.4097 Y56.1516
X-159.4118 Y57.3781
X-159.4148 Y57.9914
X-159.4204 Y58.6047
X-159.4302 Y59.2179
X-159.4462 Y59.8309
X-159.471 Y60.4437
X-159.5083 Y61.0559
X-159.563 Y61.6667
X-159.6434 Y62.2747
X-159.735 Y62.7041
X-159.8207 Y62.9904
X-159.8936 Y63.1777
X-159.9653 Y63.3258
X-159.9687 Y63.3314
X-160.0677 Y63.4478
X-160.2003 Y63.5237
X-160.3508 Y63.55
X-161.1039
X-161.1554 Y63.541
X-161.2024 Y63.5184
X-161.2415 Y63.4838
X-161.2697 Y63.4399
X-161.285 Y63.39
X-161.286 Y63.3378
X-161.2728 Y63.2873
X-161.2464 Y63.2423
X-161.2087 Y63.2062
X-161.1626 Y63.1817
X-161.1116 Y63.1707
X-161.0595 Y63.1739
X-161.0103 Y63.1912
X-160.9676 Y63.2213
X-160.9347 Y63.2618
X-160.9093 Y63.3039 Z-2.0935
X-160.8856 Y63.3431 Z-2.0745
X-160.8652 Y63.3768 Z-2.0443
X-160.8496 Y63.4026 Z-2.005
X-160.8398 Y63.4189 Z-1.9592
X-160.8364 Y63.4244 Z-1.91
G0 Z5
X-162.8718 Y26.7684
Z-1.72
G1 Z-1.91 F3200
X-162.8662 Y26.7651 Z-1.9592
X-162.8499 Y26.7554 Z-2.005
X-162.8239 Y26.74 Z-2.0444
X-162.7901 Y26.7199 Z-2.0745
X-162.7507 Y26.6965 Z-2.0935
X-162.7085 Y26.6713 Z-2.1
G3 X-161.9549 Y26.45 I0.8088 J1.3603
G1 X-161.1954
X-161.0456 Y26.4575
X-160.8992 Y26.4903
X-160.7589 Y26.5434
X-160.6257 Y26.6124
X-160.4995 Y26.6935
X-160.3658 Y26.7968
X-160.2289 Y26.9213
X-160.0785 Y27.0819
X-159.9205 Y27.2805
X-159.7505 Y27.5334
X-159.5916 Y27.8165
X-159.406 Y28.2201
X-159.2415 Y28.6696
X-159.0777 Y29.2606
X-159.0686 Y29.3118
X-159.0659 Y29.3401
X-159.065 Y29.3686
X-159.074 Y29.4202
X-159.0968 Y29.4674
X-159.1315 Y29.5065
X-159.1757 Y29.5347
X-159.2259 Y29.5497
X-159.2782 Y29.5505
X-159.3288 Y29.537
X-159.3738 Y29.5101
X-159.4097 Y29.472
X-159.5907 Y29.2173
X-161.1257 Y27.0566
X-161.3436 Y26.7499
X-161.3673 Y26.7048
X-161.3782 Y26.6549
X-161.3753 Y26.604
X-161.3591 Y26.5557
X-161.3306 Y26.5134
X-161.2918 Y26.4803
X-161.2457 Y26.4586
X-161.1954 Y26.45
X-160.4219
X-160.2721 Y26.4575
X-160.1268 Y26.4949
X-159.9879 Y26.5513
X-159.8561 Y26.6229
X-159.7314 Y26.7063
X-159.5968 Y26.813
X-159.4579 Y26.9427
X-159.3067 Y27.1085
X-159.1462 Y27.3158
X-159.1371 Y27.3297
X-159.0975 Y27.4054
X-159.0732 Y27.4872
X-159.065 Y27.5722
X-159.074 Y27.6237
X-159.0967 Y27.6708
X-159.1314 Y27.7099
X-159.1754 Y27.7381
X-159.2255 Y27.7533
X-159.2778 Y27.7541
X-159.3283 Y27.7407
X-159.3733 Y27.7141
X-159.6592 Y27.4861
X-160.2812 Y26.9899
X-160.5338 Y26.7884
X-160.5692 Y26.7514
X-160.5933 Y26.7062
X-160.6046 Y26.6563
X-160.6021 Y26.6051
X-160.586 Y26.5565
X-160.5576 Y26.5139
X-160.5187 Y26.4805
X-160.4724 Y26.4587
X-160.4219 Y26.45
X-159.7251
X-159.5753 Y26.4575
X-159.428 Y26.4857
X-159.3611 Y26.5093
X-159.2063 Y26.6028
X-159.1018 Y26.7504
X-159.065 Y26.9274
X-159.073 Y26.976
X-159.0934 Y27.0209
X-159.1245 Y27.0591
X-159.1645 Y27.0879
X-159.2105 Y27.1056
X-159.2595 Y27.1107
X-159.3082 Y27.1032
X-159.3533 Y27.0833
X-159.5616 Y26.9571
X-159.817 Y26.8024
X-159.8586 Y26.7682
X-159.889 Y26.7237
X-159.9057 Y26.6724
X-159.9073 Y26.6185
X-159.8937 Y26.5664
X-159.866 Y26.5201
X-159.8265 Y26.4835
X-159.7782 Y26.4595
X-159.7251 Y26.45
X-159.3837
X-159.2444 Y26.4513
X-159.2269 Y26.4542
X-159.2095 Y26.4587
X-159.1921 Y26.4652
X-159.1747 Y26.4737
X-159.1572 Y26.4845
X-159.1398 Y26.4984
X-159.1199 Y26.5191
X-159.1006 Y26.5465
X-159.081 Y26.5814
X-159.0744 Y26.5988
X-159.0696 Y26.6162
X-159.0665 Y26.6336
X-159.0651 Y26.651
X-159.065 Y62.3393
X-159.0769 Y62.5779
X-159.1059 Y62.799
X-159.1453 Y62.9831
X-159.1911 Y63.1361
X-159.2455 Y63.2759
X-159.2576 Y63.3007
X-159.3556 Y63.4325
X-159.4949 Y63.5196
X-159.6562 Y63.55
X-159.7071 Y63.5412
X-159.7537 Y63.5191
X-159.7926 Y63.4852
X-159.821 Y63.4421
X-159.8367 Y63.3929
X-159.8387 Y63.3414
X-159.8267 Y63.2912
X-159.6732 Y62.897
X-159.5283 Y62.5246
X-159.4319 Y62.277
X-159.4067 Y62.2317
X-159.3702 Y62.195
X-159.3251 Y62.1694
X-159.2748 Y62.157
X-159.223 Y62.1586
X-159.1736 Y62.1742
X-159.1302 Y62.2025
X-159.0961 Y62.2415
X-159.0738 Y62.2882
X-159.065 Y62.3393
X-159.0651 Y63.349
X-159.0665 Y63.3664
X-159.0696 Y63.3838
X-159.0744 Y63.4012
X-159.081 Y63.4186
X-159.105 Y63.4602
X-159.1199 Y63.4809
X-159.1398 Y63.5016
X-159.1572 Y63.5155
X-159.1747 Y63.5263
X-159.1921 Y63.5348
X-159.2095 Y63.5413
X-159.2269 Y63.5458
X-159.2444 Y63.5487
X-159.3837 Y63.55
X-160.3508
X-160.4039 Y63.5405
X-160.4522 Y63.5164
X-160.4917 Y63.4798
X-160.5194 Y63.4335
X-160.533 Y63.3813
X-160.5313 Y63.3273
X-160.5145 Y63.2761
X-160.4841 Y63.2316
X-160.4423 Y63.1974
X-160.3926 Y63.1764
X-160.339 Y63.1702
X-160.2987 Y63.1848 Z-2.0946
X-160.2606 Y63.1986 Z-2.0797
X-160.2266 Y63.2109 Z-2.0559
X-160.2076 Y63.2323 Z-2.026
X-160.1934 Y63.2484 Z-1.9906
X-160.1846 Y63.2584 Z-1.9514
X-160.1816 Y63.2618 Z-1.9102
G0 Z5
X-156.1418 Y10.8899
Z2.4
G3 X-155.9849 Y10.901 Z2.2075 I0.1418 J-0.8913 F1200
X-155.8284 Y10.8846 Z2.015 I-0.0151 J-0.9024
X-155.6772 Y10.8414 Z1.8224 I-0.1715 J-0.886
X-155.5357 Y10.7725 Z1.6299 I-0.3228 J-0.8428
X-155.4084 Y10.6801 Z1.4374 I-0.4642 J-0.7739
X-155.299 Y10.5671 Z1.2449 I-0.5916 J-0.6816
X-155.211 Y10.4367 Z1.0524 I-0.701 J-0.5685
X-155.1469 Y10.293 Z0.8598 I-0.789 J-0.4381
X-155.1087 Y10.1404 Z0.6673 I-0.8531 J-0.2945
X-155.0976 Y9.9835 Z0.4748 I-0.8913 J-0.1418
X-155.1139 Y9.827 Z0.2823 I-0.9024 J0.0151
X-155.1572 Y9.6758 Z0.0898 I-0.886 J0.1715
X-155.226 Y9.5343 Z-0.1028 I-0.8428 J0.3228
X-155.3184 Y9.407 Z-0.2953 I-0.7739 J0.4642
X-155.4315 Y9.2976 Z-0.4878 I-0.6816 J0.5916
X-155.5618 Y9.2096 Z-0.6803 I-0.5685 J0.7009
X-155.7055 Y9.1455 Z-0.8728 I-0.4381 J0.789
X-155.8581 Y9.1073 Z-1.0654 I-0.2945 J0.8531
X-156.015 Y9.0962 Z-1.2579 I-0.1418 J0.8913
X-156.1715 Y9.1125 Z-1.4504 I0.0151 J0.9024
X-156.3228 Y9.1558 Z-1.6429 I0.1715 J0.886
X-156.4642 Y9.2246 Z-1.8354 I0.3228 J0.8428
X-156.5916 Y9.317 Z-2.028 I0.4642 J0.7739
X-155.0975 Y9.9986 Z-2.1 I0.5916 J0.6816
X-156.9025 I-0.9025
X-155.0975 I0.9025
G1 X-155.0708 Y10.5611 F3200
X-155.0758 Y10.711
X-155.1206 Y10.8542
X-155.1949 Y10.9845
X-155.2918 Y11.099
X-155.406 Y11.1962
X-155.452 Y11.2248
X-155.4798 Y11.2407
X-155.5086 Y11.2545
X-155.5384 Y11.2662
X-155.621 Y11.2953
X-155.7603 Y11.3282
X-155.8997 Y11.3459
X-156.0391 Y11.3488
X-156.1784 Y11.3373
X-156.3178 Y11.311
X-156.4572 Y11.2689
X-156.5595 Y11.2267
X-156.5965 Y11.2102
X-156.7359 Y11.1313
X-156.7967 Y11.0874
X-156.8752 Y11.0264
X-156.9592 Y10.9481
X-157.0146 Y10.8853
X-157.0767 Y10.8089
X-157.1539 Y10.6944
X-157.1683 Y10.6696
X-157.2392 Y10.5303
X-157.2899 Y10.3911
X-157.2933 Y10.3798
X-157.3242 Y10.2518
X-157.3433 Y10.1125
X-157.3479 Y9.9732
X-157.3379 Y9.834
X-157.3132 Y9.6947
X-157.2933 Y9.6175
X-157.2727 Y9.5554
X-157.2164 Y9.4162
X-157.1539 Y9.3005
X-157.1392 Y9.2769
X-157.0361 Y9.1376
X-157.0146 Y9.1126
X-156.9029 Y8.9983
X-156.8752 Y8.9725
X-156.7359 Y8.8697
X-156.7187 Y8.8591
X-156.5965 Y8.7906
X-156.4572 Y8.7308
X-156.4268 Y8.7198
X-156.3178 Y8.689
X-156.1784 Y8.6627
X-156.0391 Y8.6512
X-155.8997 Y8.6541
X-155.7603 Y8.6718
X-155.621 Y8.7047
X-155.4816 Y8.7538
X-155.3423 Y8.8218
X-155.2814 Y8.8591
X-155.2029 Y8.9125
X-155.0972 Y8.9983
X-155.0636 Y9.0302
X-154.9632 Y9.1376
X-154.9242 Y9.1862
X-154.8608 Y9.2769
X-154.7848 Y9.4175
X-154.7273 Y9.5554
X-154.6868 Y9.6947
X-154.6621 Y9.834
X-154.6521 Y9.9732
X-154.6567 Y10.1125
X-154.6758 Y10.2518
X-154.7101 Y10.3911
X-154.7608 Y10.5303
X-154.7848 Y10.5873
X-154.8289 Y10.6696
X-154.9242 Y10.8122
X-155.0436 Y10.9481
X-155.0636 Y10.968
X-155.2042 Y11.0874
X-155.3423 Y11.1782
X-155.4816 Y11.2462
X-155.5384 Y11.2662
X-155.5917 Y11.2749
X-155.6452 Y11.2683
X-155.6947 Y11.2468
X-155.7362 Y11.2124
X-155.7663 Y11.1676
X-155.7827 Y11.1162
X-155.7839 Y11.0623
X-155.77 Y11.0102
X-155.7419 Y10.9641
X-155.7021 Y10.9278
X-155.6536 Y10.9041
X-155.6241 Y10.8995 Z-2.0976
X-155.5953 Y10.8949 Z-2.0905
X-155.5574 Y10.9075 Z-2.0713
X-155.5247 Y10.9183 Z-2.0435
X-155.4991 Y10.9268 Z-2.0084
X-155.4818 Y10.9326 Z-1.9681
X-155.4764 Y10.9368 Z-1.9394
X-155.4746 Y10.9382 Z-1.91
G0 Z5
X-36.1412 Y10.8905
Z2.4
G3 X-35.9843 Y10.9016 Z2.2075 I0.1418 J-0.8913 F1200
X-35.8278 Y10.8852 Z2.015 I-0.0151 J-0.9024
X-35.6766 Y10.842 Z1.8224 I-0.1715 J-0.886
X-35.5351 Y10.7731 Z1.6299 I-0.3228 J-0.8428
X-35.4078 Y10.6808 Z1.4374 I-0.4642 J-0.7739
X-35.2984 Y10.5677 Z1.2449 I-0.5916 J-0.6816
X-35.2103 Y10.4373 Z1.0524 I-0.701 J-0.5685
X-35.1462 Y10.2936 Z0.8598 I-0.789 J-0.4381
X-35.1081 Y10.141 Z0.6673 I-0.8531 J-0.2945
X-35.097 Y9.9841 Z0.4748 I-0.8913 J-0.1418
X-35.1133 Y9.8276 Z0.2823 I-0.9024 J0.0151
X-35.1566 Y9.6764 Z0.0898 I-0.886 J0.1715
X-35.2254 Y9.5349 Z-0.1028 I-0.8428 J0.3228
X-35.3178 Y9.4076 Z-0.2953 I-0.7739 J0.4642
X-35.4309 Y9.2982 Z-0.4878 I-0.6816 J0.5916
X-35.5612 Y9.2102 Z-0.6803 I-0.5685 J0.701
X-35.7049 Y9.1461 Z-0.8728 I-0.4381 J0.789
X-35.8575 Y9.1079 Z-1.0654 I-0.2945 J0.8531
X-36.0144 Y9.0968 Z-1.2579 I-0.1418 J0.8913
X-36.1709 Y9.1131 Z-1.4504 I0.0151 J0.9024
X-36.3222 Y9.1564 Z-1.6429 I0.1715 J0.886
X-36.4636 Y9.2253 Z-1.8354 I0.3228 J0.8428
X-36.5909 Y9.3176 Z-2.028 I0.4642 J0.7739
X-35.0969 Y9.9992 Z-2.1 I0.5916 J0.6816
X-36.9019 I-0.9025
X-35.0969 I0.9025
G1 X-35.0702 Y10.5617 F3200
X-35.0752 Y10.7116
X-35.12 Y10.8548
X-35.1943 Y10.9851
X-35.2911 Y11.0996
X-35.4054 Y11.1968
X-35.4403 Y11.2185
X-35.468 Y11.2343
X-35.4967 Y11.2481
X-35.5263 Y11.2598
X-35.6322 Y11.2973
X-35.7715 Y11.3289
X-35.9109 Y11.3455
X-36.0502 Y11.3474
X-36.1896 Y11.3348
X-36.329 Y11.3073
X-36.4683 Y11.264
X-36.561 Y11.2267
X-36.6077 Y11.203
X-36.747 Y11.1239
X-36.8864 Y11.0176
X-36.9554 Y10.9481
X-37.0258 Y10.8754
X-37.0778 Y10.8089
X-37.1651 Y10.6778
X-37.2393 Y10.5303
X-37.2901 Y10.3911
X-37.3045 Y10.3424
X-37.3244 Y10.2518
X-37.3436 Y10.1125
X-37.348 Y9.9732
X-37.3379 Y9.834
X-37.3131 Y9.6947
X-37.3045 Y9.655
X-37.2728 Y9.5554
X-37.2167 Y9.4162
X-37.1651 Y9.3196
X-37.1383 Y9.2769
X-37.0361 Y9.1376
X-37.0258 Y9.1252
X-36.9024 Y8.9983
X-36.8864 Y8.983
X-36.8167 Y8.927
X-36.747 Y8.877
X-36.7189 Y8.8591
X-36.6077 Y8.797
X-36.4683 Y8.736
X-36.4252 Y8.7198
X-36.329 Y8.6927
X-36.1896 Y8.6652
X-36.0502 Y8.6526
X-35.9109 Y8.6545
X-35.7715 Y8.6711
X-35.6322 Y8.7027
X-35.575 Y8.7198
X-35.4928 Y8.7497
X-35.4231 Y8.7813
X-35.3534 Y8.8155
X-35.2815 Y8.8591
X-35.2141 Y8.9044
X-35.0965 Y8.9983
X-35.0747 Y9.0182
X-34.9628 Y9.1376
X-34.9354 Y9.1716
X-34.8604 Y9.2769
X-34.796 Y9.3901
X-34.7841 Y9.4162
X-34.7272 Y9.5554
X-34.6869 Y9.6947
X-34.6621 Y9.834
X-34.6566 Y9.8814
X-34.652 Y9.9732
X-34.6566 Y10.1146
X-34.6756 Y10.2518
X-34.71 Y10.3911
X-34.7608 Y10.5303
X-34.796 Y10.6085
X-34.8286 Y10.6696
X-34.9209 Y10.8089
X-34.9354 Y10.8276
X-35.0405 Y10.9481
X-35.0747 Y10.9814
X-35.2027 Y11.0874
X-35.2141 Y11.0957
X-35.3534 Y11.1813
X-35.438 Y11.2267
X-35.4928 Y11.248
X-35.5263 Y11.2598
X-35.5795 Y11.2686
X-35.6331 Y11.262
X-35.6826 Y11.2406
X-35.7241 Y11.2062
X-35.7543 Y11.1615
X-35.7707 Y11.1101
X-35.772 Y11.0562
X-35.7581 Y11.0041
X-35.7301 Y10.9579
X-35.6903 Y10.9216
X-35.6419 Y10.8978
X-35.6122 Y10.8932 Z-2.0976
X-35.5834 Y10.8886 Z-2.0905
X-35.5454 Y10.9012 Z-2.0712
X-35.5127 Y10.912 Z-2.0432
X-35.4871 Y10.9205 Z-2.0079
X-35.4699 Y10.9262 Z-1.9674
X-35.4646 Y10.9303 Z-1.9391
X-35.4629 Y10.9317 Z-1.91
G0 Z5
X-16.1424 Y45.8914
Z2.4
G3 X-15.9855 Y45.9025 Z2.2075 I0.1418 J-0.8913 F1200
X-15.829 Y45.8861 Z2.015 I-0.0151 J-0.9024
X-15.6778 Y45.8429 Z1.8224 I-0.1715 J-0.886
X-15.5363 Y45.774 Z1.6299 I-0.3228 J-0.8428
X-15.409 Y45.6817 Z1.4374 I-0.4642 J-0.7739
X-15.2996 Y45.5686 Z1.2449 I-0.5916 J-0.6816
X-15.2115 Y45.4382 Z1.0524 I-0.701 J-0.5685
X-15.1474 Y45.2946 Z0.8598 I-0.789 J-0.4381
X-15.1093 Y45.1419 Z0.6673 I-0.8531 J-0.2945
X-15.0982 Y44.985 Z0.4748 I-0.8913 J-0.1418
X-15.1145 Y44.8285 Z0.2823 I-0.9024 J0.0151
X-15.1578 Y44.6773 Z0.0898 I-0.886 J0.1715
X-15.2266 Y44.5358 Z-0.1028 I-0.8428 J0.3228
X-15.319 Y44.4085 Z-0.2953 I-0.7739 J0.4642
X-15.4321 Y44.2991 Z-0.4878 I-0.6816 J0.5916
X-15.5624 Y44.2111 Z-0.6803 I-0.5685 J0.701
X-15.7061 Y44.147 Z-0.8728 I-0.4381 J0.789
X-15.8587 Y44.1088 Z-1.0654 I-0.2945 J0.8531
X-16.0156 Y44.0977 Z-1.2579 I-0.1418 J0.8913
X-16.1721 Y44.114 Z-1.4504 I0.0151 J0.9024
X-16.3234 Y44.1573 Z-1.6429 I0.1715 J0.886
X-16.4648 Y44.2262 Z-1.8354 I0.3228 J0.8428
X-16.5921 Y44.3185 Z-2.028 I0.4642 J0.7739
X-15.0981 Y45.0001 Z-2.1 I0.5916 J0.6816
X-16.9031 I-0.9025
X-15.0981 I0.9025
G1 X-15.0714 Y45.5626 F3200
X-15.0763 Y45.7125
X-15.1212 Y45.8557
X-15.1955 Y45.986
X-15.2923 Y46.1005
X-15.4066 Y46.1977
X-15.4606 Y46.2304
X-15.4829 Y46.2418
X-15.5059 Y46.2519
X-15.5643 Y46.2756
X-15.7037 Y46.3149
X-15.7404 Y46.3231
X-15.8431 Y46.3388
X-15.9824 Y46.3475
X-16.1218 Y46.3433
X-16.2611 Y46.3226
X-16.4005 Y46.2873
X-16.5399 Y46.2353
X-16.6441 Y46.1838
X-16.6792 Y46.1645
X-16.7489 Y46.1218
X-16.8186 Y46.0728
X-16.853 Y46.0445
X-16.9579 Y45.9485
X-17.0009 Y45.9053
X-17.0973 Y45.7837
X-17.1943 Y45.6267
X-17.2585 Y45.4874
X-17.3032 Y45.3482
X-17.3319 Y45.2089
X-17.3464 Y45.0696
Y44.9304
X-17.3319 Y44.7911
X-17.3032 Y44.6518
X-17.2585 Y44.5126
X-17.1943 Y44.3733
X-17.0973 Y44.2163
X-17.0009 Y44.0947
X-16.9579 Y44.0515
X-16.853 Y43.9555
X-16.8186 Y43.9272
X-16.7489 Y43.8782
X-16.6792 Y43.8355
X-16.6441 Y43.8162
X-16.5399 Y43.7647
X-16.4005 Y43.7127
X-16.2587 Y43.6769
X-16.1218 Y43.6567
X-15.9824 Y43.6525
X-15.8431 Y43.6612
X-15.7404 Y43.6769
X-15.7037 Y43.6851
X-15.5643 Y43.7244
X-15.425 Y43.781
X-15.353 Y43.8162
X-15.2856 Y43.8571
X-15.1463 Y43.9575
X-15.0069 Y44.0866
X-14.9991 Y44.0947
X-14.8908 Y44.234
X-14.8675 Y44.2695
X-14.8066 Y44.3733
X-14.7432 Y44.5126
X-14.7282 Y44.5528
X-14.6977 Y44.6518
X-14.6682 Y44.7911
X-14.6536 Y44.9304
Y45.0696
X-14.6682 Y45.2089
X-14.6977 Y45.3482
X-14.7282 Y45.4472
X-14.7432 Y45.4874
X-14.8066 Y45.6267
X-14.8675 Y45.7305
X-14.8908 Y45.766
X-14.9991 Y45.9053
X-15.0069 Y45.9134
X-15.1489 Y46.0445
X-15.2856 Y46.1429
X-15.353 Y46.1838
X-15.425 Y46.219
X-15.5059 Y46.2519
X-15.5587 Y46.2631
X-15.6125 Y46.2589
X-15.6629 Y46.2399
X-15.706 Y46.2074
X-15.7382 Y46.1641
X-15.7569 Y46.1135
X-15.7607 Y46.0597
X-15.7492 Y46.007
X-15.7233 Y45.9597
X-15.6852 Y45.9215
X-15.6379 Y45.8956
X-15.6044 Y45.8894 Z-2.0969
X-15.572 Y45.8835 Z-2.0877
X-15.5712 Z-2.0874
X-15.5264 Y45.8983 Z-2.06
X-15.4908 Y45.9101 Z-2.0205
X-15.4673 Y45.9179 Z-1.972
X-15.4577 Y45.9211 Z-1.9184
X-15.4575 Y45.9212 Z-1.91
G0 Z5
X-161.012 Y26.9897
Z-1.52
G1 Z-1.71 F3200
X-161.0064 Y26.9864 Z-1.7592
X-160.9901 Y26.9767 Z-1.805
X-160.9642 Y26.9613 Z-1.8444
X-160.9304 Y26.9412 Z-1.8745
X-160.891 Y26.9178 Z-1.8935
X-160.8487 Y26.8926 Z-1.9
G3 X-159.3416 Y26.45 I1.6176 J2.7206
G1 X-159.105
X-159.0301 Y26.4538
X-158.8966 Y26.5221
X-158.7927 Y26.6303
X-158.7089 Y26.7547
X-158.6404 Y26.8882
X-158.5752 Y27.0492
X-158.507 Y27.2663
X-158.4363 Y27.5766
X-158.3635 Y28.0797
X-158.3247 Y28.6917
X-158.3117 Y29.3049
X-158.3072 Y29.9181
X-158.3052 Y31.1447
X-158.305 Y62.8065
X-158.3194 Y62.9843
X-158.3434 Y63.1324
X-158.3636 Y63.2138
X-158.422 Y63.348
X-158.5208 Y63.456
X-158.6495 Y63.5258
X-158.7938 Y63.55
X-159.2444
X-159.2958 Y63.541
X-159.3428 Y63.5184
X-159.3819 Y63.4838
X-159.4101 Y63.4399
X-159.4254 Y63.39
X-159.4264 Y63.3378
X-159.4132 Y63.2873
X-159.3868 Y63.2423
X-159.3491 Y63.2062
X-159.303 Y63.1817
X-159.252 Y63.1706
X-159.1999 Y63.1739
X-159.1507 Y63.1912
X-159.108 Y63.2213
X-159.0751 Y63.2618
X-159.0497 Y63.3039 Z-1.8935
X-159.026 Y63.3431 Z-1.8745
X-159.0056 Y63.3768 Z-1.8443
X-158.99 Y63.4026 Z-1.805
X-158.9802 Y63.4189 Z-1.7592
X-158.9768 Y63.4244 Z-1.71
G0 Z5
X-159.3117 Y27.3123
Z-1.52
G1 Z-1.71 F3200
X-159.3157 Y27.3073 Z-1.7592
X-159.3277 Y27.2925 Z-1.805
X-159.3466 Y27.269 Z-1.8444
X-159.3714 Y27.2384 Z-1.8745
X-159.4002 Y27.2028 Z-1.8935
X-159.4311 Y27.1645 Z-1.9
G3 X-159.105 Y26.45 I0.3414 J-0.2759
G1 X-158.8263
X-158.6765 Y26.4575
X-158.5352 Y26.5078
X-158.408 Y26.5873
X-158.2948 Y26.6858
X-158.1952 Y26.798
X-158.1074 Y26.9196
X-158.0477 Y27.0203
X-158.0137 Y27.0915
X-157.9929 Y27.1676
X-157.9859 Y27.2462
X-157.9954 Y27.2994
X-158.0196 Y27.3478
X-158.0565 Y27.3874
X-158.103 Y27.415
X-158.1554 Y27.4284
X-158.2095 Y27.4265
X-158.2608 Y27.4094
X-158.3052 Y27.3786
X-158.5622 Y27.1393
X-158.7021 Y27.009
X-158.9491 Y26.7789
X-158.9807 Y26.7407
X-159.0013 Y26.6955
X-159.0095 Y26.6466
X-159.0048 Y26.5972
X-158.9874 Y26.5507
X-158.9586 Y26.5103
X-158.9203 Y26.4788
X-158.8752 Y26.4582
X-158.8263 Y26.45
X-158.3315
X-158.297
X-158.2688
X-158.1415 Y26.4564
X-158.0938 Y26.4793
X-158.0544 Y26.5145
X-158.0261 Y26.5592
X-158.0113 Y26.61
X-158.011 Y26.6629
X-158.0253 Y26.7138
X-158.0531 Y26.7588
X-158.0922 Y26.7943
X-158.1397 Y26.8178
X-158.1917 Y26.8272
X-158.2546 Y26.8297
X-158.3085 Y26.8242
X-158.3586 Y26.8036
X-158.4009 Y26.7698
X-158.4319 Y26.7253
X-158.4491 Y26.674
X-158.4511 Y26.6199
X-158.4378 Y26.5674
X-158.4102 Y26.5208
X-158.3706 Y26.4838
X-158.3221 Y26.4596
X-158.2688 Y26.45
X-158.1991
X-158.1643 Y26.4517
X-158.1469 Y26.4549
X-158.1295 Y26.4598
X-158.1026 Y26.4711
X-158.0756 Y26.4879
X-158.0601 Y26.5009
X-158.0446 Y26.5172
X-158.0218 Y26.5465
X-158.0104 Y26.5644
X-158.0015 Y26.5822
X-157.9949 Y26.6
X-157.9901 Y26.6178
X-157.9873 Y26.6348
X-157.986 Y26.6518
X-157.9859 Y63.1749
Y63.217
X-157.9934 Y63.3669
X-158.0489 Y63.4623
X-158.1383 Y63.5271
X-158.2464 Y63.55
X-158.299 Y63.5406
X-158.3469 Y63.517
X-158.3863 Y63.481
X-158.4142 Y63.4354
X-158.4282 Y63.3839
X-158.4274 Y63.3305
X-158.4118 Y63.2794
X-158.3478 Y63.143
X-158.3204 Y63.1005
X-158.2828 Y63.0667
X-158.2376 Y63.044
X-158.1881 Y63.0341
X-158.1377 Y63.0375
X-158.0899 Y63.0542
X-158.0483 Y63.0828
X-158.0156 Y63.1214
X-157.9943 Y63.1672
X-157.9859 Y63.217
X-157.986 Y63.3482
X-157.9873 Y63.3652
X-157.9901 Y63.3822
X-157.9949 Y63.4
X-158.0015 Y63.4178
X-158.0104 Y63.4356
X-158.0218 Y63.4535
X-158.0446 Y63.4828
X-158.0601 Y63.4991
X-158.0756 Y63.5121
X-158.1026 Y63.5289
X-158.1295 Y63.5402
X-158.1469 Y63.5451
X-158.1643 Y63.5483
X-158.1991 Y63.55
X-158.7938
X-158.8469 Y63.5405
X-158.8952 Y63.5164
X-158.9348 Y63.4798
X-158.9625 Y63.4335
X-158.976 Y63.3813
X-158.9744 Y63.3273
X-158.9576 Y63.2761
X-158.9271 Y63.2316
X-158.8853 Y63.1974
X-158.8357 Y63.1764
X-158.7821 Y63.1702
X-158.7417 Y63.1848 Z-1.8946
X-158.7036 Y63.1986 Z-1.8797
X-158.6696 Y63.2109 Z-1.8559
X-158.6507 Y63.2323 Z-1.826
X-158.6364 Y63.2484 Z-1.7906
X-158.6276 Y63.2584 Z-1.7514
X-158.6246 Y63.2618 Z-1.7102
G0 Z5
X-159.8971 Y26.9897
Z-1.32
G1 Z-1.51 F3200
X-159.8916 Y26.9864 Z-1.5592
X-159.8752 Y26.9767 Z-1.605
X-159.8493 Y26.9613 Z-1.6444
X-159.8155 Y26.9412 Z-1.6745
X-159.7761 Y26.9178 Z-1.6935
X-159.7338 Y26.8926 Z-1.7
G3 X-158.2267 Y26.45 I1.6176 J2.7206
G1 X-158.0183
X-157.9434 Y26.4538
X-157.8119 Y26.5258
X-157.7091 Y26.6351
X-157.6261 Y26.7601
X-157.5583 Y26.8939
X-157.493 Y27.0571
X-157.4247 Y27.2774
X-157.3538 Y27.5937
X-157.281 Y28.111
X-157.2444 Y28.7232
X-157.2322 Y29.3364
X-157.228 Y29.9496
X-157.2261 Y31.1762
X-157.2262 Y62.8089
X-157.2406 Y62.9867
X-157.2648 Y63.1347
X-157.2851 Y63.2154
X-157.3438 Y63.3491
X-157.4426 Y63.4565
X-157.571 Y63.526
X-157.715 Y63.55
X-158.1295
X-158.1809 Y63.541
X-158.2279 Y63.5184
X-158.267 Y63.4838
X-158.2953 Y63.4399
X-158.3105 Y63.39
X-158.3115 Y63.3378
X-158.2983 Y63.2873
X-158.2719 Y63.2423
X-158.2342 Y63.2062
X-158.1881 Y63.1817
X-158.1371 Y63.1707
X-158.085 Y63.1739
X-158.0358 Y63.1912
X-157.9931 Y63.2213
X-157.9603 Y63.2618
X-157.9348 Y63.3039 Z-1.6935
X-157.9111 Y63.3431 Z-1.6745
X-157.8907 Y63.3768 Z-1.6444
X-157.8751 Y63.4026 Z-1.605
X-157.8653 Y63.4189 Z-1.5592
X-157.8619 Y63.4244 Z-1.51
G0 Z5
X-158.3486 Y26.8942
Z-1.32
G1 Z-1.51 F3200
X-158.3475 Y26.8879 Z-1.5592
X-158.3441 Y26.8692 Z-1.605
X-158.3388 Y26.8395 Z-1.6444
X-158.3318 Y26.8007 Z-1.6745
X-158.3237 Y26.7556 Z-1.6935
X-158.3151 Y26.7072 Z-1.7
G3 X-158.0183 Y26.45 I0.3076 J0.0552
G1 X-157.7396
X-157.5898 Y26.4575
X-157.4492 Y26.5098
X-157.3228 Y26.5905
X-157.2103 Y26.6897
X-157.1114 Y26.8025
X-157.0241 Y26.9245
X-156.9677 Y27.0206
X-156.9342 Y27.0913
X-156.9137 Y27.1669
X-156.9068 Y27.2449
X-156.9164 Y27.2983
X-156.9407 Y27.3467
X-156.9776 Y27.3864
X-157.0243 Y27.414
X-157.0769 Y27.4272
X-157.131 Y27.4251
X-157.1824 Y27.4078
X-157.2268 Y27.3767
X-157.4819 Y27.1368
X-157.6165 Y27.0102
X-157.8631 Y26.7783
X-157.8945 Y26.74
X-157.9149 Y26.6948
X-157.9229 Y26.646
X-157.918 Y26.5967
X-157.9006 Y26.5504
X-157.8718 Y26.5101
X-157.8335 Y26.4787
X-157.7884 Y26.4582
X-157.7396 Y26.45
X-157.2512
X-157.2218
X-157.1845
X-157.0446 Y26.4938
X-156.9435 Y26.6
X-156.9068 Y26.7419
G3 X-157.2588 Y26.9899 I-0.27 J-0.0094
X-157.1845 Y26.45 I0.084 J-0.2635
G1 X-157.1539
X-157.0843 Y26.4517
X-157.0668 Y26.4549
X-157.0494 Y26.4598
X-157.032 Y26.4666
X-157.0146 Y26.4755
X-156.9966 Y26.4872
X-156.9787 Y26.5023
X-156.9588 Y26.5244
X-156.9427 Y26.5465
X-156.9315 Y26.5639
X-156.9228 Y26.5814
X-156.9162 Y26.5988
X-156.9114 Y26.6162
X-156.9083 Y26.6336
X-156.9069 Y26.651
X-156.9068 Y63.1749
Y63.217
Y63.2464
X-156.9355 Y63.3637
X-157.0057 Y63.462
X-157.1073 Y63.5272
X-157.2259 Y63.55
G3 X-157.497 Y63.1652 I0.0103 J-0.2951
X-156.9068 Y63.2464 I0.2881 J0.0918
G1 X-156.9069 Y63.349
X-156.9083 Y63.3664
X-156.9114 Y63.3838
X-156.9162 Y63.4012
X-156.9228 Y63.4186
X-156.9315 Y63.4361
X-156.9427 Y63.4535
X-156.9588 Y63.4756
X-156.9787 Y63.4977
X-156.9966 Y63.5128
X-157.0146 Y63.5245
X-157.032 Y63.5334
X-157.0494 Y63.5402
X-157.0668 Y63.5451
X-157.0843 Y63.5483
X-157.1539 Y63.55
X-157.715
X-157.768 Y63.5405
X-157.8163 Y63.5164
X-157.8559 Y63.4798
X-157.8836 Y63.4335
X-157.8971 Y63.3813
X-157.8955 Y63.3273
X-157.8787 Y63.2761
X-157.8482 Y63.2316
X-157.8064 Y63.1974
X-157.7568 Y63.1764
X-157.7032 Y63.1702
X-157.6629 Y63.1848 Z-1.6946
X-157.6247 Y63.1986 Z-1.6797
X-157.5907 Y63.2109 Z-1.6559
X-157.5718 Y63.2323 Z-1.626
X-157.5575 Y63.2484 Z-1.5906
X-157.5487 Y63.2584 Z-1.5514
X-157.5457 Y63.2618 Z-1.5102
G0 Z5
X-158.8244 Y26.9897
Z-1.12
G1 Z-1.31 F3200
X-158.8188 Y26.9864 Z-1.3592
X-158.8025 Y26.9767 Z-1.405
X-158.7766 Y26.9613 Z-1.4444
X-158.7427 Y26.9412 Z-1.4745
X-158.7034 Y26.9178 Z-1.4935
X-158.6611 Y26.8926 Z-1.5
G3 X-157.1539 Y26.45 I1.6176 J2.7206
G1 X-156.943
X-156.8681 Y26.4538
X-156.7356 Y26.524
X-156.6323 Y26.6328
X-156.5489 Y26.7574
X-156.4807 Y26.8911
X-156.4155 Y27.0532
X-156.3472 Y27.2719
X-156.2764 Y27.5851
X-156.2036 Y28.0952
X-156.1659 Y28.7073
X-156.1533 Y29.3204
X-156.149 Y29.9337
X-156.147 Y31.1602
X-156.1469 Y62.8072
X-156.1613 Y62.9856
X-156.1854 Y63.1337
X-156.2058 Y63.2148
X-156.2643 Y63.3487
X-156.3631 Y63.4563
X-156.4916 Y63.5259
X-156.6357 Y63.55
X-157.0912
X-157.1427 Y63.541
X-157.1897 Y63.5184
X-157.2288 Y63.4838
X-157.257 Y63.4399
X-157.2722 Y63.39
X-157.2733 Y63.3378
X-157.2601 Y63.2873
X-157.2337 Y63.2423
X-157.196 Y63.2062
X-157.1499 Y63.1817
X-157.0989 Y63.1707
X-157.0468 Y63.1739
X-156.9976 Y63.1912
X-156.9549 Y63.2213
X-156.922 Y63.2618
X-156.8966 Y63.3039 Z-1.4935
X-156.8729 Y63.3431 Z-1.4745
X-156.8525 Y63.3768 Z-1.4443
X-156.8369 Y63.4026 Z-1.405
X-156.8271 Y63.4189 Z-1.3592
X-156.8237 Y63.4244 Z-1.31
G0 Z5
X-157.2733 Y26.8942
Z-1.12
G1 Z-1.31 F3200
X-157.2722 Y26.8879 Z-1.3592
X-157.2688 Y26.8692 Z-1.405
X-157.2635 Y26.8395 Z-1.4444
X-157.2565 Y26.8007 Z-1.4745
X-157.2485 Y26.7556 Z-1.4935
X-157.2398 Y26.7072 Z-1.5
G3 X-156.943 Y26.45 I0.3076 J0.0552
G1 X-156.6592
X-156.5094 Y26.4575
X-156.369 Y26.5102
X-156.2427 Y26.5911
X-156.1304 Y26.6906
X-156.0316 Y26.8035
X-155.9444 Y26.9255
X-155.8885 Y27.0211
X-155.8551 Y27.0918
X-155.8346 Y27.1673
X-155.8277 Y27.2452
X-155.8373 Y27.2986
X-155.8616 Y27.3471
X-155.8986 Y27.3867
X-155.9453 Y27.4143
X-155.9979 Y27.4275
X-156.0521 Y27.4254
X-156.1035 Y27.408
X-156.1479 Y27.3768
X-156.4025 Y27.1367
X-156.5364 Y27.0105
X-156.7829 Y26.7781
X-156.8142 Y26.7398
X-156.8345 Y26.6947
X-156.8425 Y26.6458
X-156.8376 Y26.5966
X-156.8201 Y26.5503
X-156.7913 Y26.5101
X-156.7531 Y26.4786
X-156.708 Y26.4582
X-156.6592 Y26.45
X-156.1784
X-156.1363
X-156.1069
X-155.981 Y26.4563
X-155.9332 Y26.4791
X-155.8935 Y26.5143
X-155.8651 Y26.559
X-155.8501 Y26.6098
X-155.8498 Y26.6628
X-155.8641 Y26.7138
X-155.892 Y26.7589
X-155.9312 Y26.7946
X-155.9787 Y26.818
X-156.0309 Y26.8274
X-156.093 Y26.8297
X-156.1468 Y26.8241
X-156.1969 Y26.8035
X-156.2391 Y26.7696
X-156.27 Y26.7251
X-156.2872 Y26.6738
X-156.2892 Y26.6197
X-156.2758 Y26.5672
X-156.2482 Y26.5207
X-156.2086 Y26.4838
X-156.1602 Y26.4596
X-156.1069 Y26.45
X-156.0391
X-156.0042 Y26.4516
X-155.9868 Y26.4547
X-155.9694 Y26.4595
X-155.952 Y26.4662
X-155.9346 Y26.475
X-155.9171 Y26.4863
X-155.8997 Y26.5006
X-155.8786 Y26.5236
X-155.8631 Y26.5465
X-155.8437 Y26.5814
X-155.8371 Y26.5988
X-155.8323 Y26.6162
X-155.8292 Y26.6336
X-155.8278 Y26.651
X-155.8277 Y63.1749
Y63.217
X-155.8352 Y63.3669
X-155.8907 Y63.4623
X-155.9801 Y63.5271
X-156.0882 Y63.55
X-156.1408 Y63.5406
X-156.1887 Y63.517
X-156.2281 Y63.481
X-156.256 Y63.4354
X-156.27 Y63.3839
X-156.2692 Y63.3305
X-156.2536 Y63.2794
X-156.1896 Y63.143
X-156.1622 Y63.1005
X-156.1246 Y63.0667
X-156.0795 Y63.044
X-156.0299 Y63.0341
X-155.9795 Y63.0375
X-155.9317 Y63.0542
X-155.8901 Y63.0828
X-155.8574 Y63.1214
X-155.8361 Y63.1672
X-155.8277 Y63.217
X-155.8278 Y63.349
X-155.8292 Y63.3664
X-155.8323 Y63.3838
X-155.8371 Y63.4012
X-155.8437 Y63.4186
X-155.8631 Y63.4535
X-155.8786 Y63.4764
X-155.8997 Y63.4994
X-155.9171 Y63.5137
X-155.9346 Y63.525
X-155.952 Y63.5338
X-155.9694 Y63.5405
X-155.9868 Y63.5453
X-156.0042 Y63.5484
X-156.0391 Y63.55
X-156.6357
X-156.6888 Y63.5405
X-156.7371 Y63.5164
X-156.7767 Y63.4798
X-156.8044 Y63.4335
X-156.8179 Y63.3813
X-156.8162 Y63.3273
X-156.7995 Y63.2761
X-156.769 Y63.2316
X-156.7272 Y63.1974
X-156.6775 Y63.1764
X-156.624 Y63.1702
X-156.5836 Y63.1848 Z-1.4946
X-156.5455 Y63.1986 Z-1.4797
X-156.5115 Y63.2109 Z-1.4559
X-156.4925 Y63.2323 Z-1.426
X-156.4783 Y63.2484 Z-1.3906
X-156.4695 Y63.2584 Z-1.3514
X-156.4665 Y63.2618 Z-1.3102
G0 Z5
X-157.7095 Y26.9897
Z-0.92
G1 Z-1.11 F3200
X-157.704 Y26.9864 Z-1.1592
X-157.6876 Y26.9767 Z-1.205
X-157.6617 Y26.9613 Z-1.2443
X-157.6279 Y26.9412 Z-1.2745
X-157.5885 Y26.9178 Z-1.2935
X-157.5462 Y26.8926 Z-1.3
G3 X-156.0391 Y26.45 I1.6176 J2.7206
G1 X-155.8576
X-155.7827 Y26.4538
X-155.6518 Y26.527
X-155.5494 Y26.6367
X-155.4667 Y26.7618
X-155.3991 Y26.8957
X-155.3337 Y27.0597
X-155.2653 Y27.2812
X-155.1945 Y27.5995
X-155.1216 Y28.122
X-155.0858 Y28.7342
X-155.0739 Y29.3474
X-155.0698 Y29.9606
X-155.0679 Y31.1872
X-155.0681 Y62.8104
X-155.0826 Y62.9875
X-155.1068 Y63.1356
X-155.1266 Y63.2145
X-155.1851 Y63.3485
X-155.2839 Y63.4562
X-155.4124 Y63.5259
X-155.5566 Y63.55
X-155.9764
X-156.0278 Y63.541
X-156.0748 Y63.5184
X-156.1139 Y63.4838
X-156.1421 Y63.4399
X-156.1574 Y63.39
X-156.1584 Y63.3378
X-156.1452 Y63.2873
X-156.1188 Y63.2423
X-156.0811 Y63.2062
X-156.035 Y63.1817
X-155.984 Y63.1707
X-155.9319 Y63.1739
X-155.8827 Y63.1912
X-155.84 Y63.2213
X-155.8071 Y63.2618
X-155.7817 Y63.3039 Z-1.2935
X-155.758 Y63.3431 Z-1.2745
X-155.7376 Y63.3768 Z-1.2444
X-155.722 Y63.4026 Z-1.205
X-155.7122 Y63.4189 Z-1.1592
X-155.7088 Y63.4244 Z-1.11
G0 Z5
X-155.6674 Y27.2419
Z-0.92
G1 Z-1.11 F3200
X-155.6739 Y27.2417 Z-1.1592
X-155.6928 Y27.241 Z-1.205
X-155.723 Y27.24 Z-1.2444
X-155.7623 Y27.2386 Z-1.2745
X-155.8081 Y27.2371 Z-1.2935
X-155.8573 Y27.2354 Z-1.3
G3 X-155.8576 Y26.45 I0.0134 J-0.3927
G1 X-155.5788
X-155.429 Y26.4575
X-155.2887 Y26.5104
X-155.1625 Y26.5915
X-155.0502 Y26.691
X-154.9516 Y26.8041
X-154.8645 Y26.9261
X-154.8092 Y27.0206
X-154.7759 Y27.0912
X-154.7554 Y27.1666
X-154.7486 Y27.2444
X-154.7582 Y27.2978
X-154.7825 Y27.3463
X-154.8195 Y27.3859
X-154.8663 Y27.4135
X-154.9189 Y27.4268
X-154.9731 Y27.4246
X-155.0245 Y27.4072
X-155.0688 Y27.376
X-155.3233 Y27.1359
X-155.4561 Y27.0106
X-155.7026 Y26.7781
X-155.7339 Y26.7397
X-155.7542 Y26.6946
X-155.7621 Y26.6458
X-155.7572 Y26.5965
X-155.7397 Y26.5503
X-155.7109 Y26.51
X-155.6727 Y26.4786
X-155.6276 Y26.4582
X-155.5788 Y26.45
X-155.0636
X-155.0214 Y26.4505
X-154.992 Y26.4508
X-154.9006 Y26.4565
X-154.8545 Y26.4783
X-154.8159 Y26.5115
X-154.7875 Y26.5538
X-154.7714 Y26.6021
X-154.7686 Y26.653
X-154.7795 Y26.7028
X-154.8033 Y26.7479
X-154.8381 Y26.785
X-154.8816 Y26.8116
X-154.9306 Y26.8256
X-154.9816 Y26.8261
X-155.0223 Y26.8137
X-155.0566 Y26.7883
X-155.0803 Y26.7529
X-155.0908 Y26.7116
X-155.0868 Y26.6692
X-155.0688 Y26.6305
X-155.0388 Y26.6002
X-155.0004 Y26.5817
X-154.958 Y26.5771
X-154.9166 Y26.587
X-154.8809 Y26.6103
X-154.855 Y26.6442
X-154.8421 Y26.6849
X-154.8435 Y26.7275
X-154.8592 Y26.7671
X-154.8873 Y26.7992
X-154.9245 Y26.82
X-154.978 Y26.8305
X-155.0323 Y26.8254
X-155.0829 Y26.8051
X-155.1257 Y26.7713
X-155.1571 Y26.7267
X-155.1745 Y26.675
X-155.1765 Y26.6204
X-155.1629 Y26.5676
X-155.1349 Y26.5208
X-155.0948 Y26.4839
X-155.0458 Y26.4599
X-154.992 Y26.4508
X-154.9242 Y26.4516
X-154.9068 Y26.4548
X-154.8894 Y26.4596
X-154.8719 Y26.4664
X-154.8545 Y26.4752
X-154.8371 Y26.4865
X-154.8197 Y26.5009
X-154.7996 Y26.5227
X-154.7836 Y26.5465
X-154.7646 Y26.5814
X-154.758 Y26.5988
X-154.7532 Y26.6162
X-154.7501 Y26.6336
X-154.7487 Y26.651
X-154.7486 Y63.1749
Y63.217
X-154.7561 Y63.3669
X-154.8107 Y63.4612
X-154.8986 Y63.5257
X-155.005 Y63.5493
X-155.0578 Y63.5406
X-155.106 Y63.5174
X-155.1459 Y63.4818
X-155.1743 Y63.4364
X-155.1889 Y63.385
X-155.1886 Y63.3315
X-155.1734 Y63.2802
X-155.1112 Y63.1445
X-155.0841 Y63.1017
X-155.0466 Y63.0675
X-155.0015 Y63.0444
X-154.9518 Y63.0342
X-154.9012 Y63.0374
X-154.8532 Y63.0539
X-154.8114 Y63.0825
X-154.7785 Y63.1211
X-154.7571 Y63.1671
X-154.7486 Y63.217
X-154.7487 Y63.349
X-154.7501 Y63.3664
X-154.7532 Y63.3838
X-154.758 Y63.4012
X-154.7646 Y63.4186
X-154.7848 Y63.4555
X-154.7996 Y63.4773
X-154.8197 Y63.4991
X-154.8371 Y63.5135
X-154.8545 Y63.5248
X-154.8719 Y63.5336
X-154.8894 Y63.5404
X-154.9068 Y63.5452
X-154.9242 Y63.5484
X-155.0636 Y63.55
X-155.5566
X-155.6097 Y63.5405
X-155.658 Y63.5164
X-155.6976 Y63.4798
X-155.7253 Y63.4335
X-155.7388 Y63.3813
X-155.7372 Y63.3273
X-155.7204 Y63.2761
X-155.6899 Y63.2316
X-155.6481 Y63.1974
X-155.5985 Y63.1764
X-155.5449 Y63.1702
X-155.5045 Y63.1848 Z-1.2946
X-155.4664 Y63.1986 Z-1.2797
X-155.4324 Y63.2109 Z-1.2559
X-155.4135 Y63.2323 Z-1.226
X-155.3992 Y63.2484 Z-1.1906
X-155.3904 Y63.2584 Z-1.1514
X-155.3874 Y63.2618 Z-1.1102
G0 Z5
X-156.734 Y26.9897
Z-0.72
G1 Z-0.91 F3200
X-156.7284 Y26.9864 Z-0.9592
X-156.7121 Y26.9767 Z-1.005
X-156.6862 Y26.9613 Z-1.0444
X-156.6524 Y26.9412 Z-1.0745
X-156.613 Y26.9178 Z-1.0935
X-156.5707 Y26.8926 Z-1.1
G3 X-155.0636 Y26.45 I1.6176 J2.7206
G1 X-154.7848
X-154.7099 Y26.4538
X-154.5774 Y26.524
X-154.4741 Y26.6328
X-154.3907 Y26.7574
X-154.3225 Y26.8911
X-154.2572 Y27.0532
X-154.189 Y27.2719
X-154.1182 Y27.5851
X-154.0454 Y28.0952
X-154.0077 Y28.7073
X-153.9951 Y29.3204
X-153.9908 Y29.9337
X-153.9888 Y31.1603
X-153.9887 Y62.8072
X-154.0032 Y62.9861
X-154.0272 Y63.1341
X-154.0471 Y63.2139
X-154.1054 Y63.3481
X-154.2043 Y63.456
X-154.3329 Y63.5258
X-154.4773 Y63.55
X-155.0008
X-155.0523 Y63.541
X-155.0993 Y63.5184
X-155.1384 Y63.4838
X-155.1666 Y63.4399
X-155.1819 Y63.39
X-155.1829 Y63.3378
X-155.1697 Y63.2873
X-155.1433 Y63.2423
X-155.1056 Y63.2062
X-155.0595 Y63.1817
X-155.0085 Y63.1707
X-154.9564 Y63.1739
X-154.9072 Y63.1912
X-154.8645 Y63.2213
X-154.8316 Y63.2618
X-154.8062 Y63.3039 Z-1.0935
X-154.7825 Y63.3431 Z-1.0745
X-154.7621 Y63.3768 Z-1.0444
X-154.7465 Y63.4026 Z-1.005
X-154.7367 Y63.4189 Z-0.9592
X-154.7333 Y63.4244 Z-0.91
G0 Z5
X-155.2 Y26.8323
Z-0.72
G1 Z-0.91 F3200
X-155.1971 Y26.8266 Z-0.9592
X-155.1887 Y26.8096 Z-1.005
X-155.1752 Y26.7826 Z-1.0444
X-155.1576 Y26.7473 Z-1.0745
X-155.1371 Y26.7063 Z-1.0935
X-155.1152 Y26.6624 Z-1.1
G3 X-154.7848 Y26.45 I0.3437 J0.1716
G1 X-154.5061
X-154.3563 Y26.4575
X-154.2153 Y26.5088
X-154.0885 Y26.5889
X-153.9757 Y26.6877
X-153.8765 Y26.8003
X-153.7889 Y26.922
X-153.7309 Y27.0205
X-153.6971 Y27.0914
X-153.6765 Y27.1673
X-153.6695 Y27.2456
X-153.6791 Y27.2989
X-153.7033 Y27.3473
X-153.7402 Y27.3869
X-153.7868 Y27.4145
X-153.8393 Y27.4279
X-153.8934 Y27.4259
X-153.9448 Y27.4087
X-153.9892 Y27.3777
X-154.2452 Y27.1381
X-154.3825 Y27.0096
X-154.6293 Y26.7786
X-154.6608 Y26.7403
X-154.6813 Y26.6952
X-154.6894 Y26.6463
X-154.6846 Y26.597
X-154.6672 Y26.5506
X-154.6384 Y26.5102
X-154.6001 Y26.4787
X-154.555 Y26.4582
X-154.5061 Y26.45
X-154.0114
X-153.9769
X-153.9487
X-153.8236 Y26.4563
X-153.7767 Y26.4794
X-153.7379 Y26.5146
X-153.7101 Y26.559
X-153.6955 Y26.6092
X-153.6952 Y26.6616
X-153.7092 Y26.7121
X-153.7364 Y26.7568
X-153.7748 Y26.7924
X-153.8214 Y26.8162
X-153.8728 Y26.8263
X-153.9313 Y26.8296
X-153.9856 Y26.8248
X-154.0362 Y26.8049
X-154.0792 Y26.7714
X-154.1108 Y26.7271
X-154.1286 Y26.6757
X-154.1311 Y26.6213
X-154.1181 Y26.5684
X-154.0906 Y26.5214
X-154.0509 Y26.4841
X-154.0023 Y26.4597
X-153.9487 Y26.45
X-153.879
X-153.8442 Y26.452
X-153.8267 Y26.4554
X-153.8093 Y26.4605
X-153.7833 Y26.4717
X-153.7573 Y26.4881
X-153.7419 Y26.5011
X-153.7264 Y26.5173
X-153.7053 Y26.5465
X-153.6905 Y26.571
X-153.68 Y26.5954
X-153.6733 Y26.6199
X-153.67 Y26.6443
X-153.6695 Y63.1749
Y63.217
Y63.2464
X-153.6982 Y63.3637
X-153.7684 Y63.462
X-153.87 Y63.5272
X-153.9886 Y63.55
G3 X-154.2597 Y63.1652 I0.0103 J-0.2951
X-153.6695 Y63.2464 I0.2881 J0.0918
G1 X-153.67 Y63.3557
X-153.6733 Y63.3801
X-153.68 Y63.4046
X-153.6905 Y63.429
X-153.7053 Y63.4535
X-153.7264 Y63.4827
X-153.7419 Y63.4989
X-153.7573 Y63.5119
X-153.7833 Y63.5283
X-153.8093 Y63.5395
X-153.8267 Y63.5447
X-153.8442 Y63.548
X-153.879 Y63.55
X-154.4773
X-154.5304 Y63.5405
X-154.5786 Y63.5164
X-154.6182 Y63.4798
X-154.6459 Y63.4335
X-154.6594 Y63.3813
X-154.6578 Y63.3273
X-154.641 Y63.2761
X-154.6105 Y63.2316
X-154.5688 Y63.1974
X-154.5191 Y63.1764
X-154.4655 Y63.1702
X-154.4252 Y63.1848 Z-1.0946
X-154.387 Y63.1986 Z-1.0797
X-154.3531 Y63.2109 Z-1.0559
X-154.3341 Y63.2323 Z-1.026
X-154.3199 Y63.2484 Z-0.9906
X-154.311 Y63.2584 Z-0.9514
X-154.308 Y63.2618 Z-0.9102
G0 Z5
X-155.577 Y26.9897
Z-0.52
G1 Z-0.71 F3200
X-155.5714 Y26.9864 Z-0.7592
X-155.5551 Y26.9767 Z-0.805
X-155.5291 Y26.9613 Z-0.8444
X-155.4953 Y26.9412 Z-0.8745
X-155.4559 Y26.9178 Z-0.8935
X-155.4137 Y26.8926 Z-0.9
G3 X-153.9065 Y26.45 I1.6176 J2.7206
G1 X-153.6982
X-153.6233 Y26.4538
X-153.4927 Y26.5276
X-153.3905 Y26.6374
X-153.3079 Y26.7626
X-153.2404 Y26.8966
X-153.175 Y27.0608
X-153.1066 Y27.2829
X-153.0358 Y27.6022
X-152.9628 Y28.1271
X-152.9275 Y28.7393
X-152.9156 Y29.3525
X-152.9116 Y29.9658
X-152.9097 Y31.1923
X-152.9095 Y62.4695
X-152.91 Y62.8116
X-152.9245 Y62.9876
X-152.9488 Y63.1357
X-152.9687 Y63.2148
X-153.0272 Y63.3487
X-153.126 Y63.4563
X-153.2545 Y63.5259
X-153.3986 Y63.55
X-153.8093
X-153.8607 Y63.541
X-153.9078 Y63.5184
X-153.9469 Y63.4838
X-153.9751 Y63.4399
X-153.9903 Y63.39
X-153.9914 Y63.3378
X-153.9782 Y63.2873
X-153.9518 Y63.2423
X-153.9141 Y63.2062
X-153.868 Y63.1817
X-153.817 Y63.1707
X-153.7649 Y63.1739
X-153.7156 Y63.1912
X-153.673 Y63.2213
X-153.6401 Y63.2618
X-153.6146 Y63.3039 Z-0.8935
X-153.5909 Y63.3431 Z-0.8745
X-153.5706 Y63.3768 Z-0.8443
X-153.555 Y63.4026 Z-0.805
X-153.5451 Y63.4189 Z-0.7592
X-153.5418 Y63.4244 Z-0.71
G0 Z5
X-154.0284 Y26.8942
Z-0.52
G1 Z-0.71 F3200
X-154.0273 Y26.8879 Z-0.7592
X-154.024 Y26.8692 Z-0.805
X-154.0186 Y26.8395 Z-0.8444
X-154.0117 Y26.8007 Z-0.8745
X-154.0036 Y26.7556 Z-0.8935
X-153.9949 Y26.7072 Z-0.9
G3 X-153.6982 Y26.45 I0.3076 J0.0552
G1 X-153.4194
X-153.2696 Y26.4575
X-153.1294 Y26.5107
X-153.0033 Y26.592
X-152.8912 Y26.6916
X-152.7927 Y26.8047
X-152.7056 Y26.9269
X-152.6509 Y27.0206
X-152.6176 Y27.0911
X-152.5972 Y27.1665
X-152.5904 Y27.2442
X-152.6 Y27.2976
X-152.6243 Y27.3461
X-152.6614 Y27.3857
X-152.7081 Y27.4133
X-152.7608 Y27.4265
X-152.815 Y27.4243
X-152.8664 Y27.4069
X-152.9108 Y27.3756
X-153.165 Y27.1354
X-153.2969 Y27.0108
X-153.5433 Y26.778
X-153.5745 Y26.7396
X-153.5948 Y26.6945
X-153.6027 Y26.6457
X-153.5978 Y26.5965
X-153.5803 Y26.5502
X-153.5515 Y26.51
X-153.5133 Y26.4786
X-153.4682 Y26.4581
X-153.4194 Y26.45
X-152.931
X-152.9016
X-152.8643
X-152.7441 Y26.456
X-152.6972 Y26.4791
X-152.6583 Y26.514
X-152.6305 Y26.5582
X-152.6157 Y26.6084
X-152.6152 Y26.6606
X-152.6289 Y26.7111
X-152.6558 Y26.7559
X-152.694 Y26.7916
X-152.7404 Y26.8156
X-152.7916 Y26.8261
X-152.8457 Y26.8295
X-152.9 Y26.8251
X-152.9509 Y26.8054
X-152.9941 Y26.7721
X-153.0261 Y26.7279
X-153.0441 Y26.6764
X-153.0468 Y26.6219
X-153.0339 Y26.5688
X-153.0064 Y26.5217
X-152.9667 Y26.4843
X-152.918 Y26.4597
X-152.8643 Y26.45
X-152.8338
X-152.7641 Y26.4519
X-152.7467 Y26.4553
X-152.7293 Y26.4603
X-152.7119 Y26.4673
X-152.6944 Y26.4764
X-152.6728 Y26.4913
X-152.6512 Y26.5115
X-152.6369 Y26.529
X-152.6256 Y26.5465
X-152.6064 Y26.5814
X-152.5998 Y26.5988
X-152.595 Y26.6162
X-152.5919 Y26.6336
X-152.5905 Y26.651
X-152.5904 Y63.1749
Y63.217
Y63.2464
X-152.5978 Y63.3939
X-152.6198 Y63.4383
X-152.6546 Y63.4737
X-152.6986 Y63.4965
X-152.7475 Y63.5046
X-152.7965 Y63.497
X-152.8408 Y63.4746
X-152.8759 Y63.4396
X-152.8984 Y63.3954
X-152.906 Y63.3464
X-152.9057 Y63.2515
X-152.898 Y63.2033
X-152.876 Y63.1598
X-152.8418 Y63.1251
X-152.7986 Y63.1025
X-152.7505 Y63.0942
X-152.7022 Y63.101
X-152.6583 Y63.1222
X-152.623 Y63.1558
X-152.5996 Y63.1986
X-152.5904 Y63.2464
X-152.5905 Y63.349
X-152.5919 Y63.3664
X-152.595 Y63.3838
X-152.5998 Y63.4012
X-152.6064 Y63.4186
X-152.6256 Y63.4535
X-152.6369 Y63.471
X-152.6512 Y63.4885
X-152.6728 Y63.5087
X-152.6944 Y63.5236
X-152.7119 Y63.5327
X-152.7293 Y63.5397
X-152.7467 Y63.5447
X-152.7641 Y63.5481
X-152.8338 Y63.55
X-153.3986
X-153.4517 Y63.5405
X-153.5 Y63.5164
X-153.5396 Y63.4798
X-153.5672 Y63.4335
X-153.5808 Y63.3813
X-153.5791 Y63.3273
X-153.5624 Y63.2761
X-153.5319 Y63.2316
X-153.4901 Y63.1974
X-153.4404 Y63.1764
X-153.3868 Y63.1702
X-153.3465 Y63.1848 Z-0.8946
X-153.3084 Y63.1986 Z-0.8797
X-153.2744 Y63.2109 Z-0.8559
X-153.2554 Y63.2323 Z-0.826
X-153.2412 Y63.2484 Z-0.7906
X-153.2324 Y63.2584 Z-0.7514
X-153.2294 Y63.2618 Z-0.7102
G0 Z5
X-154.5042 Y26.9897
Z-0.32
G1 Z-0.51 F3200
X-154.4987 Y26.9864 Z-0.5592
X-154.4824 Y26.9767 Z-0.605
X-154.4564 Y26.9613 Z-0.6443
X-154.4226 Y26.9412 Z-0.6745
X-154.3832 Y26.9178 Z-0.6935
X-154.3409 Y26.8926 Z-0.7
G3 X-152.8338 Y26.45 I1.6176 J2.7206
G1 X-152.6229
X-152.548 Y26.4538
X-152.4164 Y26.5258
X-152.3137 Y26.6351
X-152.2307 Y26.7601
X-152.1629 Y26.8939
X-152.0975 Y27.057
X-152.0292 Y27.2774
X-151.9584 Y27.5936
X-151.8855 Y28.1109
X-151.849 Y28.7231
X-151.8367 Y29.3363
X-151.8325 Y29.9495
X-151.8306 Y31.1761
X-151.8307 Y62.8088
X-151.8452 Y62.9869
X-151.8693 Y63.1349
X-151.8891 Y63.2143
X-151.9476 Y63.3484
X-152.0464 Y63.4561
X-152.175 Y63.5259
X-152.3192 Y63.55
X-152.7711
X-152.8225 Y63.541
X-152.8695 Y63.5184
X-152.9086 Y63.4838
X-152.9369 Y63.4399
X-152.9521 Y63.39
X-152.9531 Y63.3378
X-152.9399 Y63.2873
X-152.9135 Y63.2423
X-152.8758 Y63.2062
X-152.8298 Y63.1817
X-152.7787 Y63.1707
X-152.7267 Y63.1739
X-152.6774 Y63.1912
X-152.6348 Y63.2213
X-152.6019 Y63.2618
X-152.5764 Y63.3039 Z-0.6935
X-152.5527 Y63.3431 Z-0.6745
X-152.5324 Y63.3768 Z-0.6444
X-152.5167 Y63.4026 Z-0.605
X-152.5069 Y63.4189 Z-0.5592
X-152.5036 Y63.4244 Z-0.51
G0 Z5
X-152.9531 Y26.8942
Z-0.32
G1 Z-0.51 F3200
X-152.952 Y26.8879 Z-0.5592
X-152.9486 Y26.8692 Z-0.605
X-152.9433 Y26.8395 Z-0.6444
X-152.9364 Y26.8007 Z-0.6745
X-152.9283 Y26.7556 Z-0.6935
X-152.9196 Y26.7072 Z-0.7
G3 X-152.6229 Y26.45 I0.3076 J0.0552
G1 X-152.3391
X-152.1893 Y26.4575
X-152.0492 Y26.5111
X-151.9233 Y26.5927
X-151.8113 Y26.6925
X-151.7129 Y26.8057
X-151.626 Y26.9279
X-151.5716 Y27.0211
X-151.5385 Y27.0916
X-151.5181 Y27.1668
X-151.5113 Y27.2445
X-151.5209 Y27.2979
X-151.5453 Y27.3464
X-151.5824 Y27.3861
X-151.6291 Y27.4136
X-151.6818 Y27.4268
X-151.7361 Y27.4246
X-151.7875 Y27.4071
X-151.8318 Y27.3758
X-152.0856 Y27.1354
X-152.2168 Y27.0111
X-152.4631 Y26.7778
X-152.4943 Y26.7394
X-152.5145 Y26.6943
X-152.5224 Y26.6455
X-152.5174 Y26.5963
X-152.4999 Y26.5501
X-152.4711 Y26.5099
X-152.4328 Y26.4786
X-152.3878 Y26.4581
X-152.3391 Y26.45
X-151.8583
X-151.8161
X-151.7867
X-151.6694 Y26.4559
X-151.6323 Y26.4721
X-151.6023 Y26.4993
X-151.5825 Y26.5346
X-151.575 Y26.5744
X-151.5805 Y26.6145
X-151.5986 Y26.6507
X-151.6272 Y26.6794
X-151.6635 Y26.6974
X-151.7036 Y26.7029
X-151.7855 Y26.7009
X-151.8274 Y26.6925
X-151.8641 Y26.6706
X-151.8913 Y26.6376
X-151.9059 Y26.5974
X-151.9061 Y26.5546
X-151.8919 Y26.5143
X-151.865 Y26.481
X-151.8286 Y26.4588
X-151.7867 Y26.45
X-151.7189
X-151.6841 Y26.4527
X-151.6667 Y26.4565
X-151.6492 Y26.4621
X-151.6318 Y26.4696
X-151.6144 Y26.4793
X-151.597 Y26.4918
X-151.5796 Y26.5076
X-151.5472 Y26.5465
X-151.5361 Y26.5639
X-151.5273 Y26.5814
X-151.5207 Y26.5988
X-151.5159 Y26.6162
X-151.5128 Y26.6336
X-151.5114 Y26.651
X-151.5113 Y63.1749
Y63.217
X-151.5188 Y63.3669
X-151.5315 Y63.4055
X-151.5438 Y63.4364
X-151.5599 Y63.4655
X-151.5796 Y63.4924
X-151.6253 Y63.5211
X-151.6774 Y63.5358
X-151.7314 Y63.5352
X-151.7831 Y63.5194
X-151.8283 Y63.4897
X-151.8633 Y63.4485
X-151.8852 Y63.3991
X-151.8924 Y63.3456
X-151.8912 Y63.2218
X-151.8832 Y63.1691
X-151.8608 Y63.1207
X-151.8259 Y63.0804
X-151.7812 Y63.0514
X-151.7302 Y63.0359
X-151.6769 Y63.0352
X-151.6255 Y63.0494
X-151.58 Y63.0773
X-151.5441 Y63.1167
X-151.5206 Y63.1646
X-151.5113 Y63.217
X-151.5114 Y63.349
X-151.5128 Y63.3664
X-151.5159 Y63.3838
X-151.5207 Y63.4012
X-151.5273 Y63.4186
X-151.5361 Y63.4361
X-151.5472 Y63.4535
X-151.5796 Y63.4924
X-151.597 Y63.5082
X-151.6144 Y63.5207
X-151.6318 Y63.5304
X-151.6492 Y63.5379
X-151.6667 Y63.5435
X-151.6841 Y63.5473
X-151.7189 Y63.55
X-152.3192
X-152.3723 Y63.5405
X-152.4206 Y63.5164
X-152.4602 Y63.4798
X-152.4879 Y63.4335
X-152.5014 Y63.3813
X-152.4997 Y63.3273
X-152.483 Y63.2761
X-152.4525 Y63.2316
X-152.4107 Y63.1974
X-152.361 Y63.1764
X-152.3075 Y63.1702
X-152.2671 Y63.1848 Z-0.6946
X-152.229 Y63.1986 Z-0.6797
X-152.195 Y63.2109 Z-0.6559
X-152.176 Y63.2323 Z-0.626
X-152.1618 Y63.2484 Z-0.5906
X-152.153 Y63.2584 Z-0.5514
X-152.15 Y63.2618 Z-0.5102
G0 Z5
X-153.3894 Y26.9897
Z-0.12
G1 Z-0.31 F3200
X-153.3838 Y26.9864 Z-0.3592
X-153.3675 Y26.9767 Z-0.405
X-153.3415 Y26.9613 Z-0.4444
X-153.3077 Y26.9412 Z-0.4745
X-153.2683 Y26.9178 Z-0.4935
X-153.2261 Y26.8926 Z-0.5
G3 X-151.7189 Y26.45 I1.6176 J2.7206
G1 X-151.5374
X-151.4625 Y26.4538
X-151.3326 Y26.5287
X-151.2308 Y26.6389
X-151.1485 Y26.7643
X-151.0812 Y26.8984
X-151.0157 Y27.0634
X-150.9473 Y27.2866
X-150.8764 Y27.6081
X-150.8035 Y28.1382
X-150.7689 Y28.7505
X-150.7573 Y29.3637
X-150.7533 Y29.9769
X-150.7515 Y31.2035
X-150.7513 Y62.4807
X-150.7521 Y62.8137
X-150.7667 Y62.99
X-150.791 Y63.138
X-150.8113 Y63.2169
X-150.8701 Y63.35
X-150.9689 Y63.4569
X-151.0971 Y63.5261
X-151.2407 Y63.55
X-151.6562
X-151.7076 Y63.541
X-151.7547 Y63.5184
X-151.7938 Y63.4838
X-151.822 Y63.4399
X-151.8372 Y63.39
X-151.8383 Y63.3378
X-151.8251 Y63.2873
X-151.7986 Y63.2423
X-151.761 Y63.2062
X-151.7149 Y63.1817
X-151.6639 Y63.1707
X-151.6118 Y63.1739
X-151.5625 Y63.1912
X-151.5199 Y63.2213
X-151.487 Y63.2618
X-151.4615 Y63.3039 Z-0.4935
X-151.4378 Y63.3431 Z-0.4745
X-151.4175 Y63.3768 Z-0.4444
X-151.4018 Y63.4026 Z-0.405
X-151.392 Y63.4189 Z-0.3592
X-151.3887 Y63.4244 Z-0.31
G0 Z5
X-151.3472 Y27.2419
Z-0.12
G1 Z-0.31 F3200
X-151.3537 Y27.2417 Z-0.3592
X-151.3727 Y27.241 Z-0.405
X-151.4029 Y27.24 Z-0.4444
X-151.4422 Y27.2386 Z-0.4745
X-151.488 Y27.2371 Z-0.4935
X-151.5371 Y27.2354 Z-0.5
G3 X-151.5374 Y26.45 I0.0134 J-0.3927
G1 X-151.2587
X-151.1089 Y26.4575
X-150.9689 Y26.5113
X-150.8431 Y26.593
X-150.7312 Y26.6929
X-150.6329 Y26.8062
X-150.546 Y26.9285
X-150.4924 Y27.0205
X-150.4593 Y27.091
X-150.439 Y27.1661
X-150.4322 Y27.2436
X-150.4418 Y27.2971
X-150.4662 Y27.3456
X-150.5033 Y27.3853
X-150.5501 Y27.4128
X-150.6028 Y27.426
X-150.657 Y27.4237
X-150.7084 Y27.4062
X-150.7528 Y27.3749
X-151.0064 Y27.1345
X-151.1365 Y27.0112
X-151.3828 Y26.7778
X-151.4139 Y26.7394
X-151.4341 Y26.6943
X-151.442 Y26.6455
X-151.437 Y26.5963
X-151.4195 Y26.5501
X-151.3907 Y26.5099
X-151.3524 Y26.4786
X-151.3074 Y26.4581
X-151.2587 Y26.45
X-150.7716
X-150.7434
X-150.7012 Y26.4507
X-150.5763 Y26.459
X-150.5312 Y26.4827
X-150.4955 Y26.5192
X-150.4727 Y26.5648
X-150.4651 Y26.6152
X-150.4733 Y26.6655
X-150.4965 Y26.7109
X-150.5325 Y26.747
X-150.5779 Y26.7702
X-150.6282 Y26.7785
X-150.6972 Y26.7789
X-150.7433 Y26.7726
X-150.7857 Y26.7536
X-150.8212 Y26.7235
X-150.8467 Y26.6846
X-150.8604 Y26.6401
X-150.8609 Y26.5935
X-150.8484 Y26.5487
X-150.8239 Y26.5092
X-150.7892 Y26.4782
X-150.7472 Y26.4581
X-150.7012 Y26.4507
X-150.604 Y26.4523
X-150.587 Y26.4558
X-150.57 Y26.4609
X-150.5529 Y26.4679
X-150.5359 Y26.4769
X-150.5146 Y26.4918
X-150.4932 Y26.5117
X-150.4791 Y26.5291
X-150.4647 Y26.5513
X-150.4467 Y26.585
X-150.4406 Y26.6018
X-150.4363 Y26.6186
X-150.4335 Y26.6354
X-150.4323 Y26.6522
X-150.4322 Y63.1749
Y63.217
Y63.2464
X-150.4609 Y63.3637
X-150.5311 Y63.462
X-150.6328 Y63.5272
X-150.7513 Y63.55
G3 X-151.0224 Y63.1652 I0.0103 J-0.2951
X-150.4322 Y63.2464 I0.2881 J0.0918
G1 X-150.4323 Y63.3478
X-150.4335 Y63.3646
X-150.4363 Y63.3814
X-150.4406 Y63.3982
X-150.4467 Y63.415
X-150.4677 Y63.4535
X-150.4791 Y63.4709
X-150.4932 Y63.4883
X-150.5146 Y63.5082
X-150.5359 Y63.5231
X-150.5529 Y63.5321
X-150.57 Y63.5391
X-150.587 Y63.5442
X-150.604 Y63.5477
X-150.7434 Y63.55
X-151.2407
X-151.2938 Y63.5405
X-151.3421 Y63.5164
X-151.3816 Y63.4798
X-151.4093 Y63.4335
X-151.4229 Y63.3813
X-151.4212 Y63.3273
X-151.4044 Y63.2761
X-151.374 Y63.2316
X-151.3322 Y63.1974
X-151.2825 Y63.1764
X-151.2289 Y63.1702
X-151.1886 Y63.1848 Z-0.4946
X-151.1505 Y63.1986 Z-0.4797
X-151.1165 Y63.2109 Z-0.4559
X-151.0975 Y63.2323 Z-0.426
X-151.0833 Y63.2484 Z-0.3906
X-151.0745 Y63.2584 Z-0.3514
X-151.0715 Y63.2618 Z-0.3102
G0 Z5
X-152.4138 Y26.9897
Z0.08
G1 Z-0.11 F3200
X-152.4083 Y26.9864 Z-0.1592
X-152.392 Y26.9767 Z-0.205
X-152.366 Y26.9613 Z-0.2444
X-152.3322 Y26.9412 Z-0.2745
X-152.2928 Y26.9178 Z-0.2935
X-152.2505 Y26.8926 Z-0.3
G3 X-150.7434 Y26.45 I1.6176 J2.7206
G1 X-150.4647
X-150.3898 Y26.4538
X-150.2582 Y26.5258
X-150.1555 Y26.6351
X-150.0725 Y26.7601
X-150.0047 Y26.8939
X-149.9393 Y27.057
X-149.871 Y27.2774
X-149.8002 Y27.5936
X-149.7273 Y28.1109
X-149.6908 Y28.7231
X-149.6785 Y29.3363
X-149.6743 Y29.9496
X-149.6724 Y31.1761
X-149.6725 Y62.8092
X-149.6869 Y62.9866
X-149.711 Y63.1346
X-149.731 Y63.2144
X-149.7895 Y63.3484
X-149.8883 Y63.4562
X-150.0169 Y63.5259
X-150.1611 Y63.55
X-150.6807
X-150.7321 Y63.541
X-150.7791 Y63.5184
X-150.8182 Y63.4838
X-150.8465 Y63.4399
X-150.8617 Y63.39
X-150.8627 Y63.3378
X-150.8496 Y63.2873
X-150.8231 Y63.2423
X-150.7855 Y63.2062
X-150.7394 Y63.1817
X-150.6884 Y63.1707
X-150.6363 Y63.1739
X-150.587 Y63.1912
X-150.5443 Y63.2213
X-150.5115 Y63.2618
X-150.486 Y63.3039 Z-0.2935
X-150.4623 Y63.3431 Z-0.2745
X-150.442 Y63.3768 Z-0.2443
X-150.4263 Y63.4026 Z-0.205
X-150.4165 Y63.4189 Z-0.1592
X-150.4132 Y63.4244 Z-0.11
G0 Z5
X-150.8799 Y26.8323
Z0.08
G1 Z-0.11 F3200
X-150.877 Y26.8266 Z-0.1592
X-150.8685 Y26.8096 Z-0.205
X-150.855 Y26.7826 Z-0.2444
X-150.8374 Y26.7473 Z-0.2745
X-150.817 Y26.7063 Z-0.2935
X-150.795 Y26.6624 Z-0.3
G3 X-150.4647 Y26.45 I0.3438 J0.1716
G1 X-150.186
X-150.0361 Y26.4575
X-149.8956 Y26.5098
X-149.7691 Y26.5905
X-149.6566 Y26.6897
X-149.5578 Y26.8025
X-149.4704 Y26.9245
X-149.414 Y27.0206
X-149.3805 Y27.0913
X-149.36 Y27.1669
X-149.3531 Y27.2449
X-149.3627 Y27.2983
X-149.387 Y27.3467
X-149.424 Y27.3864
X-149.4706 Y27.414
X-149.5232 Y27.4272
X-149.5774 Y27.4251
X-149.6287 Y27.4078
X-149.6731 Y27.3767
X-149.9283 Y27.1368
X-150.0629 Y27.0102
X-150.3095 Y26.7783
X-150.3408 Y26.74
X-150.3612 Y26.6948
X-150.3692 Y26.646
X-150.3644 Y26.5967
X-150.3469 Y26.5504
X-150.3181 Y26.5101
X-150.2799 Y26.4787
X-150.2348 Y26.4582
X-150.186 Y26.45
X-149.6912
X-149.6567
X-149.6285
X-149.5056 Y26.4562
X-149.4594 Y26.4795
X-149.4212 Y26.5145
X-149.3939 Y26.5586
X-149.3795 Y26.6083
X-149.3791 Y26.6601
X-149.3927 Y26.7101
X-149.4192 Y26.7545
X-149.4568 Y26.7902
X-149.5026 Y26.8143
X-149.5532 Y26.8252
X-149.6076 Y26.8293
X-149.6622 Y26.8256
X-149.7135 Y26.8063
X-149.7572 Y26.7733
X-149.7896 Y26.7291
X-149.8081 Y26.6776
X-149.8111 Y26.6229
X-149.7984 Y26.5696
X-149.771 Y26.5222
X-149.7313 Y26.4845
X-149.6824 Y26.4598
X-149.6285 Y26.45
X-149.5588
X-149.524 Y26.4523
X-149.5066 Y26.4559
X-149.4892 Y26.4612
X-149.4639 Y26.4724
X-149.4386 Y26.4886
X-149.4233 Y26.5015
X-149.4081 Y26.5176
X-149.388 Y26.5465
X-149.3691 Y26.5814
X-149.3625 Y26.5988
X-149.3577 Y26.6162
X-149.3546 Y26.6336
X-149.3532 Y26.651
X-149.3531 Y63.1749
Y63.217
Y63.2464
X-149.3818 Y63.3637
X-149.452 Y63.462
X-149.5536 Y63.5272
X-149.6722 Y63.55
G3 X-149.9433 Y63.1652 I0.0103 J-0.2951
X-149.3531 Y63.2464 I0.2881 J0.0918
G1 X-149.3532 Y63.349
X-149.3546 Y63.3664
X-149.3577 Y63.3838
X-149.3625 Y63.4012
X-149.3691 Y63.4186
X-149.388 Y63.4535
X-149.4081 Y63.4824
X-149.4233 Y63.4985
X-149.4386 Y63.5114
X-149.4639 Y63.5276
X-149.4892 Y63.5388
X-149.5066 Y63.5441
X-149.524 Y63.5477
X-149.5588 Y63.55
X-150.1611
X-150.2142 Y63.5405
X-150.2625 Y63.5164
X-150.302 Y63.4798
X-150.3297 Y63.4335
X-150.3433 Y63.3813
X-150.3416 Y63.3273
X-150.3248 Y63.2761
X-150.2944 Y63.2316
X-150.2526 Y63.1974
X-150.2029 Y63.1764
X-150.1493 Y63.1702
X-150.109 Y63.1848 Z-0.2946
X-150.0708 Y63.1986 Z-0.2797
X-150.0369 Y63.2109 Z-0.2559
X-150.0179 Y63.2323 Z-0.226
X-150.0037 Y63.2484 Z-0.1906
X-149.9948 Y63.2584 Z-0.1514
X-149.9919 Y63.2618 Z-0.1102
G0 Z5
X-176.7865 Y-2.4507
Z-3.72
G1 Z-3.91 F3200
X-176.7892 Y-2.4448 Z-3.9592
X-176.7974 Y-2.4277 Z-4.005
X-176.8104 Y-2.4005 Z-4.0443
X-176.8274 Y-2.365 Z-4.0745
X-176.8471 Y-2.3236 Z-4.0935
X-176.8683 Y-2.2792 Z-4.1
G3 X-177.694 Y-0.943 I-6.5794 J-3.1423
G1 X-177.7384 Y-0.8899
X-177.8118 Y-0.7878
X-177.9054 Y-0.6705
X-178.0287 Y-0.585
X-178.1614 Y-0.5153
X-178.3031 Y-0.4567
X-178.5609 Y-0.2907
X-178.7493 Y-0.0487
X-179.0159 Y0.5036
X-179.1176 Y1.1084
X-179.1537 Y1.7206
X-179.1662 Y2.3337
X-179.1705 Y2.947
X-179.1724 Y4.1735
X-179.1698 Y48.9429
X-179.1682 Y74.0066
X-179.202 Y74.1763
X-179.298 Y74.3201
X-179.4419 Y74.4163
X-179.6115 Y74.45
X-179.663 Y74.441
X-179.71 Y74.4184
X-179.7491 Y74.3838
X-179.7773 Y74.3399
X-179.7926 Y74.29
X-179.7936 Y74.2378
X-179.7804 Y74.1873
X-179.754 Y74.1423
X-179.7163 Y74.1062
X-179.6702 Y74.0817
X-179.6192 Y74.0707
X-179.5671 Y74.0739
X-179.5179 Y74.0912
X-179.4752 Y74.1213
X-179.4423 Y74.1618
X-179.4169 Y74.2039 Z-4.0935
X-179.3932 Y74.2431 Z-4.0745
X-179.3728 Y74.2768 Z-4.0444
X-179.3572 Y74.3026 Z-4.005
X-179.3474 Y74.3189 Z-3.9592
X-179.344 Y74.3244 Z-3.91
G0 Z5
X-177.535 Y-1.7181
Z-3.72
G1 Z-3.91 F3200
X-177.5356 Y-1.7116 Z-3.9592
X-177.5372 Y-1.6927 Z-4.005
X-177.5399 Y-1.6626 Z-4.0444
X-177.5433 Y-1.6234 Z-4.0745
X-177.5473 Y-1.5778 Z-4.0935
X-177.5515 Y-1.5288 Z-4.1
G3 X-177.8118 Y-0.7878 I-1.5766 J-0.1376
G1 X-177.8385 Y-0.7507
X-177.9186 Y-0.5931
X-177.9669 Y-0.4721
X-178.0107 Y-0.3328
X-178.0231 Y-0.2562
X-178.1509 Y0.3436
X-178.2899 Y0.9409
X-178.3596 Y1.5502
X-178.3909 Y2.1627
X-178.404 Y2.7758
X-178.4093 Y3.3891
X-178.4114 Y4.0023
X-178.4125 Y6.4554
X-178.4097 Y49.9982
X-178.4083 Y73.3028
X-178.4173 Y73.6084
X-178.4355 Y73.7733
X-178.4665 Y73.9344
X-178.5066 Y74.079
X-178.5372 Y74.1612
X-178.6317 Y74.3124
X-178.778 Y74.4142
X-178.9527 Y74.45
X-179.0041 Y74.441
X-179.0511 Y74.4184
X-179.0902 Y74.3838
X-179.1185 Y74.3399
X-179.1337 Y74.29
X-179.1347 Y74.2378
X-179.1215 Y74.1873
X-179.0951 Y74.1423
X-179.0574 Y74.1062
X-179.0114 Y74.0817
X-178.9603 Y74.0707
X-178.9083 Y74.0739
X-178.859 Y74.0912
X-178.8163 Y74.1213
X-178.7835 Y74.1618
X-178.758 Y74.2039 Z-4.0935
X-178.7343 Y74.2431 Z-4.0745
X-178.7139 Y74.2768 Z-4.0444
X-178.6983 Y74.3026 Z-4.005
X-178.6885 Y74.3189 Z-3.9592
X-178.6852 Y74.3244 Z-3.91
G0 Z5
X-178.1913 Y-1.2122
Z-3.72
G1 Z-3.91 F3200
X-178.189 Y-1.2061 Z-3.9592
X-178.182 Y-1.1885 Z-4.005
X-178.1709 Y-1.1604 Z-4.0444
X-178.1564 Y-1.1238 Z-4.0745
X-178.1396 Y-1.0812 Z-4.0935
X-178.1215 Y-1.0355 Z-4.1
G3 X-178.0231 Y-0.2562 I-1.4718 J0.5817
G1 X-178.0332 Y-0.1936
X-178.0449 Y-0.0543
X-178.05 Y0.3635
X-178.0498 Y24.8753
X-178.0483 Y25.0146
X-178.0379 Y25.1538
X-178.0199 Y25.2931
X-177.9804 Y25.4324
X-177.9289 Y25.5716
X-177.8768 Y25.7123
X-177.8069 Y25.9846
X-177.7347 Y26.4024
X-177.6792 Y27.0131
X-177.6606 Y27.6261
X-177.6544 Y28.2394
X-177.6522 Y28.8527
X-177.6509 Y31.3058
X-177.6489 Y63.8421
X-177.6611 Y63.9455
X-177.6971 Y64.0433
X-177.755 Y64.1299
X-177.772 Y64.1498
X-177.8616 Y64.2891
X-177.9289 Y64.4284
X-177.9804 Y64.5676
X-178.0199 Y64.7069
X-178.0379 Y64.8462
X-178.0483 Y64.9855
X-178.0498 Y65.1247
X-178.05 Y73.9754
Y74.0099
Y74.0381
X-178.0575 Y74.1879
X-178.1337 Y74.3242
X-178.2593 Y74.4171
X-178.4119 Y74.45
X-178.463 Y74.4411
X-178.5098 Y74.4188
X-178.5488 Y74.3846
X-178.5772 Y74.3411
X-178.5927 Y74.2916
X-178.5942 Y74.2398
X-178.5817 Y74.1895
X-178.556 Y74.1444
X-178.3906 Y73.929
X-178.3539 Y73.8927
X-178.3088 Y73.8677
X-178.2586 Y73.8556
X-178.207 Y73.8576
X-178.1579 Y73.8733
X-178.1148 Y73.9017
X-178.0809 Y73.9406
X-178.0588 Y73.9872
X-178.05 Y74.0381
Y74.2408
X-178.0513 Y74.2725
X-178.0579 Y74.3042
X-178.0621 Y74.3166
X-178.072 Y74.3387
X-178.0856 Y74.3607
X-178.1041 Y74.3827
X-178.1297 Y74.4048
X-178.1635 Y74.4275
X-178.1804 Y74.4355
X-178.1973 Y74.4416
X-178.2147 Y74.4461
X-178.2321 Y74.4488
X-178.267 Y74.45
X-178.9527
X-179.0041 Y74.441
X-179.0511 Y74.4184
X-179.0902 Y74.3838
X-179.1185 Y74.3399
X-179.1337 Y74.29
X-179.1347 Y74.2378
X-179.1215 Y74.1873
X-179.0951 Y74.1423
X-179.0574 Y74.1062
X-179.0114 Y74.0817
X-178.9603 Y74.0707
X-178.9083 Y74.0739
X-178.859 Y74.0912
X-178.8163 Y74.1213
X-178.7835 Y74.1618
X-178.758 Y74.2039 Z-4.0935
X-178.7343 Y74.2431 Z-4.0745
X-178.7139 Y74.2768 Z-4.0444
X-178.6983 Y74.3026 Z-4.005
X-178.6885 Y74.3189 Z-3.9592
X-178.6852 Y74.3244 Z-3.91
G0 Z5
X-178.601 Y24.8715
Z-3.72
G1 Z-3.91 F3200
X-178.5957 Y24.8751 Z-3.9592
X-178.5801 Y24.8859 Z-4.005
X-178.5552 Y24.903 Z-4.0443
X-178.5228 Y24.9254 Z-4.0745
X-178.4851 Y24.9514 Z-4.0935
X-178.4446 Y24.9793 Z-4.1
G3 X-177.9289 Y25.5716 I-0.8983 J1.3029
G1 X-177.8616 Y25.7109
X-177.772 Y25.8502
X-177.6398 Y26.0044
X-177.5725 Y26.0747
X-177.5355 Y26.1044
X-177.4234 Y26.204
X-177.3383 Y26.3276
X-177.2668 Y26.4594
X-177.1964 Y26.6216
X-177.1232 Y26.8359
X-177.05 Y27.1243
X-176.9746 Y27.5675
X-176.9207 Y28.1784
X-176.9016 Y28.7914
X-176.8948 Y29.4047
X-176.8924 Y30.0179
X-176.891 Y31.8578
X-176.8889 Y63.135
X-176.8919 Y63.2705
X-176.9289 Y63.4384
X-177.0271 Y63.5797
X-177.1716 Y63.6729
X-177.2218 Y63.6928
X-177.3611 Y63.7667
X-177.5052 Y63.8713
X-177.5725 Y63.9253
X-177.6398 Y63.9957
X-177.755 Y64.1299
X-177.7952 Y64.1632
X-177.8429 Y64.1843
X-177.8946 Y64.1916
X-177.9463 Y64.1846
X-177.9942 Y64.1637
X-178.0346 Y64.1306
X-178.0644 Y64.0878
X-178.0815 Y64.0385
X-178.0845 Y63.9864
X-178.0732 Y63.9354
X-178.0485 Y63.8895
X-178.0122 Y63.852
X-177.9671 Y63.8258
X-177.9165 Y63.8128
X-177.8643 Y63.8141
X-177.8158 Y63.8221 Z-4.0935
X-177.7706 Y63.8295 Z-4.0745
X-177.7318 Y63.8359 Z-4.0444
X-177.702 Y63.8408 Z-4.005
X-177.6832 Y63.8438 Z-3.9592
X-177.6768 Y63.8449 Z-3.91
G0 Z5
X-178.4498 Y25.7785
Z-3.72
G1 Z-3.91 F3200
X-178.4434 Y25.7794 Z-3.9592
X-178.4246 Y25.7821 Z-4.005
X-178.3947 Y25.7863 Z-4.0444
X-178.3557 Y25.7918 Z-4.0745
X-178.3103 Y25.7982 Z-4.0935
X-178.2616 Y25.8051 Z-4.1
G3 X-177.5355 Y26.1044 I-0.2212 J1.567
G1 X-177.5005 Y26.1322
X-177.3611 Y26.2333
X-177.2218 Y26.3072
X-177.1451 Y26.3376
X-177.0086 Y26.3998
X-176.8887 Y26.4899
X-176.7841 Y26.5974
X-176.6933 Y26.7168
X-176.6138 Y26.844
X-176.5348 Y26.9977
X-176.448 Y27.2063
X-176.3661 Y27.4584
X-176.2841 Y27.8033
X-176.2039 Y28.3221
X-176.1593 Y28.9337
X-176.1419 Y29.5468
X-176.1352 Y30.16
X-176.1325 Y30.7733
X-176.1309 Y32.6131
X-176.1289 Y62.6638
X-176.1438 Y62.9235
X-176.1651 Y63.0769
X-176.2004 Y63.2365
X-176.203 Y63.2447
X-176.2633 Y63.3682
X-176.3585 Y63.4674
X-176.4795 Y63.5326
X-176.6147 Y63.5576
X-176.6643 Y63.5589
X-176.8037 Y63.5665
X-176.9431 Y63.5942
X-177.0824 Y63.6375
X-177.1716 Y63.6729
X-177.2227 Y63.6835
X-177.2747 Y63.6798
X-177.3238 Y63.6621
X-177.3663 Y63.6317
X-177.3988 Y63.5909
X-177.419 Y63.5428
X-177.4254 Y63.491
X-177.4175 Y63.4394
X-177.3958 Y63.392
X-177.362 Y63.3522
X-177.3186 Y63.3231
