%
(Made in : Autodesk CAM Post Processor)
(G Code optimized for OpenBuilds OX CNC 1000 x 750 with GRBL V0.9j controller)

(Program Name : 1001)
(2 Operations :)
(1 : Pocket3)
(  Tool : Flat End Mill 2 Flutes, Diam = 1.9mm, Len = 12.7mm)
(  Spindle : RPM = 30000, set router dial to 6)
(  Machining time : 19 sec)
(2 : Scallop1)
(  Tool : Flat End Mill 2 Flutes, Diam = 1.9mm, Len = 12.7mm)
(  Spindle : RPM = 30000, set router dial to 6)
(  Machining time : 2 min 10 sec)

G90 G94
G17
G21

(Operation 1 of 2 : Pocket3)

G53 G0 Z5
G54
S30000 M3
G4 P1.0
X181.0599 Y41.6497
Z6
Z-1.81
G1 X181.0543 Y41.6465 Z-1.8592 F3200
X181.0378 Y41.6371 Z-1.905
X181.0115 Y41.6222 Z-1.9443
X180.9773 Y41.6028 Z-1.9745
X180.9374 Y41.5802 Z-1.9935
X180.8947 Y41.5559 Z-2
X177.0449 Y39.3712
G3 X176.7436 Y38.8538 I0.2936 J-0.5174
G1 Y34.3446
G3 X177.0494 Y33.8356 I0.5764
G1 X177.082 Y33.825
X177.1162 Y33.8259
X177.1481 Y33.8384
X177.174 Y33.8609
X177.1907 Y33.8908
X177.1963 Y33.9247
X177.1482 Y40.7152
X177.14 Y40.754
X177.1174 Y40.7866
X177.084 Y40.8078
X177.0449 Y40.8144
G2 X176.8396 Y40.8086 I-0.718 J21.8181
X176.3794 Y40.8179 I-0.1241 J5.283
G3 X175.9193 Y40.8325 I-0.4601 J-7.2194
X175.3429 Y40.2561 J-0.5764
G1 Y32.9439
G3 X175.9193 Y32.3675 I0.5764
G1 X177.0408
X180.8971
X180.9462 Z-1.9935
X180.9921 Z-1.9745
X181.0314 Z-1.9444
X181.0616 Z-1.905
X181.0806 Z-1.8592
X181.0871 Z-1.81
G0 Z5
X181.0598 Y42.3234
Z-1.81
G1 X181.0533 Y42.3232 Z-1.8592 F3200
X181.0344 Y42.3225 Z-1.905
X181.0042 Y42.3214 Z-1.9443
X180.9649 Y42.3199 Z-1.9745
X180.9191 Y42.3182 Z-1.9935
X180.8699 Y42.3163 Z-2
X177.0477 Y42.1735
G2 X176.8078 Y42.1662 I-0.647 J17.3166
X175.663 Y42.193 I-0.287 J12.2135
G3 X174.5186 Y42.2332 I-1.1444 J-16.2585
X173.9422 Y41.6568 J-0.5764
G1 Y31.5432
G3 X174.5186 Y30.9668 I0.5764
G1 X177.0468
X180.8733
X180.9225 Z-1.9935
X180.9683 Z-1.9745
X181.0077 Z-1.9444
X181.0379 Z-1.905
X181.0568 Z-1.8592
X181.0633 Z-1.81
G0 Z5
X181.0602 Y43.7284
Z-1.81
G1 X181.0538 Y43.7282 Z-1.8592 F3200
X181.0348 Y43.7274 Z-1.905
X181.0046 Y43.7262 Z-1.9444
X180.9653 Y43.7246 Z-1.9745
X180.9195 Y43.7227 Z-1.9935
X180.8704 Y43.7207 Z-2
X177.0469 Y43.5655
G2 X176.7751 Y43.5568 I-0.6458 J15.9076
X174.9463 Y43.5846 I-0.5551 J23.6253
G3 X173.1179 Y43.6339 I-1.8284 J-33.874
X172.5415 Y43.0575 J-0.5764
G1 Y30.1425
G3 X173.1179 Y29.5661 I0.5764
G1 X177.0432
X180.8698
X180.9189 Z-1.9935
X180.9648 Z-1.9745
X181.0041 Z-1.9444
X181.0343 Z-1.905
X181.0533 Z-1.8592
X181.0598 Z-1.81
G0 Z5
X181.0609 Y45.1456
Z-1.81
G1 X181.0544 Y45.1453 Z-1.8592 F3200
X181.0354 Y45.1445 Z-1.905
X181.0053 Y45.1431 Z-1.9443
X180.966 Y45.1414 Z-1.9745
X180.9202 Y45.1394 Z-1.9935
X180.871 Y45.1372 Z-2
X177.0448 Y44.9674
G2 X176.7422 Y44.9571 I-0.6437 J14.5064
X174.2295 Y44.9811 I-0.8933 J38.0168
G3 X171.7172 Y45.0346 I-2.5123 J-58.9396
X171.1408 Y44.4582 J-0.5764
G1 Y28.7418
G3 X171.7172 Y28.1654 I0.5764
G1 X177.0491
X180.8757
X180.9249 Z-1.9935
X180.9707 Z-1.9745
X181.01 Z-1.9444
X181.0402 Z-1.905
X181.0592 Z-1.8592
X181.0657 Z-1.81
G0 Z5
X181.0598 Y46.5684
Z-1.81
G1 X181.0533 Y46.568 Z-1.8592 F3200
X181.0343 Y46.5671 Z-1.905
X181.0042 Y46.5656 Z-1.9443
X180.9649 Y46.5637 Z-1.9745
X180.9191 Y46.5614 Z-1.9935
X180.87 Y46.559 Z-2
X177.0498 Y46.3699
G2 X176.7093 Y46.3574 I-0.6487 J13.1047
X173.5126 Y46.3776 I-1.2599 J53.6177
G3 X170.3165 Y46.4353 I-3.1962 J-88.451
X169.7401 Y45.8589 J-0.5764
G1 Y27.3411
G3 X170.3165 Y26.7647 I0.5764
G1 X177.0455
X180.8721
X180.9213 Z-1.9935
X180.9671 Z-1.9745
X181.0065 Z-1.9444
X181.0367 Z-1.905
X181.0556 Z-1.8592
X181.0621 Z-1.81
G0 Z5
X181.0609 Y47.9933
Z-1.81
G1 X181.0545 Y47.9929 Z-1.8592 F3200
X181.0355 Y47.9919 Z-1.905
X181.0054 Y47.9902 Z-1.9444
X180.9661 Y47.9881 Z-1.9745
X180.9203 Y47.9855 Z-1.9935
X180.8712 Y47.9828 Z-2
X177.0453 Y47.7722
G2 X176.6764 Y47.7578 I-0.6442 J11.7034
X172.7959 Y47.7741 I-1.6452 J70.0149
G3 X168.9158 Y47.836 I-3.8801 J-121.5017
X168.3394 Y47.2596 J-0.5764
G1 Y25.9404
G3 X168.9158 Y25.364 I0.5764
G1 X177.042
X180.8982
X180.9474 Z-1.9935
X180.9932 Z-1.9745
X181.0326 Z-1.9444
X181.0628 Z-1.905
X181.0818 Z-1.8592
X181.0882 Z-1.81
G0 Z5
X181.0603 Y49.4262
Z-1.81
G1 X181.0539 Y49.4258 Z-1.8592 F3200
X181.0349 Y49.4247 Z-1.905
X181.0048 Y49.4228 Z-1.9443
X180.9655 Y49.4203 Z-1.9745
X180.9198 Y49.4175 Z-1.9935
X180.8707 Y49.4144 Z-2
X177.0447 Y49.1753
G2 X176.6435 Y49.1581 I-0.6437 J10.3017
X172.079 Y49.1706 I-2.0434 J86.9641
G3 X167.5151 Y49.2368 I-4.5639 J-157.4158
X166.9387 Y48.6603 J-0.5764
G1 Y24.5397
G3 X167.5151 Y23.9632 I0.5764
G1 X177.0479
X180.8745
X180.9237 Z-1.9935
X180.9695 Z-1.9745
X181.0088 Z-1.9444
X181.039 Z-1.905
X181.058 Z-1.8592
X181.0645 Z-1.81
G0 Z5
X181.0601 Y50.87
Z-1.81
G1 X181.0537 Y50.8695 Z-1.8592 F3200
X181.0347 Y50.8681 Z-1.905
X181.0046 Y50.866 Z-1.9444
X180.9654 Y50.8631 Z-1.9745
X180.9197 Y50.8598 Z-1.9935
X180.8706 Y50.8563 Z-2
X177.0455 Y50.5792
G2 X176.6106 Y50.5584 I-0.6445 J8.8995
X171.3622 Y50.5671 I-2.4511 J104.3116
G3 X166.1144 Y50.6375 I-5.2479 J-195.6793
X165.5379 Y50.061 J-0.5764
G1 Y23.139
G3 X166.1144 Y22.5625 I0.5764
G1 X177.0443
X180.8709
X180.9201 Z-1.9935
X180.9659 Z-1.9745
X181.0053 Z-1.9444
X181.0355 Z-1.905
X181.0544 Z-1.8592
X181.0609 Z-1.81
G0 Z5
X181.0602 Y52.3271
Z-1.81
G1 X181.0538 Y52.3266 Z-1.8592 F3200
X181.0349 Y52.325 Z-1.905
X181.0048 Y52.3224 Z-1.9444
X180.9656 Y52.319 Z-1.9745
X180.9199 Y52.3152 Z-1.9935
X180.8709 Y52.311 Z-2
X177.0412 Y51.9839
G2 X176.5777 Y51.9587 I-0.6403 J7.4974
X170.6454 Y51.9636 I-2.8657 J121.9562
G3 X164.7137 Y52.0382 I-5.9317 J-235.8944
X164.1373 Y51.4617 J-0.5764
G1 Y21.7383
G3 X164.7137 Y21.1618 I0.5764
G1 X177.0408
X180.897
X180.9462 Z-1.9935
X180.992 Z-1.9745
X181.0314 Z-1.9443
X181.0616 Z-1.905
X181.0805 Z-1.8592
X181.087 Z-1.81
G0 Z5
X181.0607 Y53.8164
Z-1.81
G1 X181.0542 Y53.8158 Z-1.8592 F3200
X181.0353 Y53.8138 Z-1.905
X181.0053 Y53.8106 Z-1.9444
X180.9662 Y53.8064 Z-1.9745
X180.9206 Y53.8016 Z-1.9935
X180.8717 Y53.7964 Z-2
X177.046 Y53.3914
G2 X176.5448 Y53.359 I-0.6452 J6.0937
X169.9286 Y53.3601 I-3.2856 J139.8279
G3 X163.313 Y53.4389 I-6.6157 J-277.748
X162.7365 Y52.8624 J-0.5764
G1 Y20.3376
G3 X163.313 Y19.7611 I0.5764
G1 X177.0467
X180.8733
X180.9225 Z-1.9935
X180.9683 Z-1.9745
X181.0076 Z-1.9444
X181.0378 Z-1.905
X181.0568 Z-1.8592
X181.0633 Z-1.81
G0 Z5
X181.0597 Y55.3503
Z-1.81
G1 X181.0533 Y55.3495 Z-1.8592 F3200
X181.0345 Y55.3469 Z-1.905
X181.0046 Y55.3428 Z-1.9443
X180.9656 Y55.3375 Z-1.9745
X180.9202 Y55.3313 Z-1.9935
X180.8715 Y55.3246 Z-2
X177.0411 Y54.8016
G2 X176.5118 Y54.7593 I-0.6404 J4.6899
X169.2118 Y54.7566 I-3.7097 J157.8775
G3 X161.9123 Y54.8396 I-7.2995 J-320.9908
X161.3358 Y54.2631 J-0.5764
G1 Y18.9369
G3 X161.9123 Y18.3604 I0.5764
G1 X177.0431
X177.0729 Y18.3628
X180.8816 Y18.966
X180.9302 Y18.9737 Z-1.9935
X180.9755 Y18.9809 Z-1.9745
X181.0143 Y18.987 Z-1.9444
X181.0442 Y18.9918 Z-1.905
X181.0629 Y18.9947 Z-1.8592
X181.0693 Y18.9957 Z-1.81
G0 Z5
X181.06 Y57.0096
Z-1.81
G1 X181.0536 Y57.0083 Z-1.8592 F3200
X181.035 Y57.0047 Z-1.905
X181.0054 Y56.9988 Z-1.9444
X180.9668 Y56.9913 Z-1.9745
X180.9218 Y56.9824 Z-1.9935
X180.8736 Y56.973 Z-2
X177.0448 Y56.2214
G2 X176.4789 Y56.1597 I-0.6445 J3.2831
X168.495 Y56.1531 I-4.1372 J176.0688
G3 X160.5116 Y56.2403 I-7.9835 J-365.4217
X159.9351 Y55.6638 J-0.5764
G1 Y17.5362
G3 X160.5116 Y16.9597 I0.5764
G1 X177.0491
X177.0934 Y16.965
X177.1353 Y16.9804
X180.9151 Y18.9064
X180.959 Y18.9287 Z-1.9935
X180.9998 Y18.9495 Z-1.9745
X181.0349 Y18.9673 Z-1.9444
X181.0618 Y18.9811 Z-1.905
X181.0787 Y18.9897 Z-1.8592
X181.0844 Y18.9926 Z-1.81
G0 Z5
X181.0607 Y59.032
Z-1.81
G1 X181.0546 Y59.03 Z-1.8592 F3200
X181.0365 Y59.0241 Z-1.905
X181.0078 Y59.0148 Z-1.9443
X180.9704 Y59.0025 Z-1.9745
X180.9269 Y58.9883 Z-1.9935
X180.8801 Y58.973 Z-2
X177.0445 Y57.7198
X176.9774 Y57.7014
X176.8535 Y57.6737
G2 X176.7125 Y57.6565 I-0.158 J0.7076
G1 X176.4439 Y57.6502
X176.4269 Y57.65
X158.5254
Y15.55
X177.0493
X177.079 Y15.5523
X181.4743 Y16.2485
X181.5228 Y16.2562 Z-1.9935
X181.5681 Y16.2633 Z-1.9745
X181.607 Y16.2695 Z-1.9444
X181.6368 Y16.2742 Z-1.905
X181.6555 Y16.2772 Z-1.8592
X181.6619 Y16.2782 Z-1.81
G0 Z5
X181.06 Y50.759
Z-3.81
G1 X181.0535 Y50.7589 Z-3.8592 F3200
X181.0346 Y50.7584 Z-3.905
X181.0044 Y50.7575 Z-3.9443
X180.9651 Y50.7565 Z-3.9745
X180.9192 Y50.7552 Z-3.9935
X180.8701 Y50.7539 Z-4
X176.9048 Y50.6466
G3 X176.3289 Y50.0549 I0.016 J-0.5917
G1 Y23.139
G3 X176.9053 Y22.5625 I0.5764
G1 X177.0479
X180.8745
X180.9237 Z-3.9935
X180.9695 Z-3.9745
X181.0088 Z-3.9443
X181.039 Z-3.905
X181.058 Z-3.8592
X181.0645 Z-3.81
G0 Z5
X181.0601 Y52.3778
Z-3.81
G1 X181.0536 Y52.3772 Z-3.8592 F3200
X181.0347 Y52.3756 Z-3.905
X181.0046 Y52.373 Z-3.9443
X180.9654 Y52.3696 Z-3.9745
X180.9198 Y52.3657 Z-3.9935
X180.8708 Y52.3615 Z-4
X177.0481 Y52.0323
G2 X176.5765 Y52.0065 I-0.6493 J7.5398
X176.0405 Y52.0192 I-0.1335 J5.6813
G3 X175.5046 Y52.0382 I-0.5359 J-7.5458
X174.9282 Y51.4617 J-0.5764
G1 Y21.7383
G3 X175.5046 Y21.1618 I0.5764
G1 X177.0443
X180.8709
X180.9201 Z-3.9935
X180.9659 Z-3.9745
X181.0053 Z-3.9443
X181.0354 Z-3.905
X181.0544 Z-3.8592
X181.0609 Z-3.81
G0 Z5
X181.0603 Y53.8197
Z-3.81
G1 X181.0538 Y53.8191 Z-3.8592 F3200
X181.035 Y53.8171 Z-3.905
X181.0049 Y53.8139 Z-3.9443
X180.9658 Y53.8098 Z-3.9745
X180.9202 Y53.805 Z-3.9935
X180.8713 Y53.7998 Z-4
X177.0437 Y53.3962
G2 X176.5446 Y53.364 I-0.6431 J6.0986
X175.3241 Y53.3943 I-0.2972 J12.6489
G3 X174.1039 Y53.4389 I-1.2201 J-16.6744
X173.5275 Y52.8624 J-0.5764
G1 Y20.3376
G3 X174.1039 Y19.7611 I0.5764
G1 X177.0408
X180.897
X180.9462 Z-3.9935
X180.992 Z-3.9745
X181.0314 Z-3.9444
X181.0616 Z-3.905
X181.0805 Z-3.8592
X181.087 Z-3.81
G0 Z5
X181.0597 Y55.3503
Z-3.81
G1 X181.0533 Y55.3495 Z-3.8592 F3200
X181.0345 Y55.3469 Z-3.905
X181.0046 Y55.3428 Z-3.9443
X180.9656 Y55.3375 Z-3.9745
X180.9202 Y55.3313 Z-3.9935
X180.8715 Y55.3246 Z-4
X177.0411 Y54.8016
G2 X176.5118 Y54.7593 I-0.6404 J4.6899
X174.6073 Y54.7883 I-0.5785 J24.6205
G3 X172.7032 Y54.8396 I-1.9041 J-35.3117
X172.1268 Y54.2631 J-0.5764
G1 Y18.9369
G3 X172.7032 Y18.3604 I0.5764
G1 X177.0467
X177.0764 Y18.3628
X180.8852 Y18.966
X180.9338 Y18.9737 Z-3.9935
X180.979 Y18.9809 Z-3.9745
X181.0179 Y18.987 Z-3.9443
X181.0477 Y18.9918 Z-3.905
X181.0665 Y18.9947 Z-3.8592
X181.0729 Y18.9957 Z-3.81
G0 Z5
X181.06 Y57.0096
Z-3.81
G1 X181.0536 Y57.0083 Z-3.8592 F3200
X181.035 Y57.0047 Z-3.905
X181.0054 Y56.9988 Z-3.9444
X180.9668 Y56.9913 Z-3.9745
X180.9218 Y56.9824 Z-3.9935
X180.8736 Y56.973 Z-4
X177.0448 Y56.2214
G2 X176.4789 Y56.1597 I-0.6445 J3.2831
X173.8905 Y56.1848 I-0.9162 J38.9904
G3 X171.3025 Y56.2403 I-2.588 J-60.3019
X170.7261 Y55.6638 J-0.5764
G1 Y17.5362
G3 X171.3025 Y16.9597 I0.5764
G1 X177.0431
X177.0875 Y16.965
X177.1294 Y16.9804
X180.9092 Y18.9064
X180.953 Y18.9287 Z-3.9935
X180.9939 Y18.9495 Z-3.9745
X181.0289 Y18.9673 Z-3.9444
X181.0558 Y18.9811 Z-3.905
X181.0727 Y18.9897 Z-3.8592
X181.0785 Y18.9926 Z-3.81
G0 Z5
X181.0607 Y59.032
Z-3.81
G1 X181.0546 Y59.03 Z-3.8592 F3200
X181.0365 Y59.0241 Z-3.905
X181.0078 Y59.0148 Z-3.9443
X180.9704 Y59.0025 Z-3.9745
X180.9269 Y58.9883 Z-3.9935
X180.8801 Y58.973 Z-4
X177.0445 Y57.7198
X176.9774 Y57.7014
X176.8535 Y57.6737
G2 X176.7125 Y57.6565 I-0.158 J0.7076
G1 X176.4439 Y57.6502
X176.4269 Y57.65
X169.3164
Y15.55
X177.0434
X177.0731 Y15.5523
X181.4683 Y16.2485
X181.5169 Y16.2562 Z-3.9935
X181.5622 Y16.2633 Z-3.9745
X181.601 Y16.2695 Z-3.9443
X181.6308 Y16.2742 Z-3.905
X181.6496 Y16.2772 Z-3.8592
X181.656 Y16.2782 Z-3.81
G0 Z6

(Operation 2 of 2 : Scallop1)

G54
S30000 M3
X149.2755 Y15.05
Z6
Z2
G1 Z-0.7286 F3200
X149.2788 Y15.0501 Z-0.7395
X149.2876 Z-0.7467
X149.3063 Y15.0502 Z-0.7157
X149.3371 Y15.05 Z-0.6833
X149.3716 Y15.0506 Z-0.66
X149.4024 Y15.0505 Z-0.6473
X149.4254 Y15.0502 Z-0.6426
X149.4869 Z-0.6381
X175.7383 Z-0.6392
X177.0601 Y15.0501 Z-0.6401
X177.0908 Y15.0502 Z-0.6441
X177.1293 Y15.0503 Z-0.6546
X177.1485 Z-0.6648
X177.183 Y15.0504 Z-0.6901
X177.2061 Y15.0503 Z-0.7163
X177.228 Y15.0504 Z-0.7545
X177.2315 Y15.0502 Z-0.7641
X177.2431 Y15.0507 Z-5.9777
X177.2331 Y15.1944 Z-5.9758
X177.2138 Y15.3004 Z-5.9722
X177.2068 Y15.3175 Z-5.9709
X177.1298 Y15.4407 Z-5.9566
X177.0593 Y15.5638 Z-5.9436
X176.9829 Y15.7274 Z-5.9294
X176.9287 Y15.8717 Z-5.9194
X176.8884 Y15.9948 Z-5.9119
X176.8726 Y16.0564 Z-5.909
X176.8229 Y16.3027 Z-5.8998
X176.8107 Y16.4258 Z-5.8975
X176.8011 Y16.549 Z-5.8957
X176.7953 Y16.6721 Z-5.8947
X176.7928 Y58.1635 Z-5.8942
X176.7923 Y58.1683 Z-5.8941
X176.7855 Y58.1681 Z-0.7917
X176.7739 Y58.1658 Z-0.753
X176.7603 Y58.1635 Z-0.7267
X176.7309 Y58.1588 Z-0.6914
X176.6975 Y58.1546 Z-0.6659
X176.6555 Y58.1512 Z-0.6467
X176.6216 Y58.1499 Z-0.6411
X176.476 Z-0.6381
X149.4869 Y58.1498
X149.4254 Y58.1496 Z-0.6425
X149.3947 Y58.1497 Z-0.6494
X149.364 Y58.1498 Z-0.6641
X149.3409 Y58.15 Z-0.68
X149.3217 Y58.1498 Z-0.6978
X149.2948 Y58.1495 Z-0.7323
X149.2835 Y58.1499 Z-0.7561
X149.2727 Y58.1497 Z-0.7898
X149.2719 Y58.148 Z-0.7935
Y15.0516
X149.2741 Y15.0503 Z-0.7848
X149.2876 Y15.0501 Z-0.7467
X149.3017 Y15.0502 Z-0.7264
X149.3205 Y15.0503 Z-0.71
X149.35 Z-0.6937
X149.3825 Y15.0504 Z-0.6832
X149.4176 Z-0.6777
X149.4729 Y15.0505 Z-0.6768
X149.5279 Z-0.6837
X149.6204 Z-0.7072
X149.7579 Y15.0504 Z-0.7455
X149.8222 Z-0.7577
X149.8873 Y15.0503 Z-0.7624
X175.7383 Y15.0502 Z-0.7635
X177.0601 Y15.05 Z-0.7654
X177.0831 Y15.0502 Z-0.7709
X177.1016 Z-0.7854
X177.107 Z-0.793
X177.1188 Y15.0514 Z-5.9546
X177.1196 Y15.0712 Z-5.9548
X177.1089 Y15.1944 Z-5.9528
X177.0908 Y15.2714 Z-5.9494
X177.0236 Y15.3791 Z-5.937
X176.9443 Y15.5202 Z-5.9223
X176.8673 Y15.687 Z-5.908
X176.821 Y15.8101 Z-5.8994
X176.7799 Y15.9332 Z-5.8918
X176.7622 Y15.9948 Z-5.8885
X176.7235 Y16.1795 Z-5.8814
X176.7001 Y16.3027 Z-5.877
X176.6881 Y16.4258 Z-5.8748
X176.679 Y16.549 Z-5.8731
X176.6731 Y16.6721 Z-5.872
X176.6711 Y58.1384 Z-5.8716
X176.6692 Y58.1514 Z-5.8713
X176.6619 Y58.1517 Z-0.8066
X176.6574 Z-0.7966
X176.6413 Y58.1509 Z-0.7789
X176.6221 Y58.15 Z-0.768
X176.6144 Z-0.7654
X176.476 Y58.1499 Z-0.7624
X149.4869 Y58.1496 Z-0.7626
X149.4408 Y58.1493 Z-0.7659
X149.4254 Y58.1496 Z-0.7722
X149.4139 Y58.1497 Z-0.7816
X149.3985 Y58.1498 Z-0.8032
X149.3942 Y58.1492 Z-0.8161
X149.3944 Y15.0516 Z-0.8162
X149.3965 Y15.0504 Z-0.8091
X149.4063 Y15.0503 Z-0.7902
X149.4216 Y15.0504 Z-0.7762
X149.4331 Y15.0503 Z-0.7684
X149.4408 Y15.0501 Z-0.766
X149.4869 Y15.0506 Z-0.7626
X149.8873 Y15.0503 Z-0.7624
X149.9428 Z-0.7647
X150.0254 Y15.0504 Z-0.7758
X150.1203 Z-0.7976
X150.2473 Y15.0505 Z-0.8371
X150.466 Z-0.9115
X150.5602 Z-0.9375
X150.6421 Y15.0503 Z-0.9536
X150.6972 Y15.0502 Z-0.9601
X150.7527 Y15.0501 Z-0.9624
X175.7383 Y15.0502 Z-0.9635
X176.9055 Y15.0504 Z-0.9643
X176.9077 Y15.0501 Z-1.0605
X176.9187 Y15.0512 Z-5.9175
X176.9197 Y15.0712 Z-5.9177
X176.9054 Y15.1944 Z-5.9151
X176.8449 Y15.2939 Z-5.9039
X176.7792 Y15.4099 Z-5.8917
X176.6925 Y15.5946 Z-5.8756
X176.6232 Y15.7793 Z-5.8628
X176.5751 Y15.9332 Z-5.8538
X176.5473 Y16.0564 Z-5.8487
X176.5227 Y16.1795 Z-5.8441
X176.5025 Y16.3027 Z-5.8404
X176.4909 Y16.4258 Z-5.8382
X176.4821 Y16.549 Z-5.8366
X176.4765 Y16.6721 Z-5.8356
X176.4743 Y58.0995 Z-5.8352
X176.4695 Y58.1491 Z-5.8343
X176.4622 Y58.1495 Z-0.9624
X150.1833 Y58.1497
X150.1785 Y58.1308 Z-0.9615
X150.1632 Y58.1119 Z-0.9587
X150.1478 Y58.0987 Z-0.9558
X150.1171 Y58.0812 Z-0.9501
X150.0556 Y58.0553 Z-0.9387
X149.9849 Y58.0345 Z-0.9256
X149.9019 Y58.0154 Z-0.9102
X149.7636 Y57.9916 Z-0.8846
X149.6106 Y57.9732 Z-0.8562
X149.5912 Y57.9623 Z-0.8526
Y15.2367
X149.6106 Y15.2265 Z-0.8562
X149.7636 Y15.2084 Z-0.8846
X149.8849 Y15.1884 Z-0.9071
X149.9634 Y15.1712 Z-0.9216
X150.0402 Y15.1495 Z-0.9359
X150.0863 Y15.1329 Z-0.9444
X150.1324 Y15.1105 Z-0.953
X150.1632 Y15.0885 Z-0.9587
X150.1772 Y15.0712 Z-0.9613
X150.1836 Y15.0502 Z-0.9624
X150.7527 Y15.0501
X150.8082 Y15.05 Z-0.9647
X150.8908 Z-0.9758
X150.9857 Z-0.9976
X151.1126 Z-1.0371
X151.3313 Y15.0502 Z-1.1115
X151.4256 Y15.0503 Z-1.1375
X151.5074 Z-1.1536
X151.5626 Z-1.1601
X151.6181 Y15.0502 Z-1.1624
X175.7383 Z-1.1635
X176.7047 Y15.0501 Z-1.1641
X176.7082 Y15.05 Z-1.2101
X176.7187 Y15.0515 Z-5.8805
X176.7197 Y15.0712 Z-5.8806
X176.7108 Y15.1329 Z-5.879
X176.6048 Y15.3175 Z-5.8593
X176.5178 Y15.5022 Z-5.8432
X176.4926 Y15.5638 Z-5.8386
X176.4255 Y15.7485 Z-5.8261
X176.3879 Y15.8717 Z-5.8191
X176.3531 Y16.0241 Z-5.8127
X176.3233 Y16.1795 Z-5.8072
X176.305 Y16.3027 Z-5.8038
X176.2938 Y16.4258 Z-5.8017
X176.2852 Y16.549 Z-5.8001
X176.2799 Y16.6721 Z-5.7991
X176.2782 Y58.0489 Z-5.7988
X176.2757 Y58.0992 Z-5.7984
X176.2697 Y58.137 Z-5.7972
X176.2693 Y58.1491
X176.2633 Y58.1498 Z-1.4913
X176.2617 Z-1.1624
X151.2623 Y58.1492
X151.2583 Y58.1345 Z-1.1616
X151.2489 Y58.1186 Z-1.1599
X151.2286 Y58.1003 Z-1.1561
X151.1929 Y58.0796 Z-1.1495
X151.1468 Y58.0598 Z-1.141
X151.07 Y58.0358 Z-1.1267
X150.9778 Y58.0143 Z-1.1096
X150.8394 Y57.9911 Z-1.084
X150.6704 Y57.9715 Z-1.0527
X150.4859 Y57.9577 Z-1.0185
X150.2861 Y57.9507 Z-0.9814
X150.2738 Y57.9452 Z-0.9792
X150.2465 Y57.9258 Z-0.9741
X150.2001 Y57.9001 Z-0.9655
X150.1171 Y57.8654 Z-0.9501
X150.0402 Y57.8426 Z-0.9359
X149.948 Y57.8208 Z-0.9188
X149.7943 Y57.794 Z-0.8903
X149.788 Y57.6795 Z-0.8891
X149.7881 Y15.4407
X149.7943 Y15.406 Z-0.8903
X149.9326 Y15.3825 Z-0.9159
X150.0402 Y15.3577 Z-0.9359
X150.1186 Y15.3334 Z-0.9504
X150.1804 Y15.3092 Z-0.9618
X150.2247 Y15.287 Z-0.9701
X150.2554 Y15.268 Z-0.9757
X150.2708 Y15.2563 Z-0.9786
X150.2861 Y15.2492 Z-0.9814
X150.5167 Y15.2405 Z-1.0242
X150.6857 Y15.2272 Z-1.0555
X150.8548 Y15.2064 Z-1.0868
X150.9563 Y15.1898 Z-1.1056
X151.0546 Y15.1681 Z-1.1239
X151.1315 Y15.1454 Z-1.1381
X151.1622 Y15.1344 Z-1.1438
X151.2084 Y15.112 Z-1.1524
X151.2253 Y15.102 Z-1.1555
X151.2421 Y15.0885 Z-1.1586
X151.256 Y15.0712 Z-1.1612
X151.2604 Y15.0606 Z-1.162
X151.2618 Y15.0517 Z-1.1623
X151.2634 Y15.0502 Z-1.1624
X151.6181
X151.6655 Y15.0531 Z-1.1649
X151.7122 Y15.0609 Z-1.1718
X151.7753 Y15.0777 Z-1.1873
X151.854 Y15.105 Z-1.2142
X151.9558 Y15.1409 Z-1.2558
X152.0246 Y15.1584 Z-1.2841
X152.0771 Y15.1653 Z-1.3037
X152.1216 Y15.1654 Z-1.318
X152.1661 Y15.159 Z-1.3296
X152.1837 Y15.1542 Z-1.3331
X152.2534 Y15.1287 Z-1.3461
X152.2739 Y15.1191 Z-1.3499
X152.315 Y15.094 Z-1.3575
X152.3353 Y15.0712 Z-1.3612
X152.3398 Y15.0607 Z-1.3621
X152.3395 Y15.0516 Z-1.362
X152.3419 Y15.0504 Z-1.3624
X175.7383 Y15.0502 Z-1.3634
X176.5079 Y15.05 Z-1.364
X176.5186 Y15.0513 Z-5.8434
X176.5175 Y15.0712 Z-5.8432
X176.4304 Y15.2252 Z-5.827
X176.341 Y15.4145 Z-5.8105
X176.3056 Y15.5022 Z-5.8039
X176.2386 Y15.687 Z-5.7915
X176.2007 Y15.8101 Z-5.7845
X176.1714 Y15.9332 Z-5.779
X176.146 Y16.0564 Z-5.7743
X176.1245 Y16.1795 Z-5.7703
X176.1072 Y16.3089 Z-5.7671
X176.0967 Y16.4258 Z-5.7652
X176.0886 Y16.549 Z-5.7637
X176.0834 Y16.6721 Z-5.7627
X176.0813 Y58.0489 Z-5.7623
X176.0757 Y58.0991 Z-5.7613
X176.0696 Y58.1372 Z-5.7602
X176.0693 Y58.1488 Z-5.7601
X176.0625 Y58.1497 Z-1.3624
X152.341 Z-1.3623
X152.3342 Y58.1282 Z-1.361
X152.3149 Y58.1066 Z-1.3575
X152.2842 Y58.0857 Z-1.3518
X152.2534 Y58.0704 Z-1.3461
X152.1779 Y58.0438 Z-1.3321
X152.0844 Y58.0202 Z-1.3147
X151.9614 Y57.9974 Z-1.2919
X151.7924 Y57.9756 Z-1.2606
X151.6233 Y57.961 Z-1.2293
X151.4081 Y57.9515 Z-1.1894
X151.3589 Y57.9505 Z-1.1803
X151.325 Y57.9258 Z-1.174
X151.2873 Y57.904 Z-1.167
X151.2237 Y57.8756 Z-1.1552
X151.1468 Y57.85 Z-1.141
X151.0546 Y57.8263 Z-1.1239
X150.9205 Y57.8011 Z-1.099
X150.778 Y57.7819 Z-1.0726
X150.5935 Y57.7642 Z-1.0384
X150.3937 Y57.7535 Z-1.0014
X150.3476 Y57.7522 Z-0.9928
X150.2619 Y57.7092 Z-0.977
X150.1763 Y57.6746 Z-0.9611
X150.0863 Y57.6482 Z-0.9444
X149.995 Y57.6266 Z-0.9275
X149.9846 Y57.6136 Z-0.9256
X149.9847 Y15.5946
X149.9951 Y15.5736 Z-0.9275
X150.0855 Y15.5523 Z-0.9443
X150.1785 Y15.5237 Z-0.9615
X150.24 Y15.501 Z-0.9729
X150.3015 Y15.4719 Z-0.9843
X150.3476 Y15.4476 Z-0.9928
X150.5548 Y15.4385 Z-1.0312
X150.7318 Y15.4235 Z-1.0641
X150.9163 Y15.3995 Z-1.0982
X151.0392 Y15.377 Z-1.121
X151.1468 Y15.35 Z-1.141
X151.222 Y15.3252 Z-1.1549
X151.2852 Y15.2966 Z-1.1666
X151.3313 Y15.2705 Z-1.1752
X151.362 Y15.2496 Z-1.1808
X151.5618 Y15.2424 Z-1.2179
X151.7616 Y15.2276 Z-1.2549
X151.9307 Y15.2073 Z-1.2862
X152.069 Y15.1832 Z-1.3119
X152.1612 Y15.1609 Z-1.329
X152.1837 Y15.1542 Z-1.3331
X152.2192 Y15.146 Z-1.3397
X152.2737 Y15.1417 Z-1.3498
X152.3283 Y15.1451 Z-1.3599
X152.4014 Y15.1585 Z-1.3735
X152.5278 Y15.1944 Z-1.3969
X152.6194 Y15.2194 Z-1.4139
X152.6749 Y15.2299 Z-1.4242
X152.731 Y15.2348 Z-1.4346
X152.7685 Y15.2339 Z-1.4415
X152.9143 Y15.22 Z-1.4686
X153.0744 Y15.1971 Z-1.4982
X153.1756 Y15.177 Z-1.517
X153.2678 Y15.1522 Z-1.5341
X153.3293 Y15.1308 Z-1.5455
X153.3601 Y15.116 Z-1.5512
X153.3938 Y15.0945 Z-1.5574
X153.4145 Y15.0712 Z-1.5613
X153.4188 Y15.0554 Z-1.5621
X153.4199 Y15.0501 Z-1.5623
X175.7383 Y15.0502 Z-1.5634
X176.3073 Y15.05 Z-1.5638
X176.309 Y15.0504 Z-1.6419
X176.3139 Y15.05 Z-3.7808
Z-5.7654
X176.3041 Z-5.7947
X176.3017 Y15.0509 Z-5.8032
X176.2441 Y15.1565 Z-5.7925
X176.1548 Y15.3483 Z-5.776
X176.1072 Y15.4704 Z-5.7671
X176.0515 Y15.6254 Z-5.7568
X176.0136 Y15.7485 Z-5.7498
X175.9842 Y15.869 Z-5.7443
X175.9576 Y15.9948 Z-5.7394
X175.9259 Y16.1795 Z-5.7335
X175.9104 Y16.3027 Z-5.7307
X175.8997 Y16.4258 Z-5.7287
X175.8918 Y16.549 Z-5.7272
X175.8868 Y16.6721 Z-5.7263
X175.8851 Y57.9258 Z-5.726
X175.8834 Y58.0489 Z-5.7256
X175.8695 Y58.1377 Z-5.7231
X175.8692 Y58.1492 Z-5.723
X175.8633 Y58.1499 Z-1.6556
X175.8613 Y58.15 Z-1.5623
X153.419 Y58.1492 Z-1.5621
X153.4198 Y58.1453 Z-1.5622
X153.416 Y58.1334 Z-1.5615
X153.4044 Y58.1169 Z-1.5594
X153.3754 Y58.0928 Z-1.554
X153.3293 Y58.0695 Z-1.5455
X153.254 Y58.043 Z-1.5315
X153.1603 Y58.0199 Z-1.5141
X153.0527 Y57.9995 Z-1.4942
X152.899 Y57.9785 Z-1.4657
X152.6992 Y57.9611 Z-1.4287
X152.4994 Y57.9521 Z-1.3916
X152.4518 Y57.9509 Z-1.3828
X152.4353 Y57.9484 Z-1.3798
X152.3903 Y57.9172 Z-1.3714
X152.3303 Y57.8863 Z-1.3603
X152.2534 Y57.8583 Z-1.3461
X152.1766 Y57.8366 Z-1.3318
X152.0703 Y57.8136 Z-1.3121
X151.946 Y57.7933 Z-1.2891
X151.7924 Y57.7746 Z-1.2606
X151.6233 Y57.7606 Z-1.2293
X151.4235 Y57.7519 Z-1.1922
X151.362 Y57.7188 Z-1.1808
X151.3106 Y57.6954 Z-1.1713
X151.2253 Y57.665 Z-1.1555
X151.1161 Y57.6354 Z-1.1353
X150.9931 Y57.6106 Z-1.1125
X150.8394 Y57.5879 Z-1.084
X150.655 Y57.5686 Z-1.0498
X150.4812 Y57.557 Z-1.0176
X150.4091 Y57.5539 Z-1.0042
X150.3937 Y57.5514 Z-1.0014
X150.3169 Y57.5157 Z-0.9871
X150.2337 Y57.4834 Z-0.9717
X150.1917 Y57.4706 Z-0.9639
X150.181 Y57.4543 Z-0.962
Y15.7389
X150.1917 Y15.7294 Z-0.9639
X150.273 Y15.7022 Z-0.979
X150.3603 Y15.6653 Z-0.9952
X150.3969 Y15.6469 Z-1.002
X150.6243 Y15.6341 Z-1.0441
X150.7933 Y15.6176 Z-1.0754
X150.947 Y15.597 Z-1.1039
X151.0746 Y15.5735 Z-1.1276
X151.1776 Y15.5487 Z-1.1467
X151.2698 Y15.52 Z-1.1638
X151.3313 Y15.4955 Z-1.1752
X151.3927 Y15.4647 Z-1.1865
X151.4235 Y15.4483 Z-1.1922
X151.6248 Y15.439 Z-1.2296
X151.8077 Y15.4239 Z-1.2635
X151.9614 Y15.4046 Z-1.2919
X152.0844 Y15.3836 Z-1.3147
X152.192 Y15.3595 Z-1.3347
X152.2747 Y15.3342 Z-1.35
X152.3382 Y15.3091 Z-1.3618
X152.3918 Y15.2809 Z-1.3717
X152.4379 Y15.2501 Z-1.3803
X152.6531 Y15.2419 Z-1.4201
X152.7685 Y15.2339 Z-1.4415
X152.902 Y15.2282 Z-1.4663
X153.0625 Y15.2303 Z-1.496
X153.4504 Y15.2473 Z-1.5679
X153.5977 Y15.2475 Z-1.5952
X153.6244 Y15.2466 Z-1.6002
X153.8212 Y15.2359 Z-1.6366
X153.9902 Y15.2198 Z-1.668
X154.1497 Y15.1975 Z-1.6975
X154.2669 Y15.1742 Z-1.7192
X154.3437 Y15.1536 Z-1.7335
X154.4052 Y15.1318 Z-1.7449
X154.4513 Y15.1092 Z-1.7534
X154.4667 Y15.0991 Z-1.7563
X154.482 Y15.0849 Z-1.7591
X154.4929 Y15.0712 Z-1.7611
X154.4992 Y15.0516 Z-1.7623
Y15.0502
X175.7383 Z-1.7634
X176.1072 Z-1.7637
Z-5.6898
X176.0899 Y15.0501 Z-5.72
X176.0779 Z-5.7561
X176.0762 Y15.0518 Z-5.7614
X175.9958 Y15.2212 Z-5.7465
X175.9545 Y15.3175 Z-5.7388
X175.8857 Y15.5022 Z-5.7261
X175.8435 Y15.6306 Z-5.7183
X175.8265 Y15.687 Z-5.7151
X175.7958 Y15.8101 Z-5.7094
X175.7577 Y15.9948 Z-5.7023
X175.7278 Y16.1795 Z-5.6968
X175.713 Y16.3027 Z-5.6941
X175.7026 Y16.4258 Z-5.6921
X175.695 Y16.549 Z-5.6907
X175.6902 Y16.6721 Z-5.6898
X175.6885 Y57.9258 Z-5.6895
X175.6844 Y58.0489 Z-5.6888
X175.6695 Y58.1373 Z-5.686
X175.6692 Y58.1491 Z-5.6859
X175.6635 Y58.1498 Z-1.7799
X175.6607 Z-1.7623
X154.5003 Y58.1497
X154.4974 Y58.147 Z-1.762
Y58.1381
X154.4859 Y58.1197 Z-1.7598
X154.4667 Y58.1008 Z-1.7563
X154.4498 Y58.0897 Z-1.7531
X154.399 Y58.0658 Z-1.7437
X154.3284 Y58.0418 Z-1.7306
X154.2361 Y58.0189 Z-1.7135
X154.1132 Y57.9965 Z-1.6908
X153.9595 Y57.9767 Z-1.6623
X153.775 Y57.9611 Z-1.6281
X153.5599 Y57.9512 Z-1.5882
X153.5138 Y57.9489 Z-1.5797
X153.483 Y57.9258 Z-1.574
X153.4369 Y57.8997 Z-1.5654
X153.3754 Y57.8733 Z-1.554
X153.2986 Y57.848 Z-1.5398
X153.2064 Y57.8253 Z-1.5227
X153.0865 Y57.8026 Z-1.5005
X152.9297 Y57.7809 Z-1.4714
X152.7453 Y57.7643 Z-1.4372
X152.5762 Y57.7545 Z-1.4059
X152.5147 Y57.7526 Z-1.3945
X152.4994 Y57.7505 Z-1.3916
X152.4532 Y57.7245 Z-1.3831
X152.3918 Y57.6962 Z-1.3717
X152.3112 Y57.6671 Z-1.3568
X152.2227 Y57.6422 Z-1.3404
X152.0997 Y57.6158 Z-1.3176
X151.9614 Y57.5935 Z-1.2919
X151.7924 Y57.5736 Z-1.2606
X151.6217 Y57.5603 Z-1.229
X151.485 Y57.5538 Z-1.2036
X151.4696 Y57.5496 Z-1.2008
X151.3927 Y57.5137 Z-1.1865
X151.3159 Y57.4849 Z-1.1723
X151.2237 Y57.4568 Z-1.1552
X151.1268 Y57.4332 Z-1.1373
X150.9778 Y57.4054 Z-1.1096
X150.8087 Y57.383 Z-1.0783
X150.6089 Y57.3644 Z-1.0413
X150.4552 Y57.3557 Z-1.0128
X150.4398 Y57.3523 Z-1.0099
X150.3883 Y57.3293 Z-1.0004
X150.3779 Y57.31 Z-0.9985
X150.378 Y15.8799
X150.3884 Y15.871 Z-1.0004
X150.4398 Y15.8482 Z-1.0099
X150.4552 Y15.844 Z-1.0128
X150.655 Y15.8323 Z-1.0498
X150.834 Y15.8142 Z-1.083
X151.0085 Y15.7891 Z-1.1153
X151.1161 Y15.769 Z-1.1353
X151.2237 Y15.7433 Z-1.1552
X151.3482 Y15.704 Z-1.1783
X151.4212 Y15.6736 Z-1.1918
X151.4696 Y15.6499 Z-1.2008
X151.485 Y15.6462 Z-1.2036
X151.6848 Y15.6353 Z-1.2407
X151.8692 Y15.6181 Z-1.2749
X152.0383 Y15.5953 Z-1.3062
X152.1674 Y15.5708 Z-1.3301
X152.2688 Y15.5454 Z-1.3489
X152.3457 Y15.5207 Z-1.3632
X152.4225 Y15.4896 Z-1.3774
X152.4686 Y15.4662 Z-1.3859
X152.4994 Y15.4484 Z-1.3916
X152.6961 Y15.4395 Z-1.4281
X152.899 Y15.423 Z-1.4657
X153.0527 Y15.4028 Z-1.4942
X153.1756 Y15.3814 Z-1.517
X153.2832 Y15.356 Z-1.5369
X153.3601 Y15.332 Z-1.5512
X153.4187 Y15.3091 Z-1.562
X153.4622 Y15.2869 Z-1.5701
X153.5138 Y15.253 Z-1.5797
X153.5291 Y15.2492 Z-1.5825
X153.6244 Y15.2466 Z-1.6002
X153.6617 Y15.2475 Z-1.6071
X153.717 Y15.2562 Z-1.6173
X153.771 Y15.2714 Z-1.6273
X153.8594 Y15.3061 Z-1.6437
X153.9807 Y15.3579 Z-1.6662
X154.0517 Y15.3814 Z-1.6794
X154.1056 Y15.3925 Z-1.6894
X154.1604 Y15.3956 Z-1.6995
X154.1968 Y15.3921 Z-1.7062
X154.313 Y15.3687 Z-1.7278
X154.4052 Y15.3436 Z-1.7449
X154.4781 Y15.3175 Z-1.7584
X154.5478 Y15.2835 Z-1.7713
X154.5896 Y15.255 Z-1.7791
X154.605 Y15.2491 Z-1.7819
X154.7741 Y15.2438 Z-1.8132
X154.9585 Y15.2312 Z-1.8474
X155.1122 Y15.2151 Z-1.8759
X155.2734 Y15.1895 Z-1.9058
X155.3735 Y15.1675 Z-1.9243
X155.4503 Y15.1448 Z-1.9386
X155.5119 Y15.1191 Z-1.95
X155.5457 Y15.0988 Z-1.9562
X155.5612 Y15.085 Z-1.9591
X155.5719 Y15.0712 Z-1.9611
X155.5771 Y15.0579 Z-1.9621
X155.5781 Y15.0507 Z-1.9623
X175.7383 Y15.0502 Z-1.9634
X175.8997 Y15.05 Z-1.9635
Z-5.634
X175.8805 Z-5.6606
X175.8651 Y15.0507 Z-5.6925
X175.8571 Y15.0514 Z-5.7208
X175.7922 Y15.1944 Z-5.7088
X175.7383 Y15.3316 Z-5.6988
X175.6777 Y15.5022 Z-5.6875
X175.6394 Y15.6254 Z-5.6804
X175.6153 Y15.7194 Z-5.676
X175.5812 Y15.8717 Z-5.6696
X175.5477 Y16.0564 Z-5.6634
X175.5298 Y16.1795 Z-5.6601
X175.5159 Y16.3027 Z-5.6575
X175.5056 Y16.4258 Z-5.6556
X175.4982 Y16.549 Z-5.6543
X175.4935 Y16.6721 Z-5.6534
X175.4917 Y57.9258 Z-5.6531
X175.4848 Y58.0489 Z-5.6518
X175.4695 Y58.1371 Z-5.6489
X175.4691 Y58.1493
X175.4632 Y58.1499 Z-1.9623
X155.5781 Y58.1492
X155.5771 Y58.1417 Z-1.9621
X155.5618 Y58.1162 Z-1.9592
X155.5426 Y58.0985 Z-1.9557
X155.4964 Y58.0732 Z-1.9471
X155.4303 Y58.0489 Z-1.9349
X155.3428 Y58.0246 Z-1.9186
X155.2505 Y58.0061 Z-1.9015
X155.0968 Y57.983 Z-1.8731
X154.9124 Y57.9651 Z-1.8389
X154.7126 Y57.9538 Z-1.8018
X154.605 Y57.9509 Z-1.7819
X154.5896 Y57.945 Z-1.7791
X154.5524 Y57.9191 Z-1.7722
X154.4971 Y57.8905 Z-1.7619
X154.4359 Y57.8665 Z-1.7506
X154.3437 Y57.8392 Z-1.7335
X154.2361 Y57.815 Z-1.7135
X154.0978 Y57.7921 Z-1.6879
X153.9287 Y57.7727 Z-1.6566
X153.7443 Y57.7589 Z-1.6224
X153.5906 Y57.7522 Z-1.5939
X153.5752 Y57.7492 Z-1.591
X153.5291 Y57.723 Z-1.5825
X153.4655 Y57.6944 Z-1.5707
X153.3821 Y57.6648 Z-1.5552
X153.2986 Y57.6416 Z-1.5398
X153.1756 Y57.6154 Z-1.517
X153.0373 Y57.593 Z-1.4913
X152.8836 Y57.5752 Z-1.4629
X152.6992 Y57.5605 Z-1.4287
X152.5609 Y57.5538 Z-1.4031
X152.4686 Y57.5121 Z-1.3859
X152.3764 Y57.4783 Z-1.3689
X152.2688 Y57.4478 Z-1.3489
X152.144 Y57.4209 Z-1.3258
X152.0075 Y57.3981 Z-1.3005
X151.8385 Y57.3774 Z-1.2692
X151.6694 Y57.363 Z-1.2378
X151.5311 Y57.3556 Z-1.2122
X151.5038 Y57.3446 Z-1.2071
X151.4201 Y57.31 Z-1.1916
X151.3159 Y57.2754 Z-1.1723
X151.2237 Y57.2504 Z-1.1552
X151.0854 Y57.2213 Z-1.1296
X150.947 Y57.1989 Z-1.1039
X150.7626 Y57.1769 Z-1.0698
X150.5849 Y57.1625 Z-1.0368
X150.5746 Y57.1402 Z-1.0349
Y16.0564
X150.585 Y16.0375 Z-1.0368
X150.7626 Y16.0233 Z-1.0698
X150.947 Y16.0009 Z-1.1039
X151.0854 Y15.9788 Z-1.1296
X151.2083 Y15.9534 Z-1.1524
X151.3129 Y15.9256 Z-1.1717
X151.4235 Y15.8889 Z-1.1922
X151.5003 Y15.8567 Z-1.2065
X151.5311 Y15.8443 Z-1.2122
X151.7462 Y15.8312 Z-1.2521
X151.9309 Y15.8123 Z-1.2863
X152.0844 Y15.7899 Z-1.3147
X152.2073 Y15.7666 Z-1.3375
X152.3149 Y15.7399 Z-1.3575
X152.4044 Y15.7116 Z-1.3741
X152.4994 Y15.6738 Z-1.3916
X152.5455 Y15.6514 Z-1.4002
X152.5608 Y15.6465 Z-1.403
X152.7453 Y15.6365 Z-1.4372
X152.9297 Y15.6206 Z-1.4714
X153.0834 Y15.6003 Z-1.4999
X153.2064 Y15.5788 Z-1.5227
X153.3202 Y15.5529 Z-1.5438
X153.4215 Y15.5221 Z-1.5626
X153.483 Y15.4987 Z-1.574
X153.5445 Y15.4687 Z-1.5854
X153.5752 Y15.4505 Z-1.591
X153.5906 Y15.4478 Z-1.5939
X153.7843 Y15.4386 Z-1.6298
X153.9441 Y15.4259 Z-1.6594
X154.1132 Y15.4052 Z-1.6908
X154.1968 Y15.3921 Z-1.7062
X154.2787 Y15.3821 Z-1.7214
X154.375 Y15.379 Z-1.7393
X154.4854 Y15.3839 Z-1.7597
X154.6781 Y15.4039 Z-1.7955
X154.8438 Y15.4209 Z-1.8262
X154.9544 Y15.4259 Z-1.8467
X155.0511 Y15.423 Z-1.8646
X155.0786 Y15.4205 Z-1.8697
X155.2352 Y15.399 Z-1.8987
X155.3735 Y15.3728 Z-1.9243
X155.4657 Y15.3489 Z-1.9414
X155.5341 Y15.3268 Z-1.9541
X155.604 Y15.2958 Z-1.9671
X155.6501 Y15.2683 Z-1.9756
X155.6655 Y15.2574 Z-1.9785
X155.6809 Y15.2493 Z-1.9813
X155.8807 Y15.2424 Z-2.0183
X156.0651 Y15.2288 Z-2.0525
X156.2342 Y15.2091 Z-2.0839
X156.3387 Y15.1919 Z-2.1032
X156.434 Y15.1715 Z-2.1209
X156.5108 Y15.1505 Z-2.1351
X156.557 Y15.1345 Z-2.1437
X156.5877 Y15.121 Z-2.1494
X156.6185 Y15.1036 Z-2.1551
X156.635 Y15.0901 Z-2.1582
X156.6516 Y15.0712 Z-2.1612
X156.6559 Y15.0606 Z-2.162
X156.6561 Y15.0506 Z-2.1621
X175.6389 Y15.0504 Z-2.1633
X175.6948 Y15.05 Z-2.1634
Z-5.5806
X175.673 Y15.0507 Z-5.6049
X175.6544 Z-5.636
X175.6417 Z-5.6725
X175.6398 Y15.0513 Z-5.6805
X175.5967 Y15.1508 Z-5.6725
X175.5335 Y15.3175 Z-5.6608
X175.4907 Y15.4407 Z-5.6529
X175.4523 Y15.5638 Z-5.6457
X175.4208 Y15.687 Z-5.6399
X175.3807 Y15.8717 Z-5.6325
X175.3489 Y16.0564 Z-5.6266
X175.332 Y16.1795 Z-5.6234
X175.3185 Y16.3027 Z-5.621
X175.3089 Y16.4258 Z-5.6192
X175.3014 Y16.549 Z-5.6178
X175.2969 Y16.6721 Z-5.6169
X175.295 Y57.9258 Z-5.6166
X175.2848 Y58.0489 Z-5.6147
X175.2706 Y58.1244 Z-5.6121
X175.2691 Y58.1489 Z-5.6118
X175.2637 Y58.1495 Z-2.1623
X156.6567 Z-2.1622
X156.6564 Y58.1468 Z-2.1621
X156.6549 Y58.1386 Z-2.1618
X156.6492 Y58.1274 Z-2.1608
X156.6338 Y58.1085 Z-2.1579
X156.6031 Y58.0871 Z-2.1522
X156.557 Y58.066 Z-2.1437
X156.5094 Y58.0489 Z-2.1349
X156.4186 Y58.0244 Z-2.118
X156.2957 Y58.0001 Z-2.0953
X156.1266 Y57.9773 Z-2.0639
X155.9729 Y57.9636 Z-2.0354
X155.7731 Y57.9533 Z-1.9984
X155.6764 Y57.9508 Z-1.9805
X155.6411 Y57.9258 Z-1.9739
X155.5733 Y57.8894 Z-1.9614
X155.5118 Y57.8653 Z-1.95
X155.4196 Y57.8378 Z-1.9329
X155.3274 Y57.8173 Z-1.9158
X155.1583 Y57.7895 Z-1.8845
X155.0046 Y57.7722 Z-1.856
X154.8048 Y57.7577 Z-1.8189
X154.6665 Y57.7524 Z-1.7933
X154.6357 Y57.7377 Z-1.7876
X154.574 Y57.7064 Z-1.7762
X154.5053 Y57.6795 Z-1.7634
X154.4052 Y57.6486 Z-1.7449
X154.2976 Y57.6235 Z-1.7249
X154.1593 Y57.5991 Z-1.6993
X153.9902 Y57.5779 Z-1.668
X153.7945 Y57.5617 Z-1.6317
X153.6394 Y57.5537 Z-1.6029
X153.6171 Y57.5441 Z-1.5988
X153.5445 Y57.5112 Z-1.5854
X153.4677 Y57.4825 Z-1.5711
X153.3754 Y57.4549 Z-1.554
X153.2711 Y57.4306 Z-1.5347
X153.1295 Y57.4046 Z-1.5084
X152.9451 Y57.3801 Z-1.4743
X152.7453 Y57.3633 Z-1.4372
X152.6069 Y57.3557 Z-1.4116
X152.5404 Y57.3259 Z-1.3992
X152.4379 Y57.2883 Z-1.3803
X152.3149 Y57.2534 Z-1.3575
X152.192 Y57.2267 Z-1.3347
X152.0536 Y57.2028 Z-1.309
X151.8692 Y57.1797 Z-1.2749
X151.6848 Y57.1636 Z-1.2407
X151.5772 Y57.1574 Z-1.2207
X151.4542 Y57.1105 Z-1.1979
X151.3605 Y57.0805 Z-1.1806
X151.2698 Y57.0562 Z-1.1638
X151.1468 Y57.0293 Z-1.141
X151.0085 Y57.0056 Z-1.1153
X150.8087 Y56.9806 Z-1.0783
X150.778 Y56.9775 Z-1.0726
X150.7711 Y56.9406 Z-1.0713
Y16.3027
X150.778 Y16.2226 Z-1.0726
X150.9624 Y16.2007 Z-1.1068
X151.1247 Y16.1748 Z-1.1369
X151.2544 Y16.1474 Z-1.1609
X151.362 Y16.1193 Z-1.1808
X151.485 Y16.0788 Z-1.2036
X151.5757 Y16.0427 Z-1.2205
X151.8077 Y16.0265 Z-1.2635
X151.9922 Y16.006 Z-1.2976
X152.1459 Y15.9824 Z-1.3261
X152.2996 Y15.9504 Z-1.3546
X152.4149 Y15.9186 Z-1.376
X152.4994 Y15.889 Z-1.3916
X152.5762 Y15.8578 Z-1.4059
X152.6069 Y15.8445 Z-1.4116
X152.776 Y15.8348 Z-1.4429
X152.9297 Y15.8216 Z-1.4714
X153.0975 Y15.8003 Z-1.5025
X153.2217 Y15.7796 Z-1.5255
X153.3447 Y15.7527 Z-1.5483
X153.4523 Y15.7223 Z-1.5683
X153.538 Y15.6918 Z-1.5841
X153.606 Y15.6613 Z-1.5967
X153.6367 Y15.6461 Z-1.6024
X153.8212 Y15.6366 Z-1.6366
X153.9902 Y15.6221 Z-1.668
X154.1439 Y15.6027 Z-1.6964
X154.2669 Y15.5825 Z-1.7192
X154.3851 Y15.5564 Z-1.7411
X154.4667 Y15.5332 Z-1.7563
X154.5435 Y15.5061 Z-1.7705
X154.605 Y15.4782 Z-1.7819
X154.6511 Y15.4536 Z-1.7905
X154.6665 Y15.4478 Z-1.7933
X154.8356 Y15.4407 Z-1.8246
X155.0354 Y15.425 Z-1.8617
X155.0786 Y15.4205 Z-1.8697
X155.1873 Y15.4135 Z-1.8898
X155.3099 Y15.4138 Z-1.9125
X155.5005 Y15.4245 Z-1.9479
X155.7322 Y15.4396 Z-1.9908
X155.8686 Y15.4418 Z-2.0161
X155.9503 Y15.4386 Z-2.0312
X156.1266 Y15.4236 Z-2.0639
X156.2957 Y15.4022 Z-2.0953
X156.434 Y15.3767 Z-2.1209
X156.5262 Y15.3541 Z-2.138
X156.6056 Y15.3294 Z-2.1527
X156.667 Y15.304 Z-2.1641
X156.726 Y15.271 Z-2.175
X156.7568 Y15.2493 Z-2.1807
X156.9566 Y15.2426 Z-2.2177
X157.1717 Y15.2263 Z-2.2576
X157.3285 Y15.2064 Z-2.2867
X157.4484 Y15.1861 Z-2.3089
X157.5406 Y15.1651 Z-2.326
X157.6175 Y15.1415 Z-2.3402
X157.6802 Y15.1139 Z-2.3519
X157.6967 Y15.1039 Z-2.3549
X157.7133 Y15.0901 Z-2.358
X157.7299 Y15.0712 Z-2.3611
X157.7342 Y15.0607 Z-2.3619
Y15.0557
X157.7364 Y15.053 Z-2.3623
X157.7346 Y15.0509 Z-2.3619
X175.4924 Y15.05 Z-2.3632
Z-5.5156
X175.4781 Y15.0501 Z-5.5414
X175.4544 Z-5.5702
X175.4367 Z-5.6026
X175.425 Y15.0509 Z-5.6407
X175.3576 Y15.2251 Z-5.6282
X175.3037 Y15.3791 Z-5.6182
X175.2652 Y15.5022 Z-5.6111
X175.2326 Y15.6292 Z-5.605
X175.1925 Y15.8101 Z-5.5976
X175.17 Y15.9332 Z-5.5934
X175.1503 Y16.0564 Z-5.5898
X175.1341 Y16.1795 Z-5.5868
X175.1213 Y16.3027 Z-5.5844
X175.1119 Y16.4258 Z-5.5827
X175.1049 Y16.549 Z-5.5814
X175.1003 Y16.6721 Z-5.5805
X175.0988 Y57.8026 Z-5.5802
X175.0977 Y57.9258 Z-5.58
X175.0849 Y58.0489 Z-5.5777
X175.0705 Y58.1248 Z-5.575
X175.069 Y58.1491 Z-5.5747
X175.0644 Y58.1497 Z-2.5237
X175.0619 Y58.15 Z-2.3623
X157.7366 Y58.1498
X157.7347 Y58.1459 Z-2.362
X157.7327 Y58.1351 Z-2.3616
X157.7251 Y58.1208 Z-2.3602
X157.6943 Y58.095 Z-2.3545
X157.6636 Y58.0779 Z-2.3488
X157.602 Y58.0531 Z-2.3374
X157.5252 Y58.031 Z-2.3231
X157.4176 Y58.008 Z-2.3032
X157.2793 Y57.9864 Z-2.2776
X157.1103 Y57.9683 Z-2.2462
X156.9105 Y57.9552 Z-2.2092
X156.7616 Y57.9509 Z-2.1816
X156.7483 Y57.9461 Z-2.1791
X156.7075 Y57.918 Z-2.1716
X156.6645 Y57.8952 Z-2.1636
X156.5877 Y57.8643 Z-2.1494
X156.4955 Y57.8378 Z-2.1323
X156.4011 Y57.8162 Z-2.1148
X156.2803 Y57.7955 Z-2.0924
X156.0959 Y57.7731 Z-2.0582
X155.8961 Y57.7585 Z-2.0212
X155.7424 Y57.7523 Z-1.9927
X155.6963 Y57.7282 Z-1.9842
X155.6403 Y57.7011 Z-1.9738
X155.5579 Y57.6706 Z-1.9585
X155.4657 Y57.6434 Z-1.9414
X155.3581 Y57.6198 Z-1.9215
X155.2198 Y57.5963 Z-1.8959
X155.0507 Y57.5757 Z-1.8645
X154.8518 Y57.5601 Z-1.8277
X154.7126 Y57.5531 Z-1.8018
X154.6511 Y57.5224 Z-1.7905
X154.5589 Y57.4868 Z-1.7734
X154.4667 Y57.4583 Z-1.7563
X154.3437 Y57.429 Z-1.7335
X154.2054 Y57.4039 Z-1.7078
X154.021 Y57.3801 Z-1.6737
X153.8365 Y57.3642 Z-1.6395
X153.6828 Y57.3544 Z-1.611
X153.606 Y57.3209 Z-1.5967
X153.512 Y57.2874 Z-1.5793
X153.4215 Y57.2605 Z-1.5626
X153.3139 Y57.2357 Z-1.5426
X153.1756 Y57.2096 Z-1.517
X153.0123 Y57.1869 Z-1.4867
X152.8221 Y57.1681 Z-1.4515
X152.6531 Y57.1574 Z-1.4201
X152.5762 Y57.1259 Z-1.4059
X152.4842 Y57.0936 Z-1.3888
X152.3457 Y57.0555 Z-1.3632
X152.2381 Y57.0319 Z-1.3432
X152.0844 Y57.0053 Z-1.3147
X151.8999 Y56.9818 Z-1.2805
X151.7155 Y56.9654 Z-1.2464
X151.6155 Y56.9582 Z-1.2278
X151.5157 Y56.9205 Z-1.2093
X151.4235 Y56.8907 Z-1.1922
X151.3159 Y56.8617 Z-1.1723
X151.1776 Y56.8317 Z-1.1467
X151.0097 Y56.804 Z-1.1156
X150.9781 Y56.7996 Z-1.1097
X150.9673 Y56.7761 Z-1.1077
X150.9677 Y16.4258 Z-1.1078
X150.9781 Y16.4003 Z-1.1097
X151.1468 Y16.3738 Z-1.141
X151.2852 Y16.3456 Z-1.1666
X151.4056 Y16.3145 Z-1.1889
X151.5464 Y16.2688 Z-1.215
X151.6079 Y16.2448 Z-1.2264
X151.6233 Y16.2403 Z-1.2293
X151.8385 Y16.2245 Z-1.2692
X152.0229 Y16.2036 Z-1.3033
X152.1788 Y16.1795 Z-1.3322
X152.3303 Y16.1483 Z-1.3603
X152.4379 Y16.1203 Z-1.3803
X152.5301 Y16.0906 Z-1.3973
X152.639 Y16.0481 Z-1.4175
X152.6502 Y16.0432 Z-1.4196
X152.899 Y16.0256 Z-1.4657
X153.0834 Y16.0043 Z-1.4999
X153.2371 Y15.9802 Z-1.5284
X153.3601 Y15.9545 Z-1.5512
X153.47 Y15.9256 Z-1.5715
X153.5599 Y15.8966 Z-1.5882
X153.6367 Y15.8668 Z-1.6024
X153.6828 Y15.8455 Z-1.611
X153.9287 Y15.8287 Z-1.6566
X154.1269 Y15.8072 Z-1.6933
X154.2822 Y15.783 Z-1.7221
X154.4052 Y15.7573 Z-1.7449
X154.5128 Y15.7282 Z-1.7648
X154.6042 Y15.6966 Z-1.7818
X154.6706 Y15.6678 Z-1.7941
X154.7126 Y15.6471 Z-1.8018
X154.9278 Y15.6349 Z-1.8417
X155.1122 Y15.6179 Z-1.8759
X155.2659 Y15.5965 Z-1.9044
X155.4112 Y15.5692 Z-1.9313
X155.5118 Y15.5435 Z-1.95
X155.5887 Y15.5191 Z-1.9642
X155.6655 Y15.4873 Z-1.9785
X155.7116 Y15.464 Z-1.987
X155.7424 Y15.448 Z-1.9927
X155.9503 Y15.4386 Z-2.0312
X155.9877 Y15.4384 Z-2.0382
X156.0434 Y15.4453 Z-2.0485
X156.098 Y15.4587 Z-2.0586
X156.1877 Y15.4902 Z-2.0752
X156.3111 Y15.5369 Z-2.0981
X156.3829 Y15.557 Z-2.1114
X156.4373 Y15.5654 Z-2.1215
X156.492 Y15.5656 Z-2.1316
X156.5281 Y15.56 Z-2.1383
X156.6338 Y15.5304 Z-2.1579
X156.7106 Y15.5026 Z-2.1722
X156.7721 Y15.4742 Z-2.1836
X156.8182 Y15.4479 Z-2.1921
X156.9935 Y15.4407 Z-2.2246
X157.1871 Y15.4257 Z-2.2605
X157.3408 Y15.4069 Z-2.289
X157.4791 Y15.3835 Z-2.3146
X157.5867 Y15.3596 Z-2.3345
X157.6636 Y15.3363 Z-2.3488
X157.7148 Y15.3175 Z-2.3583
X157.7733 Y15.2901 Z-2.3691
X157.8019 Y15.2729 Z-2.3744
X157.8326 Y15.2494 Z-2.3801
X158.0017 Y15.2441 Z-2.4115
X158.2015 Y15.2305 Z-2.4485
X158.3552 Y15.2139 Z-2.477
X158.4966 Y15.1919 Z-2.5032
X158.6011 Y15.1697 Z-2.5225
X158.678 Y15.1478 Z-2.5368
X158.7241 Y15.1308 Z-2.5453
X158.7548 Y15.116 Z-2.551
X158.7895 Y15.094 Z-2.5575
X158.8088 Y15.0712 Z-2.561
X158.8148 Y15.0556 Z-2.5622
X158.8134 Y15.0515 Z-2.5619
X158.8178 Y15.0503 Z-2.5623
X175.2849 Y15.05 Z-2.5631
Z-5.4639
X175.258 Z-5.5101
X175.2395 Y15.0501 Z-5.5344
X175.2222 Z-5.5686
X175.2125 Y15.0514 Z-5.6013
X175.141 Y15.2456 Z-5.588
X175.0971 Y15.3791 Z-5.5799
X175.0612 Y15.5022 Z-5.5733
X175.0173 Y15.687 Z-5.5651
X174.9922 Y15.8101 Z-5.5605
X174.9708 Y15.9332 Z-5.5565
X174.9519 Y16.0564 Z-5.553
X174.9363 Y16.1795 Z-5.5501
X174.924 Y16.3027 Z-5.5478
X174.915 Y16.4258 Z-5.5462
X174.9081 Y16.549 Z-5.5449
X174.9036 Y16.6721 Z-5.5441
X174.9023 Y57.8026 Z-5.5438
X174.9003 Y57.9258 Z-5.5434
X174.8852 Y58.0489 Z-5.5406
X174.8695 Y58.1342 Z-5.5377
X174.8689 Y58.1491 Z-5.5376
X174.8642 Y58.1496 Z-2.5623
X158.8153 Z-2.5622
X158.8144 Y58.1418 Z-2.5621
X158.8009 Y58.1169 Z-2.5596
X158.7702 Y58.0929 Z-2.5539
X158.7364 Y58.0745 Z-2.5476
X158.6673 Y58.0489 Z-2.5348
X158.5858 Y58.0264 Z-2.5197
X158.4628 Y58.002 Z-2.4969
X158.3091 Y57.9804 Z-2.4684
X158.1247 Y57.9631 Z-2.4342
X157.9249 Y57.953 Z-2.3972
X157.8338 Y57.951 Z-2.3803
X157.7865 Y57.9182 Z-2.3716
X157.7404 Y57.8938 Z-2.363
X157.6636 Y57.8634 Z-2.3488
X157.5714 Y57.8366 Z-2.3317
X157.4452 Y57.8098 Z-2.3083
X157.2947 Y57.7868 Z-2.2804
X157.1103 Y57.7677 Z-2.2462
X156.9105 Y57.7551 Z-2.2092
X156.8182 Y57.7521 Z-2.1921
X156.7721 Y57.7262 Z-2.1836
X156.7106 Y57.6976 Z-2.1722
X156.6296 Y57.668 Z-2.1571
X156.5108 Y57.6355 Z-2.1351
X156.3879 Y57.6103 Z-2.1123
X156.2342 Y57.5877 Z-2.0839
X156.0805 Y57.5712 Z-2.0554
X155.8976 Y57.5583 Z-2.0215
X155.8038 Y57.5541 Z-2.0041
X155.7885 Y57.5515 Z-2.0013
X155.727 Y57.5213 Z-1.9899
X155.6348 Y57.4854 Z-1.9728
X155.5118 Y57.449 Z-1.95
X155.4227 Y57.4291 Z-1.9335
X155.312 Y57.4091 Z-1.9129
X155.1891 Y57.3903 Z-1.8902
X155.0354 Y57.3737 Z-1.8617
X154.8509 Y57.3599 Z-1.8275
X154.7741 Y57.3559 Z-1.8132
X154.7587 Y57.353 Z-1.8104
X154.6954 Y57.3252 Z-1.7987
X154.6118 Y57.294 Z-1.7832
X154.4974 Y57.2598 Z-1.762
X154.3745 Y57.2313 Z-1.7392
X154.2361 Y57.2064 Z-1.7135
X154.0533 Y57.1826 Z-1.6796
X153.8673 Y57.1659 Z-1.6452
X153.7443 Y57.1581 Z-1.6224
X153.7289 Y57.1559 Z-1.6195
X153.6214 Y57.1134 Z-1.5996
X153.4984 Y57.0744 Z-1.5768
X153.3754 Y57.0442 Z-1.554
X153.2217 Y57.0146 Z-1.5255
X153.0527 Y56.9901 Z-1.4942
X152.8529 Y56.9701 Z-1.4572
X152.6976 Y56.9593 Z-1.4284
X152.5608 Y56.9085 Z-1.403
X152.4225 Y56.8685 Z-1.3774
X152.2842 Y56.8372 Z-1.3518
X152.1151 Y56.8079 Z-1.3204
X151.9153 Y56.7825 Z-1.2834
X151.7462 Y56.767 Z-1.2521
X151.6694 Y56.7618 Z-1.2378
X151.654 Y56.7589 Z-1.235
X151.5311 Y56.7149 Z-1.2122
X151.3927 Y56.6748 Z-1.1865
X151.2566 Y56.6437 Z-1.1613
X151.1747 Y56.6282 Z-1.1461
X151.1643 Y56.6173 Z-1.1442
Y16.5908
X151.1747 Y16.5718 Z-1.1461
X151.3242 Y16.5416 Z-1.1738
X151.4542 Y16.5083 Z-1.1979
X151.5772 Y16.4694 Z-1.2207
X151.654 Y16.4412 Z-1.235
X151.6694 Y16.4374 Z-1.2378
X151.8431 Y16.4247 Z-1.27
X152.0383 Y16.4031 Z-1.3062
X152.1766 Y16.3824 Z-1.3318
X152.3149 Y16.3563 Z-1.3575
X152.4379 Y16.3276 Z-1.3803
X152.5495 Y16.295 Z-1.4009
X152.6992 Y16.2408 Z-1.4287
X152.9297 Y16.2235 Z-1.4714
X153.1142 Y16.2019 Z-1.5056
X153.2758 Y16.1762 Z-1.5356
X153.4062 Y16.1489 Z-1.5597
X153.5291 Y16.1164 Z-1.5825
X153.6202 Y16.087 Z-1.5994
X153.7005 Y16.0564 Z-1.6143
X153.7289 Y16.0438 Z-1.6195
X153.9749 Y16.0255 Z-1.6651
X154.1593 Y16.0045 Z-1.6993
X154.313 Y15.9806 Z-1.7278
X154.4513 Y15.9518 Z-1.7534
X154.5502 Y15.9257 Z-1.7717
X154.6665 Y15.8863 Z-1.7933
X154.7433 Y15.8544 Z-1.8075
X154.7587 Y15.8463 Z-1.8104
X154.8048 Y15.8428 Z-1.8189
X154.9892 Y15.8307 Z-1.8531
X155.1653 Y15.813 Z-1.8857
X155.3274 Y15.7887 Z-1.9158
X155.4503 Y15.7651 Z-1.9386
X155.5579 Y15.738 Z-1.9585
X155.6501 Y15.7091 Z-1.9756
X155.7443 Y15.6706 Z-1.9931
X155.791 Y15.6477 Z-2.0017
X156.0344 Y15.6329 Z-2.0468
X156.2188 Y15.6142 Z-2.081
X156.3725 Y15.5922 Z-2.1095
X156.5013 Y15.5664 Z-2.1334
X156.5281 Y15.56 Z-2.1383
X156.5955 Y15.5483 Z-2.1508
X156.6638 Y15.5431 Z-2.1635
X156.7461 Y15.544 Z-2.1787
X156.8561 Y15.5539 Z-2.1991
X157.1445 Y15.5956 Z-2.2526
X157.2411 Y15.6042 Z-2.2705
X157.3241 Y15.6053 Z-2.2859
X157.3929 Y15.6004 Z-2.2986
X157.4066 Y15.5987 Z-2.3012
X157.5252 Y15.5783 Z-2.3231
X157.6436 Y15.5511 Z-2.3451
X157.7251 Y15.5263 Z-2.3602
X157.8019 Y15.497 Z-2.3744
X157.8634 Y15.4678 Z-2.3858
X157.8941 Y15.4498 Z-2.3915
X157.9402 Y15.447 Z-2.4001
X158.1554 Y15.4349 Z-2.4399
X158.3398 Y15.4172 Z-2.4741
X158.4782 Y15.3979 Z-2.4998
X158.6011 Y15.3748 Z-2.5225
X158.6933 Y15.3518 Z-2.5396
X158.7702 Y15.3269 Z-2.5539
X158.8287 Y15.3018 Z-2.5647
X158.8685 Y15.2795 Z-2.5721
X158.9085 Y15.2531 Z-2.5795
X158.9239 Y15.2493 Z-2.5824
X159.1391 Y15.2409 Z-2.6222
X159.3235 Y15.2265 Z-2.6564
X159.4926 Y15.2059 Z-2.6878
X159.6141 Y15.1847 Z-2.7103
X159.7077 Y15.1628 Z-2.7276
X159.7692 Y15.1439 Z-2.739
X159.8153 Y15.1251 Z-2.7476
X159.8461 Y15.1094 Z-2.7533
X159.8768 Y15.0861 Z-2.759
X159.8875 Y15.0712 Z-2.761
X159.8924 Y15.0609 Z-2.7619
Y15.0526
X159.8975 Y15.05 Z-2.7623
X175.0774 Y15.0501 Z-2.7629
Z-5.417
X175.0504 Y15.05 Z-5.4631
X175.0428 Z-5.4759
X175.0236 Z-5.5037
X175.0082 Z-5.5385
X175.0023 Y15.0505 Z-5.5623
X174.9503 Y15.1944 Z-5.5527
X174.8933 Y15.3728 Z-5.5421
X174.8584 Y15.5022 Z-5.5357
X174.8165 Y15.687 Z-5.5279
X174.7925 Y15.8101 Z-5.5235
X174.7718 Y15.9332 Z-5.5196
X174.7537 Y16.0564 Z-5.5163
X174.7386 Y16.1795 Z-5.5135
X174.727 Y16.3027 Z-5.5113
X174.7181 Y16.4258 Z-5.5097
X174.7113 Y16.549 Z-5.5084
X174.707 Y16.6721 Z-5.5076
X174.7056 Y57.8026 Z-5.5074
X174.7021 Y57.9258 Z-5.5067
X174.6844 Y58.0489 Z-5.5034
X174.6693 Y58.1368 Z-5.5006
X174.6689 Y58.1493
X174.664 Y58.1496 Z-2.7623
X159.8941 Y58.1493 Z-2.7622
X159.8927 Y58.1407 Z-2.7619
X159.8768 Y58.1146 Z-2.759
X159.8614 Y58.1008 Z-2.7561
X159.8153 Y58.0747 Z-2.7476
X159.7538 Y58.0513 Z-2.7362
X159.6647 Y58.0265 Z-2.7197
X159.554 Y58.0038 Z-2.6992
X159.4157 Y57.9836 Z-2.6735
X159.2466 Y57.9663 Z-2.6422
X159.0315 Y57.9538 Z-2.6023
X158.9239 Y57.9508 Z-2.5824
X158.9085 Y57.9484 Z-2.5795
X158.8781 Y57.9258 Z-2.5739
X158.8205 Y57.8937 Z-2.5632
X158.7394 Y57.8625 Z-2.5482
X158.6626 Y57.8401 Z-2.5339
X158.5704 Y57.8187 Z-2.5168
X158.4213 Y57.7934 Z-2.4892
X158.263 Y57.7747 Z-2.4599
X158.1247 Y57.7629 Z-2.4342
X157.9402 Y57.7534 Z-2.4001
X157.8941 Y57.7507 Z-2.3915
X157.848 Y57.7245 Z-2.383
X157.7865 Y57.6967 Z-2.3716
X157.7134 Y57.6696 Z-2.358
X157.6175 Y57.6422 Z-2.3402
X157.4945 Y57.6158 Z-2.3174
X157.3562 Y57.5935 Z-2.2918
X157.1871 Y57.5738 Z-2.2605
X156.9812 Y57.5583 Z-2.2223
X156.8797 Y57.5538 Z-2.2035
X156.8643 Y57.5494 Z-2.2007
X156.7875 Y57.5135 Z-2.1864
X156.6953 Y57.4796 Z-2.1693
X156.5723 Y57.445 Z-2.1465
X156.4491 Y57.4184 Z-2.1237
X156.311 Y57.3961 Z-2.0981
X156.142 Y57.3758 Z-2.0668
X155.9422 Y57.3606 Z-2.0297
X155.8499 Y57.3559 Z-2.0126
X155.8346 Y57.3516 Z-2.0098
X155.7573 Y57.318 Z-1.9955
X155.6809 Y57.2907 Z-1.9813
X155.5579 Y57.2546 Z-1.9585
X155.4503 Y57.2308 Z-1.9386
X155.312 Y57.2061 Z-1.9129
X155.1491 Y57.1842 Z-1.8827
X154.9585 Y57.1664 Z-1.8474
X154.8202 Y57.1579 Z-1.8218
X154.8048 Y57.1543 Z-1.8189
X154.6972 Y57.1125 Z-1.799
X154.5896 Y57.0781 Z-1.7791
X154.4513 Y57.0434 Z-1.7534
X154.2976 Y57.014 Z-1.7249
X154.1285 Y56.9898 Z-1.6936
X153.9134 Y56.9686 Z-1.6537
X153.7904 Y56.9604 Z-1.6309
X153.77 Y56.9569 Z-1.6272
X153.6521 Y56.913 Z-1.6053
X153.5291 Y56.8757 Z-1.5825
X153.4062 Y56.8466 Z-1.5597
X153.2534 Y56.8174 Z-1.5314
X153.1142 Y56.7966 Z-1.5056
X152.9604 Y56.7791 Z-1.4771
X152.8067 Y56.7665 Z-1.4486
X152.7453 Y56.7622 Z-1.4372
X152.6089 Y56.7142 Z-1.412
X152.4532 Y56.6702 Z-1.3831
X152.2996 Y56.6367 Z-1.3546
X152.1459 Y56.6104 Z-1.3261
X151.9614 Y56.5863 Z-1.2919
X151.7616 Y56.5676 Z-1.2549
X151.7001 Y56.5629 Z-1.2435
X151.5772 Y56.5199 Z-1.2207
X151.4389 Y56.4805 Z-1.1951
X151.3713 Y56.4641 Z-1.1826
X151.361 Y56.448 Z-1.1807
X151.3615 Y16.7462
X151.3713 Y16.7356 Z-1.1826
X151.5003 Y16.7028 Z-1.2065
X151.6387 Y16.6593 Z-1.2321
X151.7001 Y16.6374 Z-1.2435
X151.7309 Y16.6337 Z-1.2492
X151.8999 Y16.6203 Z-1.2805
X152.0997 Y16.5965 Z-1.3176
X152.2534 Y16.5723 Z-1.3461
X152.4204 Y16.5376 Z-1.377
X152.5301 Y16.5091 Z-1.3973
X152.6377 Y16.4758 Z-1.4173
X152.7299 Y16.4418 Z-1.4344
X152.7453 Y16.4381 Z-1.4372
X152.9495 Y16.4225 Z-1.4751
X153.1449 Y16.3995 Z-1.5113
X153.3139 Y16.3724 Z-1.5426
X153.4523 Y16.3433 Z-1.5683
X153.5783 Y16.3101 Z-1.5916
X153.6674 Y16.282 Z-1.6081
X153.775 Y16.2414 Z-1.6281
X153.8212 Y16.2375 Z-1.6366
X154.0056 Y16.2235 Z-1.6708
X154.2054 Y16.1996 Z-1.7078
X154.3437 Y16.1781 Z-1.7335
X154.4821 Y16.1498 Z-1.7591
X154.605 Y16.1177 Z-1.7819
X154.7126 Y16.0821 Z-1.8018
X154.7984 Y16.0481 Z-1.8177
X154.817 Y16.0425 Z-1.8212
X155.02 Y16.0285 Z-1.8588
X155.1891 Y16.0115 Z-1.8902
X155.3735 Y15.9838 Z-1.9243
X155.5118 Y15.9559 Z-1.95
X155.6145 Y15.9296 Z-1.969
X155.7116 Y15.8991 Z-1.987
X155.8038 Y15.8623 Z-2.0041
X155.8346 Y15.8485 Z-2.0098
X155.8499 Y15.8442 Z-2.0126
X156.0498 Y15.8323 Z-2.0497
X156.225 Y15.8145 Z-2.0822
X156.3725 Y15.7948 Z-2.1095
X156.5108 Y15.769 Z-2.1351
X156.6184 Y15.7431 Z-2.1551
X156.7261 Y15.7101 Z-2.175
X156.8029 Y15.6798 Z-2.1893
X156.8643 Y15.6508 Z-2.2007
X156.8797 Y15.6461 Z-2.2035
X157.0334 Y15.6383 Z-2.232
X157.2178 Y15.6235 Z-2.2662
X157.3716 Y15.6044 Z-2.2947
X157.4066 Y15.5987 Z-2.3012
X157.4616 Y15.5939 Z-2.3113
X157.5352 Y15.5948 Z-2.325
X157.627 Y15.604 Z-2.342
X157.8471 Y15.6376 Z-2.3828
X157.9393 Y15.6451 Z-2.3999
X157.9948 Y15.6447 Z-2.4102
X158.2169 Y15.6306 Z-2.4513
X158.4013 Y15.6109 Z-2.4855
X158.5243 Y15.5926 Z-2.5083
X158.6319 Y15.5726 Z-2.5282
X158.736 Y15.5472 Z-2.5476
X158.8163 Y15.5222 Z-2.5624
X158.8778 Y15.4988 Z-2.5738
X158.9546 Y15.4605 Z-2.5881
X158.97 Y15.4505 Z-2.5909
X158.9854 Y15.4476 Z-2.5938
X159.1794 Y15.4386 Z-2.6297
X159.3696 Y15.4228 Z-2.665
X159.5387 Y15.4011 Z-2.6963
X159.6616 Y15.379 Z-2.7191
X159.7692 Y15.353 Z-2.739
X159.8492 Y15.3267 Z-2.7539
X159.9075 Y15.3018 Z-2.7647
X159.9536 Y15.2768 Z-2.7732
X159.9844 Y15.2548 Z-2.7789
X159.9998 Y15.2491 Z-2.7818
X160.1688 Y15.2437 Z-2.8131
X160.3686 Y15.2299 Z-2.8501
X160.5223 Y15.2126 Z-2.8786
X160.6575 Y15.1914 Z-2.9037
X160.7682 Y15.1674 Z-2.9242
X160.8451 Y15.1449 Z-2.9384
X160.8912 Y15.1268 Z-2.947
X160.9331 Y15.1039 Z-2.9548
X160.9578 Y15.0832 Z-2.9593
X160.9721 Y15.0607 Z-2.962
X160.9725 Y15.0516 Z-2.9621
X160.9758 Y15.0501 Z-2.9623
X174.8722 Y15.05 Z-2.9628
Z-5.3698
X174.8425 Y15.0504 Z-5.4182
X174.8317 Y15.05 Z-5.4387
X174.8128 Y15.0503 Z-5.4665
X174.7994 Y15.05 Z-5.4972
X174.792 Y15.0513 Z-5.5234
X174.7426 Y15.1944 Z-5.5142
X174.7043 Y15.3175 Z-5.5071
X174.6709 Y15.4407 Z-5.5009
X174.6317 Y15.6101 Z-5.4937
X174.604 Y15.7485 Z-5.4885
X174.5729 Y15.9332 Z-5.4828
X174.5555 Y16.0564 Z-5.4795
X174.5411 Y16.1795 Z-5.4769
X174.5298 Y16.3027 Z-5.4748
X174.5211 Y16.4258 Z-5.4732
X174.5146 Y16.549 Z-5.4719
X174.5103 Y16.6721 Z-5.4712
X174.5087 Y57.8151 Z-5.4709
X174.5034 Y57.9258 Z-5.4699
X174.4845 Y58.0489 Z-5.4664
X174.4704 Y58.1248 Z-5.4638
X174.4689 Y58.149 Z-5.4635
X174.4642 Y58.1499 Z-2.9622
X160.9729 Z-2.9621
X160.9716 Y58.1484 Z-2.9619
X160.9729 Y58.1449 Z-2.9621
X160.9681 Y58.1308 Z-2.9612
X160.9527 Y58.1118 Z-2.9584
X160.9373 Y58.0985 Z-2.9555
X160.8912 Y58.0729 Z-2.947
X160.8268 Y58.0489 Z-2.935
X160.7375 Y58.025 Z-2.9185
X160.6145 Y58.0007 Z-2.8957
X160.4608 Y57.9794 Z-2.8672
X160.2764 Y57.9628 Z-2.833
X160.092 Y57.9532 Z-2.7989
X159.9998 Y57.9506 Z-2.7818
X159.9858 Y57.946 Z-2.7792
X159.9564 Y57.9258 Z-2.7737
X159.9006 Y57.8948 Z-2.7634
X159.8461 Y57.8722 Z-2.7533
X159.7538 Y57.8431 Z-2.7362
X159.6463 Y57.8179 Z-2.7163
X159.5079 Y57.7941 Z-2.6906
X159.3235 Y57.7723 Z-2.6564
X159.1391 Y57.7589 Z-2.6222
X158.9854 Y57.7523 Z-2.5938
X158.97 Y57.7488 Z-2.5909
X158.9085 Y57.7149 Z-2.5795
X158.8311 Y57.6833 Z-2.5652
X158.7394 Y57.6535 Z-2.5482
X158.6319 Y57.6275 Z-2.5282
X158.5089 Y57.6046 Z-2.5055
X158.3552 Y57.5833 Z-2.477
X158.1554 Y57.5643 Z-2.4399
X157.9556 Y57.5538 Z-2.4029
X157.848 Y57.5065 Z-2.383
X157.7558 Y57.4738 Z-2.3659
X157.6636 Y57.4478 Z-2.3488
X157.5252 Y57.4182 Z-2.3231
X157.3869 Y57.3959 Z-2.2975
X157.2178 Y57.3759 Z-2.2662
X157.0181 Y57.3602 Z-2.2291
X156.9258 Y57.3555 Z-2.212
X156.8029 Y57.3056 Z-2.1893
X156.726 Y57.28 Z-2.175
X156.6031 Y57.247 Z-2.1522
X156.4801 Y57.2211 Z-2.1294
X156.3571 Y57.2008 Z-2.1066
X156.1727 Y57.178 Z-2.0725
X155.9883 Y57.1634 Z-2.0383
X155.8961 Y57.1579 Z-2.0212
X155.8499 Y57.1405 Z-2.0126
X155.7424 Y57.1007 Z-1.9927
X155.6094 Y57.0616 Z-1.9681
X155.5118 Y57.0393 Z-1.95
X155.3735 Y57.014 Z-1.9243
X155.2352 Y56.9933 Z-1.8987
X155.0815 Y56.9762 Z-1.8702
X154.8817 Y56.9612 Z-1.8332
X154.8509 Y56.9577 Z-1.8275
X154.7445 Y56.9174 Z-1.8078
X154.6204 Y56.8793 Z-1.7848
X154.4821 Y56.8458 Z-1.7591
X154.333 Y56.8174 Z-1.7315
X154.19 Y56.7964 Z-1.705
X154.021 Y56.7776 Z-1.6737
X153.8826 Y56.7664 Z-1.648
X153.8212 Y56.7622 Z-1.6366
X153.7156 Y56.7237 Z-1.6171
X153.5906 Y56.6854 Z-1.5939
X153.4677 Y56.6553 Z-1.5711
X153.3139 Y56.6247 Z-1.5426
X153.1449 Y56.599 Z-1.5113
X152.9743 Y56.5796 Z-1.4797
X152.8221 Y56.5671 Z-1.4515
X152.7914 Y56.5647 Z-1.4458
X152.776 Y56.5617 Z-1.4429
X152.6684 Y56.5236 Z-1.423
X152.5147 Y56.4798 Z-1.3945
X152.3488 Y56.4426 Z-1.3637
X152.1766 Y56.4128 Z-1.3318
X151.9922 Y56.3886 Z-1.2976
X151.777 Y56.3682 Z-1.2578
X151.7462 Y56.3664 Z-1.2521
X151.5995 Y56.318 Z-1.2249
X151.5772 Y56.312 Z-1.2207
X151.5576 Y56.2998 Z-1.2171
Y16.9184
X151.568 Y16.8912 Z-1.219
X151.7155 Y16.8438 Z-1.2464
X151.7462 Y16.8329 Z-1.2521
X151.8846 Y16.8223 Z-1.2777
X152.0691 Y16.8021 Z-1.3119
X152.2327 Y16.7783 Z-1.3422
X152.361 Y16.7548 Z-1.366
X152.5147 Y16.7205 Z-1.3945
X152.6629 Y16.678 Z-1.422
X152.776 Y16.6377 Z-1.4429
X152.8221 Y16.633 Z-1.4515
X152.9912 Y16.6191 Z-1.4828
X153.1756 Y16.597 Z-1.517
X153.3447 Y16.57 Z-1.5483
X153.4984 Y16.5377 Z-1.5768
X153.6367 Y16.5011 Z-1.6024
X153.7597 Y16.4612 Z-1.6252
X153.8212 Y16.4379 Z-1.6366
X154.0172 Y16.4232 Z-1.673
X154.2208 Y16.3994 Z-1.7107
X154.3745 Y16.3756 Z-1.7392
X154.5282 Y16.3442 Z-1.7677
X154.665 Y16.3082 Z-1.793
X154.7894 Y16.2665 Z-1.8161
X154.8509 Y16.2426 Z-1.8275
X154.897 Y16.238 Z-1.836
X155.0968 Y16.2226 Z-1.8731
X155.2659 Y16.2029 Z-1.9044
X155.432 Y16.1763 Z-1.9352
X155.5733 Y16.1467 Z-1.9614
X155.6809 Y16.1184 Z-1.9813
X155.7885 Y16.0834 Z-2.0013
X155.888 Y16.0431 Z-2.0197
X156.0959 Y16.0289 Z-2.0582
X156.2649 Y16.0113 Z-2.0896
X156.434 Y15.987 Z-2.1209
X156.557 Y15.9632 Z-2.1437
X156.6645 Y15.9376 Z-2.1636
X156.7875 Y15.9001 Z-2.1864
X156.8643 Y15.8704 Z-2.2007
X156.9258 Y15.8443 Z-2.212
X157.0641 Y15.8365 Z-2.2377
X157.2332 Y15.8229 Z-2.269
X157.4062 Y15.8013 Z-2.3011
X157.5406 Y15.7789 Z-2.326
X157.6636 Y15.7523 Z-2.3488
X157.7712 Y15.7217 Z-2.3687
X157.8647 Y15.687 Z-2.3861
X157.9402 Y15.6521 Z-2.4001
X157.9556 Y15.6465 Z-2.4029
X157.9948 Y15.6447 Z-2.4102
X158.0321 Y15.6453 Z-2.4171
X158.0874 Y15.6535 Z-2.4273
X158.1415 Y15.6684 Z-2.4374
X158.23 Y15.7028 Z-2.4538
X158.3515 Y15.7542 Z-2.4763
X158.4226 Y15.7776 Z-2.4895
X158.4766 Y15.7885 Z-2.4995
X158.5314 Y15.7915 Z-2.5096
X158.5678 Y15.7878 Z-2.5164
X158.678 Y15.7666 Z-2.5368
X158.7856 Y15.7407 Z-2.5567
X158.8778 Y15.7122 Z-2.5738
X158.964 Y15.6787 Z-2.5898
X159.0315 Y15.6462 Z-2.6023
X159.2313 Y15.6354 Z-2.6393
X159.4003 Y15.6206 Z-2.6707
X159.5694 Y15.5985 Z-2.702
X159.6924 Y15.5767 Z-2.7248
X159.8153 Y15.5474 Z-2.7476
X159.9075 Y15.5181 Z-2.7647
X159.9844 Y15.486 Z-2.7789
X160.0459 Y15.4536 Z-2.7903
X160.0612 Y15.4478 Z-2.7932
X160.2457 Y15.4396 Z-2.8273
X160.4301 Y15.4249 Z-2.8615
X160.5684 Y15.4083 Z-2.8872
X160.7068 Y15.3852 Z-2.9128
X160.799 Y15.3657 Z-2.9299
X160.9023 Y15.3363 Z-2.949
X160.9718 Y15.3093 Z-2.9619
X161.0295 Y15.278 Z-2.9726
X161.0603 Y15.2564 Z-2.9783
X161.0756 Y15.2493 Z-2.9812
X161.2754 Y15.2423 Z-3.0182
X161.4753 Y15.2275 Z-3.0552
X161.629 Y15.2091 Z-3.0837
X161.7519 Y15.1888 Z-3.1065
X161.8595 Y15.1642 Z-3.1265
X161.9363 Y15.1405 Z-3.1407
X161.9867 Y15.119 Z-3.15
X162.0175 Y15.1006 Z-3.1557
X162.0286 Y15.0918 Z-3.1578
X162.0456 Y15.0712 Z-3.1609
X162.0507 Y15.0606 Z-3.1619
X162.0523 Y15.0503 Z-3.1622
X174.6701 Y15.0501 Z-3.1626
Z-5.3165
X174.6296 Y15.0506 Z-5.3856
X174.619 Y15.0504 Z-5.4042
X174.6021 Z-5.4306
X174.5875 Z-5.4667
X174.583 Y15.0514 Z-5.4846
X174.5359 Y15.1944 Z-5.4759
X174.4836 Y15.3791 Z-5.4662
X174.4404 Y15.5638 Z-5.4582
X174.4154 Y15.687 Z-5.4536
X174.3743 Y15.9332 Z-5.4459
X174.3577 Y16.0564 Z-5.4429
X174.3436 Y16.1795 Z-5.4403
X174.3327 Y16.3027 Z-5.4382
X174.3242 Y16.4258 Z-5.4367
X174.3178 Y16.549 Z-5.4355
X174.3137 Y16.6721 Z-5.4347
X174.3123 Y57.8026 Z-5.4345
X174.3044 Y57.9258 Z-5.433
X174.2692 Y58.1372 Z-5.4265
X174.2688 Y58.1492 Z-5.4264
X174.2649 Y58.1498 Z-3.1636
X174.2628 Y58.1497 Z-3.1622
X162.0522 Y58.1493
X162.0506 Y58.1486 Z-3.1619
X162.0521 Y58.1471 Z-3.1622
X162.0459 Y58.1292 Z-3.161
X162.0285 Y58.1085 Z-3.1578
X161.9978 Y58.0868 Z-3.1521
X161.9671 Y58.0717 Z-3.1464
X161.9041 Y58.0489 Z-3.1347
X161.8288 Y58.0279 Z-3.1208
X161.7212 Y58.0055 Z-3.1008
X161.5675 Y57.983 Z-3.0723
X161.3984 Y57.9659 Z-3.041
X161.214 Y57.9546 Z-3.0068
X161.0712 Y57.9508 Z-2.9804
X161.0361 Y57.9258 Z-2.9738
X160.968 Y57.8888 Z-2.9612
X160.9066 Y57.8652 Z-2.9498
X160.8143 Y57.838 Z-2.9327
X160.7104 Y57.8151 Z-2.9135
X160.5684 Y57.7916 Z-2.8872
X160.4147 Y57.7736 Z-2.8587
X160.2149 Y57.7586 Z-2.8217
X160.0612 Y57.7523 Z-2.7932
X160.0459 Y57.7469 Z-2.7903
X159.9746 Y57.7092 Z-2.7771
X159.9104 Y57.6832 Z-2.7652
X159.8153 Y57.653 Z-2.7476
X159.7231 Y57.6299 Z-2.7305
X159.5848 Y57.6037 Z-2.7049
X159.4311 Y57.5828 Z-2.6764
X159.262 Y57.5664 Z-2.645
X159.0361 Y57.5537 Z-2.6032
X159.0161 Y57.5463 Z-2.5995
X158.9546 Y57.5173 Z-2.5881
X158.847 Y57.4779 Z-2.5681
X158.7702 Y57.4549 Z-2.5539
X158.6472 Y57.4265 Z-2.5311
X158.5089 Y57.4024 Z-2.5055
X158.3552 Y57.3822 Z-2.477
X158.1554 Y57.364 Z-2.4399
X158.0017 Y57.3558 Z-2.4115
X157.9095 Y57.3162 Z-2.3944
X157.8173 Y57.2839 Z-2.3773
X157.7097 Y57.2533 Z-2.3573
X157.5714 Y57.2236 Z-2.3317
X157.4176 Y57.1984 Z-2.3032
X157.2486 Y57.1781 Z-2.2719
X157.0641 Y57.1628 Z-2.2377
X156.9719 Y57.1573 Z-2.2206
X156.8336 Y57.1045 Z-2.195
X156.7083 Y57.0674 Z-2.1717
X156.5877 Y57.0386 Z-2.1494
X156.434 Y57.01 Z-2.1209
X156.2188 Y56.9818 Z-2.081
X156.0344 Y56.9659 Z-2.0468
X155.9422 Y56.96 Z-2.0297
X155.9253 Y56.9557 Z-2.0266
X155.8192 Y56.9155 Z-2.0069
X155.6809 Y56.8738 Z-1.9813
X155.5579 Y56.8447 Z-1.9585
X155.4102 Y56.8174 Z-1.9311
X155.2505 Y56.7938 Z-1.9015
X155.0968 Y56.777 Z-1.8731
X154.897 Y56.7611 Z-1.836
X154.8048 Y56.727 Z-1.8189
X154.6681 Y56.6852 Z-1.7936
X154.5435 Y56.6546 Z-1.7705
X154.3898 Y56.624 Z-1.742
X154.2208 Y56.5987 Z-1.7107
X154.0511 Y56.5794 Z-1.6793
X153.898 Y56.567 Z-1.6509
X153.8673 Y56.5647 Z-1.6452
X153.8212 Y56.5495 Z-1.6366
X153.6982 Y56.5086 Z-1.6138
X153.5752 Y56.4752 Z-1.591
X153.4277 Y56.4428 Z-1.5637
X153.2678 Y56.4147 Z-1.5341
X153.0834 Y56.3898 Z-1.4999
X152.8529 Y56.3685 Z-1.4572
X152.8221 Y56.3659 Z-1.4515
X152.7264 Y56.3325 Z-1.4337
X152.5608 Y56.2853 Z-1.403
X152.3918 Y56.2473 Z-1.3717
X152.2075 Y56.2154 Z-1.3376
X152.0075 Y56.1895 Z-1.3005
X151.7924 Y56.169 Z-1.2606
X151.777 Y56.1661 Z-1.2578
X151.7616 Y56.1608 Z-1.2549
X151.7543 Y56.0786 Z-1.2535
X151.7547 Y17.0416 Z-1.2536
X151.7773 Y17.0333 Z-1.2578
X151.8116 Y17.0292 Z-1.2642
X151.9922 Y17.0122 Z-1.2976
X152.1766 Y16.9892 Z-1.3318
X152.3303 Y16.9646 Z-1.3603
X152.5108 Y16.9268 Z-1.3938
X152.6223 Y16.8979 Z-1.4144
X152.7453 Y16.8609 Z-1.4372
X152.8221 Y16.8332 Z-1.4515
X152.9912 Y16.8202 Z-1.4828
X153.1818 Y16.7977 Z-1.5181
X153.3293 Y16.7749 Z-1.5455
X153.4369 Y16.7553 Z-1.5654
X153.5752 Y16.7247 Z-1.591
X153.7289 Y16.6816 Z-1.6195
X153.8347 Y16.6459 Z-1.6391
X153.8673 Y16.6351 Z-1.6452
X154.0363 Y16.6222 Z-1.6765
X154.2515 Y16.5969 Z-1.7164
X154.4206 Y16.5704 Z-1.7477
X154.5896 Y16.5348 Z-1.7791
X154.7126 Y16.5021 Z-1.8018
X154.8356 Y16.4622 Z-1.8246
X154.897 Y16.4388 Z-1.836
X155.1123 Y16.422 Z-1.8759
X155.2813 Y16.4024 Z-1.9072
X155.4657 Y16.3734 Z-1.9414
X155.6194 Y16.3411 Z-1.9699
X155.7299 Y16.3121 Z-1.9904
X155.8499 Y16.2733 Z-2.0126
X155.9268 Y16.2435 Z-2.0269
X155.9422 Y16.2402 Z-2.0297
X156.142 Y16.2256 Z-2.0668
X156.3571 Y16.201 Z-2.1066
X156.483 Y16.1814 Z-2.13
X156.6338 Y16.1511 Z-2.1579
X156.7568 Y16.1191 Z-2.1807
X156.8797 Y16.079 Z-2.2035
X156.9559 Y16.0481 Z-2.2176
X156.9741 Y16.0428 Z-2.221
X157.2178 Y16.0253 Z-2.2662
X157.4023 Y16.0037 Z-2.3004
X157.5714 Y15.9763 Z-2.3317
X157.7097 Y15.9467 Z-2.3573
X157.8173 Y15.9166 Z-2.3773
X157.9249 Y15.8781 Z-2.3972
X158.0017 Y15.8446 Z-2.4115
X158.2323 Y15.83 Z-2.4542
X158.4205 Y15.8101 Z-2.4891
X158.555 Y15.79 Z-2.514
X158.5678 Y15.7878 Z-2.5164
X158.6225 Y15.7816 Z-2.5265
X158.6776 Y15.7811 Z-2.5367
X158.7511 Y15.7873 Z-2.5503
X158.8607 Y15.8055 Z-2.5707
X159.0075 Y15.8319 Z-2.5979
X159.0813 Y15.8398 Z-2.6115
X159.1369 Y15.841 Z-2.6219
X159.1555 Y15.8402 Z-2.6253
X159.3389 Y15.8274 Z-2.6593
X159.5192 Y15.8076 Z-2.6927
X159.677 Y15.7832 Z-2.722
X159.8 Y15.7574 Z-2.7447
X159.9075 Y15.7285 Z-2.7647
X159.9998 Y15.6963 Z-2.7818
X160.0725 Y15.6648 Z-2.7953
X160.1102 Y15.6464 Z-2.8022
X160.3225 Y15.6347 Z-2.8416
X160.4916 Y15.6192 Z-2.8729
X160.6299 Y15.6012 Z-2.8986
X160.768 Y15.5771 Z-2.9242
X160.8758 Y15.5523 Z-2.9441
X160.968 Y15.5244 Z-2.9612
X161.0449 Y15.4949 Z-2.9755
X161.1064 Y15.4638 Z-2.9869
X161.1371 Y15.4479 Z-2.9926
X161.3246 Y15.4395 Z-3.0273
X161.506 Y15.4251 Z-3.0609
X161.6597 Y15.4062 Z-3.0894
X161.7826 Y15.3864 Z-3.1122
X161.8902 Y15.3626 Z-3.1322
X161.9881 Y15.3334 Z-3.1503
X162.0509 Y15.3092 Z-3.1619
X162.09 Y15.2891 Z-3.1692
X162.1361 Y15.2598 Z-3.1777
X162.1515 Y15.2494 Z-3.1806
X162.3513 Y15.2424 Z-3.2176
X162.5511 Y15.2278 Z-3.2546
X162.7048 Y15.2095 Z-3.2831
X162.8278 Y15.1896 Z-3.3059
X162.9354 Y15.1652 Z-3.3259
X163.0122 Y15.1418 Z-3.3401
X163.0583 Y15.1229 Z-3.3486
X163.0875 Y15.107 Z-3.3541
X163.1165 Y15.0837 Z-3.3594
X163.1257 Y15.0712 Z-3.3611
X163.132 Y15.0502 Z-3.3622
X174.4626 Y15.0501 Z-3.3625
Z-5.2734
X174.4434 Y15.0506 Z-5.3064
X174.4165 Y15.0502 Z-5.3549
X174.4088 Y15.0506 Z-5.3687
X174.3896 Y15.0502 Z-5.4017
X174.3819 Y15.0506 Z-5.4208
X174.3753 Y15.0508 Z-5.4461
X174.3303 Y15.1944 Z-5.4378
X174.2808 Y15.3791 Z-5.4286
X174.2393 Y15.5638 Z-5.4209
X174.2158 Y15.687 Z-5.4166
X174.1946 Y15.8101 Z-5.4126
X174.176 Y15.9332 Z-5.4092
X174.1598 Y16.0564 Z-5.4062
X174.1462 Y16.1795 Z-5.4037
X174.1355 Y16.3027 Z-5.4017
X174.1273 Y16.4258 Z-5.4002
X174.1171 Y16.6721 Z-5.3983
X174.1156 Y57.8026 Z-5.398
X174.1051 Y57.9258 Z-5.3961
X174.0694 Y58.137 Z-5.3894
X174.0688 Y58.1491 Z-5.3893
X174.0654 Y58.1496 Z-3.3622
X163.1314 Y58.1495
X163.1295 Y58.1487 Z-3.3618
X163.1313 Y58.1479 Z-3.3622
X163.1275 Y58.1338 Z-3.3615
X163.116 Y58.1178 Z-3.3593
X163.1045 Y58.1058 Z-3.3572
X163.0737 Y58.0854 Z-3.3515
X163.0122 Y58.0583 Z-3.3401
X162.9354 Y58.035 Z-3.3259
X162.8278 Y58.0107 Z-3.3059
X162.6895 Y57.9882 Z-3.2803
X162.5358 Y57.9709 Z-3.2518
X162.336 Y57.957 Z-3.2148
X162.1641 Y57.9512 Z-3.1829
X162.1469 Y57.9488 Z-3.1797
X162.1026 Y57.9179 Z-3.1715
X162.0439 Y57.8878 Z-3.1606
X161.9671 Y57.8593 Z-3.1464
X161.8902 Y57.8373 Z-3.1322
X161.7829 Y57.8138 Z-3.1123
X161.6444 Y57.7913 Z-3.0866
X161.4753 Y57.7719 Z-3.0552
X161.2754 Y57.7573 Z-3.0182
X161.1371 Y57.7522 Z-2.9926
X161.0449 Y57.7048 Z-2.9755
X160.9696 Y57.6758 Z-2.9615
X160.8758 Y57.6476 Z-2.9441
X160.7529 Y57.6198 Z-2.9214
X160.5992 Y57.594 Z-2.8929
X160.4301 Y57.5742 Z-2.8615
X160.2272 Y57.559 Z-2.8239
X160.1073 Y57.5532 Z-2.8017
X160.0459 Y57.5226 Z-2.7903
X159.9536 Y57.4867 Z-2.7732
X159.8342 Y57.4512 Z-2.7511
X159.7231 Y57.4257 Z-2.7305
X159.5848 Y57.4014 Z-2.7049
X159.4003 Y57.3782 Z-2.6707
X159.2313 Y57.3639 Z-2.6393
X159.0776 Y57.354 Z-2.6109
X159.0161 Y57.327 Z-2.5995
X158.8931 Y57.2826 Z-2.5767
X158.7856 Y57.2528 Z-2.5567
X158.6626 Y57.2261 Z-2.5339
X158.5243 Y57.2026 Z-2.5083
X158.3706 Y57.1828 Z-2.4798
X158.1861 Y57.1656 Z-2.4456
X158.0478 Y57.1577 Z-2.42
X157.9402 Y57.1147 Z-2.4001
X157.8251 Y57.0777 Z-2.3787
X157.7097 Y57.0481 Z-2.3573
X157.556 Y57.0175 Z-2.3288
X157.4023 Y56.9946 Z-2.3004
X157.2332 Y56.9759 Z-2.269
X157.0333 Y56.9604 Z-2.232
X157.0177 Y56.9595 Z-2.2291
X156.8797 Y56.9096 Z-2.2035
X156.7414 Y56.8696 Z-2.1779
X156.6031 Y56.8377 Z-2.1522
X156.4486 Y56.8102 Z-2.1236
X156.2342 Y56.7824 Z-2.0839
X156.0498 Y56.7666 Z-2.0497
X155.9883 Y56.7625 Z-2.0383
X155.9729 Y56.7598 Z-2.0354
X155.8653 Y56.721 Z-2.0155
X155.7235 Y56.6785 Z-1.9892
X155.604 Y56.6501 Z-1.9671
X155.435 Y56.6189 Z-1.9357
X155.2659 Y56.5942 Z-1.9044
X155.1001 Y56.5769 Z-1.8737
X154.9431 Y56.5644 Z-1.8446
X154.8202 Y56.5221 Z-1.8218
X154.6972 Y56.4862 Z-1.799
X154.5781 Y56.458 Z-1.7769
X154.4359 Y56.4292 Z-1.7506
X154.2669 Y56.4031 Z-1.7192
X154.0824 Y56.3816 Z-1.6851
X153.9134 Y56.3675 Z-1.6537
X153.898 Y56.3648 Z-1.6509
X153.7665 Y56.3206 Z-1.6265
X153.6214 Y56.2808 Z-1.5996
X153.4677 Y56.2469 Z-1.5711
X153.2986 Y56.2171 Z-1.5398
X153.0988 Y56.1904 Z-1.5027
X152.8682 Y56.1691 Z-1.46
X152.7453 Y56.1296 Z-1.4372
X152.6043 Y56.0903 Z-1.4111
X152.4379 Y56.0529 Z-1.3803
X152.2534 Y56.0202 Z-1.3461
X152.0536 Y55.9931 Z-1.309
X151.9613 Y55.9834 Z-1.2919
X151.9506 Y55.9703 Z-1.2899
Y17.2325
X151.9613 Y17.2168 Z-1.2919
X152.1612 Y17.1932 Z-1.329
X152.3211 Y17.1688 Z-1.3586
X152.484 Y17.1376 Z-1.3888
X152.6377 Y17.1011 Z-1.4173
X152.7868 Y17.0573 Z-1.4449
X152.8559 Y17.0333 Z-1.4577
X152.8836 Y17.0298 Z-1.4629
X153.068 Y17.0129 Z-1.497
X153.2678 Y16.9877 Z-1.5341
X153.4369 Y16.959 Z-1.5654
X153.5752 Y16.93 Z-1.591
X153.71 Y16.8952 Z-1.616
X153.8519 Y16.8519 Z-1.6423
X153.898 Y16.8354 Z-1.6509
X153.9287 Y16.8316 Z-1.6566
X154.1132 Y16.8151 Z-1.6908
X154.2978 Y16.7922 Z-1.725
X154.4513 Y16.7679 Z-1.7534
X154.6204 Y16.733 Z-1.7848
X154.7587 Y16.6966 Z-1.8104
X154.8978 Y16.6519 Z-1.8362
X154.9433 Y16.6356 Z-1.8446
X155.1276 Y16.6213 Z-1.8788
X155.2966 Y16.602 Z-1.9101
X155.4811 Y16.5735 Z-1.9443
X155.6396 Y16.5416 Z-1.9737
X155.7577 Y16.5114 Z-1.9956
X155.8807 Y16.474 Z-2.0183
X155.9729 Y16.4401 Z-2.0354
X156.0036 Y16.437 Z-2.0411
X156.1881 Y16.422 Z-2.0753
X156.3879 Y16.3986 Z-2.1123
X156.5262 Y16.3765 Z-2.138
X156.6645 Y16.3488 Z-2.1636
X156.7875 Y16.318 Z-2.1864
X156.9105 Y16.28 Z-2.2092
X157.0027 Y16.2448 Z-2.2263
X157.0181 Y16.2405 Z-2.2291
X157.2486 Y16.2233 Z-2.2719
X157.4484 Y16.1991 Z-2.3089
X157.6238 Y16.1698 Z-2.3414
X157.7558 Y16.1411 Z-2.3659
X157.8787 Y16.1065 Z-2.3887
X158.0048 Y16.0609 Z-2.412
X158.0478 Y16.0426 Z-2.42
X158.263 Y16.0278 Z-2.4599
X158.4474 Y16.0081 Z-2.4941
X158.5858 Y15.9877 Z-2.5197
X158.7087 Y15.9644 Z-2.5425
X158.8176 Y15.9391 Z-2.5627
X158.9393 Y15.9022 Z-2.5852
X159.0315 Y15.8668 Z-2.6023
X159.0776 Y15.8453 Z-2.6109
X159.1555 Y15.8402 Z-2.6253
X159.1928 Y15.8405 Z-2.6322
X159.2483 Y15.8482 Z-2.6425
X159.3026 Y15.8628 Z-2.6526
X159.3915 Y15.8965 Z-2.669
X159.5135 Y15.9468 Z-2.6917
X159.5849 Y15.9692 Z-2.7049
X159.639 Y15.9792 Z-2.7149
X159.6755 Y15.9816 Z-2.7217
X159.712 Y15.9795 Z-2.7284
X159.73 Y15.9766 Z-2.7318
X159.8461 Y15.9518 Z-2.7533
X159.9581 Y15.9217 Z-2.7741
X160.0459 Y15.8923 Z-2.7903
X160.1381 Y15.8544 Z-2.8074
X160.1535 Y15.8471 Z-2.8103
X160.1688 Y15.8441 Z-2.8131
X160.384 Y15.8306 Z-2.853
X160.5592 Y15.8126 Z-2.8855
X160.7068 Y15.7911 Z-2.9128
X160.8297 Y15.7683 Z-2.9356
X160.9373 Y15.7424 Z-2.9555
X161.045 Y15.7093 Z-2.9755
X161.1336 Y15.6736 Z-2.9919
X161.1832 Y15.6487 Z-3.0011
X161.214 Y15.6455 Z-3.0068
X161.4445 Y15.6314 Z-3.0495
X161.5982 Y15.6162 Z-3.078
X161.7673 Y15.592 Z-3.1094
X161.8916 Y15.5678 Z-3.1324
X161.9825 Y15.5443 Z-3.1492
X162.0747 Y15.5144 Z-3.1663
X162.1361 Y15.4893 Z-3.1777
X162.1823 Y15.4657 Z-3.1863
X162.213 Y15.448 Z-3.192
X162.4035 Y15.4395 Z-3.2273
X162.5819 Y15.4257 Z-3.2603
X162.7356 Y15.4071 Z-3.2888
X162.8739 Y15.3839 Z-3.3145
X162.9815 Y15.3596 Z-3.3344
X163.0737 Y15.3317 Z-3.3515
X163.1412 Y15.3042 Z-3.364
X163.1967 Y15.273 Z-3.3743
X163.2274 Y15.2501 Z-3.38
X163.4579 Y15.2407 Z-3.4227
X163.6424 Y15.2264 Z-3.4569
X163.7961 Y15.2078 Z-3.4854
X163.9175 Y15.1873 Z-3.5079
X164.0266 Y15.1619 Z-3.5281
X164.1035 Y15.1372 Z-3.5424
X164.1496 Y15.116 Z-3.5509
X164.1803 Y15.0961 Z-3.5566
X164.1957 Y15.0836 Z-3.5594
X164.2048 Y15.0712 Z-3.5611
X164.2086 Y15.0605 Z-3.5618
X164.2085 Y15.0529
X164.2125 Y15.0504 Z-3.5622
X174.1672 Y15.0502 Z-3.5623
X174.1685 Y15.0515 Z-5.4078
X174.1258 Y15.1944 Z-5.3999
X174.0785 Y15.3791 Z-5.3911
X174.0389 Y15.5638 Z-5.3838
X174.0161 Y15.687 Z-5.3796
X173.9957 Y15.8101 Z-5.3758
X173.9776 Y15.9332 Z-5.3724
X173.9621 Y16.0564 Z-5.3696
X173.9488 Y16.1795 Z-5.3671
X173.9384 Y16.3027 Z-5.3652
X173.9245 Y16.549 Z-5.3626
X173.9204 Y16.6721 Z-5.3618
X173.9194 Y57.6795 Z-5.3616
X173.9184 Y57.8026 Z-5.3614
X173.9057 Y57.9258 Z-5.3591
X173.8702 Y58.1247 Z-5.3525
X173.8687 Y58.149 Z-5.3522
X173.8654 Y58.1497 Z-3.5622
X164.2101 Y58.1498 Z-3.5621
X164.2072 Y58.1377 Z-3.5616
X164.2014 Y58.126 Z-3.5605
X164.1803 Y58.1025 Z-3.5566
X164.1495 Y58.0832 Z-3.5509
X164.1019 Y58.0623 Z-3.5421
X164.042 Y58.0421 Z-3.531
X163.9498 Y58.0198 Z-3.5139
X163.8422 Y57.9994 Z-3.4939
X163.6885 Y57.9785 Z-3.4654
X163.4887 Y57.9611 Z-3.4284
X163.2889 Y57.952 Z-3.3914
X163.2274 Y57.9497 Z-3.38
X163.1828 Y57.9189 Z-3.3717
X163.1352 Y57.8939 Z-3.3629
X163.0737 Y57.8684 Z-3.3515
X162.9815 Y57.8405 Z-3.3344
X162.8739 Y57.8162 Z-3.3145
X162.7217 Y57.7908 Z-3.2863
X162.5665 Y57.773 Z-3.2575
X162.3667 Y57.7583 Z-3.2205
X162.213 Y57.7519 Z-3.192
X162.1669 Y57.7262 Z-3.1834
X162.1054 Y57.6975 Z-3.172
X162.0413 Y57.6733 Z-3.1602
X161.9363 Y57.6429 Z-3.1407
X161.8134 Y57.6161 Z-3.1179
X161.675 Y57.5938 Z-3.0923
X161.4906 Y57.5725 Z-3.0581
X161.3016 Y57.5585 Z-3.023
X161.1986 Y57.5538 Z-3.004
X161.1832 Y57.5516 Z-3.0011
X161.1217 Y57.5207 Z-2.9897
X161.0449 Y57.4908 Z-2.9755
X160.9373 Y57.4574 Z-2.9555
X160.8175 Y57.4292 Z-2.9333
X160.676 Y57.4034 Z-2.9071
X160.5223 Y57.383 Z-2.8786
X160.3379 Y57.3657 Z-2.8444
X160.1688 Y57.356 Z-2.8131
X160.1535 Y57.3529 Z-2.8103
X160.0728 Y57.318 Z-2.7953
X159.9844 Y57.2868 Z-2.7789
X159.8614 Y57.2519 Z-2.7561
X159.7231 Y57.2222 Z-2.7305
X159.5864 Y57.1997 Z-2.7052
X159.4004 Y57.1774 Z-2.6707
X159.2466 Y57.1648 Z-2.6422
X159.1391 Y57.1581 Z-2.6222
X159.1237 Y57.1556 Z-2.6194
X159.0161 Y57.114 Z-2.5995
X158.9239 Y57.0832 Z-2.5824
X158.8121 Y57.054 Z-2.5617
X158.6933 Y57.0286 Z-2.5396
X158.555 Y57.0051 Z-2.514
X158.3859 Y56.9834 Z-2.4827
X158.2015 Y56.9662 Z-2.4485
X158.0994 Y56.9602 Z-2.4296
X158.0821 Y56.9556 Z-2.4264
X157.971 Y56.9139 Z-2.4058
X157.8634 Y56.8811 Z-2.3858
X157.7558 Y56.8537 Z-2.3659
X157.6021 Y56.8226 Z-2.3374
X157.433 Y56.7971 Z-2.3061
X157.264 Y56.7779 Z-2.2747
X157.0795 Y56.7631 Z-2.2405
X157.0641 Y56.7622 Z-2.2377
X157.0334 Y56.7531 Z-2.232
X156.9412 Y56.72 Z-2.2149
X156.8231 Y56.6848 Z-2.193
X156.6799 Y56.6497 Z-2.1665
X156.5108 Y56.6175 Z-2.1351
X156.2957 Y56.588 Z-2.0953
X156.0928 Y56.569 Z-2.0577
X156.019 Y56.5636 Z-2.044
X155.9268 Y56.5309 Z-2.0269
X155.7731 Y56.4849 Z-1.9984
X155.6487 Y56.4557 Z-1.9753
X155.4811 Y56.4236 Z-1.9443
X155.312 Y56.3985 Z-1.9129
X155.1276 Y56.3785 Z-1.8788
X154.9892 Y56.367 Z-1.8531
X154.946 Y56.3536 Z-1.8451
X154.8048 Y56.3087 Z-1.8189
X154.6511 Y56.2691 Z-1.7905
X154.4821 Y56.2347 Z-1.7591
X154.3437 Y56.2121 Z-1.7335
X154.1747 Y56.1903 Z-1.7021
X153.9441 Y56.169 Z-1.6594
X153.7904 Y56.1193 Z-1.6309
X153.6343 Y56.0786 Z-1.602
X153.4523 Y56.0406 Z-1.5683
X153.2986 Y56.0153 Z-1.5398
X153.1142 Y55.9911 Z-1.5056
X152.9143 Y55.972 Z-1.4686
X152.899 Y55.9694 Z-1.4657
X152.796 Y55.9364 Z-1.4466
X152.6531 Y55.8966 Z-1.4201
X152.4686 Y55.8552 Z-1.3859
X152.2754 Y55.8214 Z-1.3501
X152.1579 Y55.8048 Z-1.3284
X152.1475 Y55.7851 Z-1.3264
Y17.411
X152.1579 Y17.3953 Z-1.3284
X152.3457 Y17.3673 Z-1.3632
X152.4994 Y17.3383 Z-1.3916
X152.6542 Y17.3031 Z-1.4203
X152.8221 Y17.2556 Z-1.4515
X152.899 Y17.2303 Z-1.4657
X153.1449 Y17.2055 Z-1.5113
X153.3139 Y17.1824 Z-1.5426
X153.4628 Y17.1574 Z-1.5702
X153.6214 Y17.1244 Z-1.5996
X153.7597 Y17.0888 Z-1.6252
X153.9142 Y17.0416 Z-1.6539
X153.9365 Y17.0333 Z-1.658
X153.9557 Y17.0299 Z-1.6616
X154.1285 Y17.0146 Z-1.6936
X154.3284 Y16.9898 Z-1.7306
X154.4974 Y16.9626 Z-1.762
X154.6681 Y16.927 Z-1.7936
X154.8048 Y16.8912 Z-1.8189
X154.9431 Y16.8474 Z-1.8446
X154.9739 Y16.8364 Z-1.8503
X154.9892 Y16.833 Z-1.8531
X155.1737 Y16.8176 Z-1.8873
X155.3274 Y16.7996 Z-1.9158
X155.5272 Y16.7684 Z-1.9528
X155.6963 Y16.7336 Z-1.9842
X155.8192 Y16.7017 Z-2.0069
X155.9575 Y16.6587 Z-2.0326
X156.019 Y16.6364 Z-2.044
X156.2188 Y16.6198 Z-2.081
X156.4186 Y16.5961 Z-2.118
X156.5877 Y16.5686 Z-2.1494
X156.7182 Y16.5416 Z-2.1736
X156.849 Y16.5082 Z-2.1978
X156.9719 Y16.47 Z-2.2206
X157.0488 Y16.4411 Z-2.2348
X157.0641 Y16.4374 Z-2.2377
X157.2615 Y16.4229 Z-2.2743
X157.4638 Y16.3989 Z-2.3117
X157.6328 Y16.3717 Z-2.3431
X157.7865 Y16.339 Z-2.3716
X157.8941 Y16.3104 Z-2.3915
X157.99 Y16.2796 Z-2.4093
X158.0939 Y16.2403 Z-2.4285
X158.3091 Y16.2246 Z-2.4684
X158.5089 Y16.2016 Z-2.5055
X158.6165 Y16.1852 Z-2.5254
X158.7302 Y16.1642 Z-2.5465
X158.847 Y16.1378 Z-2.5681
X158.9546 Y16.1072 Z-2.5881
X159.0408 Y16.0777 Z-2.604
X159.1268 Y16.0425 Z-2.62
X159.3542 Y16.0268 Z-2.6621
X159.5387 Y16.0067 Z-2.6963
X159.7077 Y15.9808 Z-2.7276
X159.73 Y15.9766 Z-2.7318
X159.7845 Y15.9694 Z-2.7419
X159.8395 Y15.9688 Z-2.7521
X159.9129 Y15.9756 Z-2.7657
X160.0222 Y15.9958 Z-2.7859
X160.1689 Y16.0257 Z-2.8131
X160.2428 Y16.0348 Z-2.8268
X160.2985 Y16.0364 Z-2.8371
X160.3171 Y16.0357 Z-2.8406
X160.4762 Y16.0231 Z-2.8701
X160.6453 Y16.003 Z-2.9014
X160.8143 Y15.9752 Z-2.9327
X160.9527 Y15.9449 Z-2.9584
X161.0653 Y15.9127 Z-2.9793
X161.1525 Y15.8818 Z-2.9954
X161.2293 Y15.849 Z-3.0097
X161.2447 Y15.8442 Z-3.0125
X161.4599 Y15.8308 Z-3.0524
X161.6277 Y15.814 Z-3.0835
X161.7673 Y15.7947 Z-3.1094
X161.9056 Y15.7693 Z-3.135
X162.0132 Y15.7433 Z-3.1549
X162.1179 Y15.7109 Z-3.1743
X162.1821 Y15.687 Z-3.1862
X162.2591 Y15.6509 Z-3.2005
X162.2745 Y15.6461 Z-3.2034
X162.505 Y15.6331 Z-3.2461
X162.6741 Y15.6166 Z-3.2774
X162.8278 Y15.5953 Z-3.3059
X162.9507 Y15.5723 Z-3.3287
X163.06 Y15.5453 Z-3.3489
X163.1505 Y15.5161 Z-3.3657
X163.2274 Y15.484 Z-3.38
X163.2889 Y15.4499 Z-3.3914
X163.3196 Y15.4473 Z-3.3971
X163.5317 Y15.4363 Z-3.4364
X163.6885 Y15.4223 Z-3.4654
X163.8268 Y15.4051 Z-3.4911
X163.9498 Y15.3842 Z-3.5139
X164.042 Y15.3643 Z-3.531
X164.1496 Y15.3328 Z-3.5509
X164.2083 Y15.3091 Z-3.5618
X164.2606 Y15.2819 Z-3.5715
X164.3033 Y15.2522 Z-3.5794
X164.3186 Y15.2492 Z-3.5822
X164.5031 Y15.2427 Z-3.6164
X164.6875 Y15.2293 Z-3.6506
X164.8566 Y15.2105 Z-3.6819
X164.9589 Y15.1944 Z-3.7009
X165.0564 Y15.1743 Z-3.719
X165.1486 Y15.1491 Z-3.7361
X165.2101 Y15.1251 Z-3.7475
X165.2424 Y15.1081 Z-3.7534
X165.2593 Y15.0966 Z-3.7566
X165.2838 Y15.0712 Z-3.7611
X165.2898 Y15.0505 Z-3.7622
X173.9614 Y15.0501
X173.9624 Y15.0514 Z-5.3696
X173.9218 Y15.1944 Z-5.3621
X173.8767 Y15.3791 Z-5.3537
X173.8388 Y15.5638 Z-5.3467
X173.8167 Y15.687 Z-5.3426
X173.7968 Y15.8101 Z-5.3389
X173.771 Y16 Z-5.3341
X173.7514 Y16.1795 Z-5.3305
X173.7414 Y16.3027 Z-5.3287
X173.7278 Y16.549 Z-5.3261
X173.7238 Y16.6721 Z-5.3254
X173.7227 Y57.6795 Z-5.3252
X173.7206 Y57.8026 Z-5.3248
X173.7063 Y57.9258 Z-5.3221
X173.6702 Y58.1243 Z-5.3155
X173.6687 Y58.1482 Z-5.3152
X173.6671 Y58.1494 Z-4.248
X173.6652 Y58.1498 Z-3.7622
X165.2898 Y58.1495
X165.2888 Y58.1482 Z-3.7621
X165.2869 Y58.1371 Z-3.7617
X165.2754 Y58.1188 Z-3.7596
X165.2562 Y58.1008 Z-3.756
X165.2254 Y58.0815 Z-3.7503
X165.164 Y58.0557 Z-3.7389
X165.0718 Y58.0292 Z-3.7218
X164.9488 Y58.0041 Z-3.699
X164.7951 Y57.9817 Z-3.6705
X164.6107 Y57.9638 Z-3.6364
X164.4262 Y57.954 Z-3.6022
X164.3186 Y57.9508 Z-3.5822
X164.3033 Y57.9469 Z-3.5794
X164.288 Y57.9352 Z-3.5766
X164.2342 Y57.903 Z-3.5666
X164.1649 Y57.8729 Z-3.5537
X164.0881 Y57.8476 Z-3.5395
X163.9805 Y57.8221 Z-3.5196
X163.8652 Y57.8008 Z-3.4982
X163.7039 Y57.779 Z-3.4683
X163.5194 Y57.763 Z-3.4341
X163.335 Y57.7535 Z-3.3999
X163.2889 Y57.7505 Z-3.3914
X163.2428 Y57.7244 Z-3.3828
X163.1595 Y57.6874 Z-3.3674
X163.0737 Y57.6589 Z-3.3515
X162.9661 Y57.6313 Z-3.3316
X162.8278 Y57.605 Z-3.3059
X162.6741 Y57.5832 Z-3.2774
X162.4896 Y57.5658 Z-3.2432
X162.2745 Y57.5539 Z-3.2034
X162.2591 Y57.5495 Z-3.2005
X162.1823 Y57.5134 Z-3.1863
X162.09 Y57.4793 Z-3.1692
X161.9825 Y57.4485 Z-3.1492
X161.8441 Y57.4185 Z-3.1236
X161.7058 Y57.3962 Z-3.098
X161.5214 Y57.3746 Z-3.0638
X161.3215 Y57.3593 Z-3.0268
X161.2447 Y57.3555 Z-3.0125
X161.2293 Y57.351 Z-3.0097
X161.1535 Y57.318 Z-2.9956
X161.0756 Y57.2906 Z-2.9812
X160.968 Y57.2587 Z-2.9612
X160.8451 Y57.2309 Z-2.9384
X160.6914 Y57.2033 Z-2.91
X160.5109 Y57.1805 Z-2.8765
X160.3225 Y57.1647 Z-2.8416
X160.2149 Y57.1579 Z-2.8217
X160.1996 Y57.1545 Z-2.8188
X160.0766 Y57.1069 Z-2.796
X159.9457 Y57.0674 Z-2.7718
X159.8153 Y57.0368 Z-2.7476
X159.6616 Y57.0086 Z-2.7191
X159.4618 Y56.9827 Z-2.6821
X159.2774 Y56.9661 Z-2.6479
X159.1698 Y56.9588 Z-2.6279
X159.0469 Y56.9129 Z-2.6052
X158.9393 Y56.8799 Z-2.5852
X158.8009 Y56.8465 Z-2.5596
X158.6472 Y56.817 Z-2.5311
X158.4474 Y56.7889 Z-2.4941
X158.2169 Y56.767 Z-2.4513
X158.14 Y56.7622 Z-2.4371
X158.1093 Y56.752 Z-2.4314
X158.0151 Y56.7185 Z-2.4139
X157.9095 Y56.6867 Z-2.3944
X157.8019 Y56.6596 Z-2.3744
X157.6482 Y56.6279 Z-2.3459
X157.4791 Y56.6015 Z-2.3146
X157.2947 Y56.5799 Z-2.2804
X157.141 Y56.5671 Z-2.2519
X157.0949 Y56.563 Z-2.2434
X157.0027 Y56.5299 Z-2.2263
X156.8643 Y56.489 Z-2.2007
X156.7149 Y56.4528 Z-2.173
X156.5262 Y56.4174 Z-2.138
X156.311 Y56.389 Z-2.0981
X156.1573 Y56.3736 Z-2.0696
X156.0651 Y56.3672 Z-2.0525
X155.9622 Y56.3326 Z-2.0334
X155.8038 Y56.2866 Z-2.0041
X155.6655 Y56.2548 Z-1.9785
X155.5118 Y56.2261 Z-1.95
X155.312 Y56.1971 Z-1.9129
X155.1583 Y56.1803 Z-1.8845
X155.02 Y56.168 Z-1.8588
X154.8817 Y56.1231 Z-1.8332
X154.7741 Y56.0938 Z-1.8132
X154.6665 Y56.0681 Z-1.7933
X154.4974 Y56.0341 Z-1.762
X154.3591 Y56.0125 Z-1.7363
X154.19 Y55.9911 Z-1.705
X153.9902 Y55.9719 Z-1.668
X153.9471 Y55.9593 Z-1.66
X153.8058 Y55.9163 Z-1.6338
X153.6521 Y55.8774 Z-1.6053
X153.483 Y55.8431 Z-1.574
X153.3293 Y55.8177 Z-1.5455
X153.1449 Y55.7933 Z-1.5113
X152.9451 Y55.7736 Z-1.4743
X152.7914 Y55.7273 Z-1.4458
X152.6685 Y55.6948 Z-1.423
X152.484 Y55.6546 Z-1.3888
X152.3545 Y55.6316 Z-1.3648
X152.3442 Y55.6105 Z-1.3629
Y17.588
X152.3545 Y17.5685 Z-1.3648
X152.4994 Y17.5424 Z-1.3916
X152.6377 Y17.5127 Z-1.4173
X152.776 Y17.4772 Z-1.4429
X152.9451 Y17.4265 Z-1.4743
X153.1281 Y17.4085 Z-1.5082
X153.3293 Y17.3828 Z-1.5455
X153.5138 Y17.3512 Z-1.5797
X153.6674 Y17.3186 Z-1.6081
X153.8164 Y17.2803 Z-1.6358
X153.9902 Y17.2281 Z-1.668
X154.19 Y17.2088 Z-1.705
X154.3745 Y17.1851 Z-1.7392
X154.5423 Y17.1574 Z-1.7703
X154.7126 Y17.1218 Z-1.8018
X154.8663 Y17.0812 Z-1.8303
X154.9744 Y17.0476 Z-1.8504
X155.0151 Y17.0338 Z-1.8579
X155.0483 Y17.0294 Z-1.8641
X155.2813 Y17.0072 Z-1.9072
X155.4657 Y16.9813 Z-1.9414
X155.604 Y16.9571 Z-1.9671
X155.7537 Y16.9251 Z-1.9948
X155.8807 Y16.892 Z-2.0183
X156.019 Y16.8486 Z-2.044
X156.0651 Y16.8332 Z-2.0525
X156.2342 Y16.8192 Z-2.0839
X156.4457 Y16.7941 Z-2.1231
X156.6184 Y16.7661 Z-2.1551
X156.7721 Y16.7341 Z-2.1836
X156.9105 Y16.6983 Z-2.2092
X157.0338 Y16.6596 Z-2.2321
X157.0949 Y16.6375 Z-2.2434
X157.1103 Y16.6344 Z-2.2462
X157.264 Y16.6233 Z-2.2747
X157.4638 Y16.6006 Z-2.3117
X157.6636 Y16.5693 Z-2.3488
X157.7969 Y16.5416 Z-2.3735
X157.9095 Y16.5135 Z-2.3944
X158.0324 Y16.476 Z-2.4171
X158.14 Y16.4374 Z-2.4371
X158.3271 Y16.4237 Z-2.4718
X158.5089 Y16.403 Z-2.5055
X158.6472 Y16.3828 Z-2.5311
X158.7856 Y16.3566 Z-2.5567
X158.9085 Y16.3282 Z-2.5795
X159.0468 Y16.2876 Z-2.6052
X159.1698 Y16.2413 Z-2.6279
X159.2928 Y16.2324 Z-2.6507
X159.4772 Y16.2154 Z-2.6849
X159.6463 Y16.1935 Z-2.7163
X159.793 Y16.1678 Z-2.7435
X159.9229 Y16.1386 Z-2.7675
X160.0459 Y16.1035 Z-2.7903
X160.1227 Y16.0766 Z-2.8046
X160.206 Y16.0426 Z-2.82
X160.3171 Y16.0357 Z-2.8406
X160.3544 Y16.0358 Z-2.8475
X160.4099 Y16.0431 Z-2.8578
X160.4644 Y16.0569 Z-2.8679
X160.5538 Y16.089 Z-2.8845
X160.6767 Y16.1369 Z-2.9072
X160.7484 Y16.1578 Z-2.9205
X160.8026 Y16.1669 Z-2.9306
X160.8574 Y16.168 Z-2.9407
X160.8936 Y16.1631 Z-2.9474
X161.0142 Y16.1351 Z-2.9698
X161.1217 Y16.1043 Z-2.9897
X161.214 Y16.0721 Z-3.0068
X161.2873 Y16.0422 Z-3.0204
X161.506 Y16.0278 Z-3.0609
X161.7058 Y16.0056 Z-3.098
X161.8595 Y15.9819 Z-3.1265
X161.9978 Y15.9532 Z-3.1521
X162.1014 Y15.9256 Z-3.1713
X162.1823 Y15.8999 Z-3.1863
X162.2745 Y15.8643 Z-3.2034
X162.3206 Y15.8443 Z-3.2119
X162.5511 Y15.8299 Z-3.2546
X162.7167 Y15.8126 Z-3.2853
X162.8585 Y15.7924 Z-3.3116
X162.9815 Y15.77 Z-3.3344
X163.1044 Y15.7401 Z-3.3572
X163.1967 Y15.7112 Z-3.3743
X163.2607 Y15.687 Z-3.3861
X163.3503 Y15.6464 Z-3.4028
X163.5809 Y15.6332 Z-3.4455
X163.7653 Y15.6151 Z-3.4797
X163.919 Y15.593 Z-3.5082
X164.0671 Y15.5638 Z-3.5356
X164.1596 Y15.5388 Z-3.5528
X164.2264 Y15.5172 Z-3.5651
X164.2879 Y15.4919 Z-3.5765
X164.3647 Y15.4516 Z-3.5908
X164.3801 Y15.4477 Z-3.5936
X164.5492 Y15.4405 Z-3.625
X164.749 Y15.4245 Z-3.662
X164.9181 Y15.4037 Z-3.6933
X165.0564 Y15.379 Z-3.719
X165.164 Y15.3527 Z-3.7389
X165.2315 Y15.3314 Z-3.7514
X165.3023 Y15.3018 Z-3.7645
X165.3484 Y15.2765 Z-3.7731
X165.3792 Y15.2548 Z-3.7788
X165.3945 Y15.2493 Z-3.7816
X165.6251 Y15.2406 Z-3.8244
X165.8095 Y15.2255 Z-3.8585
X165.9632 Y15.2064 Z-3.887
X166.0692 Y15.1888 Z-3.9067
X166.1784 Y15.1637 Z-3.9269
X166.2552 Y15.1394 Z-3.9412
X166.3014 Y15.1191 Z-3.9497
X166.3321 Y15.1006 Z-3.9554
X166.3474 Y15.0885 Z-3.9583
X166.3628 Y15.0712 Z-3.9611
X166.3686 Y15.0528 Z-3.9622
X166.3672 Y15.0514 Z-3.9619
X166.3782 Y15.0502 Z-3.9622
X173.7568 Y15.0501
X173.7572 Y15.0515 Z-5.3316
X173.7186 Y15.1944 Z-5.3244
X173.6752 Y15.3791 Z-5.3164
X173.6388 Y15.5638 Z-5.3096
X173.5982 Y15.8101 Z-5.3021
X173.5812 Y15.9332 Z-5.299
X173.5541 Y16.1795 Z-5.2939
X173.5444 Y16.3027 Z-5.2921
X173.531 Y16.549 Z-5.2897
X173.5271 Y16.6721 Z-5.2889
X173.5261 Y57.6795 Z-5.2887
X173.5226 Y57.8026 Z-5.2881
X173.5067 Y57.9258 Z-5.2852
X173.47 Y58.1249 Z-5.2784
X173.4686 Y58.1489 Z-5.2781
X173.4665 Y58.1495 Z-4.0999
X173.4644 Y58.1498 Z-3.9622
X166.3695 Y58.1497
X166.3667 Y58.1474 Z-3.9618
Y58.1405
X166.3628 Y58.1312 Z-3.9611
X166.3513 Y58.1147 Z-3.959
X166.3321 Y58.0985 Z-3.9554
X166.3013 Y58.0799 Z-3.9497
X166.2706 Y58.0661 Z-3.944
X166.2092 Y58.0452 Z-3.9326
X166.1169 Y58.0215 Z-3.9155
X165.9939 Y57.9982 Z-3.8927
X165.8402 Y57.9775 Z-3.8642
X165.6712 Y57.9628 Z-3.8329
X165.456 Y57.9521 Z-3.793
X165.3883 Y57.9506 Z-3.7805
X165.3268 Y57.9103 Z-3.7691
X165.2716 Y57.8836 Z-3.7588
X165.2101 Y57.8609 Z-3.7475
X165.1179 Y57.8349 Z-3.7304
X164.9983 Y57.8098 Z-3.7082
X164.8566 Y57.7883 Z-3.6819
X164.7029 Y57.7709 Z-3.6534
X164.5184 Y57.7577 Z-3.6193
X164.3801 Y57.7524 Z-3.5936
X164.3647 Y57.7489 Z-3.5908
X164.3186 Y57.7224 Z-3.5822
X164.2548 Y57.6939 Z-3.5704
X164.1649 Y57.6621 Z-3.5537
X164.0574 Y57.6339 Z-3.5338
X163.919 Y57.6072 Z-3.5082
X163.75 Y57.5831 Z-3.4768
X163.5483 Y57.5643 Z-3.4395
X163.361 Y57.5542 Z-3.4047
X163.3403 Y57.5507 Z-3.4009
X163.2428 Y57.5058 Z-3.3828
X163.1659 Y57.4786 Z-3.3686
X163.051 Y57.4461 Z-3.3473
X162.9046 Y57.4152 Z-3.3202
X162.7663 Y57.3935 Z-3.2945
X162.6126 Y57.3757 Z-3.266
X162.4589 Y57.3634 Z-3.2376
X162.3206 Y57.3557 Z-3.2119
X162.2099 Y57.31 Z-3.1914
X162.1362 Y57.2845 Z-3.1777
X162.0285 Y57.2541 Z-3.1578
X161.8902 Y57.2239 Z-3.1322
X161.7519 Y57.2009 Z-3.1065
X161.5521 Y57.1767 Z-3.0695
X161.3523 Y57.1607 Z-3.0324
X161.2908 Y57.1574 Z-3.0211
X161.2447 Y57.1401 Z-3.0125
X161.1525 Y57.1054 Z-2.9954
X161.0258 Y57.0674 Z-2.9719
X160.9066 Y57.0396 Z-2.9498
X160.7682 Y57.0135 Z-2.9242
X160.6145 Y56.991 Z-2.8957
X160.4762 Y56.9763 Z-2.8701
X160.2918 Y56.962 Z-2.8359
X160.261 Y56.9601 Z-2.8302
X160.2457 Y56.9575 Z-2.8273
X160.1353 Y56.9164 Z-2.8069
X160.0151 Y56.8793 Z-2.7846
X159.8922 Y56.849 Z-2.7618
X159.7538 Y56.8214 Z-2.7362
X159.6309 Y56.8023 Z-2.7134
X159.4465 Y56.78 Z-2.6792
X159.2774 Y56.7661 Z-2.6479
X159.2159 Y56.7624 Z-2.6365
X159.0776 Y56.7128 Z-2.6109
X158.9546 Y56.6774 Z-2.5881
X158.8163 Y56.6453 Z-2.5624
X158.6626 Y56.6172 Z-2.5339
X158.4782 Y56.5913 Z-2.4998
X158.2476 Y56.5686 Z-2.457
X158.1861 Y56.5648 Z-2.4456
X158.1708 Y56.5618 Z-2.4428
X158.0632 Y56.5242 Z-2.4228
X157.9402 Y56.4878 Z-2.4001
X157.8263 Y56.4602 Z-2.3789
X157.6636 Y56.4276 Z-2.3488
X157.4791 Y56.3999 Z-2.3146
X157.2947 Y56.3792 Z-2.2804
X157.1564 Y56.3676 Z-2.2548
X157.141 Y56.3673 Z-2.2519
X157.0488 Y56.335 Z-2.2348
X156.9105 Y56.2945 Z-2.2092
X156.7568 Y56.2574 Z-2.1807
X156.5723 Y56.2225 Z-2.1465
X156.3418 Y56.191 Z-2.1038
X156.1573 Y56.173 Z-2.0696
X156.0959 Y56.1668 Z-2.0582
X156.0036 Y56.1367 Z-2.0411
X155.8499 Y56.0922 Z-2.0126
X155.7116 Y56.0603 Z-1.987
X155.5426 Y56.0286 Z-1.9557
X155.3274 Y55.9975 Z-1.9158
X155.1737 Y55.9809 Z-1.8873
X155.0598 Y55.9708 Z-1.8662
X154.9124 Y55.924 Z-1.8389
X154.7741 Y55.8878 Z-1.8132
X154.605 Y55.851 Z-1.7819
X154.4359 Y55.8215 Z-1.7506
X154.2208 Y55.7933 Z-1.7107
X154.021 Y55.7733 Z-1.6737
X153.8673 Y55.7261 Z-1.6452
X153.6982 Y55.683 Z-1.6138
X153.5138 Y55.6455 Z-1.5797
X153.3601 Y55.6202 Z-1.5512
X153.1724 Y55.5952 Z-1.5164
X152.9912 Y55.5774 Z-1.4828
X152.9451 Y55.5643 Z-1.4743
X152.776 Y55.5159 Z-1.4429
X152.6011 Y55.4746 Z-1.4105
X152.5442 Y55.4628 Z-1.4
X152.5408 Y55.3397 Z-1.3993
Y17.7549
X152.5512 Y17.7357 Z-1.4012
X152.7145 Y17.6996 Z-1.4315
X152.8529 Y17.663 Z-1.4572
X152.9763 Y17.6255 Z-1.48
X153.0373 Y17.6188 Z-1.4913
X153.2525 Y17.5949 Z-1.5312
X153.4215 Y17.5707 Z-1.5626
X153.5752 Y17.5428 Z-1.591
X153.71 Y17.5139 Z-1.616
X153.8673 Y17.4735 Z-1.6452
X154.021 Y17.4266 Z-1.6737
X154.2208 Y17.4065 Z-1.7107
X154.3898 Y17.3849 Z-1.742
X154.5589 Y17.3578 Z-1.7734
X154.7587 Y17.3163 Z-1.8104
X154.8971 Y17.2803 Z-1.836
X155.0354 Y17.2378 Z-1.8617
X155.0661 Y17.2285 Z-1.8674
X155.2813 Y17.2084 Z-1.9072
X155.4811 Y17.1812 Z-1.9443
X155.64 Y17.1538 Z-1.9737
X155.7885 Y17.1221 Z-2.0013
X155.9114 Y17.0908 Z-2.024
X156.0651 Y17.0438 Z-2.0525
X156.0945 Y17.0337 Z-2.058
X156.13 Y17.0292 Z-2.0645
X156.3418 Y17.0087 Z-2.1038
X156.5416 Y16.982 Z-2.1408
X156.7106 Y16.952 Z-2.1722
X156.8464 Y16.9215 Z-2.1973
X156.9566 Y16.8929 Z-2.2177
X157.0949 Y16.8497 Z-2.2434
X157.141 Y16.833 Z-2.2519
X157.3101 Y16.8198 Z-2.2833
X157.5161 Y16.7953 Z-2.3214
X157.7097 Y16.7639 Z-2.3573
X157.8634 Y16.7312 Z-2.3858
X157.9863 Y16.6992 Z-2.4086
X158.0987 Y16.6643 Z-2.4294
X158.1708 Y16.6385 Z-2.4428
X158.1861 Y16.6351 Z-2.4456
X158.3706 Y16.6204 Z-2.4798
X158.5704 Y16.5968 Z-2.5168
X158.7394 Y16.5698 Z-2.5482
X158.8931 Y16.5379 Z-2.5767
X159.0007 Y16.5099 Z-2.5966
X159.1237 Y16.4719 Z-2.6194
X159.2159 Y16.438 Z-2.6365
X159.4199 Y16.4224 Z-2.6743
X159.6155 Y16.3998 Z-2.7106
X159.7846 Y16.3731 Z-2.7419
X159.9229 Y16.3443 Z-2.7675
X160.0383 Y16.3141 Z-2.7889
X160.1381 Y16.2832 Z-2.8074
X160.2457 Y16.2423 Z-2.8273
X160.2764 Y16.2389 Z-2.833
X160.4762 Y16.2238 Z-2.8701
X160.6299 Y16.2066 Z-2.8986
X160.7727 Y16.1853 Z-2.925
X160.8936 Y16.1631 Z-2.9474
X160.9613 Y16.1525 Z-2.96
X161.0436 Y16.1478 Z-2.9752
X161.1399 Y16.1511 Z-2.9931
X161.2636 Y16.1645 Z-3.016
X161.4973 Y16.1969 Z-3.0593
X161.6077 Y16.2056 Z-3.0798
X161.6906 Z-3.0951
X161.7593 Y16.1997 Z-3.1079
X161.7729 Y16.1978 Z-3.1104
X161.9166 Y16.1746 Z-3.137
X162.0439 Y16.1473 Z-3.1606
X162.1361 Y16.1235 Z-3.1777
X162.2438 Y16.0894 Z-3.1977
X162.336 Y16.0551 Z-3.2148
X162.3633 Y16.0431 Z-3.2198
X162.6126 Y16.0253 Z-3.266
X162.797 Y16.0039 Z-3.3002
X162.9507 Y15.9797 Z-3.3287
X163.0737 Y15.9539 Z-3.3515
X163.1822 Y15.9256 Z-3.3716
X163.2889 Y15.8905 Z-3.3914
X163.3811 Y15.8522 Z-3.4085
X163.3965 Y15.8448 Z-3.4113
X163.627 Y15.8302 Z-3.454
X163.818 Y15.8101 Z-3.4894
X163.9805 Y15.7854 Z-3.5196
X164.1188 Y15.7568 Z-3.5452
X164.2264 Y15.7273 Z-3.5651
X164.3033 Y15.7016 Z-3.5794
X164.371 Y15.6732 Z-3.5919
X164.4262 Y15.6467 Z-3.6022
X164.6414 Y15.6345 Z-3.6421
X164.8258 Y15.6171 Z-3.6762
X164.9795 Y15.5964 Z-3.7047
X165.1026 Y15.5733 Z-3.7275
X165.2101 Y15.5472 Z-3.7475
X165.2869 Y15.5232 Z-3.7617
X165.3638 Y15.4933 Z-3.7759
X165.4252 Y15.4619 Z-3.7873
X165.4406 Y15.4529 Z-3.7902
X165.456 Y15.4477 Z-3.793
X165.6558 Y15.4391 Z-3.8301
X165.8402 Y15.4232 Z-3.8642
X166.0247 Y15.3995 Z-3.8984
X166.1476 Y15.3765 Z-3.9212
X166.2399 Y15.3537 Z-3.9383
X166.3187 Y15.3287 Z-3.9529
X166.3801 Y15.3026 Z-3.9643
X166.4397 Y15.268 Z-3.9753
X166.455 Y15.2563 Z-3.9782
X166.4704 Y15.2492 Z-3.981
X166.6856 Y15.2413 Z-4.0209
X166.87 Y15.2273 Z-4.0551
X167.0237 Y15.209 Z-4.0836
X167.162 Y15.1861 Z-4.1092
X167.2389 Y15.1688 Z-4.1235
X167.3157 Y15.1463 Z-4.1377
X167.3618 Y15.1285 Z-4.1463
X167.4095 Y15.102 Z-4.1551
X167.4256 Y15.0901 Z-4.1581
X167.4417 Y15.0712 Z-4.1611
X167.447 Y15.0508 Z-4.1621
X173.5518 Y15.0503 Z-4.1622
X173.5528 Y15.0512 Z-5.2937
X173.5012 Y15.2561 Z-5.2841
X173.4618 Y15.4407 Z-5.2768
X173.4183 Y15.687 Z-5.2688
X173.3996 Y15.8101 Z-5.2653
X173.3689 Y16.0564 Z-5.2596
X173.3568 Y16.1795 Z-5.2574
X173.34 Y16.4258 Z-5.2543
X173.3305 Y16.6721 Z-5.2525
X173.3294 Y57.6795 Z-5.2523
X173.3243 Y57.8026 Z-5.2513
X173.3068 Y57.9258 Z-5.2481
X173.2696 Y58.1313 Z-5.2412
X173.2686 Y58.1486 Z-5.241
X173.2662 Y58.1497 Z-4.1622
X167.4478 Y58.1494
X167.4387 Y58.1243 Z-4.1605
X167.4233 Y58.1085 Z-4.1577
X167.3926 Y58.0866 Z-4.152
X167.338 Y58.0623 Z-4.1418
X167.2765 Y58.0418 Z-4.1304
X167.1774 Y58.0175 Z-4.1121
X167.0544 Y57.9954 Z-4.0893
X166.9007 Y57.9756 Z-4.0608
X166.7317 Y57.9612 Z-4.0295
X166.5165 Y57.9519 Z-3.9896
X166.4741 Y57.9506 Z-3.9817
X166.4601 Y57.9467 Z-3.9791
X166.4199 Y57.9181 Z-3.9717
X166.3782 Y57.8957 Z-3.9639
X166.3321 Y57.8761 Z-3.9554
X166.2706 Y57.8552 Z-3.944
X166.1784 Y57.8306 Z-3.9269
X166.0514 Y57.8052 Z-3.9034
X165.9017 Y57.7835 Z-3.8756
X165.748 Y57.7679 Z-3.8472
X165.5328 Y57.7549 Z-3.8073
X165.456 Y57.7522 Z-3.793
X165.4406 Y57.7466 Z-3.7902
X165.3818 Y57.7145 Z-3.7793
X165.3188 Y57.6874 Z-3.7676
X165.2562 Y57.6661 Z-3.756
X165.164 Y57.6406 Z-3.7389
X165.041 Y57.6145 Z-3.7161
X164.9027 Y57.5927 Z-3.6905
X164.7336 Y57.5729 Z-3.6591
X164.5351 Y57.5583 Z-3.6224
X164.4262 Y57.5537 Z-3.6022
X164.3647 Y57.5237 Z-3.5908
X164.2879 Y57.4934 Z-3.5765
X164.211 Y57.4674 Z-3.5623
X164.0952 Y57.4377 Z-3.5408
X163.9498 Y57.4097 Z-3.5139
X163.7807 Y57.3854 Z-3.4825
X163.5655 Y57.3654 Z-3.4427
X163.3965 Y57.3558 Z-3.4113
X163.3105 Y57.318 Z-3.3954
X163.2109 Y57.283 Z-3.3769
X163.0891 Y57.2498 Z-3.3543
X162.9507 Y57.2205 Z-3.3287
X162.7923 Y57.1953 Z-3.2993
X162.628 Y57.1763 Z-3.2689
X162.4435 Y57.1623 Z-3.2347
X162.3667 Y57.1577 Z-3.2205
X162.2437 Y57.1098 Z-3.1977
X162.1351 Y57.0761 Z-3.1775
X162.0285 Y57.0487 Z-3.1578
X161.9056 Y57.0236 Z-3.135
X161.7673 Y57.0013 Z-3.1094
X161.5675 Y56.9773 Z-3.0723
X161.3677 Y56.9613 Z-3.0353
X161.3284 Y56.9585 Z-3.028
X161.214 Y56.9154 Z-3.0068
X161.0756 Y56.8739 Z-2.9812
X160.9527 Y56.845 Z-2.9584
X160.818 Y56.8192 Z-2.9334
X160.676 Y56.7976 Z-2.9071
X160.507 Y56.7781 Z-2.8758
X160.2918 Y56.7612 Z-2.8359
X160.1842 Y56.7224 Z-2.816
X160.0661 Y56.6865 Z-2.7941
X159.9536 Y56.6578 Z-2.7732
X159.8307 Y56.6329 Z-2.7504
X159.6924 Y56.6091 Z-2.7248
X159.5079 Y56.5857 Z-2.6906
X159.3082 Y56.5675 Z-2.6536
X159.262 Y56.5646 Z-2.645
X159.2313 Y56.5551 Z-2.6393
X159.1083 Y56.5131 Z-2.6166
X158.9854 Y56.4794 Z-2.5938
X158.859 Y56.4501 Z-2.5703
X158.6933 Y56.4196 Z-2.5396
X158.4935 Y56.3917 Z-2.5026
X158.2476 Y56.3682 Z-2.457
X158.2169 Y56.3659 Z-2.4513
X158.1069 Y56.3286 Z-2.4309
X157.9863 Y56.2933 Z-2.4086
X157.8173 Y56.2538 Z-2.3773
X157.6482 Y56.2226 Z-2.3459
X157.4392 Y56.1933 Z-2.3072
X157.2486 Y56.1745 Z-2.2719
X157.1871 Y56.1693 Z-2.2605
X157.1103 Y56.1453 Z-2.2462
X156.9719 Y56.1042 Z-2.2206
X156.8277 Y56.0688 Z-2.1939
X156.6953 Y56.0415 Z-2.1693
X156.557 Y56.0179 Z-2.1437
X156.3571 Y55.9917 Z-2.1066
X156.1881 Y55.9748 Z-2.0753
X156.1358 Y55.9692 Z-2.0656
X155.9575 Y55.9145 Z-2.0326
X155.8192 Y55.8791 Z-2.0069
X155.6586 Y55.8464 Z-1.9772
X155.4964 Y55.8189 Z-1.9471
X155.2966 Y55.7927 Z-1.9101
X155.1891 Y55.7817 Z-1.8902
X155.0968 Y55.7723 Z-1.8731
X154.9468 Y55.7265 Z-1.8453
X154.8048 Y55.6897 Z-1.8189
X154.6357 Y55.6534 Z-1.7876
X154.4667 Y55.6242 Z-1.7563
X154.2515 Y55.5956 Z-1.7164
X154.0671 Y55.5773 Z-1.6822
X153.898 Y55.5274 Z-1.6509
X153.7289 Y55.4852 Z-1.6195
X153.5445 Y55.448 Z-1.5854
X153.3908 Y55.4227 Z-1.5569
X153.191 Y55.3961 Z-1.5198
X153.0219 Y55.379 Z-1.4885
X152.8375 Y55.3255 Z-1.4543
X152.7453 Y55.3025 Z-1.4372
X152.7375 Y55.2166 Z-1.4358
Y17.9036
X152.7453 Y17.8976 Z-1.4372
X152.8682 Y17.8661 Z-1.46
X153.0219 Y17.8208 Z-1.4885
X153.2064 Y17.8021 Z-1.5227
X153.4032 Y17.7755 Z-1.5592
X153.5599 Y17.7494 Z-1.5882
X153.7443 Y17.7109 Z-1.6224
X153.9134 Y17.668 Z-1.6537
X154.0517 Y17.6264 Z-1.6794
X154.0978 Y17.6196 Z-1.6879
X154.2361 Y17.606 Z-1.7135
X154.4206 Y17.5825 Z-1.7477
X154.605 Y17.5523 Z-1.7819
X154.8048 Y17.5107 Z-1.8189
X154.9585 Y17.4703 Z-1.8474
X155.0968 Y17.4274 Z-1.8731
X155.3581 Y17.4005 Z-1.9215
X155.5579 Y17.3715 Z-1.9585
X155.7116 Y17.3432 Z-1.987
X155.8653 Y17.3092 Z-2.0155
X156.0065 Y17.2713 Z-2.0417
X156.142 Y17.2288 Z-2.0668
X156.3571 Y17.2082 Z-2.1066
X156.5723 Y17.1794 Z-2.1465
X156.7568 Y17.1463 Z-2.1807
X156.8951 Y17.1153 Z-2.2064
X157.0181 Y17.0829 Z-2.2291
X157.1505 Y17.0416 Z-2.2537
X157.1717 Y17.0339 Z-2.2576
X157.2025 Y17.0295 Z-2.2633
X157.3716 Y17.0141 Z-2.2947
X157.556 Y16.9915 Z-2.3288
X157.7558 Y16.9584 Z-2.3659
X157.9095 Y16.9256 Z-2.3944
X158.0324 Y16.8937 Z-2.4171
X158.1554 Y16.8559 Z-2.4399
X158.2169 Y16.8338 Z-2.4513
X158.4167 Y16.8165 Z-2.4884
X158.6104 Y16.7927 Z-2.5243
X158.7548 Y16.77 Z-2.551
X158.9239 Y16.7356 Z-2.5824
X159.0315 Y16.7085 Z-2.6023
X159.1667 Y16.6685 Z-2.6274
X159.262 Y16.6353 Z-2.645
X159.4465 Y16.6206 Z-2.6792
X159.6463 Y16.5974 Z-2.7163
X159.8153 Y16.5707 Z-2.7476
X159.978 Y16.5365 Z-2.7777
X160.0766 Y16.5109 Z-2.796
X160.1842 Y16.4785 Z-2.816
X160.2764 Y16.4449 Z-2.833
X160.2918 Y16.4385 Z-2.8359
X160.5026 Y16.4222 Z-2.875
X160.6914 Y16.4002 Z-2.91
X160.8605 Y16.3733 Z-2.9413
X161.0142 Y16.3409 Z-2.9698
X161.1311 Y16.3103 Z-2.9914
X161.2447 Y16.2734 Z-3.0125
X161.3215 Y16.2436 Z-3.0268
X161.3369 Y16.2398 Z-3.0296
X161.5521 Y16.2244 Z-3.0695
X161.7519 Y16.201 Z-3.1065
X161.7729 Y16.1978 Z-3.1104
X161.8547 Y16.1892 Z-3.1256
X161.9507 Y16.187 Z-3.1434
X162.0742 Y16.1931 Z-3.1663
X162.4034 Y16.2249 Z-3.2273
X162.5134 Y16.2293 Z-3.2476
X162.6095 Y16.2263 Z-3.2655
X162.6505 Y16.2224 Z-3.2731
X162.8432 Y16.1993 Z-3.3088
X162.9929 Y16.1751 Z-3.3365
X163.1198 Y16.1479 Z-3.36
X163.2274 Y16.1205 Z-3.38
X163.3335 Y16.0864 Z-3.3996
X163.4304 Y16.0481 Z-3.4176
X163.4426 Y16.0427 Z-3.4199
X163.6731 Y16.0267 Z-3.4626
X163.8575 Y16.0064 Z-3.4968
X164.0112 Y15.9829 Z-3.5253
X164.1649 Y15.9513 Z-3.5537
X164.2603 Y15.9256 Z-3.5714
X164.3494 Y15.8972 Z-3.5879
X164.4262 Y15.8669 Z-3.6022
X164.4723 Y15.8452 Z-3.6107
X164.7029 Y15.8301 Z-3.6534
X164.8751 Y15.8125 Z-3.6854
X165.0183 Y15.7922 Z-3.7119
X165.1486 Y15.7678 Z-3.7361
X165.2716 Y15.7374 Z-3.7588
X165.3638 Y15.7079 Z-3.7759
X165.4561 Y15.6702 Z-3.793
X165.504 Y15.6464 Z-3.8019
X165.7019 Y15.6362 Z-3.8386
X165.871 Y15.6208 Z-3.8699
X166.0247 Y15.6013 Z-3.8984
X166.1611 Y15.5779 Z-3.9237
X166.2706 Y15.5526 Z-3.944
X166.3782 Y15.5194 Z-3.9639
X166.455 Y15.488 Z-3.9782
X166.5319 Y15.4476 Z-3.9924
X166.7325 Y15.4389 Z-4.0296
X166.9161 Y15.4236 Z-4.0636
X167.0852 Y15.4022 Z-4.095
X167.2081 Y15.3807 Z-4.1178
X167.3157 Y15.355 Z-4.1377
X167.3945 Y15.3299 Z-4.1523
X167.4463 Y15.3091 Z-4.1619
X167.5155 Y15.2704 Z-4.1747
X167.5463 Y15.2494 Z-4.1804
X167.7307 Y15.2434 Z-4.2146
X167.9305 Y15.2291 Z-4.2517
X168.0842 Y15.2116 Z-4.2801
X168.2102 Y15.1917 Z-4.3035
X168.3148 Y15.1693 Z-4.3229
X168.3916 Y15.1467 Z-4.3371
X168.4223 Y15.136 Z-4.3428
X168.4531 Y15.1227 Z-4.3485
X168.4838 Y15.1051 Z-4.3542
X168.5023 Y15.0918 Z-4.3576
X168.5207 Y15.0712 Z-4.361
X168.5271 Y15.05 Z-4.3622
X173.3482 Y15.0507
X173.3491 Y15.0516 Z-5.2559
X173.2995 Y15.256 Z-5.2467
X173.2504 Y15.5022 Z-5.2376
X173.2194 Y15.687 Z-5.2319
X173.2012 Y15.8101 Z-5.2285
X173.1713 Y16.0564 Z-5.223
X173.1562 Y16.228 Z-5.2202
X173.1432 Y16.4258 Z-5.2178
X173.1339 Y16.6721 Z-5.2161
X173.1326 Y57.6795 Z-5.2158
X173.1256 Y57.8026 Z-5.2145
X173.1068 Y57.9258 Z-5.211
X173.07 Y58.1247 Z-5.2042
X173.0686 Y58.1494 Z-5.204
X173.0662 Y58.1499 Z-4.3622
X168.5263 Y58.1494 Z-4.3621
X168.5247 Y58.1479 Z-4.3618
X168.5261 Y58.1459 Z-4.362
X168.5146 Y58.1208 Z-4.3599
X168.4838 Y58.0944 Z-4.3542
X168.4377 Y58.0712 Z-4.3457
X168.3885 Y58.0523 Z-4.3365
X168.3148 Y58.0307 Z-4.3229
X168.2072 Y58.008 Z-4.3029
X168.0688 Y57.9864 Z-4.2773
X167.8998 Y57.9681 Z-4.246
X167.7153 Y57.9559 Z-4.2118
X167.5455 Y57.9506 Z-4.1803
X167.4848 Y57.91 Z-4.169
X167.4079 Y57.8754 Z-4.1548
X167.3311 Y57.85 Z-4.1406
X167.2389 Y57.8264 Z-4.1235
X167.1037 Y57.8007 Z-4.0984
X166.9469 Y57.7795 Z-4.0693
X166.7624 Y57.7628 Z-4.0352
X166.5319 Y57.7521 Z-3.9924
X166.455 Y57.7115 Z-3.9782
X166.3935 Y57.6862 Z-3.9668
X166.3167 Y57.6607 Z-3.9526
X166.2091 Y57.6326 Z-3.9326
X166.0862 Y57.6085 Z-3.9098
X165.9478 Y57.5879 Z-3.8842
X165.7941 Y57.5715 Z-3.8557
X165.6051 Y57.5581 Z-3.8207
X165.5021 Y57.5521 Z-3.8016
X165.4252 Y57.5156 Z-3.7873
X165.3484 Y57.4858 Z-3.7731
X165.2408 Y57.4538 Z-3.7532
X165.1194 Y57.426 Z-3.7307
X164.9795 Y57.4017 Z-3.7047
X164.8105 Y57.3798 Z-3.6734
X164.626 Y57.3637 Z-3.6392
X164.4877 Y57.3559 Z-3.6136
X164.4723 Y57.3538 Z-3.6107
X164.3896 Y57.318 Z-3.5954
X164.2879 Y57.2822 Z-3.5765
X164.1957 Y57.2567 Z-3.5594
X164.0881 Y57.232 Z-3.5395
X163.9344 Y57.2046 Z-3.511
X163.75 Y57.1808 Z-3.4768
X163.5502 Y57.1639 Z-3.4398
X163.4426 Y57.1577 Z-3.4199
X163.3657 Y57.1255 Z-3.4056
X163.2735 Y57.0935 Z-3.3885
X163.1413 Y57.0568 Z-3.364
X162.9968 Y57.0259 Z-3.3373
X162.8432 Y57.0006 Z-3.3088
X162.6895 Y56.9814 Z-3.2803
X162.4896 Y56.9646 Z-3.2432
X162.4104 Y56.9596 Z-3.2286
X162.2898 Y56.9143 Z-3.2062
X162.1515 Y56.8732 Z-3.1806
X162.0132 Y56.8409 Z-3.1549
X161.865 Y56.8137 Z-3.1275
X161.6904 Y56.7898 Z-3.0951
X161.506 Y56.7714 Z-3.0609
X161.383 Y56.7619 Z-3.0381
X161.3677 Y56.7594 Z-3.0353
X161.2754 Y56.7254 Z-3.0182
