%
(Made in : Autodesk CAM Post Processor)
(G Code optimized for OpenBuilds OX CNC 1000 x 750 with GRBL V0.9j controller)

(Program Name : 1001)
(1 Operation :)
(1 : Adaptive1)
(  Tool : Flat End Mill 3 Flutes, Diam = 3.175mm, Len = 20mm)
(  Spindle : RPM = 30000, set router dial to 6)
(  Machining time : 15 min 2 sec)

G90 G94
G17
G21

(Operation 1 of 1 : Adaptive1)

G53 G0 Z5
G54
S30000 M3
G4 P1.0
X322.7302 Y93.0571
Z6
Z5
Z-1.365
G1 Z-1.6825 F3500
X322.7352 Y93.0509 Z-1.7532
X322.7499 Y93.0326 Z-1.8203
X322.7736 Y93.0031 Z-1.8805
X322.8051 Y92.964 Z-1.9307
X322.8429 Y92.917 Z-1.9686
X322.8849 Y92.8648 Z-1.992
X322.9292 Y92.8097 Z-2
G3 X324.1638 Y91.5748 I6.3161 J5.0803
G1 X324.1952 Y91.5513
X324.2079 Y91.5384
X324.3787 Y91.332
X324.48 Y91.2214
X324.5955 Y91.1256
X324.7299 Y91.0334
X324.9026 Y90.9344
X325.1256 Y90.8293
X325.4193 Y90.7187
X325.8208 Y90.6034
X326.4113 Y90.4841
X327.1439 Y90.3965
X327.8803 Y90.3512
X328.6177 Y90.3276
X329.3554 Y90.3153
X330.0932 Y90.3088
X330.831 Y90.3054
X332.3066 Y90.3027
X337.4713 Y90.3016
X344.4806
X344.6636 Y90.2786
X345.0069 Y90.1434
X345.2875 Y89.904
X345.7373 Y89.3192
X345.9955 Y88.628
X346.1379 Y87.904
X346.2147 Y87.1702
X346.2557 Y86.4336
X346.2774 Y85.6961
X346.2889 Y84.9583
X346.2949 Y84.2206
X346.2981 Y83.4827
X346.3007 Y82.0071
X346.3016 Y76.1046
Y61.3483
Y11.1769
Y1.4008
X346.256 Y1.2221
X346.0794 Y0.8982
X345.8199 Y0.636
X345.2121 Y0.2178
X344.5139 Y-0.0205
X343.7878 Y-0.1515
X343.0533 Y-0.222
X342.3164 Y-0.2596
X341.5789 Y-0.2795
X340.8412 Y-0.29
X340.1034 Y-0.2955
X339.3656 Y-0.2984
X337.8899 Y-0.3007
X330.5118 Y-0.3016
X306.1639
X255.9924
X205.821
X155.6496
X105.4782
X55.3067
X5.1353
X1.4462
X1.2674 Y-0.2565
X0.9371 Y-0.0923
X0.6672 Y0.1593
X0.236 Y0.758
X-0.0104 Y1.4535
X-0.146 Y2.1787
X-0.2191 Y2.9129
X-0.258 Y3.6497
X-0.2786 Y4.3872
X-0.2895 Y5.1249
X-0.2953 Y5.8627
X-0.2983 Y6.6005
X-0.3007 Y8.0762
X-0.3016 Y14.7165
Y45.7047
Y88.498
X-0.2726 Y88.6802
X-0.127 Y89.0191
X0.1151 Y89.2975
X0.7031 Y89.7432
X1.3952 Y89.9988
X2.1194 Y90.1396
X2.8533 Y90.2157
X3.59 Y90.2562
X4.3275 Y90.2777
X5.0653 Y90.289
X5.8031 Y90.295
X6.5409 Y90.2981
X8.0165 Y90.3007
X13.919 Y90.3016
X20.5754
X20.7976 Y90.3357
X20.9993 Y90.4348
X21.1619 Y90.5899
X21.2707 Y90.7865
G0 Z5
X324.0199 Y92.3674
Z-1.365
G1 Z-1.6825 F3500
X324.0211 Y92.3595 Z-1.7532
X324.0247 Y92.3363 Z-1.8203
X324.0306 Y92.299 Z-1.8805
X324.0383 Y92.2493 Z-1.9307
X324.0476 Y92.1898 Z-1.9686
X324.058 Y92.1235 Z-1.992
X324.0688 Y92.0537 Z-2
G3 X324.3787 Y91.332 I1.5637 J0.244
G1 X324.5304 Y91.1487
X324.5905 Y91.0728
X324.6237 Y90.9969
X324.7663 Y90.6618
X324.8318 Y90.5268
X324.916 Y90.4027
X325.0132 Y90.2884
X325.1348 Y90.1682
X325.2705 Y90.0538
X325.4413 Y89.9321
X325.6655 Y89.798
X325.927 Y89.6688
X326.2645 Y89.5347
X326.7022 Y89.4002
X327.3172 Y89.2641
X328.048 Y89.1631
X328.7836 Y89.1058
X329.5207 Y89.0733
X330.2583 Y89.055
X330.9961 Y89.0447
X331.7339 Y89.0389
X332.4716 Y89.0357
X333.9473 Y89.0329
X338.3742 Y89.0317
X342.8011 Y89.0316
X343.1682 Y88.9951
X343.5085 Y88.8528
X343.8044 Y88.6324
X344.2979 Y88.084
X344.6064 Y87.4138
X344.7897 Y86.6991
X344.8956 Y85.9689
X344.9558 Y85.2335
X344.9895 Y84.4965
X345.0084 Y83.7589
X345.0188 Y83.0212
X345.0246 Y82.2834
X345.0278 Y81.5456
X345.0305 Y80.07
X345.0316 Y74.9053
Y57.9355
Y7.7641
Y3.3372
X345.0263 Y2.9683
X344.9186 Y2.6155
X344.7222 Y2.3032
X344.2087 Y1.7734
X343.5517 Y1.4377
X342.8419 Y1.2365
X342.1133 Y1.1196
X341.3786 Y1.053
X340.6417 Y1.0154
X339.9042 Y0.9944
X339.1665 Y0.9827
X338.4287 Y0.9763
X337.6909 Y0.9727
X336.2152 Y0.9697
X331.7884 Y0.9684
X300.0623
X249.8909
X199.7195
X149.548
X99.3766
X49.2052
X3.0917
X2.7299 Y1.0403
X2.4024 Y1.2101
X2.1211 Y1.4487
X1.654 Y2.0199
X1.3645 Y2.6985
X1.1932 Y3.4162
X1.0946 Y4.1474
X1.0387 Y4.8831
X1.0074 Y5.6202
X0.9899 Y6.3578
X0.9802 Y7.0956
X0.9749 Y7.8334
X0.9719 Y8.5712
X0.9694 Y10.0468
X0.9684 Y15.9493
Y54.3157
Y86.7796
X1.0021 Y87.147
X1.1386 Y87.4897
X1.3559 Y87.7878
X1.8995 Y88.2867
X2.5678 Y88.5993
X3.2817 Y88.7854
X4.0117 Y88.8931
X4.7469 Y88.9543
X5.4839 Y88.9887
X6.2215 Y89.0079
X6.9592 Y89.0185
X7.697 Y89.0244
X8.4348 Y89.0277
X9.9105 Y89.0304
X15.0752 Y89.0316
X18.0264
X19.5021
X19.9207 Y89.047
X20.2354 Y89.084
X20.4768 Y89.1323
X20.576 Y89.1606
X20.751 Y89.2359
X20.901 Y89.3534
X21.016 Y89.5053
X21.0885 Y89.6815
X21.1137 Y89.8703
X21.114 Y89.937
G3 X20.5413 Y90.1158 I-0.3173 J-0.0099
G1 X20.4993 Y90.059 Z-1.992
X20.4594 Y90.005 Z-1.9686
X20.4236 Y89.9566 Z-1.9307
X20.3937 Y89.9162 Z-1.8805
X20.3713 Y89.8858 Z-1.8203
X20.3573 Y89.8669 Z-1.7532
X20.3526 Y89.8605 Z-1.6825
G0 Z5
X324.7174 Y91.7565
Z-1.365
G1 Z-1.6825 F3500
X324.7163 Y91.7486 Z-1.7532
X324.7132 Y91.7253 Z-1.8203
X324.7081 Y91.6878 Z-1.8805
X324.7014 Y91.638 Z-1.9307
X324.6933 Y91.5783 Z-1.9686
X324.6843 Y91.5118 Z-1.992
X324.6749 Y91.4418 Z-2
G3 X324.7663 Y90.6618 I1.5684 J-0.2117
G1 X324.8064 Y90.5675
X324.8718 Y90.1591
X324.8804 Y90.0669
X324.9018 Y89.9184
X324.9443 Y89.7746
X325.0042 Y89.6371
X325.0788 Y89.5069
X325.1644 Y89.3838
X325.2732 Y89.2521
X325.4101 Y89.1113
X325.5674 Y88.9735
X325.7764 Y88.8182
X326.0158 Y88.6685
X326.3126 Y88.5147
X326.6883 Y88.3567
X327.1576 Y88.2024
X327.7784 Y88.0523
X328.5072 Y87.937
X329.2417 Y87.8667
X329.9783 Y87.8242
X330.7156 Y87.7987
X331.4533 Y87.7834
X332.191 Y87.7744
X332.9288 Y87.769
X333.6667 Y87.7659
X335.1423 Y87.763
X339.5692 Y87.7617
X341.4137 Y87.7616
X341.7796 Y87.7142
X342.123 Y87.5796
X342.426 Y87.3692
X342.9402 Y86.8401
X343.2723 Y86.1812
X343.4756 Y85.472
X343.5965 Y84.7441
X343.667 Y84.0097
X343.7077 Y83.273
X343.731 Y82.5355
X343.7443 Y81.7979
X343.7519 Y81.0601
X343.7561 Y80.3223
X343.7585 Y79.5845
X343.7607 Y78.1088
X343.7616 Y71.4685
Y55.9744
Y5.803
Y4.3273
X343.652 Y3.9751
X343.4605 Y3.6598
X342.9583 Y3.1193
X342.3107 Y2.7657
X341.6058 Y2.5477
X340.8795 Y2.4176
X340.1457 Y2.3413
X339.4092 Y2.2971
X338.6718 Y2.2718
X337.9341 Y2.2573
X337.1964 Y2.249
X336.4586 Y2.2444
X335.7208 Y2.2418
X334.2451 Y2.2394
X328.3426 Y2.2384
X295.8788
X245.7073
X195.5359
X145.3645
X95.193
X45.0216
X4.4418
X4.0828 Y2.3236
X3.7553 Y2.4933
X3.1846 Y2.961
X2.8077 Y3.5952
X2.5737 Y4.2949
X2.4331 Y5.0192
X2.3505 Y5.7524
X2.3025 Y6.4887
X2.2749 Y7.226
X2.2591 Y7.9636
X2.2501 Y8.7014
X2.245 Y9.4392
X2.2421 Y10.177
X2.2405 Y10.9148
X2.2386 Y13.866
X2.2384 Y61.0862
Y85.4341
X2.2897 Y85.7994
X2.4301 Y86.1406
X2.6436 Y86.4414
X3.1776 Y86.9506
X3.8384 Y87.2789
X4.5483 Y87.4796
X5.2765 Y87.5988
X6.011 Y87.6684
X6.7477 Y87.7085
X7.4852 Y87.7315
X8.2229 Y87.7446
X8.9606 Y87.752
X9.6984 Y87.7562
X10.4363 Y87.7586
X12.6497 Y87.7611
X18.5522 Y87.7616
X19.2899 Y87.7744
X19.7535 Y87.8149
X20.0899 Y87.8718
X20.347 Y87.9369
X20.5683 Y88.0122
X20.666 Y88.0545
X20.8484 Y88.1673
X20.9909 Y88.3277
X21.0815 Y88.5221
X21.1125 Y88.7344
X21.1129 Y89.6564
X21.1137 Y89.8703
G3 X20.5411 Y90.0491 I-0.3173 J-0.0099
G1 X20.4991 Y89.9923 Z-1.992
X20.4592 Y89.9384 Z-1.9686
X20.4234 Y89.89 Z-1.9307
X20.3935 Y89.8495 Z-1.8805
X20.371 Y89.8191 Z-1.8203
X20.357 Y89.8002 Z-1.7532
X20.3523 Y89.7938 Z-1.6825
G0 Z5
X325.1671 Y91.1245
Z-1.365
G1 Z-1.6825 F3500
X325.1637 Y91.1173 Z-1.7531
X325.1536 Y91.0961 Z-1.8203
X325.1374 Y91.062 Z-1.8805
X325.1158 Y91.0166 Z-1.9307
X325.09 Y90.9622 Z-1.9686
X325.0612 Y90.9016 Z-1.992
X325.0309 Y90.8378 Z-2
G3 X324.8804 Y90.0669 I1.4294 J-0.6791
G1 X324.8874 Y89.9915
X324.8875 Y89.2291
X324.895 Y89.0793
X324.9258 Y88.9325
X324.9735 Y88.7902
X325.0349 Y88.6534
X325.112 Y88.515
X325.2064 Y88.3737
X325.3319 Y88.215
X325.4741 Y88.0622
X325.6643 Y87.8882
X325.8736 Y87.7255
X326.1512 Y87.5435
X326.4648 Y87.3722
X326.8736 Y87.1899
X327.3488 Y87.0221
X327.9893 Y86.8525
X328.7153 Y86.7215
X329.4482 Y86.6366
X330.1841 Y86.5823
X330.9211 Y86.5478
X331.6586 Y86.5262
X332.3963 Y86.5127
X333.134 Y86.5044
X333.8718 Y86.4993
X334.6096 Y86.4962
X336.0853 Y86.4932
X340.1432 Y86.4912
X340.5069 Y86.4293
X340.8457 Y86.2833
X341.1456 Y86.0684
X341.6552 Y85.5349
X341.9878 Y84.8763
X342.1935 Y84.1677
X342.3172 Y83.4404
X342.3904 Y82.7062
X342.4331 Y81.9696
X342.4579 Y81.2322
X342.4723 Y80.4945
X342.4806 Y79.7568
X342.4853 Y79.019
X342.488 Y78.2812
X342.4904 Y76.8055
X342.4916 Y71.6408
Y53.1955
Y5.9753
X342.4578 Y5.6079
X342.3426 Y5.2575
X342.1487 Y4.9436
X341.6443 Y4.4052
X340.9974 Y4.0504
X340.2934 Y3.8296
X339.5677 Y3.6966
X338.834 Y3.6178
X338.0977 Y3.5716
X337.3604 Y3.5448
X336.6227 Y3.5293
X335.8849 Y3.5204
X335.1472 Y3.5152
X334.4093 Y3.5123
X332.9337 Y3.5096
X328.5068 Y3.5084
X290.1404
X239.969
X189.7976
X139.6261
X89.4547
X39.2833
X6.0816
X5.7131 Y3.5261
X5.3557 Y3.6172
X5.0305 Y3.7915
X4.4667 Y4.2674
X4.0904 Y4.902
X3.8545 Y5.6011
X3.7117 Y6.325
X3.6268 Y7.0579
X3.577 Y7.794
X3.548 Y8.5313
X3.5311 Y9.2689
X3.5214 Y10.0066
X3.5158 Y10.7444
X3.5126 Y11.4823
X3.5098 Y12.9579
X3.5084 Y17.3848
Y19.5982
Y69.7696
Y83.7881
X3.509 Y84.157
X3.574 Y84.5202
X3.7232 Y84.8576
X3.9404 Y85.1558
X4.477 Y85.6621
X5.1369 Y85.9921
X5.846 Y86.1961
X6.5735 Y86.3188
X7.3078 Y86.3912
X8.0444 Y86.4336
X8.7818 Y86.4582
X9.5195 Y86.4725
X10.2572 Y86.4807
X10.995 Y86.4854
X11.7328 Y86.4881
X13.2085 Y86.4905
X17.6354 Y86.4916
X18.3732 Y86.4968
X19.1104 Y86.5247
X19.6622 Y86.588
X20.0383 Y86.6621
X20.3478 Y86.7495
X20.5682 Y86.8312
X20.6843 Y86.8853
X20.8599 Y86.9997
X20.9964 Y87.1586
X21.0829 Y87.3495
X21.1125 Y87.5569
Y88.7344
G3 X20.5392 Y88.9111 I-0.3173 J-0.0111
G1 X20.4974 Y88.8541 Z-1.992
X20.4577 Y88.8 Z-1.9686
X20.4221 Y88.7515 Z-1.9307
X20.3924 Y88.711 Z-1.8805
X20.37 Y88.6805 Z-1.8203
X20.3561 Y88.6615 Z-1.7532
X20.3514 Y88.6551 Z-1.6825
G0 Z5
X325.2711 Y90.2555
Z-1.365
G1 Z-1.6825 F3500
X325.267 Y90.2487 Z-1.7532
X325.255 Y90.2285 Z-1.8203
X325.2357 Y90.196 Z-1.8805
X325.21 Y90.1528 Z-1.9307
X325.1792 Y90.101 Z-1.9686
X325.1449 Y90.0434 Z-1.992
X325.1088 Y89.9826 Z-2
G3 X324.8875 Y89.2291 I1.3603 J-0.8088
G1 Y88.2237
X324.895 Y88.0739
X324.9237 Y87.9266
X324.9681 Y87.7834
X325.0253 Y87.6447
X325.1006 Y87.498
X325.1968 Y87.3427
X325.3162 Y87.1806
X325.4702 Y87.0034
X325.6486 Y86.8286
X325.8777 Y86.6377
X326.1378 Y86.4541
X326.4796 Y86.2519
X326.8617 Y86.0655
X327.354 Y85.8726
X327.9752 Y85.6851
X328.6964 Y85.5293
X329.4266 Y85.4238
X330.161 Y85.3532
X330.8974 Y85.3065
X331.6346 Y85.2758
X332.3721 Y85.256
X333.1098 Y85.2432
X333.8476 Y85.2351
X334.5854 Y85.2299
X335.3232 Y85.2267
X336.7988 Y85.2235
X339.0122 Y85.222
X339.3658 Y85.1168
X339.6875 Y84.9361
X340.249 Y84.4575
X340.6256 Y83.823
X340.8636 Y83.1246
X341.0092 Y82.4013
X341.0966 Y81.6687
X341.1484 Y80.9327
X341.179 Y80.1955
X341.1968 Y79.458
X341.2072 Y78.7202
X341.2133 Y77.9824
X341.2168 Y77.2446
X341.22 Y75.769
X341.2215 Y72.0799
X341.2216 Y50.6833
Y7.1522
X341.1605 Y6.7884
X341.0157 Y6.4491
X340.8024 Y6.1481
X340.2733 Y5.6339
X339.6172 Y5.2964
X338.9098 Y5.0866
X338.183 Y4.9597
X337.449 Y4.8844
X336.7126 Y4.8401
X335.9752 Y4.8142
X335.2375 Y4.7991
X334.4998 Y4.7903
X333.762 Y4.7853
X333.0241 Y4.7823
X331.5485 Y4.7797
X327.1216 Y4.7784
X285.0662
X234.8947
X184.7233
X134.5519
X84.3805
X34.209
X7.6477
X6.9099 Y4.779
X6.5604 Y4.8971
X6.2461 Y5.0902
X5.7042 Y5.5909
X5.343 Y6.2343
X5.1162 Y6.9364
X4.9781 Y7.6612
X4.8956 Y8.3944
X4.8468 Y9.1306
X4.8182 Y9.8678
X4.8015 Y10.6054
X4.7918 Y11.3432
X4.7861 Y12.081
X4.7828 Y12.8188
X4.7799 Y14.2944
X4.7785 Y17.9835
X4.7784 Y26.8373
Y77.0087
Y82.9112
X4.8582 Y83.2714
X5.0179 Y83.604
X5.2416 Y83.8973
X5.7856 Y84.3957
X6.4477 Y84.7214
X7.1572 Y84.9237
X7.8848 Y85.0461
X8.619 Y85.1189
X9.3556 Y85.1618
X10.093 Y85.1869
X10.8306 Y85.2015
X11.5684 Y85.21
X12.3062 Y85.2149
X13.044 Y85.2178
X14.5196 Y85.2203
X16.7331 Y85.2214
X17.4709 Y85.2236
X18.2086 Y85.2364
X18.9453 Y85.2763
X19.5619 Y85.352
X19.9904 Y85.44
X20.3248 Y85.5372
X20.5587 Y85.6262
X20.6896 Y85.6884
X20.8632 Y85.8032
X20.9979 Y85.9617
X21.0833 Y86.1515
X21.1125 Y86.3575
Y87.5569
G3 X20.5392 Y87.7337 I-0.3173 J-0.0111
G1 X20.4974 Y87.6767 Z-1.992
X20.4577 Y87.6226 Z-1.9686
X20.4221 Y87.574 Z-1.9307
X20.3924 Y87.5335 Z-1.8805
X20.37 Y87.503 Z-1.8203
X20.3561 Y87.4841 Z-1.7532
X20.3514 Y87.4777 Z-1.6825
G0 Z5
X325.2711 Y89.2501
Z-1.365
G1 Z-1.6825 F3500
X325.267 Y89.2433 Z-1.7532
X325.255 Y89.2231 Z-1.8203
X325.2357 Y89.1906 Z-1.8805
X325.21 Y89.1474 Z-1.9307
X325.1792 Y89.0957 Z-1.9686
X325.1449 Y89.038 Z-1.992
X325.1088 Y88.9772 Z-2
G3 X324.8875 Y88.2237 I1.3603 J-0.8088
G1 Y87.1429
X324.895 Y86.9931
X324.9233 Y86.8457
X324.9667 Y86.7022
X325.0222 Y86.5628
X325.0994 Y86.4075
X325.1973 Y86.2445
X325.3211 Y86.0718
X325.4753 Y85.8894
X325.6622 Y85.7013
X325.8956 Y85.5014
X326.172 Y85.3009
X326.5164 Y85.0909
X326.9304 Y84.8821
X327.4255 Y84.6804
X328.0603 Y84.4796
X328.7794 Y84.3142
X329.508 Y84.1981
X330.2414 Y84.1175
X330.9771 Y84.0621
X331.714 Y84.0245
X332.4514 Y83.9993
X333.189 Y83.9825
X333.9267 Y83.9715
X334.6645 Y83.9643
X335.4023 Y83.9596
X336.1401 Y83.9567
X337.6158 Y83.9536
X337.977 Y83.8786
X338.3112 Y83.7225
X338.606 Y83.5007
X339.1115 Y82.9632
X339.4409 Y82.3031
X339.6461 Y81.5943
X339.7705 Y80.8671
X339.845 Y80.133
X339.8891 Y79.3965
X339.915 Y78.6592
X339.9303 Y77.9215
X339.9392 Y77.1838
X339.9444 Y76.446
X339.9474 Y75.7082
X339.9502 Y74.2325
X339.9516 Y69.8056
Y48.409
Y8.567
X339.9099 Y8.2004
X339.7935 Y7.8504
X339.6022 Y7.5349
X339.1068 Y6.9882
X338.4654 Y6.6236
X337.7642 Y6.3939
X337.0399 Y6.2535
X336.3069 Y6.1693
X335.5708 Y6.1193
X334.8336 Y6.0899
X334.0959 Y6.0726
X333.3582 Y6.0625
X332.6204 Y6.0566
X331.8826 Y6.0531
X330.407 Y6.05
X326.7179 Y6.0485
X280.2355 Y6.0484
X230.0641
X179.8927
X129.7213
X79.5498
X29.3784
X8.7196
X8.3507 Y6.0558
X7.9906 Y6.1356
X7.6589 Y6.2971
X7.0759 Y6.7494
X6.6809 Y7.3725
X6.4298 Y8.0663
X6.2756 Y8.7878
X6.1827 Y9.5198
X6.1274 Y10.2555
X6.0947 Y10.9926
X6.0754 Y11.7302
X6.0642 Y12.4679
X6.0576 Y13.2057
X6.0537 Y13.9435
X6.0502 Y15.4191
X6.0486 Y18.3704
X6.0484 Y34.6023
Y81.4535
X6.0958 Y81.8194
X6.2185 Y82.1673
X6.4142 Y82.48
X6.9154 Y83.0215
X7.5591 Y83.3821
X8.2611 Y83.6092
X8.9857 Y83.7481
X9.7188 Y83.8315
X10.4549 Y83.8811
X11.1922 Y83.9103
X11.9298 Y83.9275
X12.6675 Y83.9376
X13.4053 Y83.9434
X14.1431 Y83.9469
X15.6188 Y83.95
X16.3566 Y83.9513
X17.0944 Y83.9559
X17.832 Y83.9713
X18.5689 Y84.0086
X19.3028 Y84.0841
X19.8372 Y84.1826
X20.2066 Y84.2819
X20.4851 Y84.3813
X20.7101 Y84.4827
X20.7292 Y84.4932
X20.8876 Y84.6104
X21.0095 Y84.7653
X21.0863 Y84.9468
X21.1125 Y85.1421
Y86.3575
G3 X20.5392 Y86.5342 I-0.3173 J-0.0111
G1 X20.4974 Y86.4773 Z-1.992
X20.4577 Y86.4232 Z-1.9686
X20.4221 Y86.3746 Z-1.9307
X20.3924 Y86.3341 Z-1.8805
X20.37 Y86.3036 Z-1.8203
X20.3561 Y86.2847 Z-1.7532
X20.3514 Y86.2782 Z-1.6825
G0 Z5
X325.2711 Y88.1693
Z-1.365
G1 Z-1.6825 F3500
X325.267 Y88.1625 Z-1.7532
X325.255 Y88.1423 Z-1.8203
X325.2357 Y88.1098 Z-1.8805
X325.21 Y88.0666 Z-1.9307
X325.1792 Y88.0148 Z-1.9686
X325.1449 Y87.9572 Z-1.992
X325.1088 Y87.8964 Z-2
G3 X324.8875 Y87.1429 I1.3603 J-0.8088
G1 Y86.0453
X324.895 Y85.8955
X324.9206 Y85.7477
X324.9612 Y85.6033
X325.0152 Y85.4598
X325.088 Y85.3055
X325.1862 Y85.1343
X325.3043 Y84.9622
X325.463 Y84.7666
X325.6428 Y84.5782
X325.8829 Y84.364
X326.1489 Y84.1625
X326.5048 Y83.9356
X326.9024 Y83.7247
X327.4085 Y83.5065
X328.0406 Y83.2923
X328.7561 Y83.1124
X329.4824 Y82.9826
X330.2144 Y82.8899
X330.9493 Y82.8243
X331.6857 Y82.7784
X332.4228 Y82.7466
X333.1603 Y82.7249
X333.898 Y82.7102
X334.6357 Y82.7003
X335.3735 Y82.6938
X336.1113 Y82.6895
X336.4785 Y82.6537
X336.8311 Y82.5452
X337.151 Y82.3615
X337.709 Y81.8787
X338.0833 Y81.2429
X338.3204 Y80.5443
X338.466 Y79.8209
X338.5538 Y79.0884
X338.6062 Y78.3524
X338.6373 Y77.6153
X338.6556 Y76.8777
X338.6664 Y76.1399
X338.6727 Y75.4022
X338.6764 Y74.6643
X338.6798 Y73.1887
X338.6814 Y70.2375
X338.6816 Y45.8896
Y9.7366
X338.6208 Y9.3728
X338.4805 Y9.0316
X338.2719 Y8.7274
X337.7499 Y8.2059
X337.098 Y7.8604
X336.3927 Y7.6436
X335.6668 Y7.5115
X334.9333 Y7.4324
X334.197 Y7.3854
X333.4597 Y7.3576
X332.722 Y7.3414
X331.9843 Y7.3318
X331.2465 Y7.3262
X330.5087 Y7.3229
X329.0331 Y7.3199
X325.344 Y7.3185
X275.1725 Y7.3184
X225.0011
X174.8297
X124.6583
X74.4868
X24.3154
X9.5591
X9.2032 Y7.4153
X8.8785 Y7.5905
X8.3127 Y8.064
X7.9303 Y8.695
X7.6876 Y9.3917
X7.5385 Y10.1143
X7.4487 Y10.8467
X7.3952 Y11.5825
X7.3635 Y12.3197
X7.3449 Y13.0572
X7.3339 Y13.795
X7.3274 Y14.5328
X7.3237 Y15.2706
X7.3202 Y16.7462
X7.3186 Y19.6975
X7.3184 Y41.8319
Y80.1983
X7.3699 Y80.5636
X7.495 Y80.9106
X7.6936 Y81.2215
X8.2007 Y81.7574
X8.8461 Y82.1149
X9.5487 Y82.3404
X10.2735 Y82.4783
X11.0066 Y82.5613
X11.7428 Y82.6107
X12.48 Y82.64
X13.2176 Y82.6572
X13.9553 Y82.6673
X14.6931 Y82.6733
X16.1687 Y82.6809
X16.9065 Y82.6894
X17.6441 Y82.7093
X18.3807 Y82.7505
X19.1148 Y82.8247
X19.7003 Y82.9246
X20.1247 Y83.0328
X20.4379 Y83.14
X20.6617 Y83.2373
X20.7206 Y83.2687
X20.8823 Y83.3855
X21.007 Y83.5413
X21.0857 Y83.7246
X21.1125 Y83.9222
Y85.1421
G3 X20.5392 Y85.3188 I-0.3173 J-0.0111
G1 X20.4974 Y85.2618 Z-1.992
X20.4577 Y85.2077 Z-1.9686
X20.4221 Y85.1592 Z-1.9307
X20.3924 Y85.1187 Z-1.8805
X20.37 Y85.0882 Z-1.8203
X20.3561 Y85.0692 Z-1.7532
X20.3514 Y85.0628 Z-1.6825
G0 Z5
X325.2711 Y87.0718
Z-1.365
G1 Z-1.6825 F3500
X325.267 Y87.0649 Z-1.7532
X325.255 Y87.0448 Z-1.8203
X325.2357 Y87.0122 Z-1.8805
X325.21 Y86.969 Z-1.9307
X325.1792 Y86.9173 Z-1.9686
X325.1449 Y86.8596 Z-1.992
X325.1088 Y86.7989 Z-2
G3 X324.8875 Y86.0453 I1.3603 J-0.8088
G1 Y84.8723
X324.895 Y84.7225
X324.9234 Y84.5752
X324.9662 Y84.4315
X325.0219 Y84.2878
X325.1017 Y84.1227
X325.2028 Y83.9503
X325.3322 Y83.7654
X325.4934 Y83.5705
X325.6913 Y83.3671
X325.9368 Y83.1522
X326.2338 Y82.9317
X326.5959 Y82.7055
X327.0517 Y82.4694
X327.5678 Y82.2526
X328.2423 Y82.0311
X328.9595 Y81.8579
X329.6862 Y81.7303
X330.4181 Y81.6371
X331.1528 Y81.5695
X331.8891 Y81.5212
X332.6261 Y81.4869
X333.3635 Y81.4629
X334.1011 Y81.4462
X334.8389 Y81.4348
X335.2057 Y81.3956
X335.5583 Y81.2871
X335.8781 Y81.1032
X336.4344 Y80.6186
X336.8094 Y79.9832
X337.0474 Y79.2848
X337.1938 Y78.5617
X337.2823 Y77.8292
X337.3351 Y77.0933
X337.3665 Y76.3561
X337.3851 Y75.6185
X337.396 Y74.8808
X337.4025 Y74.143
X337.4063 Y73.4052
X337.4098 Y71.9296
X337.4114 Y68.9783
X337.4116 Y43.8926
Y11.0598
X337.3571 Y10.695
X337.2281 Y10.3493
X337.027 Y10.0401
X336.5171 Y9.5068
X335.8704 Y9.1517
X335.1674 Y8.9278
X334.4424 Y8.7907
X333.7092 Y8.7082
X332.973 Y8.6591
X332.2358 Y8.63
X331.4982 Y8.6128
X330.7604 Y8.6027
X330.0226 Y8.5968
X329.2848 Y8.5933
X327.8092 Y8.5901
X324.1201 Y8.5885
X321.1689 Y8.5884
X270.9974
X220.826
X170.6546
X120.4832
X70.3117
X20.1403
X11.2865
X10.9177 Y8.5967
X10.5569 Y8.6733
X10.2234 Y8.8312
X9.6362 Y9.2779
X9.236 Y9.8977
X8.9805 Y10.5899
X8.823 Y11.3107
X8.7277 Y12.0423
X8.6708 Y12.7779
X8.6369 Y13.515
X8.6169 Y14.2525
X8.6052 Y14.9902
X8.5982 Y15.728
X8.5941 Y16.4658
X8.5904 Y17.9415
X8.5886 Y20.8927
X8.5884 Y48.9297
Y79.1801
X8.6956 Y79.5331
X8.8765 Y79.8546
X9.3543 Y80.4168
X9.9867 Y80.7969
X10.6836 Y81.039
X11.4062 Y81.1884
X12.1384 Y81.2788
X12.8742 Y81.333
X13.6114 Y81.3652
X14.3489 Y81.3843
X15.0866 Y81.3963
X15.8244 Y81.4057
X16.5621 Y81.418
X17.2996 Y81.4397
X18.0364 Y81.4784
X18.7713 Y81.5435
X19.4863 Y81.6477
X19.9921 Y81.7634
X20.3331 Y81.8709
X20.5857 Y81.9735
X20.7046 Y82.0333
X20.8724 Y82.1491
X21.0023 Y82.3064
X21.0844 Y82.4931
X21.1125 Y82.6951
Y83.9222
G3 X20.5392 Y84.099 I-0.3173 J-0.0111
G1 X20.4974 Y84.042 Z-1.992
X20.4577 Y83.9879 Z-1.9686
X20.4221 Y83.9394 Z-1.9307
X20.3924 Y83.8988 Z-1.8805
X20.37 Y83.8683 Z-1.8203
X20.3561 Y83.8494 Z-1.7532
X20.3514 Y83.843 Z-1.6825
G0 Z5
X325.2711 Y85.8988
Z-1.365
G1 Z-1.6825 F3500
X325.267 Y85.892 Z-1.7532
X325.255 Y85.8718 Z-1.8203
X325.2357 Y85.8393 Z-1.8805
X325.21 Y85.7961 Z-1.9307
X325.1792 Y85.7443 Z-1.9686
X325.1449 Y85.6866 Z-1.992
X325.1088 Y85.6259 Z-2
G3 X324.8875 Y84.8723 I1.3603 J-0.8088
G1 Y83.7915
X324.8953 Y83.6361
X324.9148 Y83.4874
X324.949 Y83.3413
X324.9995 Y83.1905
X325.0639 Y83.0393
X325.1545 Y82.8668
X325.2678 Y82.6876
X325.4125 Y82.4949
X325.5961 Y82.2875
X325.8164 Y82.0757
X326.089 Y81.8527
X326.4216 Y81.6225
X326.8229 Y81.3902
X327.333 Y81.1472
X327.9244 Y80.9217
X328.6327 Y80.7151
X329.3541 Y80.5606
X330.0829 Y80.4453
X330.8157 Y80.3599
X331.5509 Y80.297
X332.2873 Y80.2513
X333.0244 Y80.2183
X333.7618 Y80.1947
X334.1225 Y80.1176
X334.4581 Y79.9642
X334.7561 Y79.7468
X335.2676 Y79.2151
X335.6067 Y78.5598
X335.8194 Y77.8533
X335.9493 Y77.127
X336.0275 Y76.3934
X336.0742 Y75.657
X336.1018 Y74.9197
X336.1182 Y74.1821
X336.1278 Y73.4443
X336.1335 Y72.7065
X336.1369 Y71.9687
X336.14 Y70.4931
X336.1415 Y66.804
X336.1416 Y40.9805
Y12.2057
X336.0616 Y11.8456
X335.9038 Y11.5121
X335.4612 Y10.9218
X334.8435 Y10.5182
X334.1526 Y10.2596
X333.4323 Y10.0993
X332.701 Y10.002
X331.9655 Y9.9436
X331.2285 Y9.9088
X330.491 Y9.8881
X329.7533 Y9.8759
X329.0155 Y9.8687
X328.2777 Y9.8644
X327.5399 Y9.8619
X326.0642 Y9.8596
X320.8995 Y9.8584
X315.7348
X265.5634
X215.392
X165.2205
X115.0491
X64.8777
X14.7063
X12.4928
X12.1245 Y9.88
X11.7668 Y9.9699
X11.4394 Y10.14
X10.8678 Y10.6065
X10.4805 Y11.2345
X10.2343 Y11.93
X10.083 Y12.6522
X9.9916 Y13.3843
X9.9371 Y14.1201
X9.9048 Y14.8572
X9.8857 Y15.5948
X9.8744 Y16.3325
X9.8678 Y17.0703
X9.8639 Y17.8081
X9.8603 Y19.2837
X9.8586 Y22.235
X9.8584 Y56.9123
Y77.5711
X9.891 Y77.9386
X9.9967 Y78.292
X10.18 Y78.6122
X10.6653 Y79.1679
X11.3013 Y79.5419
X11.9999 Y79.7791
X12.7232 Y79.9249
X13.4558 Y80.0129
X14.1917 Y80.0657
X14.9288 Y80.0983
X15.6662 Y80.1212
X16.4037 Y80.1428
X17.141 Y80.1712
X17.8776 Y80.214
X18.6123 Y80.281
X19.3431 Y80.383
X19.8966 Y80.5022
X20.2685 Y80.6142
X20.5403 Y80.7205
X20.696 Y80.7963
X20.8671 Y80.9116
X20.9998 Y81.0696
X21.0838 Y81.2581
X21.1125 Y81.4624
Y82.6951
G3 X20.5392 Y82.8718 I-0.3173 J-0.0111
G1 X20.4974 Y82.8149 Z-1.992
X20.4577 Y82.7608 Z-1.9686
X20.4221 Y82.7122 Z-1.9307
X20.3924 Y82.6717 Z-1.8805
X20.37 Y82.6412 Z-1.8203
X20.3561 Y82.6223 Z-1.7532
X20.3514 Y82.6159 Z-1.6825
G0 Z5
X325.2711 Y84.818
Z-1.365
G1 Z-1.6825 F3500
X325.267 Y84.8112 Z-1.7532
X325.255 Y84.791 Z-1.8203
X325.2357 Y84.7585 Z-1.8805
X325.21 Y84.7153 Z-1.9307
X325.1792 Y84.6635 Z-1.9686
X325.1449 Y84.6058 Z-1.992
X325.1088 Y84.5451 Z-2
G3 X324.8875 Y83.7915 I1.3603 J-0.8088
G1 Y82.6186
X324.8958 Y82.4539
X324.9153 Y82.3052
X324.9501 Y82.1593
X324.9972 Y82.0169
X325.0665 Y81.853
X325.1544 Y81.6844
X325.2705 Y81.4995
X325.4173 Y81.3029
X325.598 Y81.0976
X325.829 Y80.8741
X326.1023 Y80.6492
X326.4417 Y80.413
X326.8608 Y80.1686
X327.3476 Y79.935
X327.9724 Y79.6947
X328.6801 Y79.486
X329.4007 Y79.3273
X330.1287 Y79.2072
X330.8609 Y79.1167
X331.5956 Y79.0491
X332.3317 Y78.999
X332.6958 Y78.9395
X333.0428 Y78.8141
X333.3567 Y78.6203
X333.9042 Y78.1258
X334.2731 Y77.4868
X334.508 Y76.7874
X334.6531 Y76.064
X334.7412 Y75.3314
X334.7942 Y74.5955
X334.8257 Y73.8584
X334.8445 Y73.1208
X334.8556 Y72.3831
X334.8622 Y71.6453
X334.8661 Y70.9075
X334.8697 Y69.4319
X334.8714 Y66.4806
X334.8716 Y38.4436
Y13.3579
X334.7693 Y13.0035
X334.5899 Y12.6811
X334.1107 Y12.1201
X333.4781 Y11.7404
X332.7809 Y11.4989
X332.0582 Y11.3502
X331.3259 Y11.2603
X330.5901 Y11.2065
X329.8529 Y11.1745
X329.1154 Y11.1556
X328.3777 Y11.1444
X327.6399 Y11.1378
X326.902 Y11.1339
X325.4264 Y11.1303
X322.4752 Y11.1286
X310.6701 Y11.1284
X260.4987
X210.3273
X160.1558
X109.9844
X59.813
X14.0685
X13.3306 Y11.1291
X12.9783 Y11.2385
X12.6589 Y11.423
X12.1038 Y11.909
X11.7294 Y12.5448
X11.4918 Y13.2433
X11.3457 Y13.9665
X11.2575 Y14.699
X11.2048 Y15.435
X11.1735 Y16.1721
X11.1549 Y16.9097
X11.144 Y17.6474
X11.1376 Y18.3852
X11.1338 Y19.123
X11.1302 Y20.5987
X11.1286 Y23.5499
X11.1284 Y64.1297
Y76.6726
X11.2413 Y77.0238
X11.4278 Y77.3421
X11.9154 Y77.8958
X12.5517 Y78.2693
X13.2503 Y78.5068
X13.9733 Y78.6537
X14.7055 Y78.7443
X15.441 Y78.8027
X16.1776 Y78.8463
X16.9142 Y78.8876
X17.6504 Y78.9372
X18.3851 Y79.0051
X19.1165 Y79.1016
X19.7407 Y79.2232
X20.1656 Y79.3421
X20.4765 Y79.4567
X20.707 Y79.5634
X20.7358 Y79.5796
X20.8917 Y79.6971
X21.0114 Y79.8512
X21.0868 Y80.0313
X21.1125 Y80.2248
Y81.4624
G3 X20.5392 Y81.6391 I-0.3173 J-0.0111
G1 X20.4974 Y81.5822 Z-1.992
X20.4577 Y81.5281 Z-1.9686
X20.4221 Y81.4795 Z-1.9307
X20.3924 Y81.439 Z-1.8805
X20.37 Y81.4085 Z-1.8203
X20.3561 Y81.3896 Z-1.7532
X20.3514 Y81.3831 Z-1.6825
G0 Z5
X325.2711 Y83.6451
Z-1.365
G1 Z-1.6825 F3500
X325.267 Y83.6382 Z-1.7532
X325.255 Y83.618 Z-1.8203
X325.2357 Y83.5855 Z-1.8805
X325.21 Y83.5423 Z-1.9307
X325.1792 Y83.4906 Z-1.9686
X325.1449 Y83.4329 Z-1.992
X325.1088 Y83.3722 Z-2
G3 X324.8875 Y82.6186 I1.3603 J-0.8088
G1 Y81.3535
X324.895 Y81.2037
X324.9216 Y81.056
X324.9619 Y80.9116
X325.0171 Y80.7618
X325.0977 Y80.5873
X325.1946 Y80.4154
X325.3292 Y80.216
X325.488 Y80.0173
X325.6969 Y79.795
X325.9379 Y79.5766
X326.2577 Y79.3306
X326.6145 Y79.0992
X327.0898 Y78.8426
X327.6451 Y78.5981
X328.3421 Y78.356
X329.0562 Y78.1706
X329.7802 Y78.0283
X330.5099 Y77.9194
X331.243 Y77.8364
X331.5984 Y77.7373
X331.9278 Y77.5713
X332.5143 Y77.1237
X332.9199 Y76.5073
X333.1829 Y75.818
X333.3477 Y75.0988
X333.4489 Y74.3679
X333.5102 Y73.6327
X333.5471 Y72.8958
X333.5692 Y72.1583
X333.5824 Y71.4206
X333.5902 Y70.6828
X333.5948 Y69.945
X333.5976 Y69.2072
X333.6002 Y67.7316
X333.6016 Y63.3047
Y36.0055
Y14.6089
X333.4945 Y14.2559
X333.3114 Y13.9356
X332.8275 Y13.3786
X332.1925 Y13.0029
X331.4944 Y12.7643
X330.7713 Y12.6175
X330.0389 Y12.5287
X329.303 Y12.4756
X328.5658 Y12.444
X327.8282 Y12.4253
X327.0905 Y12.4143
X326.3527 Y12.4077
X325.6149 Y12.4039
X324.1393 Y12.4003
X321.188 Y12.3986
X305.6939 Y12.3984
X255.5225
X205.3511
X155.1796
X105.0082
X54.8368
X14.9948
X14.6268 Y12.4248
X14.2716 Y12.5244
X13.9486 Y12.7026
X13.3861 Y13.1801
X13.0069 Y13.813
X12.7663 Y14.5105
X12.6184 Y15.2333
X12.5291 Y15.9657
X12.4757 Y16.7016
X12.444 Y17.4387
X12.4253 Y18.1763
X12.4142 Y18.914
X12.4077 Y19.6518
X12.4039 Y20.3896
X12.4003 Y21.8652
X12.3986 Y24.8165
X12.3984 Y72.0367
Y74.9879
X12.4228 Y75.356
X12.5199 Y75.7119
X12.6956 Y76.0363
X13.1687 Y76.6025
X13.7991 Y76.9858
X14.4948 Y77.2317
X15.2159 Y77.3877
X15.9464 Y77.4911
X16.6802 Y77.5681
X17.4147 Y77.6379
X18.1485 Y77.7148
X18.8799 Y77.8117
X19.6051 Y77.9437
X20.0973 Y78.0749
X20.4272 Y78.1919
X20.6627 Y78.2974
X20.7278 Y78.3331
X20.8868 Y78.4503
X21.0091 Y78.6053
X21.0862 Y78.7871
X21.1125 Y78.9827
Y80.2248
G3 X20.5392 Y80.4015 I-0.3173 J-0.0111
G1 X20.4974 Y80.3445 Z-1.992
X20.4577 Y80.2904 Z-1.9686
X20.4221 Y80.2419 Z-1.9307
X20.3924 Y80.2014 Z-1.8805
X20.37 Y80.1709 Z-1.8203
X20.3561 Y80.1519 Z-1.7532
X20.3514 Y80.1455 Z-1.6825
G0 Z5
X325.2711 Y82.3799
Z-1.365
G1 Z-1.6825 F3500
X325.267 Y82.3731 Z-1.7532
X325.255 Y82.3529 Z-1.8203
X325.2357 Y82.3204 Z-1.8805
X325.21 Y82.2772 Z-1.9307
X325.1792 Y82.2254 Z-1.9686
X325.1449 Y82.1678 Z-1.992
X325.1088 Y82.107 Z-2
G3 X324.8875 Y81.3535 I1.3603 J-0.8088
G1 Y80.1805
X324.895 Y80.0307
X324.9183 Y79.8825
X324.9556 Y79.7372
X325.0115 Y79.5777
X325.082 Y79.4187
X325.1827 Y79.2333
X325.3023 Y79.05
X325.4634 Y78.8417
X325.6583 Y78.6277
X325.9057 Y78.3964
X326.1995 Y78.163
X326.5806 Y77.9072
X327.0099 Y77.6666
X327.5654 Y77.4116
X328.2535 Y77.1604
X328.9646 Y76.9638
X329.6865 Y76.8114
X330.408 Y76.6567
X331.0392 Y76.2749
X331.5039 Y75.7018
X331.8157 Y75.0331
X332.0149 Y74.3226
X332.139 Y73.5953
X332.2153 Y72.8615
X332.2617 Y72.1251
X332.2897 Y71.3878
X332.3065 Y70.6502
X332.3167 Y69.9125
X332.3227 Y69.1747
X332.3263 Y68.4369
X332.3297 Y66.9613
X332.3314 Y64.01
X332.3316 Y33.7596
Y16.052
X332.2652 Y15.6891
X332.1169 Y15.3513
X331.9016 Y15.0518
X331.3725 Y14.5376
X330.7168 Y14.1992
X330.01 Y13.9876
X329.2835 Y13.8587
X328.5498 Y13.7812
X327.8134 Y13.7351
X327.0761 Y13.7077
X326.3385 Y13.6916
X325.6007 Y13.682
X324.8629 Y13.6764
X324.1251 Y13.6731
X322.6495 Y13.67
X318.9604 Y13.6685
X300.515 Y13.6684
X250.3436
X200.1722
X150.0008
X99.8293
X49.6579
X16.4562
X16.0873 Y13.6709
X15.7233 Y13.7307
X15.3825 Y13.8719
X15.0789 Y14.0816
X14.5572 Y14.6032
X14.2116 Y15.2551
X13.9952 Y15.9605
X13.8632 Y16.6864
X13.7839 Y17.4199
X13.7366 Y18.1562
X13.7086 Y18.8935
X13.6921 Y19.6311
X13.6823 Y20.3689
X13.6766 Y21.1067
X13.6732 Y21.8445
X13.67 Y23.3201
X13.6685 Y27.0092
X13.6684 Y29.2226
Y73.4915
X13.6701 Y73.8604
X13.7206 Y74.2259
X13.8497 Y74.5715
X14.0493 Y74.8817
X14.5568 Y75.4173
X15.1994 Y75.7798
X15.8977 Y76.0181
X16.6175 Y76.1801
X17.3451 Y76.3022
X18.0749 Y76.4108
X18.8036 Y76.5261
X19.528 Y76.6665
X20.0589 Y76.8077
X20.4054 Y76.9304
X20.6487 Y77.0392
X20.7275 Y77.0825
X20.8866 Y77.1996
X21.009 Y77.3546
X21.0862 Y77.5364
X21.1125 Y77.7322
Y78.9827
G3 X20.5392 Y79.1595 I-0.3173 J-0.0111
G1 X20.4974 Y79.1025 Z-1.992
X20.4577 Y79.0484 Z-1.9686
X20.4221 Y78.9999 Z-1.9307
X20.3924 Y78.9593 Z-1.8805
X20.37 Y78.9288 Z-1.8203
X20.3561 Y78.9099 Z-1.7532
X20.3514 Y78.9035 Z-1.6825
G0 Z5
X325.2711 Y81.207
Z-1.365
G1 Z-1.6825 F3500
X325.267 Y81.2001 Z-1.7532
X325.255 Y81.1799 Z-1.8203
X325.2357 Y81.1474 Z-1.8805
X325.21 Y81.1042 Z-1.9307
X325.1792 Y81.0525 Z-1.9686
X325.1449 Y80.9948 Z-1.992
X325.1088 Y80.9341 Z-2
G3 X324.8875 Y80.1805 I1.3603 J-0.8088
G1 Y78.9321
X324.895 Y78.7823
X324.9225 Y78.6349
X324.9654 Y78.4852
X325.023 Y78.3317
X325.1037 Y78.1603
X325.2116 Y77.9717
X325.3437 Y77.7788
X325.5187 Y77.5627
X325.7224 Y77.3489
X325.9942 Y77.106
X326.3032 Y76.8716
X326.7097 Y76.6117
X327.1918 Y76.3556
X327.7713 Y76.1051
X328.4698 Y75.8677
X329.1778 Y75.6599
X329.792 Y75.2512
X330.2421 Y74.6666
X330.5456 Y73.9941
X330.7418 Y73.2828
X330.8654 Y72.5554
X330.942 Y71.8216
X330.9891 Y71.0853
X331.0178 Y70.348
X331.0352 Y69.6104
X331.0457 Y68.8727
X331.0521 Y68.1349
X331.0559 Y67.3971
X331.0596 Y65.9214
X331.0614 Y62.9702
X331.0616 Y31.2441
Y17.2257
X330.9681 Y16.8688
X330.7986 Y16.5411
X330.3383 Y15.9645
X329.7126 Y15.5735
X329.0183 Y15.324
X328.2967 Y15.1698
X327.5649 Y15.0763
X326.8292 Y15.0203
X326.0921 Y14.9868
X325.3546 Y14.967
X324.6169 Y14.9553
X323.8791 Y14.9484
X323.1413 Y14.9443
X321.6656 Y14.9404
X318.7144 Y14.9386
X295.8421 Y14.9384
X245.6707
X195.4993
X145.3278
X95.1564
X44.985
X17.6858
X17.317 Y14.9443
X16.9549 Y15.0151
X16.6178 Y15.165
X16.3186 Y15.3807
X15.8075 Y15.9129
X15.47 Y16.569
X15.2583 Y17.2758
X15.129 Y18.0022
X15.0514 Y18.7359
X15.0051 Y19.4723
X14.9777 Y20.2096
X14.9616 Y20.9472
X14.952 Y21.685
X14.9464 Y22.4227
X14.9431 Y23.1606
X14.94 Y24.6362
X14.9385 Y28.3253
X14.9384 Y36.4412
Y72.5942
X14.9928 Y72.959
X15.1197 Y73.3054
X15.3168 Y73.6172
X15.8153 Y74.1612
X16.4485 Y74.5399
X17.138 Y74.8026
X17.8498 Y74.9969
X18.5693 Y75.1603
X19.2892 Y75.3218
X19.967 Y75.5009
X20.3524 Y75.6367
X20.62 Y75.756
X20.7265 Y75.814
X20.8859 Y75.9311
X21.0087 Y76.0862
X21.0861 Y76.2683
X21.1125 Y76.4644
Y77.7322
G3 X20.5392 Y77.909 I-0.3173 J-0.0111
G1 X20.4974 Y77.852 Z-1.992
X20.4577 Y77.7979 Z-1.9686
X20.4221 Y77.7494 Z-1.9307
X20.3924 Y77.7088 Z-1.8805
X20.37 Y77.6783 Z-1.8203
X20.3561 Y77.6594 Z-1.7532
X20.3514 Y77.653 Z-1.6825
G0 Z5
X325.2711 Y79.9586
Z-1.365
G1 Z-1.6825 F3500
X325.267 Y79.9518 Z-1.7532
X325.255 Y79.9316 Z-1.8203
X325.2357 Y79.8991 Z-1.8805
X325.21 Y79.8559 Z-1.9307
X325.1792 Y79.8041 Z-1.9686
X325.1449 Y79.7464 Z-1.992
X325.1088 Y79.6857 Z-2
G3 X324.8875 Y78.9321 I1.3603 J-0.8088
G1 Y77.7592
X324.895 Y77.6094
X324.9183 Y77.4612
X324.955 Y77.3157
X325.0103 Y77.1566
X325.0817 Y76.9943
X325.1795 Y76.813
X325.3075 Y76.6156
X325.4637 Y76.4125
X325.6696 Y76.185
X325.9086 Y75.9604
X326.2201 Y75.7115
X326.5856 Y75.4647
X327.0753 Y75.1884
X327.745 Y74.8787
X328.3713 Y74.4886
X328.8524 Y73.9292
X329.1898 Y73.2731
X329.4136 Y72.5701
X329.557 Y71.8463
X329.6471 Y71.114
X329.7031 Y70.3783
X329.7376 Y69.6413
X329.7588 Y68.9038
X329.7717 Y68.1661
X329.7795 Y67.4283
X329.7843 Y66.6905
X329.7872 Y65.9527
X329.79 Y64.4771
X329.7915 Y60.788
X329.7916 Y29.7998
Y18.7326
X329.7521 Y18.3658
X329.6357 Y18.0157
X329.4448 Y17.7001
X328.9478 Y17.1548
X328.3067 Y16.7895
X327.6058 Y16.5589
X326.8817 Y16.4177
X326.1488 Y16.3327
X325.4127 Y16.2819
X324.6755 Y16.2518
X323.9379 Y16.234
X323.2002 Y16.2235
X322.4624 Y16.2173
X321.7245 Y16.2136
X320.2489 Y16.2102
X317.2977 Y16.2086
X291.4742 Y16.2084
X241.3027
X191.1313
X140.9599
X90.7884
X40.617
X18.4826 Y16.2086
X18.1271 Y16.3074
X17.8014 Y16.4806
X17.2286 Y16.9456
X16.8401 Y17.5729
X16.5921 Y18.2678
X16.4388 Y18.9895
X16.3458 Y19.7214
X16.29 Y20.4571
X16.2567 Y21.1942
X16.2369 Y21.9317
X16.2252 Y22.6695
X16.2183 Y23.4073
X16.2142 Y24.1451
X16.2104 Y25.6207
X16.2086 Y28.5719
X16.2084 Y43.3282
Y71.3652
X16.2667 Y71.7295
X16.3938 Y72.0758
X16.7806 Y72.7041
X17.3518 Y73.1712
X18.0073 Y73.5097
X18.6981 Y73.769
X19.4008 Y73.9939
X20.1018 Y74.2241
X20.4853 Y74.384
X20.735 Y74.5125
X20.7625 Y74.5297
X20.908 Y74.6479
X21.0191 Y74.7989
X21.0888 Y74.973
X21.1125 Y75.159
Y76.4644
G3 X20.5392 Y76.6411 I-0.3173 J-0.0111
G1 X20.4974 Y76.5841 Z-1.992
X20.4577 Y76.53 Z-1.9686
X20.4221 Y76.4815 Z-1.9307
X20.3924 Y76.441 Z-1.8805
X20.37 Y76.4105 Z-1.8203
X20.3561 Y76.3915 Z-1.7531
X20.3514 Y76.3851 Z-1.6825
G0 Z5
X325.2711 Y78.7856
Z-1.365
G1 Z-1.6825 F3500
X325.267 Y78.7788 Z-1.7532
X325.255 Y78.7586 Z-1.8203
X325.2357 Y78.7261 Z-1.8805
X325.21 Y78.6829 Z-1.9307
X325.1792 Y78.6311 Z-1.9686
X325.1449 Y78.5735 Z-1.992
X325.1088 Y78.5127 Z-2
G3 X324.8875 Y77.7592 I1.3603 J-0.8088
G1 Y76.5862
X324.8957 Y76.4232
X324.9152 Y76.2744
X324.9492 Y76.1283
X325.0005 Y75.9709
X325.0665 Y75.8126
X325.1623 Y75.6268
X325.2767 Y75.4426
X325.4317 Y75.2329
X325.6232 Y75.013
X325.8627 Y74.7791
X326.4301 Y74.3075
X327.0141 Y73.8565
X327.4924 Y73.2947
X327.8432 Y72.6457
X328.0849 Y71.9485
X328.2449 Y71.2283
X328.3482 Y70.4977
X328.4137 Y69.7628
X328.4549 Y69.0262
X328.4805 Y68.2888
X328.4964 Y67.5512
X328.5062 Y66.8134
X328.5122 Y66.0756
X328.5159 Y65.3378
X328.5195 Y63.8622
X328.5213 Y60.9109
X328.5216 Y27.7093
Y20.3311
X328.5206 Y19.9622
X328.4702 Y19.5967
X328.3447 Y19.2498
X328.1461 Y18.9389
X327.6387 Y18.4033
X326.9931 Y18.0461
X326.2906 Y17.8207
X325.5658 Y17.6828
X324.8326 Y17.5997
X324.0965 Y17.5501
X323.3593 Y17.5207
X322.6217 Y17.5034
X321.8839 Y17.4931
X321.1461 Y17.487
X320.4083 Y17.4835
X318.9327 Y17.4801
X315.2436 Y17.4785
X287.2067 Y17.4784
X237.0352
X186.8638
X136.6924
X86.5209
X36.3495
X20.1176
X19.7494 Y17.5008
X19.3921 Y17.5926
X19.0652 Y17.7636
X18.4936 Y18.2301
X18.1058 Y18.8578
X17.8587 Y19.553
X17.7064 Y20.275
X17.6142 Y21.007
X17.5589 Y21.7427
X17.526 Y22.4798
X17.5065 Y23.2174
X17.495 Y23.9551
X17.4882 Y24.6929
X17.4842 Y25.4307
X17.4804 Y26.9063
X17.4786 Y29.8576
X17.4784 Y50.5164
Y69.6996
X17.4796 Y70.4374
X17.585 Y70.7909
X17.9268 Y71.4448
X18.4616 Y71.9531
X19.0885 Y72.3421
X19.7541 Y72.6604
X20.4252 Y72.9671
X20.733 Y73.1373
X20.7809 Y73.1691
X20.9192 Y73.2875
X21.0244 Y73.4361
X21.0901 Y73.6059
X21.1125 Y73.7866
Y75.159
G3 X20.5392 Y75.3357 I-0.3173 J-0.0111
G1 X20.4974 Y75.2788 Z-1.992
X20.4577 Y75.2247 Z-1.9686
X20.4221 Y75.1761 Z-1.9307
X20.3924 Y75.1356 Z-1.8805
X20.37 Y75.1051 Z-1.8203
X20.3561 Y75.0862 Z-1.7532
X20.3514 Y75.0797 Z-1.6825
G0 Z5
X325.2711 Y77.6127
Z-1.365
G1 Z-1.6825 F3500
X325.267 Y77.6058 Z-1.7532
X325.255 Y77.5857 Z-1.8203
X325.2357 Y77.5531 Z-1.8805
X325.21 Y77.5099 Z-1.9307
X325.1792 Y77.4582 Z-1.9686
X325.1449 Y77.4005 Z-1.992
X325.1088 Y77.3398 Z-2
G3 X324.8875 Y76.5862 I1.3603 J-0.8088
G1 Y75.3211
X324.895 Y75.1713
X324.9176 Y75.023
X324.9553 Y74.8749
X325.0154 Y74.6991
X325.1019 Y74.5
X325.2239 Y74.2713
X325.6224 Y73.6504
X326.055 Y73.0527
X326.4187 Y72.4107
X326.69 Y71.7246
X326.8811 Y71.012
X327.0111 Y70.2857
X327.0974 Y69.5529
X327.1536 Y68.8173
X327.1898 Y68.0804
X327.2129 Y67.3429
X327.2274 Y66.6052
X327.2366 Y65.8675
X327.2423 Y65.1297
X327.2459 Y64.3919
X327.2495 Y62.9162
X327.2513 Y59.965
X327.2516 Y25.2877
Y21.5986
X327.2505 Y21.2297
X327.1978 Y20.8646
X327.071 Y20.5181
X326.8713 Y20.208
X326.3629 Y19.6733
X325.7171 Y19.3165
X325.0145 Y19.0913
X324.7669 Y19.0442
X324.6097 Y18.9956
X324.4671 Y18.9136
X324.3462 Y18.8021
X324.3234 Y18.7759
X324.1419 Y18.6083
X324.0276 Y18.5143
X323.8599 Y18.4048
X323.6923 Y18.3174
X323.6012 Y18.2732
X323.3571 Y18.1891
X323.1895 Y18.1528
X323.0218 Y18.1338
X322.6866 Y18.1168
X322.519 Y18.1125
X23.481
X23.3134 Y18.1168
X22.9782 Y18.1338
X22.8106 Y18.1528
X22.6429 Y18.1891
X22.3988 Y18.2732
X22.1249 Y18.3682
X21.6747 Y18.4849
X20.948 Y18.6122
X20.6025 Y18.7416
X20.2886 Y18.9353
X19.7393 Y19.4279
X19.365 Y20.0638
X19.1248 Y20.7614
X18.9755 Y21.4839
X18.8844 Y22.2161
X18.8295 Y22.9519
X18.7966 Y23.6889
X18.777 Y24.4265
X18.7653 Y25.1642
X18.7584 Y25.902
X18.7543 Y26.6398
X18.7505 Y28.1154
X18.7486 Y31.0667
X18.7484 Y66.4818
Y68.6953
X18.7604 Y69.433
X19.0129 Y70.1262
X19.4782 Y70.6988
X20.0512 Y71.1637
X20.6657 Y71.572
X20.8096 Y71.6775
X20.9722 Y71.8412
X21.0766 Y72.047
X21.1125 Y72.275
Y73.7866
G3 X20.5392 Y73.9633 I-0.3173 J-0.0111
G1 X20.4974 Y73.9063 Z-1.992
X20.4577 Y73.8522 Z-1.9686
X20.4221 Y73.8037 Z-1.9307
X20.3924 Y73.7632 Z-1.8805
X20.37 Y73.7327 Z-1.8203
X20.3561 Y73.7137 Z-1.7531
X20.3514 Y73.7073 Z-1.6825
G0 Z5
X23.1552 Y17.4803
Z-1.365
G1 Z-1.6825 F3500
X23.1508 Y17.487 Z-1.7532
X23.1379 Y17.5066 Z-1.8203
X23.1171 Y17.5382 Z-1.8805
X23.0894 Y17.5801 Z-1.9307
X23.0563 Y17.6304 Z-1.9686
X23.0193 Y17.6864 Z-1.992
X22.9804 Y17.7454 Z-2
G3 X22.3988 Y18.2732 I-1.3211 J-0.8714
G1 X22.3077 Y18.3174
X22.1401 Y18.4028
X22.0775 Y18.4408
X21.9724 Y18.5116
X21.8581 Y18.6083
X21.6766 Y18.7759
X21.6372 Y18.818
X21.5333 Y18.9435
X21.4696 Y19.0324
X21.4204 Y19.111
X21.3285 Y19.2786
X20.9713 Y19.9242
X20.6587 Y20.5925
X20.4351 Y21.2956
X20.2836 Y22.0177
X20.1846 Y22.7489
X20.1214 Y23.484
X20.0817 Y24.2207
X20.0571 Y24.9581
X20.0419 Y25.6958
X20.0326 Y26.4335
X20.027 Y27.1713
X20.0235 Y27.9091
X20.0202 Y29.3847
X20.0186 Y32.336
X20.0184 Y67.7511
X20.0483 Y68.4883
X20.3187 Y69.1748
X20.7627 Y69.7641
X20.9122 Y69.9235
X21.0211 Y70.0736
X21.0893 Y70.2461
X21.1125 Y70.4301
Y72.275
G3 X20.5392 Y72.4517 I-0.3173 J-0.0111
G1 X20.4974 Y72.3948 Z-1.992
X20.4577 Y72.3407 Z-1.9686
X20.4221 Y72.2921 Z-1.9307
X20.3924 Y72.2516 Z-1.8805
X20.37 Y72.2211 Z-1.8203
X20.3561 Y72.2022 Z-1.7531
X20.3514 Y72.1957 Z-1.6825
G0 Z5
X21.4355 Y18.188
Z-1.365
G1 Z-1.6825 F3500
X21.4361 Y18.196 Z-1.7532
X21.438 Y18.2194 Z-1.8203
X21.4411 Y18.2571 Z-1.8805
X21.4452 Y18.3072 Z-1.9307
X21.45 Y18.3672 Z-1.9686
X21.4555 Y18.4341 Z-1.992
X21.4612 Y18.5045 Z-2
G3 X21.3285 Y19.2786 I-1.5774 J0.1281
G1 X21.302 Y19.3329
X21.2534 Y19.4462
X21.2102 Y19.6137
X21.1334 Y19.9489
X21.1193 Y20.0327
X21.1147 Y20.1164
X21.1125 Y20.284
Y70.4301
G3 X20.5392 Y70.6069 I-0.3173 J-0.0111
G1 X20.4974 Y70.5499 Z-1.992
X20.4577 Y70.4958 Z-1.9686
X20.4221 Y70.4473 Z-1.9307
X20.3924 Y70.4067 Z-1.8805
X20.37 Y70.3762 Z-1.8203
X20.3561 Y70.3573 Z-1.7532
X20.3514 Y70.3509 Z-1.6825
G0 Z5
X325.2711 Y76.3476
Z-1.365
G1 Z-1.6825 F3500
X325.267 Y76.3407 Z-1.7532
X325.255 Y76.3205 Z-1.8203
X325.2357 Y76.288 Z-1.8805
X325.21 Y76.2448 Z-1.9307
X325.1792 Y76.1931 Z-1.9686
X325.1449 Y76.1354 Z-1.992
X325.1088 Y76.0747 Z-2
G3 X324.8875 Y75.3211 I1.3603 J-0.8088
G1 Y73.9052
X324.9001 Y73.6529
X324.9378 Y73.3653
X325.0922 Y72.6438
X325.2993 Y71.9356
X325.4865 Y71.2219
X325.6353 Y70.4993
X325.7457 Y69.7698
X325.824 Y69.0361
X325.8778 Y68.3003
X325.9141 Y67.5634
X325.9381 Y66.8259
X325.9538 Y66.0883
X325.9639 Y65.3505
X325.9704 Y64.6128
X325.9746 Y63.875
X325.9789 Y62.3993
X325.981 Y60.1859
X325.9816 Y36.5758
Y23.2951
Y22.5573
X325.9379 Y22.191
X325.8216 Y21.8409
X325.4408 Y21.209
X325.159 Y20.9801
X325.0149 Y20.8237
X324.9211 Y20.6328
X324.8855 Y20.4231
X324.878 Y20.1164
X324.8702 Y19.9489
X324.8423 Y19.7813
X324.7989 Y19.6137
X324.744 Y19.4462
X324.698 Y19.3363
X324.6715 Y19.2786
X324.5796 Y19.111
X324.5304 Y19.0334
X324.4606 Y18.9435
X324.3628 Y18.8213
X324.3462 Y18.8021
G3 X324.6632 Y18.2928 I0.2469 J-0.1997
G1 X324.7321 Y18.3084 Z-1.992
X324.7975 Y18.3232 Z-1.9686
X324.8562 Y18.3365 Z-1.9307
X324.9053 Y18.3476 Z-1.8805
X324.9422 Y18.356 Z-1.8203
X324.965 Y18.3612 Z-1.7531
X324.9728 Y18.3629 Z-1.6825
G0 Z5
X325.2711 Y74.9316
Z-1.365
G1 Z-1.6825 F3500
X325.267 Y74.9248 Z-1.7532
X325.255 Y74.9046 Z-1.8203
X325.2357 Y74.8721 Z-1.8805
X325.21 Y74.8289 Z-1.9307
X325.1792 Y74.7771 Z-1.9686
X325.1449 Y74.7194 Z-1.992
X325.1088 Y74.6587 Z-2
G3 X324.8875 Y73.9052 I1.3603 J-0.8088
G1 Y20.6191
X324.8855 Y20.4231
G3 X325.1755 Y20.1101 I0.3175 J0.0034
G1 X325.203 Y20.1089 Z-1.9988
X325.2566 Y20.1226 Z-1.9887
X325.3077 Y20.1356 Z-1.9689
X325.3546 Y20.1475 Z-1.9401
X325.3888 Y20.1766 Z-1.9005
X325.4167 Y20.2004 Z-1.8532
X325.4373 Y20.218 Z-1.7999
X325.45 Y20.2288 Z-1.7425
X325.4543 Y20.2325 Z-1.6829
G0 Z5
X196.7751 Y42.2772
Z2.5
G3 X196.9465 Y42.4765 Z2.1783 I1.2249 J-0.8799 F1200
X197.1499 Y42.6431 Z1.8566 I1.0535 J-1.0792
X197.3792 Y42.7717 Z1.5349 I0.8501 J-1.2457
X197.6273 Y42.8587 Z1.2132 I0.6208 J-1.3744
X197.8867 Y42.9012 Z0.8914 I0.3727 J-1.4613
X198.1495 Y42.898 Z0.5697 I0.1133 J-1.5039
X198.4079 Y42.8493 Z0.248 I-0.1495 J-1.5007
X198.6538 Y42.7564 Z-0.0737 I-0.4079 J-1.4519
X198.8799 Y42.6222 Z-0.3954 I-0.6538 J-1.359
X199.0792 Y42.4508 Z-0.7171 I-0.8799 J-1.2249
X199.2457 Y42.2474 Z-1.0388 I-1.0792 J-1.0535
X199.3744 Y42.0182 Z-1.3605 I-1.2457 J-0.8501
X199.4613 Y41.7701 Z-1.6822 I-1.3744 J-0.6208
X199.5081 Y41.3973 Z-2 I-1.4613 J-0.3727
X196.4919 I-1.5081
X199.5081 I1.5081
G1 X199.5274 Y42.1349 F3500
X199.5493 Y42.2245
X199.5646 Y42.3737
X199.5521 Y42.5232
X199.5166 Y42.6689
X199.4616 Y42.8085
X199.3902 Y42.9404
X199.3044 Y43.0634
X199.2063 Y43.1769
X199.0975 Y43.2802
X198.9797 Y43.373
X198.8541 Y43.4551
X198.722 Y43.5261
X198.5835 Y43.5865
X198.4368 Y43.6369
X198.2828 Y43.6762
X198.1227 Y43.7037
X197.9577 Y43.7186
X197.7891 Y43.7201
X197.6182 Y43.708
X197.4463 Y43.6818
X197.2749 Y43.6414
X197.1054 Y43.5867
X196.9391 Y43.5179
X196.7775 Y43.4352
X196.6217 Y43.3391
X196.4731 Y43.23
X196.3329 Y43.1085
X196.2022 Y42.9755
X196.0819 Y42.8317
X195.9732 Y42.6781
X195.8767 Y42.5156
X195.7933 Y42.3454
X195.7237 Y42.1685
X195.6683 Y41.9861
X195.6277 Y41.7994
X195.6021 Y41.6098
X195.5919 Y41.4183
X195.597 Y41.2264
X195.6175 Y41.0352
X195.6534 Y40.8461
X195.7043 Y40.6603
X195.7701 Y40.4791
X195.8503 Y40.3035
X195.9443 Y40.1349
X196.0517 Y39.9742
X196.1716 Y39.8226
X196.3034 Y39.6811
X196.4462 Y39.5505
X196.599 Y39.4318
X196.761 Y39.3257
X196.9309 Y39.233
X197.1078 Y39.1541
X197.2905 Y39.0897
X197.4778 Y39.0401
X197.6685 Y39.0058
X197.8614 Y38.9868
X198.0552 Y38.9834
X198.2487 Y38.9956
X198.4406 Y39.0232
X198.6296 Y39.0662
X198.8146 Y39.1242
X198.9944 Y39.1968
X199.1678 Y39.2837
X199.3336 Y39.3842
X199.4909 Y39.4977
X199.6385 Y39.6234
X199.7756 Y39.7606
X199.9012 Y39.9084
X200.0146 Y40.0657
X200.119 Y40.2384
X200.2302 Y40.4608
X200.3772 Y40.8253
X200.4844 Y41.1684
X200.5483 Y41.4508
X200.5849 Y41.7065
X200.5996 Y41.9436
X200.5955 Y42.1668
X200.5744 Y42.3799
X200.5369 Y42.587
X200.4832 Y42.7894
X200.4135 Y42.9863
X200.3284 Y43.1767
X200.2284 Y43.3597
X200.1135 Y43.5347
X199.984 Y43.7012
X199.8399 Y43.8585
X199.6818 Y44.0055
X199.5103 Y44.1409
X199.3259 Y44.2639
X199.1293 Y44.3733
X198.9214 Y44.468
X198.7035 Y44.5469
X198.4768 Y44.6089
X198.2428 Y44.653
X198.003 Y44.6786
X197.7591 Y44.6849
X197.5128 Y44.6714
X197.2658 Y44.6379
X197.02 Y44.5842
X196.7774 Y44.5103
X196.5396 Y44.4165
X196.3086 Y44.3031
X196.0859 Y44.1707
X195.8732 Y44.0198
X195.6722 Y43.8515
X195.4844 Y43.6665
X195.3112 Y43.4662
X195.154 Y43.2517
X195.0139 Y43.0244
X194.8921 Y42.7857
X194.7896 Y42.5373
X194.7071 Y42.2807
X194.6452 Y42.0176
X194.6047 Y41.7499
X194.5856 Y41.4792
X194.5884 Y41.2073
X194.6131 Y40.9362
X194.6594 Y40.6675
X194.7273 Y40.4031
X194.8163 Y40.1448
X194.9258 Y39.8941
X195.0551 Y39.6529
X195.2036 Y39.4227
X195.3701 Y39.205
X195.5537 Y39.0012
X195.7531 Y38.8127
X195.9671 Y38.6408
X196.1943 Y38.4866
X196.4332 Y38.351
X196.6823 Y38.235
X196.9399 Y38.1394
X197.2045 Y38.0647
X197.4742 Y38.0115
X197.7474 Y37.9801
X198.0223 Y37.9708
X198.2971 Y37.9835
X198.57 Y38.0182
X198.8392 Y38.0748
X199.1031 Y38.1527
X199.3598 Y38.2517
X199.6079 Y38.3708
X199.8455 Y38.5096
X200.0713 Y38.6669
X200.2849 Y38.8429
X200.4913 Y39.0428
X200.7055 Y39.2864
X200.9074 Y39.5572
X201.0937 Y39.8541
X201.2584 Y40.1704
X201.3958 Y40.4956
X201.5037 Y40.8219
X201.5826 Y41.1456
X201.6338 Y41.4656
X201.6586 Y41.782
X201.658 Y42.0945
X201.6326 Y42.4021
X201.5831 Y42.7034
X201.5102 Y42.9974
X201.4145 Y43.2829
X201.2966 Y43.559
X201.157 Y43.8245
X200.9964 Y44.0782
X200.8154 Y44.3189
X200.6147 Y44.5453
X200.3953 Y44.7562
X200.1579 Y44.9501
X199.9039 Y45.1256
X199.6343 Y45.2815
X199.3507 Y45.4165
X199.0546 Y45.5292
X198.7477 Y45.6185
X198.4319 Y45.6835
X198.1093 Y45.7232
X197.7821 Y45.7371
X197.4525 Y45.7245
X197.1226 Y45.6853
X196.7947 Y45.6192
X196.471 Y45.5265
X196.1539 Y45.4073
X195.8456 Y45.2623
X195.5482 Y45.092
X195.264 Y44.8973
X194.9951 Y44.6795
X194.7433 Y44.4397
X194.5107 Y44.1793
X194.2989 Y43.9001
X194.1095 Y43.6038
X193.944 Y43.2922
X193.8036 Y42.9673
X193.6894 Y42.6314
X193.6024 Y42.2865
X193.5432 Y41.9351
X193.5123 Y41.5794
X193.5101 Y41.2218
X193.5366 Y40.8646
X193.5918 Y40.5102
X193.6753 Y40.161
X193.7867 Y39.8193
X193.9253 Y39.4874
X194.0902 Y39.1674
X194.2804 Y38.8614
X194.4947 Y38.5715
X194.7316 Y38.2997
X194.9898 Y38.0475
X195.2674 Y37.8169
X195.5628 Y37.6091
X195.874 Y37.4257
X196.199 Y37.2678
X196.5357 Y37.1365
X196.882 Y37.0326
X197.2355 Y36.9568
X197.594 Y36.9096
X197.9552 Y36.8914
X198.3168 Y36.9022
X198.6764 Y36.942
X199.0316 Y37.0105
X199.3802 Y37.1073
X199.72 Y37.2318
X200.049 Y37.3833
X200.3673 Y37.5621
X200.6795 Y37.7722
X200.9831 Y38.014
X201.2752 Y38.2877
X201.5516 Y38.5919
X201.8073 Y38.9233
X202.0375 Y39.277
X202.2386 Y39.6482
X202.4084 Y40.0324
X202.5457 Y40.4259
X202.6501 Y40.8256
X202.7214 Y41.2286
X202.7598 Y41.6325
X202.7656 Y42.0347
X202.7393 Y42.433
X202.6815 Y42.8253
X202.5929 Y43.2098
X202.4741 Y43.5845
X202.326 Y43.9476
X202.1494 Y44.2973
X201.9453 Y44.6318
X201.7146 Y44.9494
X201.4584 Y45.2482
X201.1781 Y45.5265
X200.875 Y45.7826
X200.5507 Y46.0147
X200.2069 Y46.2211
X199.8456 Y46.4003
X199.4687 Y46.5509
X199.0786 Y46.6715
X198.6776 Y46.7609
X198.2683 Y46.8182
X197.8533 Y46.8426
X197.4352 Y46.8336
X197.0169 Y46.7908
X196.601 Y46.7141
X196.1906 Y46.6037
X195.7883 Y46.4601
X195.3969 Y46.2837
X195.0192 Y46.0756
X194.658 Y45.8368
X194.3156 Y45.5688
X193.9947 Y45.273
X193.6975 Y44.9512
X193.4263 Y44.6056
X193.1829 Y44.2382
X192.9692 Y43.8514
X192.7868 Y43.4477
X192.6371 Y43.0297
X192.5211 Y42.6002
X192.4398 Y42.1618
X192.3939 Y41.7176
X192.3837 Y41.2705
X192.4096 Y40.8234
X192.4713 Y40.3792
X192.5685 Y39.9409
X192.7007 Y39.5115
X192.8672 Y39.0936
X193.0667 Y38.6902
X193.2982 Y38.3038
X193.5601 Y37.9371
X193.8507 Y37.5923
X194.1682 Y37.2718
X194.5106 Y36.9778
X194.8755 Y36.712
X195.2608 Y36.4763
X195.6638 Y36.2723
X196.082 Y36.1012
X196.5127 Y35.9642
X196.953 Y35.8622
X197.4003 Y35.7959
X197.8514 Y35.7656
X198.3036 Y35.7717
X198.7539 Y35.814
X199.1994 Y35.8923
X199.6378 Y36.0063
X200.0679 Y36.1559
X200.4884 Y36.3413
X200.8977 Y36.5625
X201.2934 Y36.8193
X201.6745 Y37.1127
X202.0375 Y37.4419
X202.3781 Y37.8045
X202.6916 Y38.1974
X202.9743 Y38.6165
X203.2229 Y39.0579
X203.4351 Y39.5174
X203.6091 Y39.991
X203.7441 Y40.4749
X203.8392 Y40.9655
X203.8944 Y41.4594
X203.9097 Y41.9535
X203.8854 Y42.4446
X203.822 Y42.93
X203.7203 Y43.407
X203.581 Y43.873
X203.4051 Y44.3254
X203.1936 Y44.7618
X202.9478 Y45.1799
X202.669 Y45.5773
X202.3586 Y45.9517
X202.0183 Y46.3009
X201.6499 Y46.6227
X201.2553 Y46.9149
X200.8369 Y47.1757
X200.3969 Y47.403
X199.938 Y47.5951
X199.4629 Y47.7506
X198.9745 Y47.868
X198.4758 Y47.9461
X197.9701 Y47.9842
X197.4605 Y47.9816
X196.9504 Y47.9379
X196.4432 Y47.853
X195.9423 Y47.7271
X195.451 Y47.5607
X194.9727 Y47.3546
X194.5108 Y47.1099
X194.0684 Y46.8278
X193.6486 Y46.5101
X193.2545 Y46.1586
X192.8887 Y45.7755
X192.5539 Y45.363
X192.2525 Y44.924
X191.9868 Y44.461
X191.7585 Y43.9772
X191.5694 Y43.4755
X191.4209 Y42.9594
X191.3141 Y42.4321
X191.2499 Y41.8972
X191.2288 Y41.3581
X191.2511 Y40.8184
X191.3167 Y40.2816
X191.4252 Y39.7512
X191.5761 Y39.2309
X191.7684 Y38.7239
X192.001 Y38.2336
X192.2724 Y37.7633
X192.5807 Y37.316
X192.9242 Y36.8948
X193.3005 Y36.5022
X193.7072 Y36.141
X194.1418 Y35.8135
X194.6014 Y35.5219
X195.083 Y35.268
X195.5836 Y35.0535
X196.0999 Y34.8799
X196.6286 Y34.7482
X197.1661 Y34.6594
X197.7092 Y34.614
X198.2542 Y34.6124
X198.7979 Y34.6545
X199.3373 Y34.7402
X199.87 Y34.8694
X200.3937 Y35.042
X200.9056 Y35.2576
X201.4038 Y35.5163
X201.8855 Y35.8179
X202.3471 Y36.1613
X202.7846 Y36.5451
X203.1937 Y36.9666
X203.5702 Y37.4228
X203.9105 Y37.9099
X204.2113 Y38.4239
X204.4699 Y38.9606
X204.6844 Y39.5158
X204.8533 Y40.0851
X204.9756 Y40.6644
X205.0507 Y41.2497
X205.0785 Y41.837
X205.0592 Y42.4226
X204.9931 Y43.0029
X204.881 Y43.5745
X204.7237 Y44.1342
X204.5223 Y44.6786
X204.278 Y45.2047
X203.9923 Y45.7094
X203.6668 Y46.19
X203.3033 Y46.6434
X202.9038 Y47.067
X202.4706 Y47.4582
X202.006 Y47.8143
X201.5128 Y48.133
X200.9938 Y48.412
X200.4521 Y48.6494
X199.891 Y48.8433
X199.3138 Y48.9921
X198.7242 Y49.0945
X198.1259 Y49.1495
X197.5227 Y49.1563
X196.9186 Y49.1145
X196.3175 Y49.024
X195.7234 Y48.885
X195.1403 Y48.6982
X194.5721 Y48.4644
X194.0227 Y48.1847
X193.4958 Y47.8609
X192.9952 Y47.4948
X192.5243 Y47.0885
X192.0863 Y46.6446
X191.6844 Y46.1658
X191.3214 Y45.6551
X190.9998 Y45.1158
X190.7221 Y44.5513
X190.4901 Y43.9653
X190.3056 Y43.3616
X190.1699 Y42.744
X190.0841 Y42.1167
X190.0489 Y41.4838
X190.0646 Y40.8494
X190.1313 Y40.2176
X190.2486 Y39.5926
X190.4157 Y38.9786
X190.6318 Y38.3795
X190.8954 Y37.7993
X191.2049 Y37.2418
X191.5584 Y36.7106
X191.9535 Y36.2094
X192.3878 Y35.7412
X192.8584 Y35.3093
X193.3623 Y34.9163
X193.8963 Y34.565
X194.4569 Y34.2577
X195.0405 Y33.9962
X195.6432 Y33.7824
X196.2614 Y33.6176
X196.8908 Y33.5029
X197.5276 Y33.4391
X198.1678 Y33.4266
X198.8079 Y33.4656
X199.4444 Y33.5561
X200.0739 Y33.6978
X200.6934 Y33.8907
X201.2997 Y34.1344
X201.8891 Y34.4284
X202.4578 Y34.7715
X203.0015 Y35.1623
X203.5161 Y35.5989
X203.9973 Y36.0786
X204.4409 Y36.5984
X204.8432 Y37.1546
X205.2005 Y37.7428
X205.5098 Y38.3586
X205.7687 Y38.9973
X205.9753 Y39.6539
X206.1283 Y40.3238
X206.2268 Y41.0022
X206.2704 Y41.6846
X206.2591 Y42.3665
X206.1932 Y43.0438
X206.0735 Y43.7121
X205.9008 Y44.3677
X205.6763 Y45.0066
X205.4015 Y45.625
X205.0779 Y46.2193
X204.7074 Y46.786
X204.2923 Y47.3217
X203.8349 Y47.823
X203.3378 Y48.2869
X202.8038 Y48.7103
X202.2362 Y49.0904
X201.6382 Y49.4248
X201.0135 Y49.7109
X200.3658 Y49.9466
X199.6991 Y50.1303
X199.0175 Y50.2602
X198.3253 Y50.3353
X197.627 Y50.3547
X196.9271 Y50.3178
X196.23 Y50.2246
X195.5405 Y50.0753
X194.863 Y49.8704
X194.2022 Y49.6111
X193.5624 Y49.2986
X192.948 Y48.9348
X192.3633 Y48.5217
X191.8122 Y48.0619
X191.2986 Y47.5582
X190.826 Y47.0136
X190.3978 Y46.4318
X190.017 Y45.8163
X189.6862 Y45.171
X189.4078 Y44.5003
X189.1839 Y43.8083
X189.0159 Y43.0996
X188.9052 Y42.3789
X188.8527 Y41.6508
X188.8588 Y40.92
X188.9236 Y40.1914
X189.0467 Y39.4698
X189.2275 Y38.7599
X189.4648 Y38.0662
X189.7572 Y37.3935
X190.1029 Y36.7461
X190.4996 Y36.1282
X190.9448 Y35.5438
X191.4356 Y34.9969
X191.9689 Y34.491
X192.5413 Y34.0294
X193.1491 Y33.6151
X193.7882 Y33.2508
X194.4547 Y32.9389
X195.1442 Y32.6815
X195.8523 Y32.4802
X196.5743 Y32.3363
X197.3058 Y32.2509
X198.0424 Y32.2244
X198.7794 Y32.2571
X199.5115 Y32.3489
X200.2339 Y32.4989
X200.942 Y32.7061
X201.6315 Y32.9689
X202.2981 Y33.2852
X202.9378 Y33.6527
X203.547 Y34.0689
X204.1223 Y34.5309
X204.6604 Y35.0357
X205.1586 Y35.58
X205.614 Y36.1605
X206.0243 Y36.7737
X206.3873 Y37.416
X206.7009 Y38.0838
X206.9636 Y38.7733
X207.1736 Y39.4806
X207.3298 Y40.2017
X207.431 Y40.9326
X207.4764 Y41.669
X207.465 Y42.4067
X207.3968 Y43.1414
X207.2724 Y43.8686
X207.0928 Y44.5842
X206.8589 Y45.284
X206.5722 Y45.9638
X206.2345 Y46.6198
X205.8476 Y47.248
X205.4139 Y47.8449
X204.9359 Y48.407
X204.4165 Y48.931
X203.8587 Y49.414
X203.2659 Y49.8532
X202.6416 Y50.2464
X201.9893 Y50.5913
X201.313 Y50.8861
X200.6164 Y51.1294
X199.9036 Y51.3199
X199.1785 Y51.4561
X198.4451 Y51.5367
X197.7077 Y51.5615
X196.9705 Y51.5309
X196.2376 Y51.4457
X195.513 Y51.3068
X194.8006 Y51.115
X194.104 Y50.8717
X193.4271 Y50.5782
X192.7732 Y50.2365
X192.1457 Y49.8483
X191.5479 Y49.4159
X190.9833 Y48.9409
X190.456 Y48.4249
X189.9681 Y47.8714
X189.5218 Y47.2839
X189.1188 Y46.6658
X188.7611 Y46.0205
X188.4503 Y45.3514
X188.1879 Y44.6618
X187.975 Y43.9554
X187.8126 Y43.2356
X187.7032 Y42.506
X187.6483 Y41.7702
X187.6468 Y41.0324
X187.6981 Y40.2964
X187.8014 Y39.5658
X187.9561 Y38.8444
X188.1611 Y38.1357
X188.4155 Y37.4431
X188.7179 Y36.7701
X189.0681 Y36.1207
X189.4655 Y35.499
X189.9067 Y34.9077
X190.3889 Y34.3492
X190.9093 Y33.8262
X191.4651 Y33.341
X192.0536 Y32.896
X192.6718 Y32.4933
X193.3168 Y32.1349
X193.9861 Y31.8244
X194.6764 Y31.564
X195.3837 Y31.3539
X196.104 Y31.1944
X196.8339 Y31.0861
X197.5695 Y31.0291
X198.3073 Y31.0237
X199.0437 Y31.0697
X199.775 Y31.1674
X200.4972 Y31.3185
X201.2065 Y31.5213
X201.8998 Y31.7738
X202.5739 Y32.0738
X203.2257 Y32.4194
X203.8525 Y32.8087
X204.4514 Y33.2397
X205.0199 Y33.71
X205.5551 Y34.2178
X206.0533 Y34.762
X206.5128 Y35.3393
X206.9322 Y35.9463
X207.3103 Y36.5799
X207.6454 Y37.2372
X207.9364 Y37.9152
X208.1821 Y38.6109
X208.3812 Y39.3213
X208.5326 Y40.0435
X208.6331 Y40.7744
X208.6826 Y41.5106
X208.6817 Y42.2484
X208.6307 Y42.9844
X208.5302 Y43.7154
X208.3809 Y44.4379
X208.1835 Y45.1488
X207.939 Y45.845
X207.648 Y46.523
X207.31 Y47.1788
X206.9271 Y47.8095
X206.5023 Y48.4127
X206.0377 Y48.9859
X205.5357 Y49.5266
X204.9988 Y50.0327
X204.4294 Y50.5019
X203.8301 Y50.9322
X203.2033 Y51.3214
X202.5509 Y51.6661
X201.8764 Y51.9652
X201.1834 Y52.2184
X200.4751 Y52.4249
X199.7546 Y52.5839
X199.0251 Y52.6946
X198.2899 Y52.7567
X197.5523 Y52.7701
X196.8153 Y52.7348
X196.0825 Y52.6491
X195.3571 Y52.5142
X194.6422 Y52.3317
X193.9407 Y52.103
X193.2554 Y51.8296
X192.5892 Y51.5127
X191.9445 Y51.1538
X191.324 Y50.7546
X190.7304 Y50.3164
X190.1676 Y49.8392
X189.6387 Y49.3248
X189.145 Y48.7766
X188.6879 Y48.1974
X188.2688 Y47.5902
X187.8892 Y46.9575
X187.5503 Y46.3021
X187.2533 Y45.6267
X186.9994 Y44.934
X186.7898 Y44.2266
X186.628 Y43.5067
X186.5144 Y42.7777
X186.4487 Y42.0428
X186.4305 Y41.3052
X186.4591 Y40.568
X186.5343 Y39.834
X186.6553 Y39.1062
X186.8215 Y38.3873
X187.0322 Y37.6802
X187.288 Y36.9882
X187.5889 Y36.3145
X187.9333 Y35.662
X188.3192 Y35.0331
X188.7445 Y34.4303
X189.2072 Y33.8555
X189.7049 Y33.3109
X190.2358 Y32.7985
X190.7975 Y32.3201
X191.3881 Y31.8779
X192.0062 Y31.4751
X192.6494 Y31.1135
X193.3147 Y30.7945
X193.9991 Y30.5189
X194.6997 Y30.2875
X195.4135 Y30.1007
X196.1375 Y29.959
X196.869 Y29.8626
X197.6051 Y29.8118
X198.3429 Y29.8081
X199.0794 Y29.8524
X199.8114 Y29.9443
X200.5361 Y30.0831
X201.2504 Y30.2678
X201.9518 Y30.4969
X202.6375 Y30.7691
X203.3052 Y31.083
X203.9526 Y31.437
X204.5772 Y31.8298
X205.1759 Y32.261
X205.7464 Y32.7288
X206.2865 Y33.2314
X206.7946 Y33.7665
X207.2689 Y34.3316
X207.7083 Y34.9243
X208.1113 Y35.5423
X208.4769 Y36.1832
X208.804 Y36.8445
X209.0914 Y37.5241
X209.3366 Y38.22
X209.5385 Y38.9296
X209.6964 Y39.6503
X209.8095 Y40.3794
X209.8778 Y41.1141
X209.9012 Y41.8515
X209.88 Y42.589
X209.8145 Y43.3239
X209.705 Y44.0536
X209.5519 Y44.7753
X209.3542 Y45.4862
X209.1127 Y46.1834
X208.8283 Y46.8642
X208.5023 Y47.526
X208.1363 Y48.1667
X207.732 Y48.7838
X207.2912 Y49.3755
X206.8157 Y49.9397
X206.3074 Y50.4745
X205.7681 Y50.9779
X205.1986 Y51.4471
X204.6013 Y51.8802
X203.9785 Y52.2757
X203.3326 Y52.6323
X202.6662 Y52.949
X201.982 Y53.2252
X201.2825 Y53.46
X200.5704 Y53.6528
X199.848 Y53.803
X199.118 Y53.9101
X198.3828 Y53.972
X197.6452 Y53.9889
X196.9079 Y53.9608
X196.1736 Y53.8882
X195.4451 Y53.7717
X194.7247 Y53.6123
X194.0149 Y53.411
X193.3179 Y53.1688
X192.6362 Y52.8868
X191.9717 Y52.566
X191.3274 Y52.2065
X190.7057 Y51.8092
X190.1088 Y51.3755
X189.5391 Y50.9066
X188.9985 Y50.4046
X188.4884 Y49.8715
X188.0103 Y49.3095
X187.5655 Y48.7209
X187.1552 Y48.1077
X186.7805 Y47.4721
X186.443 Y46.816
X186.1448 Y46.1411
X185.8864 Y45.45
X185.669 Y44.745
X185.4935 Y44.0283
X185.3605 Y43.3026
X185.27 Y42.5704
X185.2221 Y41.8341
X185.2164 Y41.0963
X185.2528 Y40.3594
X185.3309 Y39.6257
X185.4518 Y38.8979
X185.6149 Y38.1783
X185.8192 Y37.4693
X186.0644 Y36.7735
X186.3499 Y36.0931
X186.6745 Y35.4305
X187.0369 Y34.7879
X187.4356 Y34.1671
X187.8691 Y33.57
X188.3357 Y32.9985
X188.8344 Y32.4547
X189.3641 Y31.9411
X189.9225 Y31.4589
X190.5078 Y31.0097
X191.1182 Y30.5952
X191.7516 Y30.2168
X192.4058 Y29.8757
X193.0787 Y29.5729
X193.7677 Y29.3091
X194.4706 Y29.085
X195.1852 Y28.901
X195.9092 Y28.7591
X196.6402 Y28.6593
X197.3758 Y28.6018
X198.1134 Y28.5867
X198.8508 Y28.6144
X199.5852 Y28.6846
X200.3144 Y28.7969
X201.036 Y28.9507
X201.7478 Y29.1451
X202.4475 Y29.3792
X203.1328 Y29.6525
X203.8012 Y29.9649
X204.4509 Y30.3146
X205.0799 Y30.7003
X205.6862 Y31.1207
X206.2679 Y31.5746
X206.8233 Y32.0603
X207.3508 Y32.5761
X207.849 Y33.1203
X208.3166 Y33.691
X208.7525 Y34.2863
X209.155 Y34.9047
X209.5223 Y35.5446
X209.8539 Y36.2037
X210.149 Y36.8799
X210.4063 Y37.5714
X210.6252 Y38.276
X210.8048 Y38.9916
X210.9446 Y39.7161
X211.0443 Y40.4471
X211.1037 Y41.1826
X211.1125 Y41.5337
Y41.5649
X211.0756 Y42.3018
X211.0497 Y43.0391
X210.9749 Y43.7732
X210.8558 Y44.5013
X210.6945 Y45.2213
X210.4924 Y45.9309
X210.2499 Y46.6277
X209.9671 Y47.3091
X209.6458 Y47.9733
X209.2879 Y48.6185
X208.8949 Y49.2429
X208.4683 Y49.845
X208.0097 Y50.423
X207.5206 Y50.9753
X207.0022 Y51.5003
X206.4558 Y51.9962
X205.8829 Y52.4611
X205.2849 Y52.8932
X204.6629 Y53.29
X204.0195 Y53.6513
X203.3572 Y53.9764
X202.6782 Y54.265
X201.9845 Y54.5163
X201.2783 Y54.73
X200.5616 Y54.9054
X199.8366 Y55.042
X199.1051 Y55.1389
X198.3695 Y55.1956
X197.6319 Y55.2112
X196.8945 Y55.1848
X196.1598 Y55.1174
X195.4299 Y55.01
X194.7067 Y54.8634
X193.9924 Y54.6786
X193.2889 Y54.4563
X192.598 Y54.1974
X191.9217 Y53.9026
X191.2618 Y53.5724
X190.6205 Y53.2076
X189.9999 Y52.8086
X189.4027 Y52.3753
X188.8304 Y51.9097
X188.2843 Y51.4136
X187.7655 Y50.8889
X187.2754 Y50.3374
X186.8149 Y49.7609
X186.3851 Y49.1612
X185.987 Y48.54
X185.6219 Y47.8989
X185.291 Y47.2394
X184.9954 Y46.5634
X184.9344 Y46.4001
X184.9084 Y46.3158
X184.8927 Y46.2289
X184.8875 Y46.1408
Y37.7109
X184.9093 Y37.2754
X184.9617 Y36.8754
X185.0628 Y36.4028
X185.2276 Y35.8526
X185.4846 Y35.1927
X185.8067 Y34.5289
X186.1739 Y33.8889
X186.5792 Y33.2724
X187.0184 Y32.6795
X187.4891 Y32.1114
X187.9897 Y31.5693
X188.519 Y31.0553
X189.0754 Y30.5708
X189.657 Y30.1168
X190.2619 Y29.6943
X190.8881 Y29.3042
X191.534 Y28.9475
X192.1976 Y28.6249
X192.877 Y28.3373
X193.0291 Y28.2821
X193.1115 Y28.2574
X193.1963 Y28.2425
X193.2822 Y28.2375
X201.6634
X202.0533 Y28.257
X202.4527 Y28.3094
X202.9591 Y28.4177
X203.5265 Y28.5877
X204.2076 Y28.8529
X204.8714 Y29.175
X205.5123 Y29.5405
X206.1305 Y29.9433
X206.7256 Y30.3795
X207.2967 Y30.8465
X207.8429 Y31.3425
X208.3632 Y31.8657
X208.8565 Y32.4144
X209.3217 Y32.987
X209.7572 Y33.5826
X210.1609 Y34.2001
X210.5326 Y34.8375
X210.8715 Y35.4929
X211.046 Y35.8765
X211.0827 Y35.9752
X211.105 Y36.0782
X211.1125 Y36.1833
Y41.5337
G3 X210.4922 Y41.6292 I-0.3175
G1 X210.3155 Y41.0691
G3 X210.8912 Y40.8113 I0.3028 J-0.0955
X211.1125 Y41.5649 I-1.3603 J0.8088
G1 Y46.4243
X211.0932 Y46.8105
X211.0476 Y47.1583
X210.9655 Y47.5421
X210.8206 Y48.0257
X210.5938 Y48.608
X210.272 Y49.2712
X209.8977 Y49.907
X209.4821 Y50.5166
X209.0319 Y51.1011
X208.5508 Y51.6605
X208.0414 Y52.1942
X207.5054 Y52.7013
X206.9444 Y53.1805
X206.3596 Y53.6303
X205.7524 Y54.0496
X205.1246 Y54.4372
X204.478 Y54.7925
X203.8144 Y55.115
X203.1353 Y55.4035
X202.4424 Y55.6568
X201.7376 Y55.875
X201.0228 Y56.058
X200.2999 Y56.2054
X199.5705 Y56.3167
X198.8365 Y56.3914
X198.0996 Y56.429
X197.3618 Y56.4292
X196.6249 Y56.392
X195.8908 Y56.318
X195.1613 Y56.2077
X194.4382 Y56.0611
X193.7234 Y55.8783
X193.0185 Y55.6604
X192.325 Y55.4086
X191.6445 Y55.1234
X190.9786 Y54.8057
X190.3289 Y54.4559
X189.6974 Y54.0745
X189.0857 Y53.6619
X188.4954 Y53.2193
X187.9278 Y52.7479
X187.3842 Y52.249
X186.8658 Y51.724
X186.3745 Y51.1735
X185.9108 Y50.5996
X185.4755 Y50.0039
X185.0692 Y49.3881
X184.9911 Y49.2562
X184.9341 Y49.1371
X184.8992 Y49.0099
X184.8875 Y48.8784
Y46.1408
G3 X185.4608 Y45.964 I0.3173 J0.0111
G1 X185.5026 Y46.021 Z-1.992
X185.5423 Y46.0751 Z-1.9686
X185.5779 Y46.1236 Z-1.9307
X185.6076 Y46.1642 Z-1.8805
X185.63 Y46.1947 Z-1.8203
X185.6439 Y46.2136 Z-1.7532
X185.6486 Y46.22 Z-1.6825
G0 Z5
X200.6369 Y28.6211
Z-1.365
G1 Z-1.6825 F3500
X200.6438 Y28.617 Z-1.7532
X200.6639 Y28.605 Z-1.8203
X200.6965 Y28.5857 Z-1.8805
X200.7397 Y28.56 Z-1.9307
X200.7914 Y28.5292 Z-1.9686
X200.8491 Y28.4949 Z-1.992
X200.9098 Y28.4588 Z-2
G3 X201.6634 Y28.2375 I0.8088 J1.3603
G1 X204.3453
X204.6804 Y28.2543
X204.9322 Y28.2873
X205.2326 Y28.3515
X205.5936 Y28.4597
X206.0134 Y28.6232
X206.5079 Y28.8631
X207.1032 Y29.2135
X207.7069 Y29.6377
X208.28 Y30.1023
X208.8254 Y30.5992
X209.344 Y31.124
X209.8363 Y31.6736
X210.3016 Y32.2462
X210.7379 Y32.8412
X210.9896 Y33.2219
X211.057 Y33.3492
X211.0985 Y33.4871
X211.1125 Y33.6305
Y36.1833
G3 X210.5527 Y36.3771 I-0.3173 J-0.0111
G1 X210.5386 Y36.3605
X204.1623 Y28.817
X204.1139 Y28.7598
G3 X204.3453 Y28.2375 I0.2425 J-0.205
G1 X206.5244
X206.7475 Y28.2487
X206.9657 Y28.2773
X207.2078 Y28.3291
X207.4815 Y28.411
X207.8189 Y28.5424
X208.1837 Y28.7194
X208.6321 Y28.9834
X209.1638 Y29.357
X209.7316 Y29.8282
X210.2633 Y30.3397
X210.7637 Y30.8819
X210.9424 Y31.0979
X211.0352 Y31.2407
X211.0929 Y31.401
X211.1125 Y31.5702
G3 X210.6122 Y31.8186 I-0.3173 J-0.0111
G1 X210.5282 Y31.7594
X206.3525 Y28.8143
G3 X206.5244 Y28.2375 I0.183 J-0.2595
G1 X208.3683
X208.5952 Y28.2489
X208.7729 Y28.2722
X208.9881 Y28.3182
X209.2464 Y28.3956
X209.5096 Y28.4981
X209.8395 Y28.6582
X210.1948 Y28.8673
X210.6308 Y29.1736
X210.8448 Y29.3512
X210.9892 Y29.512
X211.081 Y29.7075
X211.1125 Y29.9213
G3 X210.6398 Y30.1871 I-0.3173 J-0.0111
G1 X210.5217 Y30.1208
X208.224 Y28.8317
G3 X208.3683 Y28.2375 I0.1553 J-0.2769
G1 X210.1367
X210.2865 Y28.245
X210.4357 Y28.2652
X210.5875 Y28.2985
X210.7987 Y28.4019
X210.9669 Y28.5662
X211.0752 Y28.775
X211.1125 Y29.0072
G3 X210.6164 Y29.2585 I-0.3173 J-0.0111
G1 X210.5273 Y29.1978
X209.9689 Y28.8172
G3 X210.1367 Y28.2375 I0.1788 J-0.2623
G1 X210.7988 Y28.2379
X210.8407 Y28.2428
X210.8826 Y28.2536
X210.9129 Y28.2654
X210.9432 Y28.2811
X210.9736 Y28.3012
X211.0039 Y28.3272
X211.0298 Y28.3555
X211.0502 Y28.3839
X211.0827 Y28.4393
X211.0941 Y28.467
X211.1025 Y28.4947
X211.1103 Y28.5366
X211.1125 Y28.5785
Y33.6305
G3 X210.5392 Y33.8072 I-0.3173 J-0.0111
G1 X210.4974 Y33.7503 Z-1.992
X210.4577 Y33.6962 Z-1.9686
X210.4221 Y33.6476 Z-1.9307
X210.3924 Y33.6071 Z-1.8805
X210.37 Y33.5766 Z-1.8203
X210.3561 Y33.5577 Z-1.7532
X210.3514 Y33.5512 Z-1.6825
G0 Z5
X185.2711 Y38.7374
Z-1.365
G1 Z-1.6825 F3500
X185.267 Y38.7305 Z-1.7532
X185.255 Y38.7103 Z-1.8203
X185.2357 Y38.6778 Z-1.8805
X185.21 Y38.6346 Z-1.9307
X185.1792 Y38.5829 Z-1.9686
X185.1449 Y38.5252 Z-1.992
X185.1088 Y38.4644 Z-2
G3 X184.8875 Y37.7109 I1.3603 J-0.8088
G1 Y35.0298
X184.9044 Y34.6913
X184.9366 Y34.446
X185 Y34.1494
X185.1058 Y33.7964
X185.2658 Y33.3855
X185.4995 Y32.9038
X185.8398 Y32.3257
X186.264 Y31.722
X186.7304 Y31.1504
X187.2309 Y30.6082
X187.7606 Y30.0947
X188.3165 Y29.6095
X188.8968 Y29.1538
X189.4994 Y28.7281
X190.0904 Y28.3529
X190.2146 Y28.2896
X190.3486 Y28.2506
X190.4875 Y28.2375
X193.2822
G3 X193.4696 Y28.8026 I-0.0111 J0.3173
G1 X193.4591 Y28.811
X185.4683 Y35.2144
X185.4033 Y35.2665
G3 X184.8875 Y35.0298 I-0.1985 J-0.2478
G1 Y32.8515
X184.8976 Y32.6491
X184.9262 Y32.4309
X184.9765 Y32.1956
X185.0577 Y31.9247
X185.1862 Y31.5946
X185.359 Y31.2387
X185.6147 Y30.8043
X185.9742 Y30.2926
X186.4454 Y29.7248
X186.9598 Y29.1959
X187.5072 Y28.7012
X187.8783 Y28.4017
X188.0196 Y28.3121
X188.1773 Y28.2564
X188.3435 Y28.2375
G3 X188.5889 Y28.742 I-0.0111 J0.3173
G1 X188.5314 Y28.8208
X185.4613 Y33.0275
G3 X184.8875 Y32.8515 I-0.2565 J-0.1872
G1 Y31.0082
X184.8967 Y30.8243
X184.92 Y30.6466
X184.966 Y30.4314
X185.0413 Y30.18
X185.142 Y29.9216
X185.299 Y29.598
X185.499 Y29.2583
X185.7931 Y28.8396
X186.0707 Y28.5052
X186.2314 Y28.3608
X186.427 Y28.269
X186.6407 Y28.2375
G3 X186.9039 Y28.7148 I-0.0111 J0.3173
G1 X186.8383 Y28.8272
X185.479 Y31.1571
G3 X184.8875 Y31.0082 I-0.2742 J-0.16
G1 Y29.3326
X184.8965 Y29.1534
X184.9185 Y28.9851
X184.9517 Y28.8298
X184.9709 Y28.7657
X185.0738 Y28.5533
X185.2383 Y28.3841
X185.4476 Y28.2751
X185.6806 Y28.2375
G3 X185.941 Y28.7194 I-0.0111 J0.3173
G1 X185.8764 Y28.8261
X185.4763 Y29.4861
G3 X184.8875 Y29.3326 I-0.2715 J-0.1646
G1 Y28.5785
X184.8896 Y28.5366
X184.8974 Y28.4947
X184.9012 Y28.4815
X184.9157 Y28.4429
X184.9364 Y28.4043
X184.965 Y28.3657
X185.003 Y28.3272
X185.0359 Y28.2993
X185.0688 Y28.2781
X185.1107 Y28.2584
X185.1526 Y28.2457
X185.1945 Y28.2389
X185.2364 Y28.2375
X190.4875
G3 X190.6642 Y28.8108 I-0.0111 J0.3173
G1 X190.6072 Y28.8526 Z-1.992
X190.5531 Y28.8923 Z-1.9686
X190.5046 Y28.9279 Z-1.9307
X190.464 Y28.9576 Z-1.8805
X190.4336 Y28.98 Z-1.8203
X190.4146 Y28.9939 Z-1.7531
X190.4082 Y28.9986 Z-1.6825
G0 Z5
X210.7289 Y45.3978
Z-1.365
G1 Z-1.6825 F3500
X210.733 Y45.4047 Z-1.7532
X210.745 Y45.4249 Z-1.8203
X210.7643 Y45.4574 Z-1.8805
X210.79 Y45.5006 Z-1.9307
X210.8208 Y45.5523 Z-1.9686
X210.8551 Y45.61 Z-1.992
X210.8912 Y45.6707 Z-2
G3 X211.1125 Y46.4243 I-1.3603 J0.8088
G1 Y48.9378
X211.0986 Y49.2151
X211.0689 Y49.4417
X211.0087 Y49.7231
X210.912 Y50.046
X210.7635 Y50.4272
X210.5486 Y50.8701
X210.2323 Y51.4074
X209.8082 Y52.0111
X209.3386 Y52.5802
X208.8345 Y53.119
X208.3017 Y53.6294
X207.743 Y54.1113
X207.1608 Y54.5644
X206.5572 Y54.9887
X205.9341 Y55.3838
X205.2931 Y55.7493
X204.6359 Y56.0846
X203.9638 Y56.3889
X203.2782 Y56.6616
X202.5807 Y56.9023
X201.873 Y57.1108
X201.1565 Y57.2868
X200.4327 Y57.4299
X199.7031 Y57.5397
X198.9691 Y57.6149
X198.2324 Y57.6551
X197.4946 Y57.6606
X196.7573 Y57.6319
X196.0222 Y57.5692
X195.2907 Y57.4729
X194.5644 Y57.3431
X193.8448 Y57.1802
X193.1333 Y56.9847
X192.4314 Y56.7574
X191.7404 Y56.4988
X191.0616 Y56.2097
X190.3964 Y55.8905
X189.7467 Y55.5409
X189.114 Y55.1612
X188.4996 Y54.7527
X187.9047 Y54.3163
X187.3303 Y53.8532
X186.7776 Y53.3645
X186.2477 Y52.851
X185.7418 Y52.314
X185.2607 Y51.7546
X185.0455 Y51.4804
X184.9592 Y51.341
X184.9056 Y51.186
X184.8875 Y51.023
Y48.8784
G3 X185.4608 Y48.7017 I0.3173 J0.0111
G1 X185.5026 Y48.7586 Z-1.992
X185.5423 Y48.8127 Z-1.9686
X185.5779 Y48.8613 Z-1.9307
X185.6076 Y48.9018 Z-1.8805
X185.63 Y48.9323 Z-1.8203
X185.6439 Y48.9512 Z-1.7532
X185.6486 Y48.9577 Z-1.6825
G0 Z5
X210.7289 Y47.9113
Z-1.365
G1 Z-1.6825 F3500
X210.733 Y47.9182 Z-1.7532
X210.745 Y47.9384 Z-1.8203
X210.7643 Y47.9709 Z-1.8805
X210.79 Y48.0141 Z-1.9307
X210.8208 Y48.0658 Z-1.9686
X210.8551 Y48.1235 Z-1.992
X210.8912 Y48.1842 Z-2
G3 X211.1125 Y48.9378 I-1.3603 J0.8088
G1 Y50.9486
X211.1004 Y51.1895
X211.0724 Y51.403
X211.0258 Y51.621
X210.946 Y51.8875
X210.8254 Y52.1971
X210.657 Y52.5442
X210.4144 Y52.9563
X210.069 Y53.4479
X209.6055 Y54.0064
X209.0902 Y54.5345
X208.5413 Y55.0274
X207.9656 Y55.4889
X207.3675 Y55.9209
X206.7498 Y56.3245
X206.1146 Y56.6998
X205.4635 Y57.0468
X204.7979 Y57.3652
X204.1192 Y57.6546
X203.4287 Y57.9146
X202.7278 Y58.145
X202.0178 Y58.3455
X201.2999 Y58.5158
X200.5754 Y58.6556
X199.8456 Y58.7641
X199.1117 Y58.8398
X198.3752 Y58.8829
X197.6374 Y58.8937
X196.8999 Y58.8727
X196.164 Y58.8202
X195.4309 Y58.7364
X194.7021 Y58.6216
X193.9788 Y58.476
X193.2623 Y58.3
X192.5537 Y58.0943
X191.8543 Y57.8592
X191.1653 Y57.5953
X190.4879 Y57.3031
X189.8233 Y56.9826
X189.1734 Y56.6333
X188.5394 Y56.2559
X187.9223 Y55.8514
X187.3231 Y55.421
X186.7426 Y54.9655
X186.1819 Y54.486
X185.642 Y53.9832
X185.1237 Y53.4581
X185.0798 Y53.4097
X184.9751 Y53.2613
X184.9097 Y53.092
X184.8875 Y52.9118
Y51.023
G3 X185.4608 Y50.8463 I0.3173 J0.0111
G1 X185.5026 Y50.9032 Z-1.992
X185.5423 Y50.9573 Z-1.9686
X185.5779 Y51.0059 Z-1.9307
X185.6076 Y51.0464 Z-1.8805
X185.63 Y51.0769 Z-1.8203
X185.6439 Y51.0958 Z-1.7532
X185.6486 Y51.1023 Z-1.6825
G0 Z5
X210.7289 Y49.9221
Z-1.365
G1 Z-1.6825 F3500
X210.733 Y49.929 Z-1.7532
X210.745 Y49.9491 Z-1.8203
X210.7643 Y49.9817 Z-1.8805
X210.79 Y50.0249 Z-1.9307
X210.8208 Y50.0766 Z-1.9686
X210.8551 Y50.1343 Z-1.992
X210.8912 Y50.195 Z-2
G3 X211.1125 Y50.9486 I-1.3603 J0.8088
G1 Y52.7918
X211.1037 Y52.9678
X211.0804 Y53.1455
X211.0344 Y53.3607
X210.963 Y53.599
X210.8629 Y53.856
X210.7078 Y54.1756
X210.5151 Y54.503
X210.2294 Y54.9097
X209.8506 Y55.366
X209.3426 Y55.8867
X208.7866 Y56.3717
X208.2011 Y56.8207
X207.5927 Y57.2382
X206.9654 Y57.6265
X206.3215 Y57.9868
X205.6631 Y58.3198
X204.9916 Y58.6254
X204.3083 Y58.9037
X203.6144 Y59.1544
X202.9111 Y59.3775
X202.1995 Y59.5726
X201.4808 Y59.7395
X200.7561 Y59.8777
X200.0262 Y59.986
X199.2925 Y60.0634
X198.5562 Y60.1105
X197.8186 Y60.1276
X197.0809 Y60.115
X196.3443 Y60.0729
X195.6099 Y60.0016
X194.8789 Y59.9013
X194.1525 Y59.7723
X193.4317 Y59.6149
X192.7175 Y59.4295
X192.0111 Y59.2164
X191.3135 Y58.9762
X190.6258 Y58.7091
X189.9489 Y58.4154
X189.2844 Y58.0947
X188.6338 Y57.7468
X187.9979 Y57.3726
X187.3776 Y56.9732
X186.7737 Y56.5493
X186.187 Y56.1019
X185.6184 Y55.6317
X185.1341 Y55.198
X185.0008 Y55.0398
X184.9164 Y54.851
X184.8875 Y54.6461
Y52.9118
G3 X185.4608 Y52.7351 I0.3173 J0.0111
G1 X185.5026 Y52.792 Z-1.992
X185.5423 Y52.8461 Z-1.9686
X185.5779 Y52.8947 Z-1.9307
X185.6076 Y52.9352 Z-1.8805
X185.63 Y52.9657 Z-1.8203
X185.6439 Y52.9846 Z-1.7532
X185.6486 Y52.991 Z-1.6825
G0 Z5
X210.7289 Y51.7654
Z-1.365
G1 Z-1.6825 F3500
X210.733 Y51.7722 Z-1.7532
X210.745 Y51.7924 Z-1.8203
X210.7643 Y51.8249 Z-1.8805
X210.79 Y51.8681 Z-1.9307
X210.8208 Y51.9198 Z-1.9686
X210.8551 Y51.9775 Z-1.992
X210.8912 Y52.0383 Z-2
G3 X211.1125 Y52.7918 I-1.3603 J0.8088
G1 Y54.4675
X211.1048 Y54.6214
X211.0815 Y54.7991
X211.0423 Y54.9825
X210.9791 Y55.1933
X210.879 Y55.4503
X210.752 Y55.712
X210.5706 Y56.0202
X210.3288 Y56.3644
X209.9905 Y56.772
X209.5611 Y57.2121
X209.0051 Y57.6971
X208.4146 Y58.1394
X207.7993 Y58.5466
X207.1647 Y58.9229
X206.5141 Y59.271
X205.8498 Y59.592
X205.1734 Y59.8866
X204.4861 Y60.155
X203.7893 Y60.3974
X203.0839 Y60.6137
X202.3709 Y60.8036
X201.6514 Y60.967
X200.9263 Y61.1031
X200.1964 Y61.211
X199.4628 Y61.2899
X198.7267 Y61.3403
X197.9892 Y61.3625
X197.2514 Y61.3568
X196.5144 Y61.3235
X195.7791 Y61.2627
X195.0465 Y61.1748
X194.3177 Y61.0599
X193.5936 Y60.9183
X192.8752 Y60.7503
X192.1633 Y60.5562
X191.459 Y60.3364
X190.7632 Y60.0911
X190.0767 Y59.8207
X189.4007 Y59.5251
X188.7364 Y59.204
X188.0851 Y58.8573
X187.4476 Y58.4859
X186.8246 Y58.0906
X186.2169 Y57.6723
X185.625 Y57.2317
X185.1642 Y56.8613
X185.0152 Y56.6997
X184.9201 Y56.5013
X184.8875 Y56.2839
Y54.6461
G3 X185.4608 Y54.4694 I0.3173 J0.0111
G1 X185.5026 Y54.5263 Z-1.992
X185.5423 Y54.5804 Z-1.9686
X185.5779 Y54.629 Z-1.9307
X185.6076 Y54.6695 Z-1.8805
X185.63 Y54.7 Z-1.8203
X185.6439 Y54.7189 Z-1.7532
X185.6486 Y54.7254 Z-1.6825
G0 Z5
X210.7289 Y53.441
Z-1.365
G1 Z-1.6825 F3500
X210.733 Y53.4479 Z-1.7532
X210.745 Y53.468 Z-1.8203
X210.7643 Y53.5005 Z-1.8805
X210.79 Y53.5438 Z-1.9307
X210.8208 Y53.5955 Z-1.9686
X210.8551 Y53.6532 Z-1.992
X210.8912 Y53.7139 Z-2
G3 X211.1125 Y54.4675 I-1.3603 J0.8088
G1 Y55.9756
X211.1013 Y56.2002
X211.0809 Y56.3554
X211.0434 Y56.5307
X210.9803 Y56.7415
X210.8951 Y56.9601
X210.7747 Y57.2083
X210.5992 Y57.5064
X210.3893 Y57.8052
X210.0864 Y58.1701
X209.6945 Y58.5718
X209.1729 Y59.0268
X208.5798 Y59.4656
X207.9593 Y59.8648
X207.3187 Y60.2309
X206.6622 Y60.5677
X205.9926 Y60.8774
X205.3115 Y61.1612
X204.6205 Y61.4198
X203.9207 Y61.6534
X203.213 Y61.8621
X202.4984 Y62.0459
X201.7778 Y62.2043
X201.052 Y62.3368
X200.3218 Y62.4429
X199.5883 Y62.5221
X198.8523 Y62.5742
X198.1149 Y62.5995
X197.3771 Y62.5984
X196.6398 Y62.5712
X195.9039 Y62.5181
X195.1703 Y62.4394
X194.4399 Y62.3353
X193.7135 Y62.206
X192.9919 Y62.0518
X192.2761 Y61.873
X191.5669 Y61.6698
X190.865 Y61.4424
X190.1712 Y61.1912
X189.4866 Y60.9161
X188.812 Y60.6173
X188.1486 Y60.2945
X187.4971 Y59.948
X186.8588 Y59.578
X186.2343 Y59.1852
X185.624 Y58.7705
X185.1908 Y58.4534
X185.0279 Y58.2897
X184.9235 Y58.0837
X184.8875 Y57.8556
Y56.2839
G3 X185.4608 Y56.1071 I0.3173 J0.0111
G1 X185.5026 Y56.1641 Z-1.992
X185.5423 Y56.2182 Z-1.9686
X185.5779 Y56.2667 Z-1.9307
X185.6076 Y56.3073 Z-1.8805
X185.63 Y56.3378 Z-1.8203
X185.6439 Y56.3567 Z-1.7532
X185.6486 Y56.3631 Z-1.6825
G0 Z5
X210.7289 Y54.9491
Z-1.365
G1 Z-1.6825 F3500
X210.733 Y54.9559 Z-1.7532
X210.745 Y54.9761 Z-1.8203
X210.7643 Y55.0086 Z-1.8805
X210.79 Y55.0519 Z-1.9307
X210.8208 Y55.1036 Z-1.9686
X210.8551 Y55.1613 Z-1.992
X210.8912 Y55.222 Z-2
G3 X211.1125 Y55.9756 I-1.3603 J0.8088
G1 Y57.4837
X211.1015 Y57.7041
X211.082 Y57.8528
X211.0441 Y58.0285
X210.9853 Y58.2242
X210.9049 Y58.4299
X210.7837 Y58.6788
X210.6294 Y58.9402
X210.4225 Y59.2338
X210.1473 Y59.5646
X209.7767 Y59.9434
X209.3094 Y60.3501
X208.7157 Y60.7883
X208.0916 Y61.1818
X207.4463 Y61.5395
X206.785 Y61.8666
X206.1107 Y62.1663
X205.4257 Y62.4402
X204.7313 Y62.6896
X204.0287 Y62.9148
X203.3189 Y63.1162
X202.6027 Y63.2936
X201.881 Y63.4468
X201.1545 Y63.5754
X200.424 Y63.6792
X199.6904 Y63.7578
X198.9545 Y63.8109
X198.2172 Y63.8383
X197.4793 Y63.8405
X196.7419 Y63.8181
X196.0056 Y63.7711
X195.2712 Y63.6999
X194.5396 Y63.6046
X193.8114 Y63.4855
X193.0875 Y63.3429
X192.3686 Y63.1768
X191.6555 Y62.9876
X190.9488 Y62.7755
X190.2494 Y62.5406
X189.5579 Y62.2832
X188.8753 Y62.0033
X188.2023 Y61.7008
X187.5398 Y61.376
X186.8888 Y61.0289
X186.25 Y60.6596
X185.6243 Y60.2686
X185.2129 Y59.9901
X185.0771 Y59.8716
X184.9739 Y59.7239
X184.9094 Y59.5555
X184.8875 Y59.3766
Y57.8556
G3 X185.4608 Y57.6789 I0.3173 J0.0111
G1 X185.5026 Y57.7359 Z-1.992
X185.5423 Y57.79 Z-1.9686
X185.5779 Y57.8385 Z-1.9307
X185.6076 Y57.879 Z-1.8805
X185.63 Y57.9095 Z-1.8203
X185.6439 Y57.9285 Z-1.7532
X185.6486 Y57.9349 Z-1.6825
G0 Z5
X210.7289 Y56.4572
Z-1.365
G1 Z-1.6825 F3500
X210.733 Y56.464 Z-1.7532
X210.745 Y56.4842 Z-1.8203
X210.7643 Y56.5167 Z-1.8805
X210.79 Y56.5599 Z-1.9307
X210.8208 Y56.6117 Z-1.9686
X210.8551 Y56.6694 Z-1.992
X210.8912 Y56.7301 Z-2
G3 X211.1125 Y57.4837 I-1.3603 J0.8088
G1 Y58.9918
X211.1042 Y59.158
X211.0847 Y59.3067
X211.0469 Y59.4819
X210.993 Y59.661
X210.9128 Y59.8661
X210.7952 Y60.1076
X210.6544 Y60.3459
X210.4482 Y60.6385
X210.1972 Y60.94
X209.8459 Y61.299
X209.4146 Y61.6742
X208.8209 Y62.1121
X208.1939 Y62.501
X207.5446 Y62.8513
X206.879 Y63.1697
X206.2007 Y63.4601
X205.512 Y63.7248
X204.8145 Y63.9653
X204.1093 Y64.1824
X203.3975 Y64.3763
X202.6797 Y64.5471
X201.9568 Y64.6949
X201.2296 Y64.8193
X200.4987 Y64.9202
X199.7649 Y64.9972
X199.029 Y65.0502
X198.2917 Y65.0789
X197.5539 Y65.0836
X196.8164 Y65.0646
X196.0798 Y65.0222
X195.3449 Y64.9569
X194.6123 Y64.8687
X193.8829 Y64.7579
X193.1572 Y64.6246
X192.4359 Y64.4692
X191.7198 Y64.2917
X191.0094 Y64.0924
X190.3054 Y63.8715
X189.6086 Y63.6291
X188.9195 Y63.3653
X188.2391 Y63.0801
X187.5679 Y62.7738
X186.9067 Y62.4463
X186.2564 Y62.0978
X185.6176 Y61.7286
X185.2021 Y61.4626
X185.1802 Y61.446
X185.0228 Y61.283
X184.9221 Y61.08
X184.8875 Y60.8561
Y59.3766
G3 X185.4608 Y59.1999 I0.3173 J0.0111
G1 X185.5026 Y59.2569 Z-1.992
X185.5423 Y59.311 Z-1.9686
X185.5779 Y59.3595 Z-1.9307
X185.6076 Y59.4 Z-1.8805
X185.63 Y59.4305 Z-1.8203
X185.6439 Y59.4495 Z-1.7532
X185.6486 Y59.4559 Z-1.6825
G0 Z5
X210.7289 Y57.9653
Z-1.365
G1 Z-1.6825 F3500
X210.733 Y57.9721 Z-1.7532
X210.745 Y57.9923 Z-1.8203
X210.7643 Y58.0248 Z-1.8805
X210.79 Y58.068 Z-1.9307
X210.8208 Y58.1198 Z-1.9686
X210.8551 Y58.1775 Z-1.992
X210.8912 Y58.2382 Z-2
G3 X211.1125 Y58.9918 I-1.3603 J0.8088
G1 Y60.4999
X211.105 Y60.6497
X211.0769 Y60.8102
X211.033 Y60.9794
X210.9679 Y61.1673
X210.8697 Y61.3905
X210.7511 Y61.6104
X210.5805 Y61.8736
X210.3597 Y62.1609
X210.0796 Y62.4703
X209.7148 Y62.8135
X209.2248 Y63.2052
X208.6134 Y63.6181
X207.9727 Y63.9839
X207.312 Y64.3124
X206.6368 Y64.6099
X205.9503 Y64.8801
X205.2543 Y65.125
X204.5504 Y65.3461
X203.8397 Y65.5444
X203.1232 Y65.7204
X202.4016 Y65.874
X201.6755 Y66.0055
X200.9458 Y66.1145
X200.2131 Y66.2011
X199.4781 Y66.265
X198.7414 Y66.3061
X198.0038 Y66.3245
X197.266 Y66.3204
X196.5287 Y66.2941
X195.7924 Y66.2458
X195.058 Y66.1756
X194.3259 Y66.0838
X193.5968 Y65.9705
X192.8714 Y65.8359
X192.1502 Y65.6803
X191.4338 Y65.5037
X190.723 Y65.3058
X190.0183 Y65.0872
X189.3204 Y64.8479
X188.6298 Y64.5882
X187.9472 Y64.3082
X187.2732 Y64.0081
X186.6085 Y63.6878
X185.9537 Y63.3477
X185.3798 Y63.0246
X185.2143 Y62.913
X185.0779 Y62.7946
X184.9743 Y62.6466
X184.9095 Y62.478
X184.8875 Y62.2987
Y60.8561
G3 X185.4608 Y60.6794 I0.3173 J0.0111
G1 X185.5026 Y60.7363 Z-1.992
X185.5423 Y60.7904 Z-1.9686
X185.5779 Y60.839 Z-1.9307
X185.6076 Y60.8795 Z-1.8805
X185.63 Y60.91 Z-1.8203
X185.6439 Y60.9289 Z-1.7532
X185.6486 Y60.9354 Z-1.6825
G0 Z5
X210.7289 Y59.4734
Z-1.365
G1 Z-1.6825 F3500
X210.733 Y59.4802 Z-1.7532
X210.745 Y59.5004 Z-1.8203
X210.7643 Y59.5329 Z-1.8805
X210.79 Y59.5761 Z-1.9307
X210.8208 Y59.6279 Z-1.9686
X210.8551 Y59.6856 Z-1.992
X210.8912 Y59.7463 Z-2
G3 X211.1125 Y60.4999 I-1.3603 J0.8088
G1 Y61.8404
X211.1048 Y61.9938
X211.0853 Y62.1426
X211.0496 Y62.3033
X210.9931 Y62.4865
X210.9186 Y62.6732
X210.808 Y62.8966
X210.6655 Y63.1342
X210.4807 Y63.3927
X210.2267 Y63.6937
X209.922 Y64.001
X209.5135 Y64.3515
X208.9713 Y64.7459
X208.3417 Y65.1307
X207.6872 Y65.4712
X207.0155 Y65.7765
X206.331 Y66.052
X205.6366 Y66.3011
X204.9339 Y66.5259
X204.2241 Y66.7276
X203.5085 Y66.907
X202.7877 Y67.0648
X202.0626 Y67.201
X201.3338 Y67.3159
X200.6019 Y67.4093
X199.8676 Y67.4812
X199.1315 Y67.5316
X198.3942 Y67.5605
X197.6565 Y67.568
X196.9188 Y67.5543
X196.1818 Y67.5196
X195.4461 Y67.464
X194.7122 Y67.3876
X193.9808 Y67.2908
X193.2523 Y67.1736
X192.5274 Y67.0361
X191.8066 Y66.8785
X191.0905 Y66.7008
X190.3797 Y66.5032
X189.6747 Y66.2855
X188.9762 Y66.0478
X188.2848 Y65.7905
X187.6008 Y65.5136
X186.925 Y65.2176
X186.2579 Y64.9024
X185.6005 Y64.5675
X185.238 Y64.3529
X185.2009 Y64.3267
X185.0698 Y64.2083
X184.9705 Y64.0623
X184.9085 Y63.8969
X184.8875 Y63.7216
Y62.2987
G3 X185.4608 Y62.122 I0.3173 J0.0111
G1 X185.5026 Y62.1789 Z-1.992
X185.5423 Y62.233 Z-1.9686
X185.5779 Y62.2816 Z-1.9307
X185.6076 Y62.3221 Z-1.8805
X185.63 Y62.3526 Z-1.8203
X185.6439 Y62.3715 Z-1.7532
X185.6486 Y62.378 Z-1.6825
G0 Z5
X210.7289 Y60.8139
Z-1.365
G1 Z-1.6825 F3500
X210.733 Y60.8208 Z-1.7532
X210.745 Y60.8409 Z-1.8203
X210.7643 Y60.8735 Z-1.8805
X210.79 Y60.9167 Z-1.9307
X210.8208 Y60.9684 Z-1.9686
X210.8551 Y61.0261 Z-1.992
X210.8912 Y61.0868 Z-2
G3 X211.1125 Y61.8404 I-1.3603 J0.8088
G1 Y63.1809
X211.1032 Y63.3673
X211.0837 Y63.5161
X211.0504 Y63.6696
X210.9992 Y63.8389
X210.9201 Y64.0402
X210.8222 Y64.2406
X210.6838 Y64.4741
X210.4994 Y64.7351
X210.2745 Y65.0045
X209.9659 Y65.3191
X209.584 Y65.6504
X209.0873 Y66.0158
X208.4598 Y66.4039
X207.8051 Y66.7442
X207.1323 Y67.0469
X206.4463 Y67.3185
X205.7502 Y67.563
X205.046 Y67.7831
X204.335 Y67.9805
X203.6184 Y68.156
X202.8969 Y68.3105
X202.1713 Y68.4442
X201.4422 Y68.5574
X200.7103 Y68.65
X199.976 Y68.722
X199.24 Y68.7734
X198.5028 Y68.804
X197.765 Y68.8141
X197.0273 Y68.8038
X196.2901 Y68.7735
X195.554 Y68.7232
X194.8195 Y68.6531
X194.0872 Y68.5633
X193.3575 Y68.4541
X192.631 Y68.3255
X191.9081 Y68.1776
X191.1895 Y68.0105
X190.4756 Y67.8243
X189.7669 Y67.619
X189.064 Y67.3947
X188.3674 Y67.1515
X187.6776 Y66.8896
X186.9952 Y66.6092
X186.3206 Y66.3104
X185.6548 Y65.9925
X185.2859 Y65.786
X185.2158 Y65.739
X185.0788 Y65.6205
X184.9747 Y65.4724
X184.9096 Y65.3034
X184.8875 Y65.1236
Y63.7216
G3 X185.4608 Y63.5448 I0.3173 J0.0111
G1 X185.5026 Y63.6018 Z-1.992
X185.5423 Y63.6559 Z-1.9686
X185.5779 Y63.7044 Z-1.9307
X185.6076 Y63.745 Z-1.8805
X185.63 Y63.7755 Z-1.8203
X185.6439 Y63.7944 Z-1.7532
X185.6486 Y63.8008 Z-1.6825
G0 Z5
X210.7289 Y62.1544
Z-1.365
G1 Z-1.6825 F3500
X210.733 Y62.1613 Z-1.7532
X210.745 Y62.1815 Z-1.8203
X210.7643 Y62.214 Z-1.8805
X210.79 Y62.2572 Z-1.9307
X210.8208 Y62.3089 Z-1.9686
X210.8551 Y62.3666 Z-1.992
X210.8912 Y62.4273 Z-2
G3 X211.1125 Y63.1809 I-1.3603 J0.8088
G1 Y64.6136
X211.105 Y64.7634
X211.0819 Y64.9118
X211.0456 Y65.0634
X210.987 Y65.2431
X210.9058 Y65.4374
X210.799 Y65.6447
X210.6454 Y65.8918
X210.4683 Y66.1313
X210.2143 Y66.4226
X209.9147 Y66.7152
X209.5033 Y67.0569
X208.9849 Y67.4214
X208.3492 Y67.7959
X207.6876 Y68.1225
X207.0088 Y68.4116
X206.3177 Y68.6699
X205.6172 Y68.9016
X204.9093 Y69.1095
X204.1952 Y69.2952
X203.476 Y69.4599
X202.7524 Y69.6041
X202.0252 Y69.7283
X201.2948 Y69.8328
X200.5618 Y69.9174
X199.8269 Y69.9824
X199.0904 Y70.0275
X198.3531 Y70.0531
X197.6153 Y70.0591
X196.8776 Y70.0459
X196.1405 Y70.0134
X195.4045 Y69.9618
X194.67 Y69.8914
X193.9376 Y69.8022
X193.2078 Y69.6941
X192.481 Y69.5671
X191.7576 Y69.4216
X191.0383 Y69.2576
X190.3234 Y69.0752
X189.6134 Y68.8745
X188.9088 Y68.6557
X188.21 Y68.4189
X187.5175 Y68.1641
X186.8319 Y67.8916
X186.1536 Y67.6012
X185.5462 Y67.3159
X185.2355 Y67.1383
X185.2102 Y67.121
X185.0754 Y67.0025
X184.9731 Y66.8551
X184.9092 Y66.6875
X184.8875 Y66.5094
Y65.1236
G3 X185.4608 Y64.9469 I0.3173 J0.0111
G1 X185.5026 Y65.0039 Z-1.992
X185.5423 Y65.058 Z-1.9686
X185.5779 Y65.1065 Z-1.9307
X185.6076 Y65.147 Z-1.8805
X185.63 Y65.1775 Z-1.8203
X185.6439 Y65.1965 Z-1.7532
X185.6486 Y65.2029 Z-1.6825
G0 Z5
X210.7289 Y63.5871
Z-1.365
G1 Z-1.6825 F3500
X210.733 Y63.594 Z-1.7532
X210.745 Y63.6142 Z-1.8203
X210.7643 Y63.6467 Z-1.8805
X210.79 Y63.6899 Z-1.9307
X210.8208 Y63.7416 Z-1.9686
X210.8551 Y63.7993 Z-1.992
X210.8912 Y63.86 Z-2
G3 X211.1125 Y64.6136 I-1.3603 J0.8088
G1 Y65.9541
X211.105 Y66.104
X211.0829 Y66.2523
X211.0469 Y66.4051
X210.9926 Y66.5741
X210.9099 Y66.7743
X210.8086 Y66.9727
X210.6657 Y67.2047
X210.4816 Y67.4558
X210.2509 Y67.7225
X209.9431 Y68.0255
X209.5623 Y68.3444
X209.0767 Y68.6887
X208.4425 Y69.0658
X207.781 Y69.3925
X207.1015 Y69.6799
X206.4093 Y69.9355
X205.7077 Y70.1638
X204.9987 Y70.3681
X204.2838 Y70.5503
X203.5638 Y70.7118
X202.8397 Y70.8532
X202.112 Y70.9752
X201.3814 Y71.078
X200.6484 Y71.1618
X199.9134 Y71.2266
X199.177 Y71.2726
X198.4397 Y71.2995
X197.702 Y71.3074
X196.9642 Y71.2968
X196.227 Y71.2677
X195.4907 Y71.2203
X194.7558 Y71.1548
X194.0227 Y71.0712
X193.2919 Y70.9695
X192.5639 Y70.8498
X191.839 Y70.7122
X191.1177 Y70.5569
X190.4005 Y70.384
X189.6877 Y70.1935
X188.9798 Y69.9856
X188.2772 Y69.7603
X187.5804 Y69.5178
X186.8897 Y69.2582
X186.206 Y68.9809
X185.5949 Y68.7076
X185.2695 Y68.5296
X185.2216 Y68.4981
X185.0824 Y68.3797
X184.9763 Y68.2307
X184.91 Y68.0603
X184.8875 Y67.8789
Y66.5094
G3 X185.4608 Y66.3327 I0.3173 J0.0111
G1 X185.5026 Y66.3896 Z-1.992
X185.5423 Y66.4437 Z-1.9686
X185.5779 Y66.4923 Z-1.9307
X185.6076 Y66.5328 Z-1.8805
X185.63 Y66.5633 Z-1.8203
X185.6439 Y66.5823 Z-1.7532
X185.6486 Y66.5887 Z-1.6825
G0 Z5
X210.7289 Y64.9277
Z-1.365
G1 Z-1.6825 F3500
X210.733 Y64.9345 Z-1.7532
X210.745 Y64.9547 Z-1.8203
X210.7643 Y64.9872 Z-1.8805
X210.79 Y65.0304 Z-1.9307
X210.8208 Y65.0822 Z-1.9686
X210.8551 Y65.1398 Z-1.992
X210.8912 Y65.2006 Z-2
G3 X211.1125 Y65.9541 I-1.3603 J0.8088
G1 Y67.2947
X211.105 Y67.4445
X211.0825 Y67.5928
X211.0473 Y67.7415
X210.992 Y67.9127
X210.9113 Y68.1074
X210.8105 Y68.304
X210.6648 Y68.5396
X210.4923 Y68.7742
X210.2568 Y69.0458
X209.9631 Y69.334
X209.5788 Y69.6548
X209.1128 Y69.9842
X208.4795 Y70.3596
X207.8166 Y70.6836
X207.1355 Y70.9672
X206.4416 Y71.2182
X205.7385 Y71.4417
X205.0281 Y71.641
X204.312 Y71.8184
X203.591 Y71.9754
X202.8661 Y72.1127
X202.1379 Y72.2312
X201.4068 Y72.331
X200.6735 Y72.4125
X199.9384 Y72.4757
X199.202 Y72.5207
X198.4646 Y72.5475
X197.7269 Y72.5563
X196.9891 Y72.547
X196.2518 Y72.5197
X195.5154 Y72.4747
X194.7802 Y72.4123
X194.0467 Y72.3323
X193.3154 Y72.2351
X192.5865 Y72.1205
X191.8605 Y71.9889
X191.1379 Y71.8401
X190.4189 Y71.6744
X189.704 Y71.4918
X188.9937 Y71.2925
X188.2882 Y71.0764
X187.588 Y70.8438
X186.8935 Y70.5946
X186.2057 Y70.3275
X185.6158 Y70.0723
X185.2919 Y69.9001
X185.2292 Y69.86
X185.087 Y69.7416
X184.9785 Y69.5917
X184.9106 Y69.4195
X184.8875 Y69.2359
Y67.8789
G3 X185.4608 Y67.7022 I0.3173 J0.0111
G1 X185.5026 Y67.7591 Z-1.992
X185.5423 Y67.8132 Z-1.9686
X185.5779 Y67.8618 Z-1.9307
X185.6076 Y67.9023 Z-1.8805
X185.63 Y67.9328 Z-1.8203
X185.6439 Y67.9517 Z-1.7532
X185.6486 Y67.9582 Z-1.6825
G0 Z5
X210.7289 Y66.2682
Z-1.365
G1 Z-1.6825 F3500
X210.733 Y66.275 Z-1.7532
X210.745 Y66.2952 Z-1.8203
X210.7643 Y66.3277 Z-1.8805
X210.79 Y66.3709 Z-1.9307
X210.8208 Y66.4227 Z-1.9686
X210.8551 Y66.4804 Z-1.992
X210.8912 Y66.5411 Z-2
G3 X211.1125 Y67.2947 I-1.3603 J0.8088
G1 Y68.6352
X211.105 Y68.785
X211.0813 Y68.9331
X211.0451 Y69.0806
X210.9874 Y69.2542
X210.9063 Y69.4454
X210.8021 Y69.6448
X210.6533 Y69.8811
X210.482 Y70.1101
X210.2384 Y70.3862
X209.9504 Y70.6643
X209.5593 Y70.9854
X209.0953 Y71.3077
X208.4644 Y71.6746
X207.7989 Y71.9932
X207.1153 Y72.2708
X206.4193 Y72.5156
X205.7142 Y72.7328
X205.0021 Y72.926
X204.516 Y73.0422
X204.4592 Y73.0535
X204.4017 Y73.0602
X204.3438 Y73.0625
G3 X204.1671 Y72.4892 I0.0111 J-0.3173
G1 X204.224 Y72.4474 Z-1.992
X204.2781 Y72.4077 Z-1.9686
X204.3267 Y72.3721 Z-1.9307
X204.3672 Y72.3424 Z-1.8805
X204.3977 Y72.32 Z-1.8203
X204.4166 Y72.3061 Z-1.7531
X204.423 Y72.3014 Z-1.6825
G0 Z5
X210.7289 Y67.6087
Z-1.365
G1 Z-1.6825 F3500
X210.733 Y67.6156 Z-1.7532
X210.745 Y67.6357 Z-1.8203
X210.7643 Y67.6683 Z-1.8805
X210.79 Y67.7115 Z-1.9307
X210.8208 Y67.7632 Z-1.9686
X210.8551 Y67.8209 Z-1.992
X210.8912 Y67.8816 Z-2
G3 X211.1125 Y68.6352 I-1.3603 J0.8088
G1 Y69.8836
X211.1034 Y70.0656
X211.0839 Y70.2143
X211.0515 Y70.3608
X211.0016 Y70.5229
X210.9257 Y70.7136
X210.8323 Y70.9024
X210.6996 Y71.124
X210.535 Y71.3546
X210.3216 Y71.6078
X210.041 Y71.8911
X209.7026 Y72.1819
X209.267 Y72.4992
X208.6936 Y72.8501
X208.432 Y72.9826
X208.325 Y73.0266
X208.2125 Y73.0535
X208.0972 Y73.0625
G3 X207.8773 Y72.5274 I0.0111 J-0.3173
G1 X207.9169 Y72.4854
X210.5374 Y69.7053
X210.5641 Y69.6769
G3 X211.1125 Y69.8836 I0.231 J0.2178
G1 Y71.2241
X211.1049 Y71.3757
X211.0854 Y71.5244
X211.0527 Y71.6708
X210.9994 Y71.8425
X210.9302 Y72.0152
X210.8315 Y72.2135
X210.7005 Y72.4311
X210.5386 Y72.6568
X210.417 Y72.8004
X210.2569 Y72.9418
X210.0631 Y73.0317
X209.8517 Y73.0625
G3 X209.5926 Y72.5784 I0.0111 J-0.3173
G1 X209.6568 Y72.4745
X210.525 Y71.0684
G3 X211.1125 Y71.2241 I0.2702 J0.1668
G1 Y72.4892
Y72.5307
Y72.5646
X211.105 Y72.7144
X211.0483 Y72.8529
X210.949 Y72.9647
X210.8182 Y73.0374
X210.6707 Y73.0625
G3 X210.3377 Y72.9294 I0.0185 J-0.5293
X211.1125 Y72.5646 I0.3092 J-0.3485
G1 Y72.7322
X211.1095 Y72.7741
X211.1008 Y72.816
X211.0858 Y72.8579
X211.0636 Y72.8997
X211.0502 Y72.9194
X211.0148 Y72.9617
X210.9906 Y72.985
X210.9664 Y73.004
X210.9245 Y73.0291
X210.8826 Y73.0464
X210.8407 Y73.0572
X210.7988 Y73.0621
X192.2766 Y73.0625
X191.5397 Y73.0256
X190.8051 Y72.9565
X190.0781 Y72.8308
X189.3583 Y72.6687
X188.6449 Y72.4801
X187.9376 Y72.2703
X187.2361 Y72.0415
X186.5409 Y71.7946
X185.8535 Y71.5266
X185.4536 Y71.3393
X185.2613 Y71.2297
X185.1066 Y71.1121
X184.9877 Y70.9583
X184.913 Y70.7788
X184.8875 Y70.5861
G3 X185.2972 Y70.2935 I0.3173 J0.0111
G1 X185.4924 Y70.3528
X192.3579 Y72.4414
G3 X192.2766 Y73.0625 I-0.0924 J0.3038
G1 X187.7507
X187.2278 Y73.0363
X186.7585 Y72.9748
X186.263 Y72.8688
X185.8382 Y72.7416
X185.5068 Y72.6125
X185.2766 Y72.5008
X185.2525 Y72.4866
X185.1012 Y72.3687
X184.9852 Y72.2159
X184.9123 Y72.0384
X184.8875 Y71.8482
G3 X185.3095 Y71.5595 I0.3173 J0.0111
G1 X185.4899 Y71.6226
X187.8444 Y72.4455
G3 X187.7507 Y73.0625 I-0.1048 J0.2997
G1 X185.404
X185.3761
X185.3339
X185.1841 Y73.055
X185.1666 Y73.0507
X185.0928 Y73.0252
X185.0246 Y72.987
X184.9642 Y72.9374
X184.95 Y72.9035
X184.9505 Y72.8667
X184.9656 Y72.8331
X184.9928 Y72.8083
X185.0276 Y72.7965
X185.0643 Y72.7994
X185.3562 Y72.8852
X185.3882 Y72.9022
X185.411 Y72.9304
X185.421 Y72.9652
X185.4164 Y73.0011
X185.3982 Y73.0324
X185.3691 Y73.054
X185.3339 Y73.0625
X185.2364
X185.1945 Y73.0611
X185.1526 Y73.0544
X185.1107 Y73.0416
X185.0688 Y73.0219
X185.0357 Y73.0006
X185.0026 Y72.9751
X184.9642 Y72.9374
X184.9363 Y72.8997
X184.9156 Y72.8612
X184.9012 Y72.8227
X184.891 Y72.7775
X184.8875 Y72.7322
Y69.2359
G3 X185.1851 Y68.9301 I0.3173 J0.0111
G1 X185.2048 Y68.9295 Z-1.9994
X185.2582 Y68.9431 Z-1.9907
X185.3092 Y68.9561 Z-1.9726
X185.3565 Y68.9681 Z-1.9455
X185.3921 Y68.9992 Z-1.9059
X185.4213 Y69.0247 Z-1.8579
X185.4429 Y69.0436 Z-1.8034
X185.4563 Y69.0552 Z-1.7443
X185.4608 Y69.0592 Z-1.6829
G0 Z5
X322.7302 Y93.0571
Z-3.365
G1 Z-3.6825 F3500
X322.7352 Y93.0509 Z-3.7532
X322.7499 Y93.0326 Z-3.8203
X322.7736 Y93.0031 Z-3.8805
X322.8051 Y92.964 Z-3.9307
X322.8429 Y92.917 Z-3.9686
X322.8849 Y92.8648 Z-3.992
X322.9292 Y92.8097 Z-4
G3 X324.1638 Y91.5748 I6.3161 J5.0803
G1 X324.1952 Y91.5513
X324.2079 Y91.5384
X324.3787 Y91.332
X324.48 Y91.2214
X324.5955 Y91.1256
X324.7299 Y91.0334
X324.9026 Y90.9344
X325.1256 Y90.8293
X325.4193 Y90.7187
X325.8208 Y90.6034
X326.4113 Y90.4841
X327.1439 Y90.3965
X327.8803 Y90.3512
X328.6177 Y90.3276
X329.3554 Y90.3153
X330.0932 Y90.3088
X330.831 Y90.3054
X332.3066 Y90.3027
X337.4713 Y90.3016
X344.4806
X344.6636 Y90.2786
X345.0069 Y90.1434
X345.2875 Y89.904
X345.7373 Y89.3192
X345.9955 Y88.628
X346.1379 Y87.904
X346.2147 Y87.1702
X346.2557 Y86.4336
X346.2774 Y85.6961
X346.2889 Y84.9583
X346.2949 Y84.2206
X346.2981 Y83.4827
X346.3007 Y82.0071
X346.3016 Y76.1046
Y61.3483
Y11.1769
Y1.4008
X346.256 Y1.2221
X346.0794 Y0.8982
X345.8199 Y0.636
X345.2121 Y0.2178
X344.5139 Y-0.0205
X343.7878 Y-0.1515
X343.0533 Y-0.222
X342.3164 Y-0.2596
X341.5789 Y-0.2795
X340.8412 Y-0.29
X340.1034 Y-0.2955
X339.3656 Y-0.2984
X337.8899 Y-0.3007
X330.5118 Y-0.3016
X306.1639
X255.9924
X205.821
X155.6496
X105.4782
X55.3067
X5.1353
X1.4462
X1.2674 Y-0.2565
X0.9371 Y-0.0923
X0.6672 Y0.1593
X0.236 Y0.758
X-0.0104 Y1.4535
X-0.146 Y2.1787
X-0.2191 Y2.9129
X-0.258 Y3.6497
X-0.2786 Y4.3872
X-0.2895 Y5.1249
X-0.2953 Y5.8627
X-0.2983 Y6.6005
X-0.3007 Y8.0762
X-0.3016 Y14.7165
Y45.7047
Y88.498
X-0.2726 Y88.6802
X-0.127 Y89.0191
X0.1151 Y89.2975
X0.7031 Y89.7432
X1.3952 Y89.9988
X2.1194 Y90.1396
X2.8533 Y90.2157
X3.59 Y90.2562
X4.3275 Y90.2777
X5.0653 Y90.289
X5.8031 Y90.295
X6.5409 Y90.2981
X8.0165 Y90.3007
X13.919 Y90.3016
X20.5754
X20.7976 Y90.3357
X20.9993 Y90.4348
X21.1619 Y90.5899
X21.2707 Y90.7865
G0 Z5
X324.0199 Y92.3674
Z-3.365
G1 Z-3.6825 F3500
X324.0211 Y92.3595 Z-3.7532
X324.0247 Y92.3363 Z-3.8203
X324.0306 Y92.299 Z-3.8805
X324.0383 Y92.2493 Z-3.9307
X324.0476 Y92.1898 Z-3.9686
X324.058 Y92.1235 Z-3.992
X324.0688 Y92.0537 Z-4
G3 X324.3787 Y91.332 I1.5637 J0.244
G1 X324.5304 Y91.1487
X324.5905 Y91.0728
X324.6237 Y90.9969
X324.7663 Y90.6618
X324.8318 Y90.5268
X324.916 Y90.4027
X325.0132 Y90.2884
X325.1348 Y90.1682
X325.2705 Y90.0538
X325.4413 Y89.9321
X325.6655 Y89.798
X325.927 Y89.6688
X326.2645 Y89.5347
X326.7022 Y89.4002
X327.3172 Y89.2641
X328.048 Y89.1631
X328.7836 Y89.1058
X329.5207 Y89.0733
X330.2583 Y89.055
X330.9961 Y89.0447
X331.7339 Y89.0389
X332.4716 Y89.0357
X333.9473 Y89.0329
X338.3742 Y89.0317
X342.8011 Y89.0316
X343.1682 Y88.9951
X343.5085 Y88.8528
X343.8044 Y88.6324
X344.2979 Y88.084
X344.6064 Y87.4138
X344.7897 Y86.6991
X344.8956 Y85.9689
X344.9558 Y85.2335
X344.9895 Y84.4965
X345.0084 Y83.7589
X345.0188 Y83.0212
X345.0246 Y82.2834
X345.0278 Y81.5456
X345.0305 Y80.07
X345.0316 Y74.9053
Y57.9355
Y7.7641
Y3.3372
X345.0263 Y2.9683
X344.9186 Y2.6155
X344.7222 Y2.3032
X344.2087 Y1.7734
X343.5517 Y1.4377
X342.8419 Y1.2365
X342.1133 Y1.1196
X341.3786 Y1.053
X340.6417 Y1.0154
X339.9042 Y0.9944
X339.1665 Y0.9827
X338.4287 Y0.9763
X337.6909 Y0.9727
X336.2152 Y0.9697
X331.7884 Y0.9684
X300.0623
X249.8909
X199.7195
X149.548
X99.3766
X49.2052
X3.0917
X2.7299 Y1.0403
X2.4024 Y1.2101
X2.1211 Y1.4487
X1.654 Y2.0199
X1.3645 Y2.6985
X1.1932 Y3.4162
X1.0946 Y4.1474
X1.0387 Y4.8831
X1.0074 Y5.6202
X0.9899 Y6.3578
X0.9802 Y7.0956
X0.9749 Y7.8334
X0.9719 Y8.5712
X0.9694 Y10.0468
X0.9684 Y15.9493
Y54.3157
Y86.7796
X1.0021 Y87.147
X1.1386 Y87.4897
X1.3559 Y87.7878
X1.8995 Y88.2867
X2.5678 Y88.5993
X3.2817 Y88.7854
X4.0117 Y88.8931
X4.7469 Y88.9543
X5.4839 Y88.9887
X6.2215 Y89.0079
X6.9592 Y89.0185
X7.697 Y89.0244
X8.4348 Y89.0277
X9.9105 Y89.0304
X15.0752 Y89.0316
X18.0264
X19.5021
X19.9207 Y89.047
X20.2354 Y89.084
X20.4768 Y89.1323
X20.576 Y89.1606
X20.751 Y89.2359
X20.901 Y89.3534
X21.016 Y89.5053
X21.0885 Y89.6815
X21.1137 Y89.8703
X21.114 Y89.937
G3 X20.5413 Y90.1158 I-0.3173 J-0.0099
G1 X20.4993 Y90.059 Z-3.992
X20.4594 Y90.005 Z-3.9686
X20.4236 Y89.9566 Z-3.9307
X20.3937 Y89.9162 Z-3.8805
X20.3713 Y89.8858 Z-3.8203
X20.3573 Y89.8669 Z-3.7532
X20.3526 Y89.8605 Z-3.6825
G0 Z5
X324.7174 Y91.7565
Z-3.365
G1 Z-3.6825 F3500
X324.7163 Y91.7486 Z-3.7532
X324.7132 Y91.7253 Z-3.8203
X324.7081 Y91.6878 Z-3.8805
X324.7014 Y91.638 Z-3.9307
X324.6933 Y91.5783 Z-3.9686
X324.6843 Y91.5118 Z-3.992
X324.6749 Y91.4418 Z-4
G3 X324.7663 Y90.6618 I1.5684 J-0.2117
G1 X324.8064 Y90.5675
X324.8718 Y90.1591
X324.8804 Y90.0669
X324.9018 Y89.9184
X324.9443 Y89.7746
X325.0042 Y89.6371
X325.0788 Y89.5069
X325.1644 Y89.3838
X325.2732 Y89.2521
X325.4101 Y89.1113
X325.5674 Y88.9735
X325.7764 Y88.8182
X326.0158 Y88.6685
X326.3126 Y88.5147
X326.6883 Y88.3567
X327.1576 Y88.2024
X327.7784 Y88.0523
X328.5072 Y87.937
X329.2417 Y87.8667
X329.9783 Y87.8242
X330.7156 Y87.7987
X331.4533 Y87.7834
X332.191 Y87.7744
X332.9288 Y87.769
X333.6667 Y87.7659
X335.1423 Y87.763
X339.5692 Y87.7617
X341.4137 Y87.7616
X341.7796 Y87.7142
X342.123 Y87.5796
X342.426 Y87.3692
X342.9402 Y86.8401
X343.2723 Y86.1812
X343.4756 Y85.472
X343.5965 Y84.7441
X343.667 Y84.0097
X343.7077 Y83.273
X343.731 Y82.5355
X343.7443 Y81.7979
X343.7519 Y81.0601
X343.7561 Y80.3223
X343.7585 Y79.5845
X343.7607 Y78.1088
X343.7616 Y71.4685
Y55.9744
Y5.803
Y4.3273
X343.652 Y3.9751
X343.4605 Y3.6598
X342.9583 Y3.1193
X342.3107 Y2.7657
X341.6058 Y2.5477
X340.8795 Y2.4176
X340.1457 Y2.3413
X339.4092 Y2.2971
X338.6718 Y2.2718
X337.9341 Y2.2573
X337.1964 Y2.249
X336.4586 Y2.2444
X335.7208 Y2.2418
X334.2451 Y2.2394
X328.3426 Y2.2384
X295.8788
X245.7073
X195.5359
X145.3645
X95.193
X45.0216
X4.4418
X4.0828 Y2.3236
X3.7553 Y2.4933
X3.1846 Y2.961
X2.8077 Y3.5952
X2.5737 Y4.2949
X2.4331 Y5.0192
X2.3505 Y5.7524
X2.3025 Y6.4887
X2.2749 Y7.226
X2.2591 Y7.9636
X2.2501 Y8.7014
X2.245 Y9.4392
X2.2421 Y10.177
X2.2405 Y10.9148
X2.2386 Y13.866
X2.2384 Y61.0862
Y85.4341
X2.2897 Y85.7994
X2.4301 Y86.1406
X2.6436 Y86.4414
X3.1776 Y86.9506
X3.8384 Y87.2789
X4.5483 Y87.4796
X5.2765 Y87.5988
X6.011 Y87.6684
X6.7477 Y87.7085
X7.4852 Y87.7315
X8.2229 Y87.7446
X8.9606 Y87.752
X9.6984 Y87.7562
X10.4363 Y87.7586
X12.6497 Y87.7611
X18.5522 Y87.7616
X19.2899 Y87.7744
X19.7535 Y87.8149
X20.0899 Y87.8718
X20.347 Y87.9369
X20.5683 Y88.0122
X20.666 Y88.0545
X20.8484 Y88.1673
X20.9909 Y88.3277
X21.0815 Y88.5221
X21.1125 Y88.7344
X21.1129 Y89.6564
X21.1137 Y89.8703
G3 X20.5411 Y90.0491 I-0.3173 J-0.0099
G1 X20.4991 Y89.9923 Z-3.992
X20.4592 Y89.9384 Z-3.9686
X20.4234 Y89.89 Z-3.9307
X20.3935 Y89.8495 Z-3.8805
X20.371 Y89.8191 Z-3.8203
X20.357 Y89.8002 Z-3.7532
X20.3523 Y89.7938 Z-3.6825
G0 Z5
X325.1671 Y91.1245
Z-3.365
G1 Z-3.6825 F3500
X325.1637 Y91.1173 Z-3.7531
X325.1536 Y91.0961 Z-3.8203
X325.1374 Y91.062 Z-3.8805
X325.1158 Y91.0166 Z-3.9307
X325.09 Y90.9622 Z-3.9686
X325.0612 Y90.9016 Z-3.992
X325.0309 Y90.8378 Z-4
G3 X324.8804 Y90.0669 I1.4294 J-0.6791
G1 X324.8874 Y89.9915
X324.8875 Y89.2291
X324.895 Y89.0793
X324.9258 Y88.9325
X324.9735 Y88.7902
X325.0349 Y88.6534
X325.112 Y88.515
X325.2064 Y88.3737
X325.3319 Y88.215
X325.4741 Y88.0622
X325.6643 Y87.8882
X325.8736 Y87.7255
X326.1512 Y87.5435
X326.4648 Y87.3722
X326.8736 Y87.1899
X327.3488 Y87.0221
X327.9893 Y86.8525
X328.7153 Y86.7215
X329.4482 Y86.6366
X330.1841 Y86.5823
X330.9211 Y86.5478
X331.6586 Y86.5262
X332.3963 Y86.5127
X333.134 Y86.5044
X333.8718 Y86.4993
X334.6096 Y86.4962
