%
(Made in : Autodesk CAM Post Processor)
(G Code optimized for OpenBuilds OX CNC 1000 x 750 with GRBL V0.9j controller)

(Program Name : 1001)
(1 Operation :)
(1 : Adaptive1  2 )
(  Tool : Flat End Mill 3 Flutes, Diam = 3.175mm, Len = 20mm)
(  Spindle : RPM = 30000, set router dial to 6)
(  Machining time : 12 min 42 sec)

G90 G94
G17
G21

(Operation 1 of 1 : Adaptive1  2 )

G53 G0 Z5
G54
S30000 M3
G4 P1.0
X153.7381 Y144.2546
Z6
Z5
Z-1.365
G1 Z-1.6825 F3500
X153.7322 Y144.2493 Z-1.7532
X153.7148 Y144.2335 Z-1.8203
X153.6868 Y144.2081 Z-1.8805
X153.6496 Y144.1743 Z-1.9307
X153.605 Y144.1338 Z-1.9686
X153.5553 Y144.0888 Z-1.992
X153.503 Y144.0413 Z-2
G3 X152.5414 Y142.5836 I2.3645 J-2.6058
G1 X152.5286 Y142.5418
X152.4937 Y142.4082
X152.4861 Y142.3715
X152.5838 Y142.2576
X152.6956 Y142.1576
X152.8183 Y142.068
X152.9758 Y141.9714
X153.1785 Y141.8685
X153.4433 Y141.7598
X153.7991 Y141.6462
X154.3055 Y141.5282
X155.0352 Y141.4191
X155.3406 Y141.3958
X155.5629 Y141.4113
X155.7712 Y141.4903
X155.948 Y141.626
X156.0781 Y141.8068
G3 X155.8306 Y142.2579 I-0.2869 J0.136
G1 X155.6465 Y142.2809
X153.174 Y142.5903
X152.8374 Y142.6324
G3 X152.4937 Y142.4082 I-0.0394 J-0.315
G1 X152.4849 Y142.3742
X152.4476 Y142.2067
X152.4132 Y142.0392
X152.3978 Y141.89
X152.4578 Y141.7524
X152.5329 Y141.6226
X152.6207 Y141.501
X152.7193 Y141.3856
X152.8488 Y141.2566
X153.0095 Y141.1205
X153.1921 Y140.9894
X153.4341 Y140.8436
X153.7232 Y140.6997
X154.0338 Y140.5751
X154.3168 Y140.4872
X154.5567 Y140.4334
X154.767 Y140.4036
X154.9841 Y140.3906
X155.1628 Y140.3942
X155.2521 Y140.4032
X155.4556 Y140.4535
X155.6369 Y140.5589
X155.7814 Y140.7108
X155.8775 Y140.8971
X155.9176 Y141.1029
G3 X155.6907 Y141.4122 I-0.3175 J0.0049
G1 X155.3327 Y141.5187
X153.0714 Y142.1917
X152.8123 Y142.2688
G3 X152.4132 Y142.0392 I-0.0906 J-0.3043
G1 X152.3877 Y141.8716
X152.3442 Y141.5365
X152.3344 Y141.4444
X152.3261 Y141.2946
X152.3493 Y141.1465
X152.3914 Y141.0025
X152.4483 Y140.8637
X152.5189 Y140.7298
X152.6024 Y140.5982
X152.7137 Y140.4506
X152.8398 Y140.3086
X152.9947 Y140.1602
X153.172 Y140.0157
X153.3649 Y139.8827
X153.5742 Y139.762
X153.8012 Y139.6543
X154.0366 Y139.5651
X154.2486 Y139.5036
X154.4721 Y139.4579
X154.6629 Y139.4346
X154.8415 Y139.4273
X155.0282 Y139.4346
X155.1867 Y139.4536
X155.3432 Y139.4854
X155.3766 Y139.495
X155.5515 Y139.5709
X155.7013 Y139.6889
X155.816 Y139.8412
X155.888 Y140.0178
X155.9125 Y140.2069
X155.9129 Y140.8664
X155.9141 Y141.0339
X155.9176 Y141.1029
G3 X155.6314 Y141.4238 I-0.3175 J0.0049
G1 X155.3199 Y141.4546
X152.9787 Y141.6862
X152.6801 Y141.7158
G3 X152.3344 Y141.4444 I-0.0313 J-0.3159
G1 X152.3264 Y141.369
X152.3183 Y140.4392
X152.3246 Y140.2893
X152.3504 Y140.1415
X152.393 Y139.9977
X152.4501 Y139.859
X152.5192 Y139.7258
X152.6048 Y139.5896
X152.7107 Y139.4479
X152.8317 Y139.3105
X152.9748 Y139.1723
X153.1394 Y139.037
X153.3186 Y138.9123
X153.5119 Y138.7997
X153.7179 Y138.701
X153.9368 Y138.6169
X154.1622 Y138.5506
X154.3884 Y138.5033
X154.5884 Y138.478
X154.7964 Y138.4686
X154.9708 Y138.4747
X155.1505 Y138.4956
X155.3158 Y138.5283
X155.3736 Y138.5447
X155.5494 Y138.6202
X155.7 Y138.7381
X155.8154 Y138.8907
X155.8878 Y139.0678
X155.9125 Y139.2575
Y140.2069
G3 X155.6198 Y140.5124 I-0.3173 J-0.0111
G1 X155.2984 Y140.5373
X152.935 Y140.7207
X152.6601 Y140.7421
G3 X152.3183 Y140.4392 I-0.0246 J-0.3165
G1 X152.3125 Y139.6936
Y139.4339
X152.32 Y139.2841
X152.3468 Y139.1365
X152.3903 Y138.993
X152.4483 Y138.8547
X152.5189 Y138.7223
X152.6016 Y138.5936
X152.705 Y138.4579
X152.8273 Y138.3216
X152.9651 Y138.191
X153.1261 Y138.0611
X153.3056 Y137.9388
X153.5004 Y137.8279
X153.7081 Y137.7307
X153.9261 Y137.6494
X154.1537 Y137.5847
X154.3822 Y137.5392
X154.588 Y137.5152
X154.7995 Y137.5076
X154.9759 Y137.5155
X155.1594 Y137.5385
X155.3248 Y137.573
X155.3804 Y137.5893
X155.5542 Y137.6657
X155.703 Y137.7838
X155.8168 Y137.9358
X155.8882 Y138.1118
X155.9125 Y138.3001
Y139.2575
G3 X155.6141 Y139.5633 I-0.3173 J-0.0111
G1 X155.298 Y139.5822
X152.9271 Y139.7232
X152.6487 Y139.7398
G3 X152.3125 Y139.4339 I-0.0189 J-0.3169
G1 Y138.4287
X152.32 Y138.2789
X152.3497 Y138.1319
X152.3961 Y137.9892
X152.4566 Y137.852
X152.5297 Y137.721
X152.6158 Y137.5924
X152.7206 Y137.4601
X152.847 Y137.3245
X152.9876 Y137.1962
X153.1502 Y137.0702
X153.3322 Y136.9512
X153.5315 Y136.8425
X153.7424 Y136.7488
X153.9635 Y136.671
X154.1937 Y136.6103
X154.4202 Y136.5697
X154.6281 Y136.5494
X154.8363 Y136.5459
X155.0111 Y136.557
X155.1956 Y136.5838
X155.3571 Y136.6206
X155.3938 Y136.6321
X155.6028 Y136.7364
X155.7689 Y136.9006
X155.8757 Y137.1083
X155.9125 Y137.3389
Y138.3001
G3 X155.609 Y138.6063 I-0.3173 J-0.0111
G1 X155.2977 Y138.6198
X152.9273 Y138.7225
X152.6436 Y138.7348
G3 X152.3125 Y138.4287 I-0.0137 J-0.3172
G1 Y137.4649
X152.32 Y137.3151
X152.3484 Y137.1678
X152.3938 Y137.0249
X152.454 Y136.8875
X152.5266 Y136.7562
X152.6109 Y136.6299
X152.717 Y136.4956
X152.8386 Y136.3647
X152.9793 Y136.2359
X153.1431 Y136.1084
X153.324 Y135.9896
X153.5187 Y135.8831
X153.7288 Y135.7892
X153.9494 Y135.7112
X154.1805 Y135.6498
X154.4139 Y135.6075
X154.6132 Y135.5878
X154.8269 Y135.5838
X155.0158 Y135.5955
X155.177 Y135.6186
X155.3516 Y135.6581
X155.3926 Y135.6709
X155.602 Y135.775
X155.7686 Y135.9392
X155.8756 Y136.1471
X155.9125 Y136.378
Y137.3389
G3 X155.6087 Y137.645 I-0.3173 J-0.0111
G1 X155.2977 Y137.6582
X152.9273 Y137.759
X152.6433 Y137.7711
G3 X152.3125 Y137.4649 I-0.0135 J-0.3172
G1 Y136.5104
X152.32 Y136.3606
X152.3466 Y136.213
X152.3907 Y136.0696
X152.4498 Y135.9317
X152.5216 Y135.8
X152.6042 Y135.6745
X152.7085 Y135.541
X152.8281 Y135.4108
X152.967 Y135.2821
X153.1298 Y135.154
X153.3084 Y135.0352
X153.5009 Y134.9286
X153.71 Y134.8337
X153.932 Y134.7537
X154.1604 Y134.6917
X154.3952 Y134.6478
X154.5968 Y134.6266
X154.8102 Y134.6215
X155.002 Y134.6323
X155.1644 Y134.6546
X155.3383 Y134.6929
X155.3886 Y134.7083
X155.5995 Y134.8118
X155.7673 Y134.9761
X155.8753 Y135.1847
X155.9125 Y135.4167
Y136.378
G3 X155.6094 Y136.6841 I-0.3173 J-0.0111
G1 X155.2978 Y136.698
X152.9273 Y136.8038
X152.644 Y136.8165
G3 X152.3125 Y136.5104 I-0.0142 J-0.3172
G1 Y135.5051
X152.32 Y135.3553
X152.3525 Y135.2089
X152.4015 Y135.0671
X152.4643 Y134.9309
X152.5396 Y134.8012
X152.6288 Y134.6727
X152.7359 Y134.5421
X152.8654 Y134.4079
X153.0092 Y134.281
X153.1747 Y134.1572
X153.3588 Y134.0411
X153.5612 Y133.9353
X153.7757 Y133.8442
X153.9997 Y133.7696
X154.2307 Y133.7129
X154.4557 Y133.6765
X154.6547 Y133.6604
X154.8704 Y133.6605
X155.0513 Y133.6751
X155.2126 Y133.7012
X155.3897 Y133.7448
X155.4058 Y133.7501
X155.6104 Y133.8561
X155.7726 Y134.0198
X155.8767 Y134.2254
X155.9125 Y134.453
Y135.4167
G3 X155.6047 Y135.7229 I-0.3173 J-0.0111
G1 X155.2976 Y135.7321
X152.9274 Y135.8028
X152.6393 Y135.8114
G3 X152.3125 Y135.5051 I-0.0095 J-0.3174
G1 X152.3116 Y135.0025
X152.3105 Y134.725
X152.2995 Y134.7109
X152.2763 Y134.6815
X152.2711 Y134.5315
X152.2888 Y134.3826
X152.325 Y134.237
X152.3767 Y134.0962
X152.4421 Y133.9612
X152.5199 Y133.8309
X152.6123 Y133.7011
X152.7271 Y133.5645
X152.8571 Y133.4329
X153.0072 Y133.3036
X153.1799 Y133.1774
X153.3692 Y133.0612
X153.5726 Y132.9579
X153.7901 Y132.8685
X154.0179 Y132.7957
X154.2512 Y132.7413
X154.483 Y132.7065
X154.6802 Y132.693
X154.8939 Y132.6955
X155.075 Y132.7123
X155.2353 Y132.7402
X155.414 Y132.7867
X155.6157 Y132.8938
X155.7752 Y133.0571
X155.8773 Y133.2612
X155.9125 Y133.4868
Y134.453
G3 X155.5951 Y134.7594 I-0.3173 J-0.0111
G1 X155.2975 Y134.7593
X153.076 Y134.7585
X152.4662 Y134.7583
G3 X152.2995 Y134.7109 I0.0001 J-0.3175
G1 X152.2662 Y134.6888
X152.2551 Y134.6875
X152.171
X152.1336 Y134.6856
X152.0247 Y134.5824
X151.946 Y134.4547
X151.8931 Y134.3143
X151.8625 Y134.1675
X151.8514 Y134.0179
X151.8573 Y133.868
X151.8784 Y133.7195
X151.9135 Y133.5737
X151.9626 Y133.4263
X152.0253 Y133.2788
X152.1074 Y133.1218
X152.2085 Y132.9615
X152.3256 Y132.8051
X152.466 Y132.646
X152.6299 Y132.4879
X152.8118 Y132.3388
X153.0118 Y132.2
X153.2329 Y132.0715
X153.4672 Y131.9595
X153.7155 Y131.8645
X153.97 Y131.7898
X154.2257 Y131.7367
X154.479 Y131.7049
X154.6868 Y131.6958
X154.9089 Y131.7038
X155.0952 Y131.7256
X155.2603 Y131.7585
X155.3744 Y131.7909
X155.5499 Y131.8665
X155.7003 Y131.9845
X155.8155 Y132.137
X155.8878 Y132.3139
X155.9125 Y132.5035
Y133.4868
G3 X155.6752 Y133.783 I-0.3173 J-0.0111
G1 X155.3088 Y133.8784
X152.9325 Y134.4971
X152.2399 Y134.6774
X152.171 Y134.6875
X151.8864
X151.8115 Y134.6837
X151.6774 Y134.6166
X151.5607 Y134.5224
X151.4619 Y134.4095
X151.3807 Y134.2834
X151.3163 Y134.1479
X151.2678 Y134.0059
X151.2341 Y133.8598
X151.2144 Y133.7111
X151.208 Y133.5612
X151.214 Y133.4009
X151.2334 Y133.2368
X151.269 Y133.0598
X151.3225 Y132.8726
X151.3926 Y132.6856
X151.4841 Y132.491
X151.5991 Y132.2899
X151.7361 Y132.0896
X151.8931 Y131.8955
X152.0761 Y131.7032
X152.2851 Y131.5162
X152.5183 Y131.3391
X152.7724 Y131.1766
X153.0434 Y131.0324
X153.3258 Y130.9102
X153.6156 Y130.8115
X153.9074 Y130.7377
X154.1939 Y130.6892
X154.4606 Y130.6659
X154.7151 Y130.6642
X154.9273 Y130.6798
X155.1278 Y130.7109
X155.3138 Y130.7553
X155.4009 Y130.7837
X155.6073 Y130.8889
X155.7711 Y131.0528
X155.8763 Y131.2593
X155.9125 Y131.4881
Y132.5035
G3 X155.7383 Y132.7758 I-0.3173 J-0.0111
G1 X155.34 Y132.9769
X152.5969 Y134.3616
X152.0184 Y134.6536
G3 X151.8864 Y134.6875 I-0.1431 J-0.2834
G1 X151.4588
X151.309 Y134.68
X151.1684 Y134.6279
X151.0391 Y134.5518
X150.9225 Y134.4574
X150.8192 Y134.3487
X150.7289 Y134.2289
X150.6517 Y134.1003
X150.5871 Y133.9649
X150.5344 Y133.8245
X150.4917 Y133.6748
X150.4582 Y133.5078
X150.437 Y133.3279
X150.4301 Y133.1411
X150.4389 Y132.9373
X150.4659 Y132.7194
X150.5116 Y132.4987
X150.5786 Y132.2693
X150.6704 Y132.0288
X150.7884 Y131.7813
X150.9298 Y131.5374
X151.0977 Y131.2949
X151.2963 Y131.0523
X151.5249 Y130.8148
X151.7816 Y130.5878
X152.0637 Y130.3761
X152.3669 Y130.1845
X152.6881 Y130.016
X153.0222 Y129.8737
X153.3628 Y129.7599
X153.6992 Y129.6769
X154.0283 Y129.6232
X154.3487 Y129.597
X154.6131 Y129.5968
X154.8764 Y129.6177
X155.0874 Y129.6517
X155.2725 Y129.6969
X155.405 Y129.7409
X155.6099 Y129.8467
X155.7724 Y130.0104
X155.8766 Y130.2162
X155.9125 Y130.444
Y131.4881
G3 X155.7769 Y131.7375 I-0.3173 J-0.0111
G1 X155.374 Y132.0184
X152.1241 Y134.2855
X151.6294 Y134.6306
G3 X151.4588 Y134.6875 I-0.1817 J-0.2604
G1 X150.8804
X150.7306 Y134.68
X150.5847 Y134.6451
X150.4467 Y134.5863
X150.3182 Y134.5089
X150.2001 Y134.4165
X150.0928 Y134.3116
X149.9962 Y134.1969
X149.91 Y134.0741
X149.8315 Y133.9395
X149.7571 Y133.7847
X149.6936 Y133.6197
X149.6395 Y133.4366
X149.5968 Y133.2328
X149.5696 Y133.0191
X149.559 Y132.7905
X149.5676 Y132.5409
X149.5979 Y132.277
X149.6506 Y132.0101
X149.7294 Y131.731
X149.8378 Y131.4391
X149.9779 Y131.1383
X150.1482 Y130.8382
X150.3472 Y130.5453
X150.5812 Y130.2541
X150.8502 Y129.9696
X151.152 Y129.6977
X151.4836 Y129.4442
X151.8409 Y129.2139
X152.2178 Y129.0118
X152.6087 Y128.841
X153.0084 Y128.7035
X153.4013 Y128.6027
X153.7881 Y128.536
X154.1535 Y128.5029
X154.4799 Y128.4996
X154.7574 Y128.5191
X155.0117 Y128.5577
X155.2079 Y128.6038
X155.4124 Y128.6696
X155.4544 Y128.687
X155.6412 Y128.7987
X155.7874 Y128.9598
X155.8806 Y129.1565
X155.9125 Y129.3717
Y130.444
G3 X155.7984 Y130.6769 I-0.3173 J-0.0111
G1 X155.4002 Y131.0086
X151.515 Y134.2455
X151.0725 Y134.6141
G3 X150.8804 Y134.6875 I-0.2032 J-0.2439
G1 X150.1175
X149.9677 Y134.68
X149.8227 Y134.6417
X149.6844 Y134.5834
X149.5542 Y134.509
X149.4327 Y134.4211
X149.3204 Y134.3216
X149.2165 Y134.2122
X149.1176 Y134.0896
X149.0184 Y133.9442
X148.9274 Y133.7846
X148.8438 Y133.6061
X148.7673 Y133.4015
X148.7054 Y133.1838
X148.6583 Y132.948
X148.6277 Y132.6868
X148.6175 Y132.4051
X148.6302 Y132.1167
X148.669 Y131.8062
X148.7376 Y131.4761
X148.8384 Y131.1321
X148.9708 Y130.7861
X149.1359 Y130.4407
X149.3407 Y130.0881
X149.5861 Y129.7343
X149.8718 Y129.3859
X150.1964 Y129.0493
X150.5569 Y128.731
X150.9495 Y128.4369
X151.3696 Y128.172
X151.8099 Y127.9415
X152.2645 Y127.7482
X152.7242 Y127.5951
X153.1778 Y127.4835
X153.6135 Y127.4128
X154.0287 Y127.3793
X154.4048 Y127.3792
X154.7066 Y127.4035
X154.9833 Y127.4483
X155.2033 Y127.5023
X155.3979 Y127.567
X155.4612 Y127.5939
X155.6454 Y127.7063
X155.7895 Y127.867
X155.8811 Y128.0623
X155.9125 Y128.2758
Y129.3717
G3 X155.8092 Y129.5951 I-0.3173 J-0.0111
G1 X155.4158 Y129.9542
X150.7353 Y134.2261
X150.3205 Y134.6047
G3 X150.1175 Y134.6875 I-0.214 J-0.2345
G1 X149.3714
X149.2216 Y134.68
X149.0739 Y134.6539
X148.9313 Y134.6073
X148.7953 Y134.544
X148.667 Y134.4663
X148.5465 Y134.3769
X148.434 Y134.2777
X148.3165 Y134.156
X148.2049 Y134.02
X148.0949 Y133.8615
X147.9876 Y133.6769
X147.893 Y133.4792
X147.8064 Y133.253
X147.7317 Y132.9984
X147.6763 Y132.7323
X147.6393 Y132.4371
X147.6248 Y132.111
X147.6372 Y131.7651
X147.6784 Y131.4122
X147.753 Y131.0374
X147.8652 Y130.6428
X148.0181 Y130.2332
X148.2139 Y129.8147
X148.449 Y129.402
X148.7254 Y128.9965
X149.05 Y128.594
X149.4207 Y128.2032
X149.8337 Y127.8325
X150.2843 Y127.4891
X150.7667 Y127.1794
X151.2737 Y126.9087
X151.7966 Y126.6813
X152.3252 Y126.5004
X152.8511 Y126.3665
X153.3596 Y126.2797
X153.8168 Y126.239
X154.2343 Y126.2355
X154.606 Y126.2623
X154.8936 Y126.3064
X155.1488 Y126.3669
X155.3475 Y126.4312
X155.4556 Y126.476
X155.6419 Y126.5878
X155.7878 Y126.7489
X155.8806 Y126.9454
X155.9125 Y127.1603
Y128.2758
G3 X155.8173 Y128.4916 I-0.3173 J-0.0111
G1 X155.4288 Y128.8721
X149.9757 Y134.2119
X149.5824 Y134.597
G3 X149.3714 Y134.6875 I-0.2221 J-0.2269
G1 X148.4823
X148.3325 Y134.68
X148.1852 Y134.6516
X148.0428 Y134.6044
X147.9066 Y134.5415
X147.7772 Y134.4658
X147.6549 Y134.3789
X147.5264 Y134.2709
X147.4033 Y134.1492
X147.2751 Y134.0005
X147.1532 Y133.8335
X147.0361 Y133.6428
X146.922 Y133.4181
X146.8236 Y133.1787
X146.7365 Y132.9061
X146.6648 Y132.5987
X146.616 Y132.2729
X146.5922 Y131.9254
X146.5968 Y131.5421
X146.6353 Y131.1269
X146.7111 Y130.6919
X146.8245 Y130.2535
X146.9833 Y129.7948
X147.1904 Y129.3231
X147.4483 Y128.8442
X147.7584 Y128.3651
X148.1205 Y127.8934
X148.5328 Y127.4373
X148.9921 Y127.0048
X149.4926 Y126.6042
X150.0296 Y126.241
X150.5971 Y125.9203
X151.1863 Y125.6472
X151.7853 Y125.4261
X152.3735 Y125.2612
X152.9428 Y125.1499
X153.4845 Y125.0886
X153.9786 Y125.0727
X154.4026 Y125.0931
X154.7411 Y125.1367
X155.0411 Y125.2003
X155.2619 Y125.266
X155.4731 Y125.3477
X155.4938 Y125.3577
X155.6657 Y125.4728
X155.7991 Y125.631
X155.8836 Y125.82
X155.9125 Y126.0249
Y127.1603
G3 X155.8212 Y127.3722 I-0.3173 J-0.0111
G1 X155.4355 Y127.7632
X149.08 Y134.2052
X148.6973 Y134.5932
G3 X148.4823 Y134.6875 I-0.226 J-0.223
G1 X147.527
X147.3772 Y134.68
X147.2309 Y134.647
X147.0894 Y134.5973
X146.9538 Y134.5331
X146.8245 Y134.457
X146.6937 Y134.3647
X146.5575 Y134.2511
X146.424 Y134.1202
X146.2832 Y133.9581
X146.1526 Y133.7808
X146.0214 Y133.5691
X145.8972 Y133.327
X145.7892 Y133.0671
X145.691 Y132.7642
X145.61 Y132.4233
X145.5554 Y132.0685
X145.5265 Y131.6702
X145.5299 Y131.2353
X145.5713 Y130.7677
X145.6524 Y130.291
X145.7783 Y129.7957
X145.957 Y129.2729
X146.1917 Y128.7323
X146.4844 Y128.1834
X146.8358 Y127.6356
X147.245 Y127.0979
X147.7096 Y126.5798
X148.2256 Y126.0898
X148.7875 Y125.6363
X149.3903 Y125.225
X150.0272 Y124.8616
X150.686 Y124.553
X151.3511 Y124.3043
X152.0103 Y124.1166
X152.6516 Y123.9885
X153.2569 Y123.9175
X153.8085 Y123.8975
X154.2791 Y123.9182
X154.6844 Y123.9688
X154.9805 Y124.0302
X155.2357 Y124.105
X155.4374 Y124.1822
X155.491 Y124.2078
X155.664 Y124.3227
X155.7983 Y124.4811
X155.8834 Y124.6706
X155.9125 Y124.8763
Y126.0249
G3 X155.8235 Y126.2345 I-0.3173 J-0.0111
G1 X155.4395 Y126.6317
X148.1208 Y134.2014
X147.7442 Y134.5909
G3 X147.527 Y134.6875 I-0.2283 J-0.2207
G1 X146.5965
X146.4467 Y134.68
X146.2993 Y134.652
X146.1563 Y134.6066
X146.0186 Y134.5471
X145.8869 Y134.4754
X145.7492 Y134.3853
X145.6112 Y134.2782
X145.4635 Y134.1432
X145.3227 Y133.9921
X145.1731 Y133.8032
X145.0343 Y133.5957
X144.8993 Y133.3537
X144.769 Y133.0688
X144.6596 Y132.7673
X144.5637 Y132.4182
X144.4878 Y132.0187
X144.4424 Y131.5971
X144.4302 Y131.1466
X144.4566 Y130.6523
X144.5284 Y130.1181
X144.6518 Y129.5503
X144.8294 Y128.9645
X145.0589 Y128.381
X145.3549 Y127.7761
X145.719 Y127.1622
X146.1452 Y126.5598
X146.6176 Y125.9932
X147.1319 Y125.4641
X147.6837 Y124.9743
X148.2695 Y124.5257
X148.8857 Y124.12
X149.5293 Y123.7593
X150.198 Y123.4473
X150.888 Y123.1862
X151.5957 Y122.9776
X152.311 Y122.8254
X152.9682 Y122.7399
X153.5739 Y122.7103
X154.1128 Y122.7272
X154.5616 Y122.7775
X154.889 Y122.8412
X155.1766 Y122.9215
X155.3871 Y122.9991
X155.4826 Y123.0432
X155.6588 Y123.1574
X155.7959 Y123.3166
X155.8828 Y123.5077
X155.9125 Y123.7156
Y124.8763
G3 X155.8256 Y125.0836 I-0.3173 J-0.0111
G1 X155.4434 Y125.4868
X147.1864 Y134.1977
X146.8158 Y134.5886
G3 X146.5965 Y134.6875 I-0.2304 J-0.2184
G1 X145.5905
X145.4407 Y134.68
X145.2936 Y134.6505
X145.1507 Y134.6048
X145.0131 Y134.5452
X144.8809 Y134.4742
X144.7337 Y134.3792
X144.5907 Y134.2695
X144.4348 Y134.1289
X144.2859 Y133.9709
X144.1305 Y133.7773
X143.9786 Y133.553
X143.8347 Y133.2988
X143.6933 Y132.9945
X143.5718 Y132.6662
X143.4683 Y132.2982
X143.3851 Y131.8741
X143.3312 Y131.4019
X143.3151 Y130.9159
X143.3408 Y130.3722
X143.4168 Y129.78
X143.5484 Y129.1561
X143.7418 Y128.5036
X144.0006 Y127.8336
X144.319 Y127.1726
X144.6916 Y126.5357
X145.1114 Y125.929
X145.5735 Y125.3538
X146.0739 Y124.8116
X146.6091 Y124.3038
X147.1762 Y123.8318
X147.7724 Y123.3971
X148.3949 Y123.0011
X149.0417 Y122.6461
X149.7111 Y122.3358
X150.4002 Y122.0721
X151.1056 Y121.8557
X151.8241 Y121.6883
X152.5531 Y121.574
X153.2455 Y121.5206
X153.8254 Y121.5226
X154.3421 Y121.5659
X154.7438 Y121.6324
X155.0613 Y121.7116
X155.2996 Y121.7918
X155.5173 Y121.8854
X155.6803 Y122.002
X155.8061 Y122.1581
X155.8854 Y122.3421
X155.9125 Y122.5406
Y123.7156
G3 X155.8266 Y123.9219 I-0.3173 J-0.0111
G1 X155.4453 Y124.328
X146.1785 Y134.196
X145.8108 Y134.5875
G3 X145.5905 Y134.6875 I-0.2314 J-0.2173
G1 X144.5845
X144.4347 Y134.68
X144.2871 Y134.653
X144.1436 Y134.6095
X144.0048 Y134.5525
X143.866 Y134.4809
X143.7201 Y134.3903
X143.567 Y134.2772
X143.4086 Y134.1391
X143.2504 Y133.9772
X143.0838 Y133.7767
X142.9298 Y133.5579
X142.7701 Y133.2869
X142.623 Y132.9841
X142.4889 Y132.6406
X142.3687 Y132.2401
X142.2732 Y131.7948
X142.2112 Y131.3244
X142.1838 Y130.7834
X142.2016 Y130.1828
X142.2736 Y129.5316
X142.402 Y128.8651
X142.5938 Y128.1744
X142.8475 Y127.4816
X143.1536 Y126.8103
X143.5074 Y126.1628
X143.9047 Y125.5411
X144.3418 Y124.9467
X144.8155 Y124.381
X145.3227 Y123.8452
X145.8609 Y123.3405
X146.4283 Y122.8689
X147.0231 Y122.4323
X147.6426 Y122.0316
X148.2849 Y121.6685
X148.9478 Y121.3446
X149.629 Y121.0612
X150.3261 Y120.8194
X151.0367 Y120.6208
X151.7583 Y120.4672
X152.4888 Y120.363
X153.192 Y120.3175
X153.8251 Y120.3276
X154.3528 Y120.3785
X154.779 Y120.4545
X155.0824 Y120.5342
X155.3282 Y120.6203
X155.4721 Y120.6842
X155.6523 Y120.7976
X155.7927 Y120.9575
X155.8819 Y121.1507
X155.9125 Y121.3614
Y122.5406
G3 X155.3392 Y122.7174 I-0.3173 J-0.0111
G1 X155.2974 Y122.6604 Z-1.992
X155.2577 Y122.6063 Z-1.9686
X155.2221 Y122.5578 Z-1.9307
X155.1924 Y122.5173 Z-1.8805
X155.17 Y122.4868 Z-1.8203
X155.1561 Y122.4678 Z-1.7532
X155.1514 Y122.4614 Z-1.6825
G0 Z5
X145.6109 Y134.3039
Z-1.365
G1 Z-1.6825 F3500
X145.6041 Y134.308 Z-1.7532
X145.5839 Y134.32 Z-1.8203
X145.5514 Y134.3393 Z-1.8805
X145.5082 Y134.365 Z-1.9307
X145.4565 Y134.3958 Z-1.9686
X145.3988 Y134.4301 Z-1.992
X145.338 Y134.4662 Z-2
G3 X144.5845 Y134.6875 I-0.8088 J-1.3603
G1 X143.5785
X143.4286 Y134.68
X143.2802 Y134.6582
X143.1353 Y134.6194
X142.9948 Y134.5668
X142.8513 Y134.4981
X142.707 Y134.4142
X142.548 Y134.3038
X142.3905 Y134.1745
X142.2231 Y134.0128
X142.0556 Y133.8229
X141.888 Y133.5989
X141.7161 Y133.3259
X141.5625 Y133.032
X141.4125 Y132.6786
X141.276 Y132.2681
X141.1701 Y131.8361
X141.0874 Y131.325
X141.0406 Y130.7401
X141.0409 Y130.1079
X141.0932 Y129.4612
X141.2081 Y128.7541
X141.3846 Y128.0377
X141.6147 Y127.3367
X141.8939 Y126.6537
X142.218 Y125.9909
X142.5835 Y125.35
X142.9873 Y124.7325
X143.4267 Y124.1398
X143.8998 Y123.5736
X144.4047 Y123.0356
X144.9389 Y122.5266
X145.5002 Y122.0478
X146.0866 Y121.6001
X146.6964 Y121.1847
X147.3277 Y120.8027
X147.9786 Y120.4554
X148.6474 Y120.1439
X149.3322 Y119.869
X150.0309 Y119.632
X150.7419 Y119.4351
X151.4636 Y119.2816
X152.1936 Y119.1746
X152.9292 Y119.1178
X153.6115 Y119.116
X154.18 Y119.1603
X154.6532 Y119.2357
X154.998 Y119.3195
X155.2593 Y119.4058
X155.4805 Y119.499
X155.5134 Y119.5162
X155.6779 Y119.6326
X155.8049 Y119.789
X155.8851 Y119.9738
X155.9125 Y120.1735
Y121.3614
G3 X155.3392 Y121.5381 I-0.3173 J-0.0111
G1 X155.2974 Y121.4812 Z-1.992
X155.2577 Y121.427 Z-1.9686
X155.2221 Y121.3785 Z-1.9307
X155.1924 Y121.338 Z-1.8805
X155.17 Y121.3075 Z-1.8203
X155.1561 Y121.2886 Z-1.7531
X155.1514 Y121.2821 Z-1.6825
G0 Z5
X144.6049 Y134.3039
Z-1.365
G1 Z-1.6825 F3500
X144.5981 Y134.308 Z-1.7532
X144.5779 Y134.32 Z-1.8203
X144.5454 Y134.3393 Z-1.8805
X144.5022 Y134.365 Z-1.9307
X144.4504 Y134.3958 Z-1.9686
X144.3928 Y134.4301 Z-1.992
X144.332 Y134.4662 Z-2
G3 X143.5785 Y134.6875 I-0.8088 J-1.3603
G1 X142.497
X142.3472 Y134.68
X142.1992 Y134.6558
X142.0546 Y134.6159
X141.9145 Y134.5622
X141.7729 Y134.4942
X141.6176 Y134.4036
X141.4611 Y134.2947
X141.2906 Y134.1544
X141.1237 Y133.9929
X140.9418 Y133.7861
X140.7727 Y133.5595
X140.5963 Y133.2787
X140.4304 Y132.9602
X140.2768 Y132.5972
X140.1304 Y132.155
X140.0132 Y131.6749
X139.9271 Y131.1383
X139.8791 Y130.5297
X139.8802 Y129.8516
X139.94 Y129.1235
X140.0592 Y128.3954
X140.2332 Y127.6784
X140.4582 Y126.9757
X140.729 Y126.2894
X141.0416 Y125.6211
X141.3928 Y124.9722
X141.7799 Y124.3441
X142.2007 Y123.738
X142.6533 Y123.1553
X143.1359 Y122.5973
X143.6466 Y122.0648
X144.1837 Y121.559
X144.7457 Y121.0808
X145.3314 Y120.6322
X145.9392 Y120.2139
X146.5671 Y119.8265
X147.2135 Y119.4707
X147.8766 Y119.1473
X148.555 Y118.8571
X149.247 Y118.6013
X149.9513 Y118.3813
X150.6662 Y118.199
X151.3902 Y118.0566
X152.1212 Y117.9564
X152.8571 Y117.9039
X153.5523 Y117.9055
X154.161 Y117.9559
X154.6511 Y118.0366
X154.9867 Y118.1199
X155.2691 Y118.2146
X155.4806 Y118.3051
X155.5167 Y118.3241
X155.6799 Y118.4406
X155.8059 Y118.5967
X155.8854 Y118.7809
X155.9125 Y118.9797
Y120.1735
G3 X155.3392 Y120.3502 I-0.3173 J-0.0111
G1 X155.2974 Y120.2932 Z-1.992
X155.2577 Y120.2391 Z-1.9686
X155.2221 Y120.1906 Z-1.9307
X155.1924 Y120.1501 Z-1.8805
X155.17 Y120.1196 Z-1.8203
X155.1561 Y120.1006 Z-1.7532
X155.1514 Y120.0942 Z-1.6825
G0 Z5
X143.5235 Y134.3039
Z-1.365
G1 Z-1.6825 F3500
X143.5166 Y134.308 Z-1.7532
X143.4965 Y134.32 Z-1.8203
X143.4639 Y134.3393 Z-1.8805
X143.4207 Y134.365 Z-1.9307
X143.369 Y134.3958 Z-1.9686
X143.3113 Y134.4301 Z-1.992
X143.2506 Y134.4662 Z-2
G3 X142.497 Y134.6875 I-0.8088 J-1.3603
G1 X141.3988
X141.249 Y134.68
X141.1012 Y134.6542
X140.9569 Y134.6131
X140.8171 Y134.5588
X140.6692 Y134.4871
X140.5133 Y134.3954
X140.3479 Y134.2792
X140.1768 Y134.1373
X140.001 Y133.966
X139.8176 Y133.7558
X139.6384 Y133.5139
X139.4501 Y133.2115
X139.2827 Y132.8872
X139.1178 Y132.4933
X138.9644 Y132.024
X138.8466 Y131.5333
X138.7555 Y130.9514
X138.7054 Y130.2839
X138.7093 Y129.5579
X138.7725 Y128.8228
X138.8908 Y128.0945
X139.0612 Y127.3766
X139.2789 Y126.6717
X139.5393 Y125.9813
X139.8389 Y125.3071
X140.1747 Y124.6501
X140.5446 Y124.0117
X140.9465 Y123.3929
X141.3786 Y122.7949
X141.8394 Y122.2187
X142.3272 Y121.6652
X142.8407 Y121.1353
X143.3784 Y120.6301
X143.9399 Y120.1515
X144.5238 Y119.7004
X145.1281 Y119.2772
X145.7514 Y118.8824
X146.3922 Y118.5166
X147.049 Y118.1804
X147.7204 Y117.8746
X148.4052 Y117.6
X149.1021 Y117.3576
X149.8098 Y117.1489
X150.5268 Y116.9751
X151.2517 Y116.8379
X151.9832 Y116.7414
X152.7193 Y116.6908
X153.4571 Y116.6904
X154.073 Y116.7387
X154.5993 Y116.823
X154.9519 Y116.9089
X155.2474 Y117.0066
X155.4619 Y117.0972
X155.5138 Y117.1242
X155.6781 Y117.2407
X155.805 Y117.397
X155.8851 Y117.5818
X155.9125 Y117.7813
Y118.9797
G3 X155.3392 Y119.1564 I-0.3173 J-0.0111
G1 X155.2974 Y119.0994 Z-1.992
X155.2577 Y119.0453 Z-1.9686
X155.2221 Y118.9968 Z-1.9307
X155.1924 Y118.9563 Z-1.8805
X155.17 Y118.9258 Z-1.8203
X155.1561 Y118.9068 Z-1.7532
X155.1514 Y118.9004 Z-1.6825
G0 Z5
X142.4252 Y134.3039
Z-1.365
G1 Z-1.6825 F3500
X142.4184 Y134.308 Z-1.7532
X142.3982 Y134.32 Z-1.8203
X142.3657 Y134.3393 Z-1.8805
X142.3225 Y134.365 Z-1.9307
X142.2708 Y134.3958 Z-1.9686
X142.2131 Y134.4301 Z-1.992
X142.1523 Y134.4662 Z-2
G3 X141.3988 Y134.6875 I-0.8088 J-1.3603
G1 X140.3173
X140.1675 Y134.68
X140.0193 Y134.6567
X139.8745 Y134.6175
X139.7338 Y134.5655
X139.5787 Y134.4927
X139.4258 Y134.4053
X139.2525 Y134.287
X139.085 Y134.1517
X138.8967 Y133.9727
X138.7186 Y133.7739
X138.5234 Y133.5172
X138.3389 Y133.2292
X138.1587 Y132.891
X137.9782 Y132.4745
X137.8277 Y132.0333
X137.6926 Y131.5007
X137.5862 Y130.8741
X137.5256 Y130.1846
X137.5202 Y129.4571
X137.5739 Y128.7213
X137.6815 Y127.9913
X137.8376 Y127.2702
X138.0376 Y126.56
X138.278 Y125.8625
X138.5559 Y125.179
X138.8687 Y124.5108
X139.2143 Y123.8589
X139.5907 Y123.2244
X139.9965 Y122.6081
X140.4301 Y122.0112
X140.8904 Y121.4345
X141.3766 Y120.8796
X141.8871 Y120.3469
X142.4208 Y119.8374
X142.9765 Y119.3521
X143.5531 Y118.8917
X144.1491 Y118.4568
X144.7632 Y118.0479
X145.3942 Y117.6655
X146.0409 Y117.3103
X146.702 Y116.9828
X147.3764 Y116.6836
X148.0631 Y116.4135
X148.7608 Y116.1735
X149.4686 Y115.9652
X150.1853 Y115.7902
X150.9098 Y115.6505
X151.6405 Y115.5485
X152.3758 Y115.4873
X153.1134 Y115.4706
X153.8299 Y115.5052
X154.3836 Y115.5768
X154.8218 Y115.6698
X155.1407 Y115.7647
X155.3778 Y115.8566
X155.4939 Y115.9127
X155.6658 Y116.0278
X155.7992 Y116.186
X155.8836 Y116.3749
X155.9125 Y116.5798
Y117.7813
G3 X155.3392 Y117.9581 I-0.3173 J-0.0111
G1 X155.2974 Y117.9011 Z-1.992
X155.2577 Y117.847 Z-1.9686
X155.2221 Y117.7985 Z-1.9307
X155.1924 Y117.7579 Z-1.8805
X155.17 Y117.7274 Z-1.8203
X155.1561 Y117.7085 Z-1.7532
X155.1514 Y117.7021 Z-1.6825
G0 Z5
X141.3438 Y134.3039
Z-1.365
G1 Z-1.6825 F3500
X141.337 Y134.308 Z-1.7532
X141.3168 Y134.32 Z-1.8203
X141.2843 Y134.3393 Z-1.8805
X141.241 Y134.365 Z-1.9307
X141.1893 Y134.3958 Z-1.9686
X141.1316 Y134.4301 Z-1.992
X141.0709 Y134.4662 Z-2
G3 X140.3173 Y134.6875 I-0.8088 J-1.3603
G1 X139.2191
X139.0693 Y134.68
X138.9208 Y134.6586
X138.7756 Y134.6211
X138.6342 Y134.5709
X138.4788 Y134.5004
X138.3253 Y134.4153
X138.1499 Y134.2987
X137.9801 Y134.165
X137.7869 Y133.986
X137.6044 Y133.7873
X137.4058 Y133.5328
X137.2175 Y133.247
X137.0276 Y132.9011
X136.8375 Y132.4774
X136.6771 Y132.026
X136.5285 Y131.4697
X136.4109 Y130.8261
X136.341 Y130.1321
X136.3263 Y129.3945
X136.3701 Y128.6579
X136.4651 Y127.9263
X136.6061 Y127.202
X136.7888 Y126.4872
X137.0101 Y125.7834
X137.2672 Y125.0918
X137.5578 Y124.4136
X137.8801 Y123.7499
X138.2324 Y123.1016
X138.613 Y122.4696
X139.0207 Y121.8546
X139.4543 Y121.2577
X139.9137 Y120.6804
X140.3974 Y120.1232
X140.9042 Y119.587
X141.4328 Y119.0723
X141.9822 Y118.5798
X142.5513 Y118.1102
X143.1388 Y117.6639
X143.7438 Y117.2416
X144.3652 Y116.8437
X145.0018 Y116.4707
X145.6526 Y116.1232
X146.3167 Y115.8016
X146.9929 Y115.5066
X147.6805 Y115.2389
X148.3784 Y114.9996
X149.0861 Y114.7909
X149.8023 Y114.6136
X150.5258 Y114.4693
X151.2554 Y114.3596
X151.9897 Y114.2869
X152.7268 Y114.2545
X153.4645 Y114.2671
X154.1194 Y114.3275
X154.6273 Y114.4159
X154.9881 Y114.509
X155.2708 Y114.6068
X155.4912 Y114.7035
X155.5227 Y114.7204
X155.6836 Y114.8373
X155.8076 Y114.9928
X155.8858 Y115.1757
X155.9125 Y115.3728
Y116.5798
G3 X155.3392 Y116.7565 I-0.3173 J-0.0111
G1 X155.2974 Y116.6995 Z-1.992
X155.2577 Y116.6454 Z-1.9686
X155.2221 Y116.5969 Z-1.9307
X155.1924 Y116.5564 Z-1.8805
X155.17 Y116.5259 Z-1.8203
X155.1561 Y116.5069 Z-1.7532
X155.1514 Y116.5005 Z-1.6825
G0 Z5
X140.2456 Y134.3039
Z-1.365
G1 Z-1.6825 F3500
X140.2387 Y134.308 Z-1.7532
X140.2185 Y134.32 Z-1.8203
X140.186 Y134.3393 Z-1.8805
X140.1428 Y134.365 Z-1.9307
X140.0911 Y134.3958 Z-1.9686
X140.0334 Y134.4301 Z-1.992
X139.9727 Y134.4662 Z-2
G3 X139.2191 Y134.6875 I-0.8088 J-1.3603
G1 X138.0454
X137.8956 Y134.68
X137.7482 Y134.6525
X137.6041 Y134.6107
X137.4582 Y134.5541
X137.303 Y134.479
X137.1387 Y134.3826
X136.9621 Y134.2588
X136.7809 Y134.1089
X136.5864 Y133.9195
X136.3907 Y133.6958
X136.1946 Y133.4314
X135.9877 Y133.0999
X135.8018 Y132.7406
X135.6095 Y132.2822
X135.4376 Y131.7579
X135.3002 Y131.1878
X135.1945 Y130.5166
X135.1386 Y129.7809
X135.1407 Y129.0431
X135.1942 Y128.3072
X135.294 Y127.5762
X135.4358 Y126.8521
X135.6166 Y126.1368
X135.8344 Y125.4319
X136.0864 Y124.7384
X136.3703 Y124.0574
X136.6841 Y123.3897
X137.0264 Y122.736
X137.3955 Y122.0972
X137.7906 Y121.4741
X138.2105 Y120.8674
X138.6546 Y120.2783
X139.122 Y119.7073
X139.6116 Y119.1553
X140.1223 Y118.6229
X140.6534 Y118.1107
X141.2036 Y117.6192
X141.7724 Y117.1491
X142.3589 Y116.7015
X142.9621 Y116.2766
X143.5808 Y115.8747
X144.214 Y115.4961
X144.8609 Y115.1412
X145.5205 Y114.8105
X146.1918 Y114.5045
X146.8742 Y114.2239
X147.5668 Y113.9696
X148.2689 Y113.7428
X148.9796 Y113.5444
X149.6978 Y113.3757
X150.4226 Y113.2379
X151.1529 Y113.1323
X151.8873 Y113.062
X152.6245 Y113.0307
X153.3622 Y113.043
X154.0184 Y113.0992
X154.5717 Y113.1917
X154.9462 Y113.2858
X155.2493 Y113.3883
X155.467 Y113.4821
X155.5184 Y113.5093
X155.681 Y113.626
X155.8064 Y113.7819
X155.8855 Y113.9657
X155.9125 Y114.164
Y115.3728
G3 X155.3392 Y115.5495 I-0.3173 J-0.0111
G1 X155.2974 Y115.4926 Z-1.992
X155.2577 Y115.4385 Z-1.9686
X155.2221 Y115.3899 Z-1.9307
X155.1924 Y115.3494 Z-1.8805
X155.17 Y115.3189 Z-1.8203
X155.1561 Y115.3 Z-1.7532
X155.1514 Y115.2935 Z-1.6825
G0 Z5
X139.0719 Y134.3039
Z-1.365
G1 Z-1.6825 F3500
X139.065 Y134.308 Z-1.7532
X139.0449 Y134.32 Z-1.8203
X139.0123 Y134.3393 Z-1.8805
X138.9691 Y134.365 Z-1.9307
X138.9174 Y134.3958 Z-1.9686
X138.8597 Y134.4301 Z-1.992
X138.799 Y134.4662 Z-2
G3 X138.0454 Y134.6875 I-0.8088 J-1.3603
G1 X136.964
X136.8141 Y134.68
X136.6656 Y134.6593
X136.52 Y134.6232
X136.3783 Y134.574
X136.228 Y134.5079
X136.0596 Y134.417
X135.8914 Y134.3079
X135.704 Y134.1637
X135.5198 Y133.9969
X135.3153 Y133.7794
X135.1176 Y133.532
X134.9095 Y133.2238
X134.7021 Y132.8559
X134.5148 Y132.4508
X134.3278 Y131.9429
X134.1633 Y131.3543
X134.0417 Y130.7289
X133.9594 Y129.9956
X133.9357 Y129.2582
X133.963 Y128.5209
X134.0358 Y127.7867
X134.1501 Y127.0578
X134.3026 Y126.3359
X134.491 Y125.6225
X134.713 Y124.9189
X134.9664 Y124.226
X135.2496 Y123.5447
X135.5615 Y122.876
X135.9007 Y122.2208
X136.2656 Y121.5796
X136.6552 Y120.953
X137.0685 Y120.3418
X137.5046 Y119.7466
X137.9627 Y119.1683
X138.4419 Y118.6073
X138.9415 Y118.0643
X139.4605 Y117.5399
X139.9981 Y117.0346
X140.5536 Y116.549
X141.1263 Y116.0839
X141.7153 Y115.6395
X142.3198 Y115.2164
X142.9387 Y114.8148
X143.5715 Y114.4355
X144.2175 Y114.079
X144.8757 Y113.7455
X145.5452 Y113.4354
X146.2252 Y113.1493
X146.9152 Y112.8878
X147.6142 Y112.6518
X148.3216 Y112.4421
X149.0365 Y112.2597
X149.758 Y112.1054
X150.4852 Y111.9806
X151.2171 Y111.8872
X151.9525 Y111.8275
X152.6899 Y111.8043
X153.4275 Y111.8244
X154.094 Y111.8914
X154.6364 Y111.9905
X154.9947 Y112.0862
X155.2868 Y112.1899
X155.5031 Y112.2869
X155.5282 Y112.3007
X155.687 Y112.4179
X155.8092 Y112.5728
X155.8862 Y112.7546
X155.9125 Y112.9502
Y114.164
G3 X155.3392 Y114.3408 I-0.3173 J-0.0111
G1 X155.2974 Y114.2838 Z-1.992
X155.2577 Y114.2297 Z-1.9686
X155.2221 Y114.1812 Z-1.9307
X155.1924 Y114.1406 Z-1.8805
X155.17 Y114.1101 Z-1.8203
X155.1561 Y114.0912 Z-1.7532
X155.1514 Y114.0848 Z-1.6825
G0 Z5
X137.9904 Y134.3039
Z-1.365
G1 Z-1.6825 F3500
X137.9836 Y134.308 Z-1.7532
X137.9634 Y134.32 Z-1.8203
X137.9309 Y134.3393 Z-1.8805
X137.8877 Y134.365 Z-1.9307
X137.8359 Y134.3958 Z-1.9686
X137.7783 Y134.4301 Z-1.992
X137.7175 Y134.4662 Z-2
G3 X136.964 Y134.6875 I-0.8088 J-1.3603
G1 X135.7903
X135.6405 Y134.68
X135.4924 Y134.656
X135.3475 Y134.6172
X135.2038 Y134.565
X135.0428 Y134.4913
X134.8805 Y134.4006
X134.6947 Y134.2761
X134.5144 Y134.1332
X134.3119 Y133.9443
X134.1174 Y133.7312
X133.904 Y133.4559
X133.6977 Y133.1403
X133.4901 Y132.7593
X133.2824 Y132.2922
X133.1076 Y131.795
X132.9492 Y131.1939
X132.8241 Y130.4965
X132.7527 Y129.7622
X132.735 Y129.0246
X132.7648 Y128.2874
X132.8372 Y127.5531
X132.9487 Y126.8238
X133.0973 Y126.1011
X133.2803 Y125.3863
X133.4953 Y124.6805
X133.7402 Y123.9845
X134.0135 Y123.2992
X134.314 Y122.6254
X134.6405 Y121.9637
X134.9918 Y121.3149
X135.3668 Y120.6795
X135.7647 Y120.0581
X136.1846 Y119.4515
X136.6257 Y118.8601
X137.0874 Y118.2845
X137.5688 Y117.7254
X138.0692 Y117.1832
X138.5879 Y116.6585
X139.1246 Y116.1522
X139.6785 Y115.6648
X140.2488 Y115.1967
X140.8346 Y114.7481
X141.4351 Y114.3194
X142.0496 Y113.9111
X142.6774 Y113.5235
X143.3178 Y113.1571
X143.9701 Y112.8122
X144.6335 Y112.4893
X145.3073 Y112.1887
X145.9908 Y111.9109
X146.6834 Y111.6567
X147.3844 Y111.4266
X148.0931 Y111.2213
X148.8088 Y111.0417
X149.5305 Y110.8887
X150.2578 Y110.7642
X150.9895 Y110.6699
X151.7247 Y110.6073
X152.462 Y110.5797
X153.1997 Y110.5923
X153.9351 Y110.6522
X154.4977 Y110.7437
X154.9135 Y110.8462
X155.2246 Y110.95
X155.4487 Y111.0453
X155.5155 Y111.0803
X155.6792 Y111.1968
X155.8055 Y111.3531
X155.8853 Y111.5375
X155.9125 Y111.7365
Y112.9502
G3 X155.3392 Y113.1269 I-0.3173 J-0.0111
G1 X155.2974 Y113.0699 Z-1.992
X155.2577 Y113.0158 Z-1.9686
X155.2221 Y112.9673 Z-1.9307
X155.1924 Y112.9268 Z-1.8805
X155.17 Y112.8963 Z-1.8203
X155.1561 Y112.8773 Z-1.7532
X155.1514 Y112.8709 Z-1.6825
G0 Z5
X136.8168 Y134.3039
Z-1.365
G1 Z-1.6825 F3500
X136.8099 Y134.308 Z-1.7532
X136.7897 Y134.32 Z-1.8203
X136.7572 Y134.3393 Z-1.8805
X136.714 Y134.365 Z-1.9307
X136.6623 Y134.3958 Z-1.9686
X136.6046 Y134.4301 Z-1.992
X136.5439 Y134.4662 Z-2
G3 X135.7903 Y134.6875 I-0.8088 J-1.3603
G1 X134.6166
X134.4668 Y134.68
X134.319 Y134.6542
X134.1746 Y134.6137
X134.0325 Y134.561
X133.8676 Y134.4841
X133.7031 Y134.3908
X133.5178 Y134.2649
X133.3315 Y134.1151
X133.127 Y133.9218
X132.9235 Y133.6958
X132.7028 Y133.4072
X132.5014 Y133.0946
X132.2857 Y132.6923
X132.0829 Y132.2279
X131.9013 Y131.7001
X131.7375 Y131.0618
X131.6122 Y130.3347
X131.5452 Y129.5999
X131.5286 Y128.8623
X131.5567 Y128.125
X131.6254 Y127.3904
X131.7327 Y126.6604
X131.8753 Y125.9365
X132.0506 Y125.2198
X132.2563 Y124.5113
X132.4907 Y123.8117
X132.7524 Y123.1218
X133.0401 Y122.4425
X133.3528 Y121.7742
X133.6894 Y121.1176
X134.0489 Y120.4733
X134.4305 Y119.8418
X134.8335 Y119.2238
X135.2571 Y118.6197
X135.7007 Y118.0301
X136.1635 Y117.4555
X136.6449 Y116.8964
X137.1445 Y116.3535
X137.662 Y115.8276
X138.1966 Y115.3191
X138.7476 Y114.8283
X139.3141 Y114.3556
X139.8954 Y113.9013
X140.491 Y113.4657
X141.1 Y113.0493
X141.7219 Y112.6522
X142.356 Y112.2751
X143.0017 Y111.918
X143.6582 Y111.5815
X144.3251 Y111.2658
X145.0017 Y110.9715
X145.6873 Y110.699
X146.3814 Y110.4487
X147.0833 Y110.2214
X147.7924 Y110.0175
X148.5081 Y109.838
X149.2298 Y109.6846
X149.9567 Y109.5583
X150.688 Y109.4602
X151.4226 Y109.3922
X152.1596 Y109.3568
X152.8974 Y109.3579
X153.634 Y109.4004
X154.2775 Y109.4841
X154.7667 Y109.5882
X155.1042 Y109.6888
X155.3595 Y109.788
X155.4943 Y109.8532
X155.6661 Y109.9684
X155.7993 Y110.1265
X155.8837 Y110.3153
X155.9125 Y110.5201
Y111.7365
G3 X155.3392 Y111.9133 I-0.3173 J-0.0111
G1 X155.2974 Y111.8563 Z-1.992
X155.2577 Y111.8022 Z-1.9686
X155.2221 Y111.7537 Z-1.9307
X155.1924 Y111.7131 Z-1.8805
X155.17 Y111.6826 Z-1.8203
X155.1561 Y111.6637 Z-1.7532
X155.1514 Y111.6573 Z-1.6825
G0 Z5
X135.6431 Y134.3039
Z-1.365
G1 Z-1.6825 F3500
X135.6362 Y134.308 Z-1.7532
X135.6161 Y134.32 Z-1.8203
X135.5835 Y134.3393 Z-1.8805
X135.5403 Y134.365 Z-1.9307
X135.4886 Y134.3958 Z-1.9686
X135.4309 Y134.4301 Z-1.992
X135.3702 Y134.4662 Z-2
G3 X134.6166 Y134.6875 I-0.8088 J-1.3603
G1 X133.7449
X133.7338 Y134.6888
X133.7227 Y134.6962
X133.6583 Y134.7346
X133.5087 Y134.7455
X133.359 Y134.7369
X133.2111 Y134.7118
X133.0663 Y134.6727
X132.9112 Y134.6166
X132.7514 Y134.5438
X132.5727 Y134.4444
X132.3937 Y134.3249
X132.1909 Y134.1647
X131.9938 Y133.9815
X131.7759 Y133.7435
X131.5626 Y133.4694
X131.3452 Y133.1381
X131.1183 Y132.7232
X130.9195 Y132.2783
X130.7202 Y131.7143
X130.5465 Y131.0599
X130.415 Y130.3339
X130.3403 Y129.5999
X130.3155 Y128.8625
X130.3352 Y128.1249
X130.3949 Y127.3895
X130.4911 Y126.658
X130.6212 Y125.9318
X130.7826 Y125.2118
X130.9734 Y124.4991
X131.1922 Y123.7945
X131.4373 Y123.0986
X131.7077 Y122.4121
X132.0024 Y121.7357
X132.3203 Y121.0699
X132.6606 Y120.4152
X133.0225 Y119.7723
X133.4053 Y119.1415
X133.8082 Y118.5234
X134.2309 Y117.9187
X134.6728 Y117.3279
X135.1333 Y116.7514
X135.6117 Y116.1897
X136.1075 Y115.6433
X136.6203 Y115.1128
X137.1493 Y114.5985
X137.694 Y114.1008
X138.2537 Y113.6201
X138.8278 Y113.1566
X139.4156 Y112.7107
X140.0166 Y112.2827
X140.6302 Y111.873
X141.2558 Y111.4818
X141.8928 Y111.1095
X142.5406 Y110.7564
X143.1987 Y110.4228
X143.8665 Y110.109
X144.5434 Y109.8155
X145.2289 Y109.5427
X145.9227 Y109.2915
X146.624 Y109.0623
X147.3322 Y108.8556
X148.0469 Y108.6722
X148.7674 Y108.5131
X149.4929 Y108.3793
X150.2229 Y108.2717
X150.9563 Y108.1919
X151.6925 Y108.142
X152.4301 Y108.1244
X153.1676 Y108.143
X153.9027 Y108.2065
X154.4919 Y108.3039
X154.9026 Y108.4063
X155.2231 Y108.5141
X155.449 Y108.611
X155.5173 Y108.647
X155.6803 Y108.7636
X155.806 Y108.9196
X155.8854 Y109.1037
X155.9125 Y109.3023
Y110.5201
G3 X155.3392 Y110.6968 I-0.3173 J-0.0111
G1 X155.2974 Y110.6399 Z-1.992
X155.2577 Y110.5857 Z-1.9686
X155.2221 Y110.5372 Z-1.9307
X155.1924 Y110.4967 Z-1.8805
X155.17 Y110.4662 Z-1.8203
X155.1561 Y110.4472 Z-1.7532
X155.1514 Y110.4408 Z-1.6825
G0 Z5
X134.5195 Y133.9355
Z-1.365
G1 Z-1.6825 F3500
X134.5142 Y133.9415 Z-1.7532
X134.4985 Y133.9589 Z-1.8203
X134.4733 Y133.9871 Z-1.8805
X134.4397 Y134.0245 Z-1.9307
X134.3994 Y134.0693 Z-1.9686
X134.3546 Y134.1192 Z-1.992
X134.3074 Y134.1718 Z-2
G3 X133.7227 Y134.6962 I-2.7124 J-2.436
G1 X133.7006 Y134.7109
X133.6895 Y134.725
X133.6891 Y134.835
X133.687 Y134.8724
X133.5921 Y134.9885
X133.4712 Y135.0774
X133.3363 Y135.1429
X133.1932 Y135.188
X133.0457 Y135.2154
X132.8962 Y135.2268
X132.7462 Y135.2236
X132.597 Y135.2079
X132.4272 Y135.1762
X132.2545 Y135.1293
X132.0612 Y135.0597
X131.8617 Y134.9692
X131.6512 Y134.8525
X131.4231 Y134.7009
X131.2009 Y134.526
X130.9529 Y134.2963
X130.7124 Y134.0346
X130.4705 Y133.7247
X130.2134 Y133.3345
X130.179 Y133.2718
X130.1286 Y133.1586
X130.0979 Y133.0386
X130.0875 Y132.9152
Y124.4476
X130.1096 Y124.0072
X130.1724 Y123.5282
X130.3033 Y122.9157
X130.5151 Y122.2089
X130.7749 Y121.5184
X131.0696 Y120.842
X131.3923 Y120.1785
X131.7389 Y119.5272
X132.1074 Y118.888
X132.4963 Y118.2609
X132.9047 Y117.6465
X133.3319 Y117.0449
X133.7772 Y116.4566
X134.2401 Y115.8821
X134.7199 Y115.3216
X135.2163 Y114.7757
X135.7287 Y114.2449
X136.2568 Y113.7296
X136.8001 Y113.2304
X137.3578 Y112.7473
X137.9292 Y112.2807
X138.5139 Y111.8307
X139.1113 Y111.3977
X139.7208 Y110.9819
X140.3419 Y110.5836
X140.9741 Y110.2032
X141.6169 Y109.8409
X142.2696 Y109.497
X142.9319 Y109.1718
X143.6032 Y108.8656
X144.283 Y108.579
X144.971 Y108.3123
X145.6665 Y108.0661
X146.3691 Y107.8409
X147.0782 Y107.6371
X147.7934 Y107.4556
X148.5139 Y107.2971
X149.2395 Y107.1629
X149.9692 Y107.0541
X150.7024 Y106.9719
X151.4383 Y106.9178
X152.1757 Y106.894
X152.9134 Y106.9045
X153.6495 Y106.9549
X154.2939 Y107.0437
X154.7848 Y107.1521
X155.1223 Y107.2556
X155.3742 Y107.3557
X155.4995 Y107.4175
X155.6693 Y107.533
X155.8008 Y107.6907
X155.884 Y107.8784
X155.9125 Y108.0818
Y109.3023
G3 X155.3392 Y109.479 I-0.3173 J-0.0111
G1 X155.2974 Y109.422 Z-1.992
X155.2577 Y109.3679 Z-1.9686
X155.2221 Y109.3194 Z-1.9307
X155.1924 Y109.2789 Z-1.8805
X155.17 Y109.2484 Z-1.8203
X155.1561 Y109.2294 Z-1.7531
X155.1514 Y109.223 Z-1.6825
G0 Z5
X130.4711 Y125.474
Z-1.365
G1 Z-1.6825 F3500
X130.467 Y125.4672 Z-1.7532
X130.455 Y125.447 Z-1.8203
X130.4357 Y125.4145 Z-1.8805
X130.41 Y125.3713 Z-1.9307
X130.3792 Y125.3195 Z-1.9686
X130.3449 Y125.2619 Z-1.992
X130.3088 Y125.2011 Z-2
G3 X130.0875 Y124.4476 I1.3603 J-0.8088
G1 Y121.4319
X130.1088 Y121.0061
X130.1498 Y120.6936
X130.2362 Y120.2898
X130.3832 Y119.7988
X130.6335 Y119.1563
X130.9555 Y118.4925
X131.317 Y117.8493
X131.7072 Y117.2232
X132.1207 Y116.6121
X132.5542 Y116.015
X133.006 Y115.4317
X133.4749 Y114.8621
X133.9603 Y114.3064
X134.4614 Y113.7648
X134.9777 Y113.2378
X135.5089 Y112.7257
X136.0542 Y112.2288
X136.6132 Y111.7472
X137.1853 Y111.2813
X137.77 Y110.8313
X138.3669 Y110.3976
X138.9755 Y109.9806
X139.5954 Y109.5805
X140.226 Y109.1974
X140.8668 Y108.8316
X141.5172 Y108.4833
X142.1769 Y108.1529
X142.8453 Y107.8405
X143.5221 Y107.5466
X144.2067 Y107.2716
X144.8988 Y107.0158
X145.5978 Y106.7797
X146.3034 Y106.5639
X147.0149 Y106.3688
X147.732 Y106.1952
X148.4541 Y106.0438
X149.1807 Y105.9157
X149.9112 Y105.8117
X150.6448 Y105.7329
X151.3808 Y105.6809
X152.1182 Y105.6588
X152.856 Y105.6703
X153.5921 Y105.7208
X154.2425 Y105.8083
X154.7532 Y105.9193
X155.1058 Y106.0263
X155.3584 Y106.1256
X155.4973 Y106.1936
X155.668 Y106.309
X155.8002 Y106.4669
X155.8839 Y106.6551
X155.9125 Y106.859
Y108.0818
G3 X155.3392 Y108.2586 I-0.3173 J-0.0111
G1 X155.2974 Y108.2016 Z-1.992
X155.2577 Y108.1475 Z-1.9686
X155.2221 Y108.099 Z-1.9307
X155.1924 Y108.0584 Z-1.8805
X155.17 Y108.0279 Z-1.8203
X155.1561 Y108.009 Z-1.7532
X155.1514 Y108.0026 Z-1.6825
G0 Z5
X130.4711 Y122.4583
Z-1.365
G1 Z-1.6825 F3500
X130.467 Y122.4515 Z-1.7532
X130.455 Y122.4313 Z-1.8203
X130.4357 Y122.3988 Z-1.8805
X130.41 Y122.3556 Z-1.9307
X130.3792 Y122.3038 Z-1.9686
X130.3449 Y122.2462 Z-1.992
X130.3088 Y122.1854 Z-2
G3 X130.0875 Y121.4319 I1.3603 J-0.8088
G1 Y118.7512
X130.0966 Y118.5704
X130.1299 Y118.3164
X130.1985 Y117.9956
X130.3102 Y117.6226
X130.4973 Y117.1421
X130.7936 Y116.5315
X131.1679 Y115.8956
X131.5809 Y115.2842
X132.0213 Y114.6923
X132.4835 Y114.1171
X132.9641 Y113.5574
X133.4613 Y113.0123
X133.9739 Y112.4816
X134.5011 Y111.9653
X135.0421 Y111.4636
X135.5963 Y110.9767
X136.1633 Y110.5046
X136.7426 Y110.0476
X137.3337 Y109.6061
X137.9363 Y109.1803
X138.5498 Y108.7705
X139.1738 Y108.3768
X139.8079 Y107.9995
X140.4515 Y107.6388
X141.1043 Y107.2949
X141.7658 Y106.9681
X142.4356 Y106.6587
X143.1133 Y106.367
X143.7985 Y106.0933
X144.4907 Y105.838
X145.1896 Y105.6016
X145.8949 Y105.3848
X146.606 Y105.1881
X147.3225 Y105.012
X148.0438 Y104.8571
X148.7696 Y104.724
X149.4991 Y104.6137
X150.2318 Y104.5271
X150.9671 Y104.4658
X151.7041 Y104.4319
X152.4419 Y104.4282
X153.1791 Y104.4586
X153.9133 Y104.5313
X154.5105 Y104.6359
X154.9234 Y104.743
X155.2417 Y104.8535
X155.4681 Y104.9531
X155.5235 Y104.983
X155.6841 Y105.0999
X155.8079 Y105.2554
X155.8859 Y105.4381
X155.9125 Y105.635
Y106.859
G3 X155.3392 Y107.0358 I-0.3173 J-0.0111
G1 X155.2974 Y106.9788 Z-1.992
X155.2577 Y106.9247 Z-1.9686
X155.2221 Y106.8762 Z-1.9307
X155.1924 Y106.8356 Z-1.8805
X155.17 Y106.8052 Z-1.8203
X155.1561 Y106.7862 Z-1.7532
X155.1514 Y106.7798 Z-1.6825
G0 Z5
X130.4711 Y119.7777
Z-1.365
G1 Z-1.6825 F3500
X130.467 Y119.7709 Z-1.7532
X130.455 Y119.7507 Z-1.8203
X130.4357 Y119.7182 Z-1.8805
X130.41 Y119.675 Z-1.9307
X130.3792 Y119.6232 Z-1.9686
X130.3449 Y119.5655 Z-1.992
X130.3088 Y119.5048 Z-2
G3 X130.0875 Y118.7512 I1.3603 J-0.8088
G1 Y116.5732
X130.0964 Y116.3961
X130.1264 Y116.1667
X130.1856 Y115.89
X130.2791 Y115.5779
X130.4329 Y115.1831
X130.6638 Y114.7073
X131.0219 Y114.099
X131.446 Y113.4953
X131.9044 Y112.9171
X132.3874 Y112.3594
X132.8898 Y111.819
X133.4085 Y111.2943
X133.942 Y110.7847
X134.489 Y110.2896
X135.0489 Y109.809
X135.6209 Y109.3429
X136.2045 Y108.8916
X136.7995 Y108.4552
X137.4052 Y108.034
X138.0213 Y107.628
X138.6473 Y107.2376
X139.2829 Y106.8628
X139.9276 Y106.504
X140.581 Y106.1613
X141.2427 Y105.835
X141.9124 Y105.5253
X142.5897 Y105.2328
X143.2744 Y104.9578
X143.9659 Y104.7005
X144.6639 Y104.4615
X145.368 Y104.2411
X146.0779 Y104.0397
X146.7929 Y103.8579
X147.5128 Y103.6961
X148.2369 Y103.5549
X148.965 Y103.4351
X149.6963 Y103.3375
X150.4304 Y103.2634
X151.1666 Y103.2143
X151.9041 Y103.1923
X152.6418 Y103.2002
X153.3784 Y103.2423
X154.0951 Y103.3284
X154.6625 Y103.4434
X155.0292 Y103.549
X155.3192 Y103.6583
X155.5406 Y103.763
X155.6946 Y103.8807
X155.8128 Y104.0343
X155.8872 Y104.2133
X155.9125 Y104.4054
Y105.635
G3 X155.3392 Y105.8117 I-0.3173 J-0.0111
G1 X155.2974 Y105.7548 Z-1.992
X155.2577 Y105.7007 Z-1.9686
X155.2221 Y105.6521 Z-1.9307
X155.1924 Y105.6116 Z-1.8805
X155.17 Y105.5811 Z-1.8203
X155.1561 Y105.5622 Z-1.7532
X155.1514 Y105.5557 Z-1.6825
G0 Z5
X130.4711 Y117.5997
Z-1.365
G1 Z-1.6825 F3500
X130.467 Y117.5929 Z-1.7532
X130.455 Y117.5727 Z-1.8203
X130.4357 Y117.5402 Z-1.8805
X130.41 Y117.497 Z-1.9307
X130.3792 Y117.4452 Z-1.9686
X130.3449 Y117.3875 Z-1.992
X130.3088 Y117.3268 Z-2
G3 X130.0875 Y116.5732 I1.3603 J-0.8088
G1 Y114.5628
X130.0957 Y114.3995
X130.1243 Y114.1813
X130.1748 Y113.9451
X130.2595 Y113.6624
X130.3918 Y113.3226
X130.5878 Y112.9186
X130.8803 Y112.4219
X131.3044 Y111.8182
X131.7726 Y111.2479
X132.2697 Y110.7027
X132.788 Y110.1776
X133.3232 Y109.6697
X133.8729 Y109.1776
X134.4356 Y108.7003
X135.0103 Y108.2377
X135.5964 Y107.7895
X136.1933 Y107.3559
X136.8006 Y106.9368
X137.4178 Y106.5325
X138.0445 Y106.1432
X138.6803 Y105.7689
X139.3249 Y105.4099
X139.9779 Y105.0664
X140.6391 Y104.7389
X141.308 Y104.4276
X141.9843 Y104.1328
X142.6678 Y103.8547
X143.3578 Y103.5936
X144.0542 Y103.3499
X144.7566 Y103.1239
X145.4645 Y102.916
X146.1776 Y102.7265
X146.8954 Y102.5561
X147.6176 Y102.4051
X148.3437 Y102.2742
X149.0733 Y102.164
X149.8058 Y102.0756
X150.5407 Y102.0101
X151.2773 Y101.9691
X152.015 Y101.9544
X152.7527 Y101.9687
X153.4888 Y102.019
X154.1746 Y102.1104
X154.7336 Y102.2312
X155.0791 Y102.3355
X155.3574 Y102.4446
X155.4965 Y102.5125
X155.6674 Y102.6278
X155.8 Y102.7857
X155.8838 Y102.9741
X155.9125 Y103.1783
Y104.4054
G3 X155.3392 Y104.5822 I-0.3173 J-0.0111
G1 X155.2974 Y104.5252 Z-1.992
X155.2577 Y104.4711 Z-1.9686
X155.2221 Y104.4226 Z-1.9307
X155.1924 Y104.382 Z-1.8805
X155.17 Y104.3515 Z-1.8203
X155.1561 Y104.3326 Z-1.7532
X155.1514 Y104.3262 Z-1.6825
G0 Z5
X130.4711 Y115.5892
Z-1.365
G1 Z-1.6825 F3500
X130.467 Y115.5824 Z-1.7532
X130.455 Y115.5622 Z-1.8203
X130.4357 Y115.5297 Z-1.8805
X130.41 Y115.4865 Z-1.9307
X130.3792 Y115.4347 Z-1.9686
X130.3449 Y115.3771 Z-1.992
X130.3088 Y115.3163 Z-2
G3 X130.0875 Y114.5628 I1.3603 J-0.8088
G1 Y112.7198
X130.0976 Y112.5182
X130.123 Y112.3247
X130.1697 Y112.1064
X130.2501 Y111.8379
X130.3655 Y111.5415
X130.5423 Y111.1771
X130.7927 Y110.7518
X131.1731 Y110.2103
X131.6443 Y109.6426
X132.1506 Y109.1059
X132.6808 Y108.5928
X133.229 Y108.0989
X133.7918 Y107.6219
X134.3674 Y107.1603
X134.9545 Y106.7135
X135.5524 Y106.2811
X136.1603 Y105.863
X136.7778 Y105.4593
X137.4046 Y105.0699
X138.0401 Y104.6951
X138.6842 Y104.3352
X139.3365 Y103.9906
X139.9968 Y103.6613
X140.6646 Y103.3476
X141.3396 Y103.0497
X142.0215 Y102.7678
X142.7098 Y102.5021
X143.4043 Y102.2531
X144.1046 Y102.0209
X144.8104 Y101.8059
X145.5213 Y101.6085
X146.237 Y101.4291
X146.957 Y101.268
X147.681 Y101.1259
X148.4086 Y101.0033
X149.1393 Y100.9009
X149.8726 Y100.8196
X150.608 Y100.7607
X151.345 Y100.7254
X152.0828 Y100.7156
X152.8203 Y100.7351
X153.5559 Y100.7919
X154.2319 Y100.8881
X154.7588 Y101.0069
X155.1178 Y101.1188
X155.369 Y101.2198
X155.5024 Y101.2863
X155.6711 Y101.4021
X155.8017 Y101.5595
X155.8843 Y101.7467
X155.9125 Y101.9493
Y103.1783
G3 X155.3392 Y103.355 I-0.3173 J-0.0111
G1 X155.2974 Y103.2981 Z-1.992
X155.2577 Y103.244 Z-1.9686
X155.2221 Y103.1954 Z-1.9307
X155.1924 Y103.1549 Z-1.8805
X155.17 Y103.1244 Z-1.8203
X155.1561 Y103.1055 Z-1.7532
X155.1514 Y103.099 Z-1.6825
G0 Z5
X130.4711 Y113.7463
Z-1.365
G1 Z-1.6825 F3500
X130.467 Y113.7395 Z-1.7532
X130.455 Y113.7193 Z-1.8203
X130.4357 Y113.6868 Z-1.8805
X130.41 Y113.6436 Z-1.9307
X130.3792 Y113.5918 Z-1.9686
X130.3449 Y113.5341 Z-1.992
X130.3088 Y113.4734 Z-2
G3 X130.0875 Y112.7198 I1.3603 J-0.8088
G1 Y110.8769
X130.095 Y110.7271
X130.1204 Y110.5457
X130.1694 Y110.3259
X130.2477 Y110.0727
X130.3583 Y109.7957
X130.5292 Y109.4513
X130.7613 Y109.0648
X131.108 Y108.5802
X131.5842 Y108.0166
X132.1001 Y107.4891
X132.642 Y106.9884
X133.2026 Y106.5088
X133.7781 Y106.047
X134.366 Y105.6012
X134.9649 Y105.1703
X135.574 Y104.7539
X136.1925 Y104.3516
X136.8199 Y103.9634
X137.4559 Y103.5895
X138.1002 Y103.2299
X138.7524 Y102.885
X139.4123 Y102.5549
X140.0796 Y102.2401
X140.7538 Y101.9405
X141.4348 Y101.6564
X142.122 Y101.388
X142.8152 Y101.1354
X143.5142 Y100.899
X144.2184 Y100.6791
X144.9277 Y100.4759
X145.6417 Y100.2899
X146.36 Y100.1213
X147.0823 Y99.9707
X147.8082 Y99.8385
X148.5372 Y99.7254
X149.2691 Y99.632
X150.0034 Y99.5593
X150.7394 Y99.5084
X151.4767 Y99.4808
X152.2145 Y99.4788
X152.9518 Y99.5067
X153.6867 Y99.5723
X154.3536 Y99.6789
X154.8301 Y99.7949
X155.1764 Y99.9093
X155.4145 Y100.0099
X155.5137 Y100.0615
X155.6781 Y100.1779
X155.805 Y100.3343
X155.8851 Y100.5191
X155.9125 Y100.7187
Y101.9493
G3 X155.3392 Y102.126 I-0.3173 J-0.0111
G1 X155.2974 Y102.069 Z-1.992
X155.2577 Y102.0149 Z-1.9686
X155.2221 Y101.9664 Z-1.9307
X155.1924 Y101.9259 Z-1.8805
X155.17 Y101.8954 Z-1.8203
X155.1561 Y101.8764 Z-1.7532
X155.1514 Y101.87 Z-1.6825
G0 Z5
X130.4711 Y111.9034
Z-1.365
G1 Z-1.6825 F3500
X130.467 Y111.8965 Z-1.7532
X130.455 Y111.8764 Z-1.8203
X130.4357 Y111.8438 Z-1.8805
X130.41 Y111.8006 Z-1.9307
X130.3792 Y111.7489 Z-1.9686
X130.3449 Y111.6912 Z-1.992
X130.3088 Y111.6305 Z-2
G3 X130.0875 Y110.8769 I1.3603 J-0.8088
G1 Y109.2015
X130.0958 Y109.0352
X130.1186 Y108.8613
X130.1636 Y108.651
X130.2337 Y108.4169
X130.3335 Y108.1608
X130.4877 Y107.843
X130.6895 Y107.5002
X130.992 Y107.0696
X131.4309 Y106.5408
X131.9462 Y106.0127
X132.4925 Y105.5169
X133.06 Y105.0454
X133.6433 Y104.5936
X134.2393 Y104.1587
X134.8464 Y103.7393
X135.4633 Y103.3346
X136.0894 Y102.9442
X136.724 Y102.5679
X137.3668 Y102.2057
X138.0173 Y101.8577
X138.6754 Y101.5239
X139.3406 Y101.2048
X140.0126 Y100.9002
X140.6912 Y100.6105
X141.376 Y100.3359
X142.0667 Y100.0764
X142.763 Y99.8324
X143.4646 Y99.6041
X144.1711 Y99.3917
X144.8824 Y99.1956
X145.5981 Y99.0161
X146.3178 Y98.8536
X147.0412 Y98.7085
X147.7679 Y98.5812
X148.4977 Y98.4723
X149.23 Y98.3826
X149.9645 Y98.3129
X150.7007 Y98.2641
X151.4381 Y98.2379
X152.1759 Y98.2375
X152.9131 Y98.2675
X153.6478 Y98.3348
X154.3082 Y98.4373
X154.8109 Y98.5572
X155.1561 Y98.6696
X155.4018 Y98.772
X155.5107 Y98.828
X155.6762 Y98.9443
X155.8041 Y99.1009
X155.8849 Y99.2864
X155.9125 Y99.4867
Y100.7187
G3 X155.3392 Y100.8954 I-0.3173 J-0.0111
G1 X155.2974 Y100.8384 Z-1.992
X155.2577 Y100.7843 Z-1.9686
X155.2221 Y100.7358 Z-1.9307
X155.1924 Y100.6953 Z-1.8805
X155.17 Y100.6648 Z-1.8203
X155.1561 Y100.6458 Z-1.7532
X155.1514 Y100.6394 Z-1.6825
G0 Z5
X130.4711 Y110.228
Z-1.365
G1 Z-1.6825 F3500
X130.467 Y110.2211 Z-1.7532
X130.455 Y110.201 Z-1.8203
X130.4357 Y110.1685 Z-1.8805
X130.41 Y110.1252 Z-1.9307
X130.3792 Y110.0735 Z-1.9686
X130.3449 Y110.0158 Z-1.992
X130.3088 Y109.9551 Z-2
G3 X130.0875 Y109.2015 I1.3603 J-0.8088
G1 Y107.5261
X130.095 Y107.3763
X130.1193 Y107.1969
X130.1635 Y106.9946
X130.2282 Y106.7817
X130.3306 Y106.5219
X130.4729 Y106.2317
X130.6722 Y105.8964
X130.9513 Y105.5027
X131.3567 Y105.0184
X131.8741 Y104.4925
X132.4264 Y104.0032
X133.0015 Y103.5411
X133.5932 Y103.1002
X134.1978 Y102.6774
X134.8133 Y102.2705
X135.4383 Y101.8784
X136.0721 Y101.5006
X136.714 Y101.1369
X137.3637 Y100.7873
X138.0208 Y100.4518
X138.6849 Y100.1303
X139.3557 Y99.8229
X140.0328 Y99.5299
X140.716 Y99.2513
X141.405 Y98.9874
X142.0994 Y98.7382
X142.7991 Y98.5041
X143.5038 Y98.2853
X144.213 Y98.0821
X144.9267 Y97.8947
X145.6443 Y97.7234
X146.3657 Y97.5687
X147.0905 Y97.4308
X147.8185 Y97.3104
X148.5491 Y97.2079
X149.2822 Y97.124
X150.0172 Y97.0596
X150.7537 Y97.0158
X151.4912 Y96.9946
X152.229 Y96.9987
X152.966 Y97.0333
X153.7004 Y97.1045
X154.3572 Y97.2122
X154.8415 Y97.3321
X155.1843 Y97.4468
X155.4227 Y97.5486
X155.5163 Y97.5978
X155.6796 Y97.7143
X155.8058 Y97.8705
X155.8853 Y98.0547
X155.9125 Y98.2536
Y99.4867
G3 X155.3392 Y99.6635 I-0.3173 J-0.0111
G1 X155.2974 Y99.6065 Z-1.992
X155.2577 Y99.5524 Z-1.9686
X155.2221 Y99.5039 Z-1.9307
X155.1924 Y99.4633 Z-1.8805
X155.17 Y99.4328 Z-1.8203
X155.1561 Y99.4139 Z-1.7532
X155.1514 Y99.4075 Z-1.6825
G0 Z5
X130.4711 Y108.5526
Z-1.365
G1 Z-1.6825 F3500
X130.467 Y108.5458 Z-1.7532
X130.455 Y108.5256 Z-1.8203
X130.4357 Y108.4931 Z-1.8805
X130.41 Y108.4498 Z-1.9307
X130.3792 Y108.3981 Z-1.9686
X130.3449 Y108.3404 Z-1.992
X130.3088 Y108.2797 Z-2
G3 X130.0875 Y107.5261 I1.3603 J-0.8088
G1 Y105.9261
X130.0953 Y105.7701
X130.1184 Y105.5942
X130.1578 Y105.41
X130.2202 Y105.2015
X130.3191 Y104.9477
X130.4498 Y104.6782
X130.6363 Y104.3615
X130.8922 Y103.9972
X131.2604 Y103.5537
X131.7756 Y103.0256
X132.3307 Y102.5395
X132.9111 Y102.084
X133.5091 Y101.6518
X134.1205 Y101.2388
X134.7428 Y100.8424
X135.3746 Y100.4615
X136.015 Y100.095
X136.6632 Y99.7426
X137.3188 Y99.404
X137.9812 Y99.0792
X138.6503 Y98.7681
X139.3256 Y98.4709
X140.0068 Y98.1876
X140.6938 Y97.9184
X141.3861 Y97.6634
X142.0836 Y97.4229
X142.786 Y97.197
X143.493 Y96.986
X144.2044 Y96.7901
X144.9198 Y96.6097
X145.6389 Y96.4449
X146.3616 Y96.2962
X147.0875 Y96.164
X147.8162 Y96.0486
X148.5475 Y95.9507
X149.281 Y95.8709
X150.0163 Y95.81
X150.753 Y95.7694
X151.4906 Y95.7508
X152.2284 Y95.7578
X152.9653 Y95.7949
X153.6994 Y95.8685
X154.3537 Y95.9763
X154.8436 Y96.098
X155.1844 Y96.2124
X155.4241 Y96.315
X155.5168 Y96.3638
X155.68 Y96.4804
X155.8059 Y96.6364
X155.8854 Y96.8206
X155.9125 Y97.0193
Y98.2536
G3 X155.3392 Y98.4303 I-0.3173 J-0.0111
G1 X155.2974 Y98.3734 Z-1.992
X155.2577 Y98.3193 Z-1.9686
X155.2221 Y98.2707 Z-1.9307
X155.1924 Y98.2302 Z-1.8805
X155.17 Y98.1997 Z-1.8203
X155.1561 Y98.1807 Z-1.7532
X155.1514 Y98.1743 Z-1.6825
G0 Z5
X130.4711 Y106.9526
Z-1.365
G1 Z-1.6825 F3500
X130.467 Y106.9458 Z-1.7532
X130.455 Y106.9256 Z-1.8203
X130.4357 Y106.8931 Z-1.8805
X130.41 Y106.8499 Z-1.9307
X130.3792 Y106.7981 Z-1.9686
X130.3449 Y106.7404 Z-1.992
X130.3088 Y106.6797 Z-2
G3 X130.0875 Y105.9261 I1.3603 J-0.8088
G1 Y104.3429
X130.0951 Y104.1911
X130.1169 Y104.0246
X130.1544 Y103.8493
X130.2176 Y103.6385
X130.315 Y103.3884
X130.4363 Y103.1383
X130.6189 Y102.8281
X130.8561 Y102.4905
X131.2002 Y102.076
X131.6846 Y101.5795
X132.2406 Y101.0945
X132.8248 Y100.6438
X133.428 Y100.219
X134.0454 Y99.8149
X134.6739 Y99.4286
X135.3119 Y99.0579
X135.9581 Y98.7019
X136.6119 Y98.3599
X137.2726 Y98.0315
X137.9398 Y97.7166
X138.6133 Y97.4152
X139.2926 Y97.1273
X139.9775 Y96.853
X140.6678 Y96.5925
X141.3632 Y96.3459
X142.0634 Y96.1133
X142.7682 Y95.895
X143.4773 Y95.6912
X144.1905 Y95.5021
X144.9075 Y95.328
X145.628 Y95.1693
X146.3518 Y95.0261
X147.0785 Y94.8989
X147.808 Y94.7882
X148.5398 Y94.6944
X149.2737 Y94.6182
X150.0093 Y94.5606
X150.7461 Y94.5228
X151.4837 Y94.5068
X152.2215 Y94.5163
X152.9583 Y94.5557
X153.6923 Y94.6306
X154.3513 Y94.7397
X154.8438 Y94.8624
X155.1851 Y94.9773
X155.4251 Y95.0802
X155.5173 Y95.1289
X155.6803 Y95.2455
X155.8061 Y95.4015
X155.8854 Y95.5856
X155.9125 Y95.7841
Y97.0193
G3 X155.3392 Y97.196 I-0.3173 J-0.0111
G1 X155.2974 Y97.1391 Z-1.992
X155.2577 Y97.085 Z-1.9686
X155.2221 Y97.0364 Z-1.9307
X155.1924 Y96.9959 Z-1.8805
X155.17 Y96.9654 Z-1.8203
X155.1561 Y96.9465 Z-1.7532
X155.1514 Y96.9401 Z-1.6825
G0 Z5
X130.4711 Y105.3694
Z-1.365
G1 Z-1.6825 F3500
X130.467 Y105.3625 Z-1.7532
X130.455 Y105.3423 Z-1.8203
X130.4357 Y105.3098 Z-1.8805
X130.41 Y105.2666 Z-1.9307
X130.3792 Y105.2149 Z-1.9686
X130.3449 Y105.1572 Z-1.992
X130.3088 Y105.0965 Z-2
G3 X130.0875 Y104.3429 I1.3603 J-0.8088
G1 Y102.835
X130.0974 Y102.6383
X130.1175 Y102.4846
X130.155 Y102.3094
X130.2181 Y102.0986
X130.3076 Y101.869
X130.4279 Y101.6209
X130.6076 Y101.3157
X130.8295 Y100.9999
X131.154 Y100.6089
X131.6064 Y100.1452
X132.1624 Y99.6602
X132.7497 Y99.2136
X133.3577 Y98.7956
X133.9805 Y98.3999
X134.6146 Y98.0228
X135.258 Y97.6617
X135.9095 Y97.3155
X136.5683 Y96.9832
X137.2337 Y96.6644
X137.9053 Y96.3589
X138.5827 Y96.0666
X139.2658 Y95.7876
X139.9541 Y95.5219
X140.6474 Y95.2696
X141.3456 Y95.0309
X142.0482 Y94.8059
X142.7552 Y94.5948
X143.4662 Y94.3979
X144.1811 Y94.2152
X144.8995 Y94.0472
X145.6213 Y93.8941
X146.3461 Y93.7562
X147.0737 Y93.6339
X147.8038 Y93.5275
X148.5361 Y93.4377
X149.2704 Y93.3652
X150.0062 Y93.3107
X150.7432 Y93.2758
X151.4809 Y93.2625
X152.2186 Y93.2745
X152.9552 Y93.3159
X153.6891 Y93.3922
X154.3518 Y93.5027
X154.8456 Y93.6264
X155.1871 Y93.7418
X155.4271 Y93.845
X155.5181 Y93.8932
X155.6808 Y94.0098
X155.8063 Y94.1658
X155.8855 Y94.3497
X155.9125 Y94.548
Y95.7841
G3 X155.3392 Y95.9609 I-0.3173 J-0.0111
G1 X155.2974 Y95.9039 Z-1.992
X155.2577 Y95.8498 Z-1.9686
X155.2221 Y95.8013 Z-1.9307
X155.1924 Y95.7607 Z-1.8805
X155.17 Y95.7302 Z-1.8203
X155.1561 Y95.7113 Z-1.7532
X155.1514 Y95.7049 Z-1.6825
G0 Z5
X130.4711 Y103.8615
Z-1.365
G1 Z-1.6825 F3500
X130.467 Y103.8547 Z-1.7532
X130.455 Y103.8345 Z-1.8203
X130.4357 Y103.802 Z-1.8805
X130.41 Y103.7588 Z-1.9307
X130.3792 Y103.707 Z-1.9686
X130.3449 Y103.6493 Z-1.992
X130.3088 Y103.5886 Z-2
G3 X130.0875 Y102.835 I1.3603 J-0.8088
G1 Y101.3272
X130.098 Y101.1179
X130.1175 Y100.9692
X130.1551 Y100.7937
X130.2184 Y100.5829
X130.3011 Y100.371
X130.4219 Y100.1224
X130.5943 Y99.83
X130.8105 Y99.5228
X131.1189 Y99.1516
X131.5462 Y98.7143
X132.1025 Y98.2296
X132.6929 Y97.7871
X133.3053 Y97.3756
X133.9331 Y96.9879
X134.5723 Y96.6195
X135.2208 Y96.2677
X135.8772 Y95.9307
X136.5406 Y95.6078
X137.2104 Y95.2983
X137.886 Y95.0019
X138.5672 Y94.7185
X139.2537 Y94.448
X139.9452 Y94.1907
X140.6414 Y93.9464
X141.3421 Y93.7154
X142.0471 Y93.4977
X142.7561 Y93.2937
X143.469 Y93.1035
X144.1854 Y92.9272
X144.9052 Y92.7652
X145.6282 Y92.6177
X146.3539 Y92.485
X147.0824 Y92.3675
X147.8131 Y92.2656
X148.5459 Y92.1799
X149.2805 Y92.1111
X150.0166 Y92.0601
X150.7537 Y92.0284
X151.4914 Y92.0182
X152.2291 Y92.0327
X152.9656 Y92.0763
X153.6993 Y92.1546
X154.3621 Y92.2668
X154.8533 Y92.3912
X155.194 Y92.5073
X155.4328 Y92.6108
X155.5197 Y92.657
X155.6818 Y92.7737
X155.8068 Y92.9295
X155.8856 Y93.1131
X155.9125 Y93.311
Y94.548
G3 X155.3392 Y94.7248 I-0.3173 J-0.0111
G1 X155.2974 Y94.6678 Z-1.992
X155.2577 Y94.6137 Z-1.9686
X155.2221 Y94.5652 Z-1.9307
X155.1924 Y94.5246 Z-1.8805
X155.17 Y94.4941 Z-1.8203
X155.1561 Y94.4752 Z-1.7532
X155.1514 Y94.4688 Z-1.6825
G0 Z5
X130.4711 Y102.3537
Z-1.365
G1 Z-1.6825 F3500
X130.467 Y102.3468 Z-1.7532
X130.455 Y102.3266 Z-1.8203
X130.4357 Y102.2941 Z-1.8805
X130.41 Y102.2509 Z-1.9307
X130.3792 Y102.1992 Z-1.9686
X130.3449 Y102.1415 Z-1.992
X130.3088 Y102.0807 Z-2
G3 X130.0875 Y101.3272 I1.3603 J-0.8088
G1 Y99.8193
X130.0973 Y99.6244
X130.1168 Y99.4757
X130.1546 Y99.3002
X130.2159 Y99.0963
X130.2964 Y98.8906
X130.4174 Y98.6421
X130.5826 Y98.3623
X130.7941 Y98.0622
X131.0892 Y97.7076
X131.4963 Y97.2915
X132.0529 Y96.8073
X132.6462 Y96.3687
X133.2627 Y95.9633
X133.895 Y95.583
X134.5389 Y95.2228
X135.192 Y94.8796
X135.8529 Y94.5515
X136.5205 Y94.2375
X137.1942 Y93.9367
X137.8736 Y93.6489
X138.5583 Y93.374
X139.2479 Y93.1117
X139.9423 Y92.8623
X140.6411 Y92.6256
X141.3442 Y92.402
X142.0514 Y92.1914
X142.7623 Y91.9941
X143.4768 Y91.8103
X144.1948 Y91.6401
X144.9158 Y91.4838
X145.6398 Y91.3417
X146.3665 Y91.214
X147.0957 Y91.1012
X147.827 Y91.0036
X148.5603 Y90.9219
X149.2952 Y90.8568
X150.0315 Y90.8092
X150.7688 Y90.7808
X151.5065 Y90.7735
X152.2441 Y90.7906
X152.9805 Y90.8366
X153.7139 Y90.917
X154.3755 Y91.0309
X154.8631 Y91.1559
X155.2023 Y91.2725
X155.4397 Y91.3762
X155.5216 Y91.42
X155.6829 Y91.5369
X155.8073 Y91.6925
X155.8857 Y91.8756
X155.9125 Y92.073
Y93.311
G3 X155.3392 Y93.4877 I-0.3173 J-0.0111
G1 X155.2974 Y93.4308 Z-1.992
X155.2577 Y93.3766 Z-1.9686
X155.2221 Y93.3281 Z-1.9307
X155.1924 Y93.2876 Z-1.8805
X155.17 Y93.2571 Z-1.8203
X155.1561 Y93.2381 Z-1.7532
X155.1514 Y93.2317 Z-1.6825
G0 Z5
X130.4711 Y100.8458
Z-1.365
G1 Z-1.6825 F3500
X130.467 Y100.839 Z-1.7532
X130.455 Y100.8188 Z-1.8203
X130.4357 Y100.7863 Z-1.8805
X130.41 Y100.7431 Z-1.9307
X130.3792 Y100.6913 Z-1.9686
X130.3449 Y100.6336 Z-1.992
X130.3088 Y100.5729 Z-2
G3 X130.0875 Y99.8193 I1.3603 J-0.8088
G1 Y98.3115
X130.0955 Y98.1518
X130.115 Y98.0031
X130.1528 Y97.8278
X130.2112 Y97.6338
X130.2914 Y97.4287
X130.4122 Y97.1807
X130.5706 Y96.9126
X130.7773 Y96.6193
X131.0607 Y96.2789
X131.4496 Y95.8815
X131.975 Y95.4246
X132.5688 Y94.9866
X133.1875 Y94.5847
X133.8228 Y94.2096
X134.4703 Y93.8558
X135.127 Y93.5195
X135.7914 Y93.1987
X136.4625 Y92.8921
X137.1395 Y92.5988
X137.822 Y92.3183
X138.5094 Y92.0505
X139.2017 Y91.7952
X139.8984 Y91.5525
X140.5994 Y91.3223
X141.3044 Y91.1048
X142.0133 Y90.9001
X142.7258 Y90.7083
X143.4416 Y90.5297
X144.1607 Y90.3644
X144.8827 Y90.2126
X145.6075 Y90.0747
X146.3349 Y89.9509
X147.0645 Y89.8416
X147.7963 Y89.7471
X148.5299 Y89.6682
X149.265 Y89.6055
X150.0014 Y89.5601
X150.7388 Y89.5334
X151.4766 Y89.5276
X152.2141 Y89.5463
X152.9505 Y89.593
X153.6839 Y89.6734
X154.3575 Y89.7881
X154.8539 Y89.9144
X155.1941 Y90.0307
X155.4341 Y90.1349
X155.5204 Y90.1809
X155.6822 Y90.2977
X155.807 Y90.4534
X155.8856 Y90.6368
X155.9125 Y90.8346
Y92.073
G3 X155.3392 Y92.2498 I-0.3173 J-0.0111
G1 X155.2974 Y92.1928 Z-1.992
X155.2577 Y92.1387 Z-1.9686
X155.2221 Y92.0902 Z-1.9307
X155.1924 Y92.0496 Z-1.8805
X155.17 Y92.0191 Z-1.8203
X155.1561 Y92.0002 Z-1.7532
X155.1514 Y91.9938 Z-1.6825
G0 Z5
X130.4711 Y99.338
Z-1.365
G1 Z-1.6825 F3500
X130.467 Y99.3311 Z-1.7532
X130.455 Y99.3109 Z-1.8203
X130.4357 Y99.2784 Z-1.8805
X130.41 Y99.2352 Z-1.9307
X130.3792 Y99.1835 Z-1.9686
X130.3449 Y99.1258 Z-1.992
X130.3088 Y99.065 Z-2
G3 X130.0875 Y98.3115 I1.3603 J-0.8088
G1 Y96.8036
X130.095 Y96.6538
X130.1195 Y96.499
X130.1641 Y96.3149
X130.2249 Y96.1298
X130.3162 Y95.9127
X130.4499 Y95.6549
X130.6083 Y95.4015
X130.8421 Y95.0869
X131.1287 Y94.7597
X131.5375 Y94.3625
X132.1036 Y93.8946
X132.7082 Y93.4717
X133.3355 Y93.0833
X133.9782 Y92.7209
X134.6321 Y92.3792
X135.2948 Y92.0549
X135.9647 Y91.7457
X136.6409 Y91.4505
X137.3226 Y91.1683
X138.0095 Y90.899
X138.7012 Y90.6422
X139.3974 Y90.3978
X140.0977 Y90.1657
X140.8021 Y89.946
X141.5102 Y89.7387
X142.2218 Y89.544
X142.9369 Y89.362
X143.655 Y89.1929
X144.3762 Y89.0369
X145.1001 Y88.8943
X145.8265 Y88.7652
X146.5553 Y88.65
X147.2862 Y88.5492
X148.019 Y88.4631
X148.7534 Y88.3925
X149.4892 Y88.3382
X150.2261 Y88.3015
X150.9637 Y88.284
X151.7015 Y88.2881
X152.4388 Y88.3165
X153.1744 Y88.3731
X153.9065 Y88.465
X154.5523 Y88.5928
X154.9645 Y88.7094
X155.2827 Y88.8277
X155.5082 Y88.9329
X155.5377 Y88.9497
X155.6928 Y89.0672
X155.812 Y89.2212
X155.8869 Y89.4008
X155.9125 Y89.5938
Y90.8346
G3 X155.3392 Y91.0113 I-0.3173 J-0.0111
G1 X155.2974 Y90.9543 Z-1.992
X155.2577 Y90.9002 Z-1.9686
X155.2221 Y90.8517 Z-1.9307
X155.1924 Y90.8112 Z-1.8805
X155.17 Y90.7807 Z-1.8203
X155.1561 Y90.7617 Z-1.7532
X155.1514 Y90.7553 Z-1.6825
G0 Z5
X130.4711 Y97.8301
Z-1.365
G1 Z-1.6825 F3500
X130.467 Y97.8233 Z-1.7532
X130.455 Y97.8031 Z-1.8203
X130.4357 Y97.7706 Z-1.8805
X130.41 Y97.7274 Z-1.9307
X130.3792 Y97.6756 Z-1.9686
X130.3449 Y97.6179 Z-1.992
X130.3088 Y97.5572 Z-2
G3 X130.0875 Y96.8036 I1.3603 J-0.8088
G1 Y95.3712
X130.095 Y95.2214
X130.1168 Y95.073
X130.1568 Y94.9018
X130.2198 Y94.7052
X130.3018 Y94.5058
X130.4239 Y94.2656
X130.5887 Y93.9973
X130.794 Y93.7164
X131.0813 Y93.3833
X131.459 Y93.0104
X131.9743 Y92.5776
X132.5756 Y92.15
X133.2024 Y91.7608
X133.846 Y91.4001
X134.5016 Y91.0616
X135.1664 Y90.7415
X135.8384 Y90.437
X136.5168 Y90.1468
X137.2007 Y89.8699
X137.8896 Y89.6057
X138.5831 Y89.3539
X139.2809 Y89.1143
X139.9828 Y88.8868
X140.6884 Y88.6714
X141.3977 Y88.4682
X142.1104 Y88.2773
X142.8263 Y88.0988
X143.5452 Y87.9329
X144.267 Y87.7798
X144.9914 Y87.6397
X145.7182 Y87.5128
X146.4472 Y87.3994
X147.1783 Y87.3001
X147.9112 Y87.2151
X148.6457 Y87.1452
X149.3816 Y87.0913
X150.1185 Y87.0547
X150.8561 Y87.0372
X151.5939 Y87.0406
X152.3312 Y87.0674
X153.067 Y87.1216
X153.7995 Y87.2104
X154.4472 Y87.3293
X154.9163 Y87.4551
X155.2401 Y87.5705
X155.4715 Y87.6745
X155.5288 Y87.706
X155.6873 Y87.8232
X155.8094 Y87.9781
X155.8863 Y88.1597
X155.9125 Y88.3551
Y89.5938
G3 X155.3392 Y89.7705 I-0.3173 J-0.0111
G1 X155.2974 Y89.7135 Z-1.992
X155.2577 Y89.6594 Z-1.9686
X155.2221 Y89.6109 Z-1.9307
X155.1924 Y89.5704 Z-1.8805
X155.17 Y89.5399 Z-1.8203
X155.1561 Y89.5209 Z-1.7532
X155.1514 Y89.5145 Z-1.6825
G0 Z5
X130.4711 Y96.3976
Z-1.365
G1 Z-1.6825 F3500
X130.467 Y96.3908 Z-1.7532
X130.455 Y96.3706 Z-1.8203
X130.4357 Y96.3381 Z-1.8805
X130.41 Y96.2949 Z-1.9307
X130.3792 Y96.2431 Z-1.9686
X130.3449 Y96.1855 Z-1.992
X130.3088 Y96.1247 Z-2
G3 X130.0875 Y95.3712 I1.3603 J-0.8088
G1 Y93.9555
X130.095 Y93.8057
X130.1161 Y93.6571
X130.1553 Y93.4848
X130.2127 Y93.302
X130.2941 Y93.1009
X130.4157 Y92.8585
X130.5635 Y92.6149
X130.7689 Y92.3307
X131.0374 Y92.0157
X131.405 Y91.6488
X131.8822 Y91.2434
X132.4811 Y90.8125
X133.108 Y90.4233
X133.7529 Y90.0649
X134.4104 Y89.7302
X135.0773 Y89.4146
X135.7517 Y89.1153
X136.4323 Y88.8306
X137.1184 Y88.5592
X137.8094 Y88.3004
X138.5048 Y88.054
X139.2044 Y87.8196
X139.9079 Y87.5971
X140.615 Y87.3865
X141.3256 Y87.1878
X142.0394 Y87.0012
X142.7563 Y86.8267
X143.4761 Y86.6645
X144.1985 Y86.5148
X144.9235 Y86.3778
X145.6508 Y86.2538
X146.3803 Y86.143
X147.1116 Y86.0458
X147.8448 Y85.9628
X148.5794 Y85.8945
X149.3154 Y85.8419
X150.0523 Y85.8063
X150.7899 Y85.7893
X151.5278 Y85.7929
X152.2651 Y85.8195
X153.0009 Y85.8733
X153.7337 Y85.9597
X154.4048 Y86.0793
X154.8874 Y86.2059
X155.2198 Y86.3224
X155.455 Y86.4267
X155.5253 Y86.4649
X155.6852 Y86.5819
X155.8084 Y86.7372
X155.886 Y86.9195
X155.9125 Y87.1159
Y88.3551
G3 X155.3392 Y88.5319 I-0.3173 J-0.0111
G1 X155.2974 Y88.4749 Z-1.992
X155.2577 Y88.4208 Z-1.9686
X155.2221 Y88.3723 Z-1.9307
X155.1924 Y88.3317 Z-1.8805
X155.17 Y88.3012 Z-1.8203
X155.1561 Y88.2823 Z-1.7532
X155.1514 Y88.2759 Z-1.6825
G0 Z5
X130.4711 Y94.9819
Z-1.365
G1 Z-1.6825 F3500
X130.467 Y94.9751 Z-1.7532
X130.455 Y94.9549 Z-1.8203
X130.4357 Y94.9224 Z-1.8805
X130.41 Y94.8792 Z-1.9307
X130.3792 Y94.8274 Z-1.9686
X130.3449 Y94.7698 Z-1.992
X130.3088 Y94.709 Z-2
G3 X130.0875 Y93.9555 I1.3603 J-0.8088
G1 Y92.523
X130.095 Y92.3732
X130.1183 Y92.2235
X130.1603 Y92.048
X130.2179 Y91.8716
X130.3052 Y91.6624
X130.4269 Y91.4264
X130.5774 Y91.1843
X130.7979 Y90.8862
X131.0575 Y90.5884
X131.4279 Y90.2267
X131.9251 Y89.8137
X132.5287 Y89.3894
X133.1601 Y89.0076
X133.8093 Y88.6571
X134.4709 Y88.3305
X135.1417 Y88.0232
X135.8197 Y87.7322
X136.5037 Y87.4557
X137.193 Y87.1925
X137.8869 Y86.9417
X138.5851 Y86.7031
X139.2872 Y86.4763
X139.9929 Y86.2613
X140.7022 Y86.0579
X141.4147 Y85.8663
X142.1302 Y85.6864
X142.8487 Y85.5185
X143.5699 Y85.3627
X144.2936 Y85.2191
X145.0196 Y85.088
X145.7479 Y84.9696
X146.4781 Y84.8643
X147.2102 Y84.7725
X147.9439 Y84.6946
X148.679 Y84.6315
X149.4153 Y84.5841
X150.1525 Y84.5536
X150.8902 Y84.5415
X151.628 Y84.5497
X152.3652 Y84.5806
X153.1007 Y84.6383
X153.8328 Y84.73
X154.4869 Y84.8551
X154.9327 Y84.9783
X155.2598 Y85.0976
X155.488 Y85.2022
X155.5336 Y85.2278
X155.6903 Y85.3452
X155.8108 Y85.4996
X155.8866 Y85.6801
X155.9125 Y85.8742
Y87.1159
G3 X155.3392 Y87.2926 I-0.3173 J-0.0111
G1 X155.2974 Y87.2356 Z-1.992
X155.2577 Y87.1815 Z-1.9686
X155.2221 Y87.133 Z-1.9307
X155.1924 Y87.0925 Z-1.8805
X155.17 Y87.062 Z-1.8203
X155.1561 Y87.043 Z-1.7532
X155.1514 Y87.0366 Z-1.6825
G0 Z5
X130.4711 Y93.5495
Z-1.365
G1 Z-1.6825 F3500
X130.467 Y93.5426 Z-1.7532
X130.455 Y93.5225 Z-1.8203
X130.4357 Y93.4899 Z-1.8805
X130.41 Y93.4467 Z-1.9307
X130.3792 Y93.395 Z-1.9686
X130.3449 Y93.3373 Z-1.992
X130.3088 Y93.2766 Z-2
G3 X130.0875 Y92.523 I1.3603 J-0.8088
G1 Y91.1073
X130.095 Y90.9575
X130.1191 Y90.8094
X130.1624 Y90.6338
X130.2213 Y90.4573
X130.3091 Y90.251
X130.4353 Y90.0104
X130.5858 Y89.7721
X130.8056 Y89.4789
X131.0703 Y89.1795
X131.4426 Y88.8209
X131.9296 Y88.422
X132.5361 Y88.0018
X133.1706 Y87.6252
X133.823 Y87.2806
X134.4877 Y86.9604
X135.1614 Y86.6597
X135.8423 Y86.3755
X136.5291 Y86.1058
X137.2209 Y85.8493
X137.9172 Y85.6053
X138.6175 Y85.3733
X139.3217 Y85.1529
X140.0293 Y84.9441
X140.7403 Y84.7468
X141.4543 Y84.561
X142.1713 Y84.3868
X142.891 Y84.2243
X143.6133 Y84.0737
X144.3379 Y83.9351
X145.0648 Y83.8087
X145.7938 Y83.6949
X146.5247 Y83.5939
X147.2573 Y83.5062
X147.9914 Y83.4324
X148.7268 Y83.3732
X149.4634 Y83.3295
X150.2007 Y83.3025
X150.9384 Y83.2935
X151.6762 Y83.3042
X152.4132 Y83.3376
X153.1485 Y83.3985
X153.8801 Y83.4944
X154.5169 Y83.6198
X154.9566 Y83.7439
X155.2772 Y83.8628
X155.5028 Y83.9678
X155.5372 Y83.9873
X155.6925 Y84.1048
X155.8118 Y84.2588
X155.8869 Y84.4386
X155.9125 Y84.6317
Y85.8742
G3 X155.3392 Y86.0509 I-0.3173 J-0.0111
G1 X155.2974 Y85.994 Z-1.992
X155.2577 Y85.9399 Z-1.9686
X155.2221 Y85.8913 Z-1.9307
X155.1924 Y85.8508 Z-1.8805
X155.17 Y85.8203 Z-1.8203
X155.1561 Y85.8014 Z-1.7532
X155.1514 Y85.795 Z-1.6825
G0 Z5
X130.4711 Y92.1338
Z-1.365
G1 Z-1.6825 F3500
X130.467 Y92.1269 Z-1.7532
X130.455 Y92.1067 Z-1.8203
X130.4357 Y92.0742 Z-1.8805
X130.41 Y92.031 Z-1.9307
X130.3792 Y91.9793 Z-1.9686
X130.3449 Y91.9216 Z-1.992
X130.3088 Y91.8609 Z-2
G3 X130.0875 Y91.1073 I1.3603 J-0.8088
G1 Y89.767
X130.0956 Y89.6062
X130.1151 Y89.4574
X130.1516 Y89.2924
X130.2061 Y89.1151
X130.2825 Y88.923
X130.3964 Y88.6924
X130.535 Y88.4609
X130.7263 Y88.1927
X130.978 Y87.8938
X131.3034 Y87.5651
X131.7298 Y87.1984
X132.3261 Y86.7639
X132.9552 Y86.3784
X133.6049 Y86.0288
X134.2685 Y85.7062
X134.942 Y85.405
X135.6231 Y85.1214
X136.3104 Y84.853
X137.0028 Y84.5982
X137.6998 Y84.3561
X138.4008 Y84.1261
X139.1056 Y83.9076
X139.8137 Y83.7006
X140.5251 Y83.505
X141.2395 Y83.3206
X141.9568 Y83.1476
X142.6767 Y82.9861
X143.3991 Y82.8361
X144.1239 Y82.6979
X144.8508 Y82.5716
X145.5797 Y82.4575
X146.3105 Y82.356
X147.043 Y82.2676
X147.7771 Y82.1928
X148.5124 Y82.1323
X149.2488 Y82.0869
X149.986 Y82.0575
X150.7237 Y82.0454
X151.4615 Y82.0523
X152.1988 Y82.081
X152.9346 Y82.1356
X153.6674 Y82.2216
X154.3772 Y82.3465
X154.8745 Y82.4758
X155.2069 Y82.5914
X155.4476 Y82.6976
X155.5239 Y82.7388
X155.6844 Y82.8557
X155.808 Y83.0111
X155.8859 Y83.1938
X155.9125 Y83.3905
Y84.6317
G3 X155.3392 Y84.8084 I-0.3173 J-0.0111
G1 X155.2974 Y84.7515 Z-1.992
X155.2577 Y84.6973 Z-1.9686
X155.2221 Y84.6488 Z-1.9307
X155.1924 Y84.6083 Z-1.8805
X155.17 Y84.5778 Z-1.8203
X155.1561 Y84.5588 Z-1.7532
X155.1514 Y84.5524 Z-1.6825
G0 Z5
X130.4711 Y90.7935
Z-1.365
G1 Z-1.6825 F3500
X130.467 Y90.7866 Z-1.7532
X130.455 Y90.7664 Z-1.8203
X130.4357 Y90.7339 Z-1.8805
X130.41 Y90.6907 Z-1.9307
X130.3792 Y90.639 Z-1.9686
X130.3449 Y90.5813 Z-1.992
X130.3088 Y90.5206 Z-2
G3 X130.0875 Y89.767 I1.3603 J-0.8088
G1 Y88.3345
X130.095 Y88.1847
X130.1194 Y88.0317
X130.1579 Y87.8731
X130.217 Y87.694
X130.3064 Y87.4821
X130.4151 Y87.273
X130.571 Y87.0243
X130.7777 Y86.7466
X131.032 Y86.4569
X131.3768 Y86.1227
X131.8405 Y85.7402
X132.4455 Y85.3179
X133.0813 Y84.9435
X133.7364 Y84.6041
X134.4046 Y84.2912
X135.0822 Y83.9992
X135.767 Y83.7246
X136.4576 Y83.465
X137.1531 Y83.2187
X137.8529 Y82.9849
X138.5565 Y82.763
X139.2637 Y82.5525
X139.9741 Y82.3532
X140.6875 Y82.1651
X141.4038 Y81.9881
X142.1227 Y81.8223
X142.8442 Y81.6677
X143.568 Y81.5246
X144.294 Y81.393
X145.022 Y81.2733
X145.7519 Y81.1657
X146.4836 Y81.0706
X147.2168 Y80.9886
X147.9515 Y80.9201
X148.6873 Y80.8657
X149.424 Y80.8264
X150.1615 Y80.8032
X150.8993 Y80.7974
X151.637 Y80.811
X152.3739 Y80.8466
X153.1092 Y80.908
X153.841 Y81.0017
X154.5029 Y81.1307
X154.9417 Y81.2535
X155.268 Y81.3739
X155.4957 Y81.4793
X155.5359 Y81.502
X155.6917 Y81.6195
X155.8115 Y81.7736
X155.8868 Y81.9536
X155.9125 Y82.1471
Y83.3905
G3 X155.3392 Y83.5673 I-0.3173 J-0.0111
G1 X155.2974 Y83.5103 Z-1.992
X155.2577 Y83.4562 Z-1.9686
X155.2221 Y83.4077 Z-1.9307
X155.1924 Y83.3671 Z-1.8805
X155.17 Y83.3366 Z-1.8203
X155.1561 Y83.3177 Z-1.7532
X155.1514 Y83.3113 Z-1.6825
G0 Z5
X130.4711 Y89.361
Z-1.365
G1 Z-1.6825 F3500
X130.467 Y89.3542 Z-1.7532
X130.455 Y89.334 Z-1.8203
X130.4357 Y89.3015 Z-1.8805
X130.41 Y89.2583 Z-1.9307
X130.3792 Y89.2065 Z-1.9686
X130.3449 Y89.1488 Z-1.992
X130.3088 Y89.0881 Z-2
G3 X130.0875 Y88.3345 I1.3603 J-0.8088
G1 Y86.9942
X130.095 Y86.8444
X130.1148 Y86.6957
X130.1515 Y86.5303
X130.2029 Y86.3636
X130.2803 Y86.1695
X130.3915 Y85.9449
X130.5254 Y85.7215
X130.7197 Y85.4496
X130.9571 Y85.1682
X131.2791 Y84.8434
X131.6816 Y84.4978
X132.2454 Y84.0876
X132.8749 Y83.7028
X133.5267 Y83.3572
X134.1933 Y83.0409
X134.8703 Y82.7476
X135.5551 Y82.4728
X136.246 Y82.2138
X136.9419 Y81.9688
X137.6422 Y81.7364
X138.3463 Y81.516
X139.0539 Y81.3071
X139.7647 Y81.1093
X140.4785 Y80.9225
X141.1951 Y80.7467
X141.9142 Y80.5819
X142.6358 Y80.4282
X143.1522 Y80.3264
X143.1996 Y80.3187
X143.2474 Y80.314
X143.2954 Y80.3125
X152.2557 Y80.3121
X152.267 Y80.3105
X152.2926 Y80.2877
X152.4074 Y80.1912
X152.633 Y80.1152
X152.8789 Y80.0537
X153.1915 Y80.0018
X153.5433 Y79.9721
X153.9397 Y79.9706
X154.344 Y80.0016
X154.7297 Y80.0626
X155.026 Y80.1342
X155.2905 Y80.2211
X155.4913 Y80.3055
X155.5126 Y80.3166
X155.6774 Y80.4329
X155.8047 Y80.5894
X155.885 Y80.7745
X155.9125 Y80.9743
Y82.1471
G3 X155.4471 Y82.4169 I-0.3173 J-0.0111
G1 X155.32 Y82.3498
X152.5372 Y80.8824
X152.3685 Y80.7935
G3 X152.2926 Y80.2877 I0.1481 J-0.2808
G1 X152.3048 Y80.2763
X152.3123 Y80.2649
X152.3125 Y79.999
X152.3163 Y79.9241
X152.3972 Y79.7978
X152.4948 Y79.684
X152.6044 Y79.5815
X152.7235 Y79.4904
X152.8618 Y79.4017
X153.0184 Y79.3182
X153.21 Y79.235
X153.4161 Y79.1646
X153.66 Y79.1026
X153.9266 Y79.0572
X154.2028 Y79.0328
X154.4947 Y79.0304
X154.7735 Y79.0507
X155.0079 Y79.0868
X155.2288 Y79.1392
X155.4073 Y79.1971
X155.4559 Y79.2173
X155.6421 Y79.3292
X155.7879 Y79.4902
X155.8807 Y79.6866
X155.9125 Y79.9014
Y80.9743
G3 X155.496 Y81.2648 I-0.3173 J-0.0111
G1 X155.309 Y81.2033
X152.9093 Y80.4141
X152.5306 Y80.2896
G3 X152.3125 Y79.999 I0.0992 J-0.3016
G1 Y79.4964
X152.32 Y79.3466
X152.3733 Y79.2064
X152.4445 Y79.0744
X152.5298 Y78.951
X152.6267 Y78.8365
X152.7385 Y78.7262
X152.8621 Y78.6222
X153.0128 Y78.5151
X153.1796 Y78.4155
X153.3697 Y78.3219
X153.5871 Y78.2357
X153.8174 Y78.1652
X154.0603 Y78.1117
X154.317 Y78.0765
X154.5729 Y78.0622
X154.7895 Y78.0675
X155.0155 Y78.0912
X155.2009 Y78.1259
X155.3721 Y78.1724
X155.4227 Y78.1907
X155.6212 Y78.2988
X155.7778 Y78.4617
X155.878 Y78.6643
X155.9125 Y78.8877
Y79.9014
G3 X155.5522 Y80.2049 I-0.3173 J-0.0111
G1 X155.2999 Y80.1705
X152.9246 Y79.8461
X152.5869 Y79.7999
G3 X152.3125 Y79.4964 I0.043 J-0.3146
G1 Y78.7848
X152.32 Y78.635
X152.3549 Y78.4891
X152.4087 Y78.3491
X152.4778 Y78.216
X152.5596 Y78.0902
X152.6534 Y77.9711
X152.7628 Y77.8531
X152.8906 Y77.7356
X153.043 Y77.6167
X153.2088 Y77.5075
X153.3988 Y77.4033
X153.6075 Y77.3096
X153.8326 Y77.2297
X154.0676 Y77.1669
X154.3098 Y77.1227
X154.5426 Y77.0993
X154.7491 Y77.0952
X154.9666 Y77.1083
X155.1452 Y77.1336
X155.3122 Y77.1712
X155.3916 Y77.1959
X155.6014 Y77.2999
X155.7682 Y77.4641
X155.8755 Y77.6721
X155.9125 Y77.9033
Y78.8877
G3 X155.5842 Y79.1939 I-0.3173 J-0.0111
G1 X155.2976 Y79.184
X152.9274 Y79.1017
X152.6188 Y79.091
G3 X152.3125 Y78.7848 I0.011 J-0.3173
G1 Y77.9471
X152.32 Y77.7973
X152.3475 Y77.6498
X152.3937 Y77.5071
X152.4551 Y77.3703
X152.5298 Y77.2402
X152.6179 Y77.1142
X152.7186 Y76.9923
X152.8419 Y76.8654
X152.9846 Y76.7403
X153.1429 Y76.6227
X153.3245 Y76.5091
X153.524 Y76.4057
X153.7383 Y76.3156
X153.9639 Y76.2413
X154.1975 Y76.1848
X154.4298 Y76.148
X154.6346 Y76.1323
X154.8556 Y76.1331
X155.0428 Y76.1488
X155.2063 Y76.1759
X155.3855 Y76.2207
X155.4082 Y76.2283
X155.612 Y76.3345
X155.7734 Y76.4981
X155.8769 Y76.7033
X155.9125 Y76.9304
Y77.9033
G3 X155.5999 Y78.2097 I-0.3173 J-0.0111
G1 X155.2975 Y78.2142
X152.9275 Y78.2492
X152.6345 Y78.2535
G3 X152.3125 Y77.9471 I-0.0047 J-0.3175
G1 Y77.034
X152.32 Y76.8842
X152.3452 Y76.7364
X152.3889 Y76.5929
X152.4482 Y76.4551
X152.5203 Y76.3235
X152.6036 Y76.1988
X152.7074 Y76.0676
X152.8246 Y75.9417
X152.9644 Y75.8139
X153.126 Y75.6884
X153.3018 Y75.5732
X153.4935 Y75.4686
X153.705 Y75.3743
X153.9285 Y75.2955
X154.1588 Y75.2346
X154.3972 Y75.1916
X154.6038 Y75.1713
X154.8133 Y75.1676
X155.0095 Y75.18
X155.1737 Y75.2036
X155.3453 Y75.2426
X155.3933 Y75.2576
X155.6024 Y75.3618
X155.7688 Y75.526
X155.8757 Y75.7338
X155.9125 Y75.9646
Y76.9304
G3 X155.6063 Y77.2366 I-0.3173 J-0.0111
G1 X155.2976 Y77.2474
X152.9274 Y77.3302
X152.6409 Y77.3402
G3 X152.3125 Y77.034 I-0.0111 J-0.3173
G1 Y76.1042
X152.32 Y75.9544
X152.3429 Y75.8061
X152.3842 Y75.6619
X152.4413 Y75.5232
X152.5115 Y75.3907
X152.5928 Y75.2646
X152.6942 Y75.1326
X152.8105 Y75.0041
X152.9464 Y74.8763
X153.1064 Y74.7483
X153.2818 Y74.6298
X153.4716 Y74.5226
X153.6791 Y74.4265
X153.9008 Y74.3448
X154.1295 Y74.2808
X154.3653 Y74.2348
X154.5724 Y74.2115
X154.7839 Y74.2047
X154.9814 Y74.2143
X155.1464 Y74.2357
X155.3183 Y74.2721
X155.3831 Y74.2915
X155.596 Y74.3942
X155.7656 Y74.5587
X155.8748 Y74.7682
X155.9125 Y75.0015
Y75.9646
G3 X155.6101 Y76.2706 I-0.3173 J-0.0111
G1 X155.2978 Y76.2853
X152.9272 Y76.3969
X152.6447 Y76.4103
G3 X152.3125 Y76.1042 I-0.0149 J-0.3172
G1 Y75.099
X152.32 Y74.9491
X152.3503 Y74.8022
X152.3976 Y74.6599
X152.459 Y74.523
X152.5332 Y74.3926
X152.6218 Y74.2632
X152.7258 Y74.1347
X152.8531 Y74.0011
X152.9957 Y73.8735
X153.1582 Y73.7502
X153.3404 Y73.6337
X153.541 Y73.5271
X153.7547 Y73.4347
X153.978 Y73.3588
X154.2086 Y73.3005
X154.4347 Y73.2624
X154.6351 Y73.2449
X154.8526 Y73.2435
X155.0356 Y73.2571
X155.1974 Y73.2822
X155.3754 Y73.3248
X155.4011 Y73.3331
X155.6075 Y73.4384
X155.7712 Y73.6023
X155.8763 Y73.8087
X155.9125 Y74.0375
Y75.0015
G3 X155.6056 Y75.3077 I-0.3173 J-0.0111
G1 X155.2976 Y75.3179
X152.9274 Y75.3958
X152.6402 Y75.4052
G3 X152.3125 Y75.099 I-0.0104 J-0.3173
G1 Y74.1859
X152.32 Y74.036
X152.3432 Y73.8879
X152.3849 Y73.7438
X152.4421 Y73.6051
X152.512 Y73.4724
X152.5943 Y73.3449
X152.6957 Y73.2124
X152.8111 Y73.0844
X152.9501 Y72.9531
X153.1087 Y72.8258
X153.2817 Y72.7084
X153.4718 Y72.6006
X153.6812 Y72.5032
X153.9023 Y72.4212
X154.1301 Y72.357
X154.3663 Y72.3105
X154.5745 Y72.2867
X154.781 Y72.2797
X154.9803 Y72.289
X155.1463 Y72.3102
X155.3148 Y72.3456
X155.3819 Y72.3655
X155.5951 Y72.468
X155.7652 Y72.6325
X155.8747 Y72.8423
X155.9125 Y73.0759
Y74.0375
G3 X155.6111 Y74.3436 I-0.3173 J-0.0111
G1 X155.2978 Y74.3592
X152.9272 Y74.4778
X152.6457 Y74.4919
G3 X152.3125 Y74.1859 I-0.0159 J-0.3171
G1 Y73.1806
X152.32 Y73.0308
X152.3499 Y72.8838
X152.3968 Y72.7413
X152.4579 Y72.6044
X152.5317 Y72.4738
X152.6198 Y72.3444
X152.7236 Y72.2153
X152.8506 Y72.0813
X152.9926 Y71.9536
X153.1549 Y71.8297
X153.3372 Y71.7125
X153.5371 Y71.6055
X153.7502 Y71.5127
X153.9732 Y71.4361
X154.2035 Y71.3773
X154.4294 Y71.3385
X154.6297 Y71.3205
X154.8472 Y71.3186
X155.0307 Y71.3316
X155.1924 Y71.3563
X155.3704 Y71.3983
X155.3992 Y71.4076
X155.6062 Y71.5126
X155.7706 Y71.6766
X155.8761 Y71.8834
X155.9125 Y72.1126
Y73.0759
G3 X155.6064 Y73.3821 I-0.3173 J-0.0111
G1 X155.2976 Y73.393
X152.9274 Y73.4767
X152.641 Y73.4868
G3 X152.3125 Y73.1806 I-0.0112 J-0.3173
G1 Y72.2508
X152.32 Y72.101
X152.345 Y71.9531
X152.388 Y71.8094
X152.4463 Y71.6712
X152.5173 Y71.539
X152.6002 Y71.4122
X152.7036 Y71.2786
X152.8207 Y71.1503
X152.9603 Y71.02
X153.1214 Y70.8922
X153.2968 Y70.7747
X153.4874 Y70.6681
X153.6972 Y70.572
X153.9189 Y70.4913
X154.1471 Y70.4284
X154.3836 Y70.3833
X154.5883 Y70.3611
X154.798 Y70.3552
X154.9936 Y70.3655
X155.1575 Y70.3874
X155.3287 Y70.4245
X155.386 Y70.4418
X155.5978 Y70.545
X155.7665 Y70.7094
X155.8751 Y70.9184
X155.9125 Y71.151
Y72.1126
G3 X155.61 Y72.4187 I-0.3173 J-0.0111
G1 X155.2978 Y72.4333
X152.9273 Y72.5437
X152.6446 Y72.5569
G3 X152.3125 Y72.2508 I-0.0148 J-0.3172
G1 Y71.2456
X152.32 Y71.0957
X152.3514 Y70.9491
X152.3995 Y70.807
X152.4616 Y70.6704
X152.5363 Y70.5404
X152.625 Y70.4116
X152.7307 Y70.2818
X152.8591 Y70.1477
X153.0021 Y70.0205
X153.1663 Y69.8967
X153.3498 Y69.7801
X153.5511 Y69.6738
X153.765 Y69.582
X153.9888 Y69.5067
X154.2195 Y69.4491
X154.4449 Y69.4117
X154.6445 Y69.3949
X154.861 Y69.3941
X155.043 Y69.4082
X155.2044 Y69.4337
X155.3819 Y69.4767
X155.4032 Y69.4837
X155.6088 Y69.5892
X155.7718 Y69.753
X155.8765 Y69.9591
X155.9125 Y70.1874
Y71.151
G3 X155.6053 Y71.4572 I-0.3173 J-0.0111
G1 X155.2976 Y71.467
X152.9274 Y71.5426
X152.6399 Y71.5518
G3 X152.3125 Y71.2456 I-0.0101 J-0.3173
G1 Y70.3325
X152.32 Y70.1827
X152.344 Y70.0346
X152.3864 Y69.8907
X152.444 Y69.7522
X152.5143 Y69.6197
X152.5975 Y69.4915
X152.6995 Y69.3591
X152.8158 Y69.2308
X152.9558 Y69.0993
X153.115 Y68.9722
X153.2887 Y68.855
X153.4797 Y68.7474
X153.6896 Y68.6505
X153.9111 Y68.5691
X154.1391 Y68.5054
X154.3754 Y68.4596
X154.5825 Y68.4365
X154.7889 Y68.4301
X154.9871 Y68.4399
X155.1523 Y68.4614
X155.3212 Y68.4974
X155.3838 Y68.5161
X155.5964 Y68.6189
X155.7658 Y68.7834
X155.8749 Y68.9928
X155.9125 Y69.226
Y70.1874
G3 X155.6107 Y70.4934 I-0.3173 J-0.0111
G1 X155.2978 Y70.5088
X152.9272 Y70.6247
X152.6453 Y70.6385
G3 X152.3125 Y70.3325 I-0.0155 J-0.3171
G1 Y69.3272
X152.32 Y69.1774
X152.3505 Y69.0305
X152.3979 Y68.8882
X152.4594 Y68.7514
X152.5336 Y68.621
X152.6217 Y68.492
X152.7265 Y68.3625
X152.8541 Y68.2283
X152.9964 Y68.1009
X153.1596 Y67.9769
X153.3425 Y67.8598
X153.5429 Y67.7531
X153.7562 Y67.6607
X153.9796 Y67.5846
X154.21 Y67.5262
X154.4357 Y67.488
X154.6356 Y67.4705
X154.8527 Y67.469
X155.0356 Y67.4824
X155.1971 Y67.5074
X155.3749 Y67.5498
X155.4007 Y67.5582
X155.6072 Y67.6634
X155.7711 Y67.8273
X155.8763 Y68.0338
X155.9125 Y68.2627
Y69.226
G3 X155.606 Y69.5322 I-0.3173 J-0.0111
G1 X155.2976 Y69.5427
X152.9274 Y69.6237
X152.6407 Y69.6335
G3 X152.3125 Y69.3272 I-0.0108 J-0.3173
G1 Y68.3974
X152.32 Y68.2476
X152.3455 Y68.0998
X152.389 Y67.9562
X152.4477 Y67.8182
X152.5189 Y67.6862
X152.6025 Y67.559
X152.7065 Y67.4254
X152.824 Y67.2971
X152.9643 Y67.1667
X153.126 Y67.0391
X153.3019 Y66.9218
X153.493 Y66.8155
X153.7033 Y66.7198
X153.9252 Y66.6395
X154.1537 Y66.5771
X154.3903 Y66.5325
X154.5942 Y66.5108
X154.8039 Y66.5055
X154.9988 Y66.5162
X155.1622 Y66.5384
X155.3336 Y66.5759
X155.3876 Y66.5923
X155.5988 Y66.6957
X155.767 Y66.8601
X155.8752 Y67.0688
X155.9125 Y67.301
Y68.2627
G3 X155.6096 Y68.5688 I-0.3173 J-0.0111
G1 X155.2978 Y68.583
X152.9273 Y68.6906
X152.6442 Y68.7035
G3 X152.3125 Y68.3974 I-0.0144 J-0.3172
G1 Y67.3922
X152.32 Y67.2423
X152.3519 Y67.0958
X152.4004 Y66.9538
X152.4628 Y66.8175
X152.5378 Y66.6875
X152.6267 Y66.559
X152.7331 Y66.4289
X152.862 Y66.2948
X153.0053 Y66.1679
X153.1702 Y66.044
X153.3542 Y65.9276
X153.5559 Y65.8216
X153.7701 Y65.7302
X153.9941 Y65.6552
X154.225 Y65.5981
X154.4503 Y65.5611
X154.6496 Y65.5448
X154.8656 Y65.5444
X155.0472 Y65.5587
X155.2086 Y65.5846
X155.3859 Y65.6279
X155.4045 Y65.634
X155.6096 Y65.7398
X155.7722 Y65.9035
X155.8766 Y66.1094
X155.9125 Y66.3373
Y67.301
G3 X155.605 Y67.6073 I-0.3173 J-0.0111
G1 X155.2976 Y67.6167
X152.9274 Y67.6896
X152.6396 Y67.6984
G3 X152.3125 Y67.3922 I-0.0098 J-0.3174
G1 Y66.4791
X152.32 Y66.3293
X152.3445 Y66.1813
X152.3873 Y66.0375
X152.4453 Y65.8992
X152.5158 Y65.7668
X152.5996 Y65.6384
X152.7019 Y65.506
X152.8187 Y65.3776
X152.9594 Y65.2461
X153.1189 Y65.1192
X153.2932 Y65.0023
X153.4846 Y64.8949
X153.6949 Y64.7983
X153.9166 Y64.7173
X154.1449 Y64.6541
X154.3814 Y64.6087
X154.5877 Y64.5861
X154.7942 Y64.5801
X154.9917 Y64.5903
X155.1566 Y64.6121
X155.3256 Y64.6485
X155.3853 Y64.6665
X155.5973 Y64.7695
X155.7663 Y64.9339
X155.875 Y65.1431
X155.9125 Y65.3759
Y66.3373
G3 X155.6104 Y66.6434 I-0.3173 J-0.0111
G1 X155.2978 Y66.6583
X152.9272 Y66.7716
X152.645 Y66.7851
G3 X152.3125 Y66.4791 I-0.0152 J-0.3171
G1 Y65.4738
X152.32 Y65.324
X152.351 Y65.1773
X152.3987 Y65.035
X152.4606 Y64.8984
X152.535 Y64.7682
X152.6234 Y64.6394
X152.7287 Y64.5096
X152.8568 Y64.3754
X152.9994 Y64.2482
X153.1633 Y64.1242
X153.3466 Y64.0072
X153.5474 Y63.9008
X153.761 Y63.8088
X153.9846 Y63.733
X154.2152 Y63.6751
X154.4408 Y63.6373
X154.6404 Y63.6202
X154.8571 Y63.619
X155.0396 Y63.6328
X155.201 Y63.6581
X155.3786 Y63.7007
X155.402 Y63.7084
X155.608 Y63.8138
X155.7715 Y63.9776
X155.8764 Y64.1839
X155.9125 Y64.4125
Y65.3759
G3 X155.6057 Y65.6821 I-0.3173 J-0.0111
G1 X155.2976 Y65.6923
X152.9274 Y65.7706
X152.6403 Y65.7801
G3 X152.3125 Y65.4738 I-0.0105 J-0.3173
G1 Y64.544
X152.32 Y64.3942
X152.346 Y64.2464
X152.3898 Y64.103
X152.4489 Y63.9651
X152.5204 Y63.8332
X152.6044 Y63.7058
X152.7088 Y63.5722
X152.8268 Y63.444
X152.9677 Y63.3135
X153.1298 Y63.1861
X153.3061 Y63.069
X153.4977 Y62.9629
X153.7084 Y62.8675
X153.9305 Y62.7877
X154.1592 Y62.7257
X154.3959 Y62.6816
X154.5992 Y62.6603
X154.8089 Y62.6554
X155.0031 Y62.6664
X155.1663 Y62.6889
X155.3378 Y62.7268
X155.389 Y62.7425
X155.5997 Y62.8461
X155.7674 Y63.0104
X155.8753 Y63.2189
X155.9125 Y63.4507
Y64.4125
G3 X155.6093 Y64.7186 I-0.3173 J-0.0111
G1 X155.2978 Y64.7324
X152.9273 Y64.8375
X152.6439 Y64.8501
G3 X152.3125 Y64.544 I-0.0141 J-0.3172
G1 Y63.5388
X152.32 Y63.3889
X152.3523 Y63.2425
X152.4012 Y63.1006
X152.4639 Y62.9644
X152.5392 Y62.8346
X152.6283 Y62.7063
X152.7352 Y62.576
X152.8645 Y62.4419
X153.0081 Y62.3152
X153.1737 Y62.1912
X153.3581 Y62.075
X153.5602 Y61.9693
X153.7746 Y61.8782
X153.9988 Y61.8036
X154.2299 Y61.7468
X154.455 Y61.7103
X154.6541 Y61.6943
X154.8698
X155.051 Y61.7089
X155.2122 Y61.7351
X155.3894 Y61.7786
X155.4057 Y61.7841
X155.6104 Y61.89
X155.7726 Y62.0537
X155.8767 Y62.2593
X155.9125 Y62.487
Y63.4507
G3 X155.6046 Y63.757 I-0.3173 J-0.0111
G1 X155.2976 Y63.7661
X152.9274 Y63.8365
X152.6392 Y63.845
G3 X152.3125 Y63.5388 I-0.0094 J-0.3174
G1 Y62.6257
X152.32 Y62.4759
X152.3449 Y62.3279
X152.388 Y62.1843
X152.4463 Y62.0461
X152.5172 Y61.9138
X152.6014 Y61.7852
X152.704 Y61.6529
X152.8214 Y61.5245
X152.9625 Y61.3929
X153.1225 Y61.2663
X153.2971 Y61.1495
X153.489 Y61.0423
X153.6997 Y60.946
X153.9216 Y60.8654
X154.1501 Y60.8026
X154.3867 Y60.7576
X154.5924 Y60.7354
X154.799 Y60.7298
X154.9959 Y60.7403
X155.1603 Y60.7624
X155.3296 Y60.7992
X155.3866 Y60.8165
X155.5981 Y60.9197
X155.7667 Y61.0841
X155.8751 Y61.293
X155.9125 Y61.5254
Y62.487
G3 X155.61 Y62.793 I-0.3173 J-0.0111
G1 X155.2978 Y62.8076
X152.9273 Y62.9185
X152.6447 Y62.9317
G3 X152.3125 Y62.6257 I-0.0148 J-0.3172
G1 Y61.6204
X152.32 Y61.4706
X152.3514 Y61.3239
X152.3995 Y61.1819
X152.4616 Y61.0453
X152.5363 Y60.9153
X152.6248 Y60.7867
X152.7307 Y60.6567
X152.8592 Y60.5225
X153.0021 Y60.3955
X153.1665 Y60.2714
X153.3504 Y60.1546
X153.5515 Y60.0485
X153.7653 Y59.9567
X153.9891 Y59.8813
X154.2198 Y59.8237
X154.4453 Y59.7863
X154.6447 Y59.7696
X154.8611 Y59.7688
X155.0432 Y59.7828
X155.2045 Y59.8083
X155.382 Y59.8513
X155.4032 Y59.8582
X155.6087 Y59.9638
X155.7718 Y60.1276
X155.8765 Y60.3337
X155.9125 Y60.562
Y61.5254
G3 X155.6054 Y61.8317 I-0.3173 J-0.0111
G1 X155.2976 Y61.8416
X152.9274 Y61.9175
X152.64 Y61.9267
G3 X152.3125 Y61.6204 I-0.0102 J-0.3173
G1 Y60.6906
X152.32 Y60.5408
X152.3464 Y60.3931
X152.3906 Y60.2498
X152.4499 Y60.112
X152.5216 Y59.9803
X152.6061 Y59.8526
X152.7109 Y59.7191
X152.8293 Y59.5908
X152.9707 Y59.4604
X153.1333 Y59.333
X153.31 Y59.2162
X153.5019 Y59.1103
X153.7129 Y59.0152
X153.9353 Y58.9357
X154.1642 Y58.8741
X154.4009 Y58.8304
X154.6037 Y58.8096
X154.8134 Y58.805
X155.0071 Y58.8163
X155.1699 Y58.8391
X155.3415 Y58.8773
X155.3902 Y58.8923
X155.6005 Y58.9961
X155.7678 Y59.1603
X155.8754 Y59.3687
X155.9125 Y59.6002
Y60.562
G3 X155.609 Y60.8681 I-0.3173 J-0.0111
G1 X155.2977 Y60.8816
X152.9273 Y60.9844
X152.6436 Y60.9967
G3 X152.3125 Y60.6906 I-0.0137 J-0.3172
G1 Y59.6854
X152.32 Y59.5355
X152.3527 Y59.3892
X152.4019 Y59.2474
X152.4649 Y59.1113
X152.5404 Y58.9817
X152.6297 Y58.8535
X152.7371 Y58.723
X152.8668 Y58.589
X153.0107 Y58.4624
X153.1768 Y58.3384
X153.3617 Y58.2223
X153.564 Y58.1169
X153.7787 Y58.0261
X154.0031 Y57.9518
X154.2343 Y57.8954
X154.4593 Y57.8593
X154.6582 Y57.8436
X154.8736 Y57.8439
X155.0544 Y57.8588
X155.2156 Y57.8852
X155.3925 Y57.929
X155.4068 Y57.9338
X155.6111 Y58.0398
X155.7729 Y58.2035
X155.8768 Y58.4089
X155.9125 Y58.6363
Y59.6002
G3 X155.6043 Y59.9065 I-0.3173 J-0.0111
G1 X155.2976 Y59.9153
X152.9274 Y59.9834
X152.6389 Y59.9916
G3 X152.3125 Y59.6854 I-0.0091 J-0.3174
G1 Y58.7723
X152.32 Y58.6225
X152.3453 Y58.4746
X152.3888 Y58.331
X152.4473 Y58.1929
X152.5184 Y58.0608
X152.6031 Y57.932
X152.7059 Y57.7998
X152.8237 Y57.6713
X152.9654 Y57.5397
X153.1256 Y57.4133
X153.3007 Y57.2966
X153.493 Y57.1897
X153.7039 Y57.0936
X153.9261 Y57.0133
X154.1548 Y56.9509
X154.3914 Y56.9063
X154.5966 Y56.8845
X154.8033 Y56.8793
X154.9996 Y56.89
X155.1637 Y56.9124
X155.3331 Y56.9495
X155.3877 Y56.9661
X155.5989 Y57.0695
X155.767 Y57.2338
X155.8752 Y57.4426
X155.9125 Y57.6747
Y58.6363
G3 X155.6098 Y58.9424 I-0.3173 J-0.0111
G1 X155.2978 Y58.9567
X152.9273 Y59.0654
X152.6444 Y59.0784
G3 X152.3125 Y58.7723 I-0.0145 J-0.3172
G1 Y57.767
X152.32 Y57.6172
X152.3518 Y57.4706
X152.4001 Y57.3286
X152.4626 Y57.1922
X152.5375 Y57.0623
X152.6262 Y56.9339
X152.7325 Y56.8037
X152.8614 Y56.6695
X153.0045 Y56.5426
X153.1695 Y56.4186
X153.3537 Y56.3019
X153.5551 Y56.196
X153.7692 Y56.1045
X153.9932 Y56.0294
X154.224 Y55.9721
X154.4494 Y55.9351
X154.6485 Y55.9187
X154.8647 Y55.9182
X155.0464 Y55.9324
X155.2077 Y55.9582
X155.385 Y56.0014
X155.4042 Y56.0078
X155.6094 Y56.1135
X155.7721 Y56.2772
X155.8765 Y56.4831
X155.9125 Y56.7112
Y57.6747
G3 X155.6051 Y57.981 I-0.3173 J-0.0111
G1 X155.2976 Y57.9906
X152.9274 Y58.0643
X152.6397 Y58.0733
G3 X152.3125 Y57.767 I-0.0099 J-0.3173
G1 Y56.8372
X152.32 Y56.6874
X152.3468 Y56.5398
X152.3913 Y56.3965
X152.4508 Y56.2589
X152.5228 Y56.1273
X152.6077 Y55.9994
X152.7128 Y55.8659
X152.8316 Y55.7376
X152.9735 Y55.6072
X153.1364 Y55.48
X153.3134 Y55.3633
X153.5057 Y55.2576
X153.717 Y55.1627
X153.9397 Y55.0836
X154.1687 Y55.0223
X154.4055 Y54.979
X154.6078 Y54.9585
X154.8175 Y54.9543
X155.0106 Y54.9659
X155.1732 Y54.9889
X155.3449 Y55.0274
X155.3914 Y55.0418
X155.6012 Y55.1457
X155.7682 Y55.31
X155.8755 Y55.5181
X155.9125 Y55.7493
Y56.7112
G3 X155.6087 Y57.0173 I-0.3173 J-0.0111
G1 X155.2977 Y57.0305
X152.9273 Y57.1313
X152.6433 Y57.1433
G3 X152.3125 Y56.8372 I-0.0135 J-0.3172
G1 Y55.8734
X152.32 Y55.7236
X152.3472 Y55.5761
X152.3918 Y55.4329
X152.4513 Y55.2952
X152.5236 Y55.1638
X152.6066 Y55.0387
X152.7108 Y54.9061
X152.8324 Y54.7747
X152.9707 Y54.6474
X153.1337 Y54.52
X153.3139 Y54.4011
X153.5079 Y54.2943
X153.7168 Y54.2005
X153.9392 Y54.1212
X154.1682 Y54.0599
X154.4019 Y54.017
X154.603 Y53.9965
X154.8177 Y53.9921
X155.0081 Y54.0034
X155.1701 Y54.0262
X155.3451 Y54.0654
X155.391 Y54.0796
X155.601 Y54.1835
X155.7681 Y54.3477
X155.8755 Y54.5559
X155.9125 Y54.7872
Y55.7493
G3 X155.6085 Y56.0555 I-0.3173 J-0.0111
G1 X155.2977 Y56.0685
X152.9273 Y56.1677
X152.6431 Y56.1796
G3 X152.3125 Y55.8734 I-0.0133 J-0.3172
G1 Y54.9189
X152.32 Y54.7691
X152.3462 Y54.6214
X152.3899 Y54.4779
X152.4487 Y54.3399
X152.5203 Y54.2081
X152.6027 Y54.0827
X152.7063 Y53.9498
X152.8262 Y53.8191
X152.964 Y53.6912
X153.1259 Y53.5636
X153.3045 Y53.4447
X153.4969 Y53.3378
X153.7055 Y53.2429
X153.9273 Y53.1629
X154.1557 Y53.1006
X154.3904 Y53.0565
X154.5927 Y53.0352
X154.8068 Y53.0298
X154.9991 Y53.0405
X155.1617 Y53.0627
X155.3359 Y53.1009
X155.388 Y53.1168
X155.5991 Y53.2202
X155.7671 Y53.3846
X155.8752 Y53.5933
X155.9125 Y53.8253
Y54.7872
G3 X155.6093 Y55.0934 I-0.3173 J-0.0111
G1 X155.2978 Y55.1072
X152.9273 Y55.2124
X152.6439 Y55.225
G3 X152.3125 Y54.9189 I-0.0141 J-0.3172
G1 Y53.9136
X152.32 Y53.7638
X152.3523 Y53.6173
X152.4011 Y53.4755
X152.4638 Y53.3393
X152.539 Y53.2095
X152.6283 Y53.0808
X152.7349 Y52.9507
X152.8642 Y52.8166
X153.008 Y52.6896
X153.173 Y52.566
X153.3569 Y52.45
X153.5591 Y52.3442
X153.7736 Y52.253
X153.9976 Y52.1783
X154.2286 Y52.1215
X154.4538 Y52.0849
X154.653 Y52.0688
X154.8689
X155.05 Y52.0833
X155.2114 Y52.1094
X155.3887 Y52.1529
X155.4055 Y52.1585
X155.6102 Y52.2644
X155.7725 Y52.4281
X155.8766 Y52.6338
X155.9125 Y52.8615
Y53.8253
G3 X155.6047 Y54.1316 I-0.3173 J-0.0111
G1 X155.2976 Y54.1408
X152.9274 Y54.2113
X152.6393 Y54.2199
G3 X152.3125 Y53.9136 I-0.0094 J-0.3174
G1 Y52.9838
X152.32 Y52.834
X152.3472 Y52.6865
X152.3921 Y52.5434
X152.452 Y52.4058
X152.5242 Y52.2744
X152.6097 Y52.1463
X152.7152 Y52.0128
X152.8344 Y51.8846
X152.9769 Y51.7542
X153.1402 Y51.6272
X153.3176 Y51.5108
X153.5105 Y51.4054
X153.7222 Y51.3109
X153.945 Y51.2321
X154.1743 Y51.1713
X154.4112 Y51.1285
X154.6129 Y51.1085
X154.8226 Y51.1047
X155.0152 Y51.1167
X155.1774 Y51.1399
X155.3493 Y51.1789
X155.3928 Y51.1925
X155.6022 Y51.2966
X155.7686 Y51.4608
X155.8756 Y51.6687
X155.9125 Y51.8995
Y52.8615
G3 X155.6083 Y53.1677 I-0.3173 J-0.0111
G1 X155.2977 Y53.1805
X152.9273 Y53.2782
X152.6429 Y53.29
G3 X152.3125 Y52.9838 I-0.0131 J-0.3172
G1 Y52.02
X152.32 Y51.8702
X152.3477 Y51.7228
X152.3926 Y51.5797
X152.4525 Y51.4422
X152.5251 Y51.3109
X152.6085 Y51.1858
X152.7133 Y51.053
X152.8351 Y50.9219
X152.9742 Y50.7944
X153.1377 Y50.6671
X153.3183 Y50.5485
X153.5127 Y50.4421
X153.722 Y50.3485
X153.9447 Y50.2697
X154.1739 Y50.2088
X154.4077 Y50.1664
X154.6083 Y50.1464
X154.8229 Y50.1424
X155.0126 Y50.1541
X155.1744 Y50.1772
X155.3494 Y50.2167
X155.3925 Y50.2302
X155.6019 Y50.3343
X155.7685 Y50.4984
X155.8756 Y50.7064
X155.9125 Y50.9374
Y51.8995
G3 X155.6081 Y52.2057 I-0.3173 J-0.0111
G1 X155.2977 Y52.2183
X152.9273 Y52.3146
X152.6427 Y52.3262
G3 X152.3125 Y52.02 I-0.0129 J-0.3172
G1 Y51.0655
X152.32 Y50.9157
X152.3467 Y50.7681
X152.3907 Y50.6247
X152.4499 Y50.4868
X152.5218 Y50.3552
X152.6045 Y50.23
X152.7086 Y50.0969
X152.8287 Y49.9665
X152.9671 Y49.8385
X153.1296 Y49.7109
X153.3085 Y49.5922
X153.5012 Y49.4857
X153.7103 Y49.3911
X153.9323 Y49.3114
X154.1609 Y49.2496
X154.3958 Y49.2059
X154.5976 Y49.185
X154.8115 Y49.18
X155.0032 Y49.191
X155.1656 Y49.2135
X155.3399 Y49.252
X155.3894 Y49.2673
X155.5999 Y49.3709
X155.7675 Y49.5352
X155.8753 Y49.7436
X155.9125 Y49.9754
Y50.9374
G3 X155.6089 Y51.2435 I-0.3173 J-0.0111
G1 X155.2977 Y51.2569
X152.9273 Y51.3593
X152.6435 Y51.3716
G3 X152.3125 Y51.0655 I-0.0137 J-0.3172
G1 Y50.0602
X152.32 Y49.9104
X152.3528 Y49.764
X152.4019 Y49.6223
X152.465 Y49.4863
X152.5405 Y49.3566
X152.63 Y49.2281
X152.7372 Y49.0978
X152.867 Y48.9637
X153.0111 Y48.8369
X153.1767 Y48.7133
X153.3611 Y48.5975
X153.5637 Y48.4919
X153.7785 Y48.4011
X154.0028 Y48.3269
X154.2339 Y48.2704
X154.4589 Y48.2343
X154.6579 Y48.2186
X154.8735 Y48.219
X155.0541 Y48.2338
X155.2155 Y48.2603
X155.3925 Y48.3041
X155.4068 Y48.3089
X155.6111 Y48.415
X155.7729 Y48.5786
X155.8768 Y48.784
X155.9125 Y49.0114
Y49.9754
G3 X155.6043 Y50.2817 I-0.3173 J-0.0111
G1 X155.2976 Y50.2904
X152.9274 Y50.3583
X152.6389 Y50.3665
G3 X152.3125 Y50.0602 I-0.0091 J-0.3174
G1 Y49.1304
X152.32 Y48.9806
X152.3477 Y48.8332
X152.393 Y48.6902
X152.4532 Y48.5528
X152.5257 Y48.4215
X152.6117 Y48.2932
X152.7176 Y48.1598
X152.8373 Y48.0315
X152.9803 Y47.9011
X153.1441 Y47.7743
X153.3219 Y47.6581
X153.5153 Y47.5529
X153.7273 Y47.4587
X153.9505 Y47.3804
X154.1799 Y47.32
X154.4169 Y47.2776
X154.6181 Y47.2582
X154.8277 Y47.2547
X155.0197 Y47.2671
X155.1816 Y47.2906
X155.3536 Y47.3299
X155.3942 Y47.3428
X155.6031 Y47.4471
X155.7691 Y47.6112
X155.8757 Y47.8188
X155.9125 Y48.0494
Y49.0114
G3 X155.6079 Y49.3176 I-0.3173 J-0.0111
G1 X155.2977 Y49.33
X152.9273 Y49.4251
X152.6425 Y49.4366
G3 X152.3125 Y49.1304 I-0.0127 J-0.3172
G1 Y48.1666
X152.32 Y48.0168
X152.3482 Y47.8695
X152.3935 Y47.7265
X152.4537 Y47.5891
X152.5265 Y47.458
X152.6103 Y47.3328
X152.7157 Y47.1998
X152.8378 Y47.0689
X152.9774 Y46.9414
X153.1415 Y46.8141
X153.3225 Y46.6958
X153.5173 Y46.5896
X153.727 Y46.4964
X153.9499 Y46.4179
X154.1793 Y46.3574
X154.4131 Y46.3155
X154.6133 Y46.296
X154.8277 Y46.2924
X155.0169 Y46.3044
X155.1784 Y46.3278
X155.3535 Y46.3677
X155.3938 Y46.3804
X155.6028 Y46.4846
X155.7689 Y46.6488
X155.8757 Y46.8565
X155.9125 Y47.0871
Y48.0494
G3 X155.6078 Y48.3555 I-0.3173 J-0.0111
G1 X155.2977 Y48.3678
X152.9273 Y48.4615
X152.6424 Y48.4728
