%
(Made in : Autodesk CAM Post Processor)
(G Code optimized for OpenBuilds OX CNC 1000 x 750 with GRBL V0.9j controller)

(Program Name : 1001)
(1 Operation :)
(1 : Adaptive1  2 )
(  Tool : Flat End Mill 3 Flutes, Diam = 3.175mm, Len = 20mm)
(  Spindle : RPM = 30000, set router dial to 6)
(  Machining time : 1 min 50 sec)

G90 G94
G17
G21

(Operation 1 of 1 : Adaptive1  2 )

G53 G0 Z5
G54
S30000 M3
G4 P1.0
X132.8714 Y-2.2139
Z6
Z5
Z-1.365
G1 Z-1.6825 F3500
X132.876 Y-2.2074 Z-1.7532
X132.8894 Y-2.1881 Z-1.8203
X132.9111 Y-2.1571 Z-1.8805
X132.9399 Y-2.1159 Z-1.9307
X132.9744 Y-2.0665 Z-1.9686
X133.0128 Y-2.0115 Z-1.992
X133.0533 Y-1.9536 Z-2
G3 X133.6669 Y-0.3187 I-2.8845 J2.0152
G1 X133.6724 Y-0.2433
X133.6766 Y-0.0757
X133.6855 Y1.0978
X133.6875 Y1.6007
Y1.7684
G3 X133.1142 Y1.9451 I-0.3173 J-0.0111
G1 X133.0724 Y1.8881 Z-1.992
X133.0327 Y1.834 Z-1.9686
X132.9971 Y1.7855 Z-1.9307
X132.9674 Y1.745 Z-1.8805
X132.945 Y1.7145 Z-1.8203
X132.9311 Y1.6955 Z-1.7532
X132.9264 Y1.6891 Z-1.6825
G0 Z5
X288.1768 Y69.8454
Z-1.365
G1 Z-1.6825 F3500
X288.1704 Y69.8501 Z-1.7532
X288.1514 Y69.8639 Z-1.8203
X288.1208 Y69.8861 Z-1.8805
X288.0801 Y69.9156 Z-1.9307
X288.0313 Y69.9509 Z-1.9686
X287.977 Y69.9903 Z-1.992
X287.9198 Y70.0318 Z-2
G3 X286.2958 Y70.6736 I-2.0649 J-2.8491
G1 X286.2421 Y70.6785
X286.0744 Y70.6806
X284.5656 Y70.6874
X284.3979 Y70.6875
G3 X284.2212 Y70.1142 I0.0111 J-0.3173
G1 X284.2782 Y70.0724 Z-1.992
X284.3323 Y70.0327 Z-1.9686
X284.3808 Y69.9971 Z-1.9307
X284.4213 Y69.9674 Z-1.8805
X284.4518 Y69.945 Z-1.8203
X284.4708 Y69.9311 Z-1.7531
X284.4772 Y69.9264 Z-1.6825
G0 Z5
X258.1286 Y143.2139
Z-1.365
G1 Z-1.6825 F3500
X258.124 Y143.2074 Z-1.7532
X258.1106 Y143.1881 Z-1.8203
X258.0889 Y143.1571 Z-1.8805
X258.0601 Y143.1159 Z-1.9307
X258.0256 Y143.0666 Z-1.9686
X257.9872 Y143.0115 Z-1.992
X257.9467 Y142.9536 Z-2
G3 X257.3331 Y141.3187 I2.8845 J-2.0152
G1 X257.3276 Y141.2433
X257.3234 Y141.0757
X257.3145 Y139.9022
X257.3125 Y139.3993
Y139.2316
G3 X257.8858 Y139.0549 I0.3173 J0.0111
G1 X257.9276 Y139.1119 Z-1.992
X257.9673 Y139.166 Z-1.9686
X258.0029 Y139.2145 Z-1.9307
X258.0326 Y139.255 Z-1.8805
X258.055 Y139.2855 Z-1.8203
X258.0689 Y139.3045 Z-1.7531
X258.0736 Y139.3109 Z-1.6825
G0 Z5
X226.328 Y119.0331
Z-1.365
G1 Z-1.6825 F3500
X226.3211 Y119.0372 Z-1.7532
X226.3009 Y119.0492 Z-1.8203
X226.2684 Y119.0685 Z-1.8805
X226.2252 Y119.0942 Z-1.9307
X226.1735 Y119.125 Z-1.9686
X226.1158 Y119.1593 Z-1.992
X226.0551 Y119.1954 Z-2
G3 X224.3796 Y119.6875 I-1.7983 J-3.0245
G1 X214.3206 Y119.6874
X214.153 Y119.6867
X213.1471 Y119.6763
X212.6441 Y119.6687
X212.4765 Y119.6601
X211.9736 Y119.5885
X211.8059 Y119.552
X211.3878 Y119.4503
X211.303 Y119.4251
X210.8 Y119.2381
X210.6324 Y119.1663
X210.5203 Y119.1151
X210.2057 Y118.9474
X210.1294 Y118.9037
X209.6265 Y118.5729
X209.4577 Y118.4445
X209.2912 Y118.3091
X209.2538 Y118.2769
X209.0735 Y118.1092
X208.9559 Y117.9974
X208.9024 Y117.9416
X208.7509 Y117.774
X208.6206 Y117.6271
X208.4529 Y117.4113
X208.3522 Y117.271
X208.0339 Y116.7681
X207.9498 Y116.6005
X207.8675 Y116.4329
X207.7867 Y116.2652
X207.7209 Y116.0976
X207.5425 Y115.5947
X207.5017 Y115.427
X207.4262 Y115.0918
X207.394 Y114.9241
X207.3323 Y114.4212
X207.3246 Y114.2536
X207.3154 Y113.9183
X207.3125 Y113.7506
Y88.9402
G3 X207.8858 Y88.7635 I0.3173 J0.0111
G1 X207.9276 Y88.8204 Z-1.992
X207.9673 Y88.8745 Z-1.9686
X208.0029 Y88.9231 Z-1.9307
X208.0326 Y88.9636 Z-1.8805
X208.055 Y88.9941 Z-1.8203
X208.0689 Y89.013 Z-1.7532
X208.0736 Y89.0194 Z-1.6825
G0 Z5
X133.0332 Y87.3271
Z-1.365
G1 Z-1.6825 F3500
X133.0372 Y87.3339 Z-1.7532
X133.0492 Y87.3541 Z-1.8203
X133.0686 Y87.3866 Z-1.8805
X133.0943 Y87.4298 Z-1.9307
X133.125 Y87.4816 Z-1.9686
X133.1593 Y87.5393 Z-1.992
X133.1954 Y87.6 Z-2
G3 X133.6875 Y89.2755 I-3.0245 J1.7983
G1 Y113.7506
X133.6846 Y113.9183
X133.6754 Y114.2536
X133.6679 Y114.4212
X133.6301 Y114.7565
X133.608 Y114.9241
X133.5739 Y115.0918
X133.4979 Y115.427
X133.457 Y115.5947
X133.2789 Y116.0976
X133.208 Y116.2652
X133.0518 Y116.6005
X133.0109 Y116.6848
X132.9673 Y116.7681
X132.6418 Y117.271
X132.5246 Y117.4387
X132.5079 Y117.4613
X132.3947 Y117.6063
X132.1 Y117.9416
X131.8373 Y118.1964
X131.502 Y118.4714
X131.3209 Y118.6122
X131.1667 Y118.716
X130.6638 Y119.0204
X130.4821 Y119.1151
X130.3285 Y119.183
X130.0987 Y119.2827
X129.9932 Y119.3205
X129.4902 Y119.4852
X129.3226 Y119.5222
X128.9873 Y119.5936
X128.8564 Y119.618
X128.3167 Y119.6768
X128.1491 Y119.6809
X127.8138 Y119.6861
X127.6461 Y119.6875
X123.7902
G3 X123.6134 Y119.1142 I0.0111 J-0.3173
G1 X123.6704 Y119.0724 Z-1.992
X123.7245 Y119.0327 Z-1.9686
X123.7731 Y118.9971 Z-1.9307
X123.8136 Y118.9674 Z-1.8805
X123.8441 Y118.945 Z-1.8203
X123.863 Y118.9311 Z-1.7532
X123.8694 Y118.9264 Z-1.6825
G0 Z5
X130.7419 Y58.5684
Z-1.365
G1 Z-1.6825 F3500
X130.7378 Y58.5615 Z-1.7532
X130.7258 Y58.5413 Z-1.8203
X130.7065 Y58.5088 Z-1.8805
X130.6808 Y58.4656 Z-1.9307
X130.65 Y58.4139 Z-1.9686
X130.6157 Y58.3562 Z-1.992
X130.5796 Y58.2955 Z-2
G3 X130.0875 Y56.62 I3.0245 J-1.7983
G1 Y56.4523
X130.0894 Y56.4149
X130.1861 Y56.3002
X130.2973 Y56.1996
X130.4184 Y56.1104
X130.5736 Y56.0142
X130.7735 Y55.9116
X131.0341 Y55.8032
X131.3837 Y55.6898
X131.879 Y55.5721
X132.6082 Y55.4597
X133.3437 Y55.4019
X134.0809 Y55.3718
X134.8186 Y55.3561
X135.5564 Y55.3479
X136.2942 Y55.3435
X137.032 Y55.3413
X139.2454 Y55.3391
X155.4059 Y55.3386
X155.6163 Y55.3691
X155.8093 Y55.458
X155.9691 Y55.5981
X156.0826 Y55.7778
G0 Z5
X130.9968 Y56.9322
Z-1.365
G1 Z-1.6825 F3500
X130.9889 Y56.9331 Z-1.7532
X130.9656 Y56.9356 Z-1.8203
X130.9279 Y56.9397 Z-1.8805
X130.878 Y56.9452 Z-1.9307
X130.8181 Y56.9517 Z-1.9686
X130.7514 Y56.9589 Z-1.992
X130.6812 Y56.9666 Z-2
G3 X130.0875 Y56.4523 I-0.0579 J-0.5329
G1 Y56.0324
X130.095 Y55.8826
X130.1559 Y55.7455
X130.2331 Y55.6169
X130.3222 Y55.4962
X130.4275 Y55.3774
X130.5655 Y55.2449
X130.7176 Y55.1207
X130.9143 Y54.9848
X131.1723 Y54.8357
X131.4524 Y54.7025
X131.8343 Y54.5572
X132.3054 Y54.4201
X132.9853 Y54.2803
X133.7176 Y54.1902
X134.4536 Y54.1381
X135.1908 Y54.1082
X135.9284 Y54.0911
X136.6662 Y54.0813
X137.4039 Y54.0758
X138.1418 Y54.0727
X139.6174 Y54.07
X144.0443 Y54.0687
X154.3737 Y54.0686
X154.7643 Y54.0846
X155.0822 Y54.1234
X155.3123 Y54.1705
X155.3778 Y54.1894
X155.5524 Y54.2655
X155.7018 Y54.3836
X155.8162 Y54.5358
X155.888 Y54.7122
X155.9125 Y54.901
X155.9133 Y55.0019
G0 Z5
X130.4158 Y56.8705
Z-1.365
G1 Z-1.6825 F3500
X130.4117 Y56.8637 Z-1.7532
X130.3997 Y56.8435 Z-1.8203
X130.3804 Y56.811 Z-1.8805
X130.3547 Y56.7677 Z-1.9307
X130.3239 Y56.716 Z-1.9686
X130.2896 Y56.6583 Z-1.992
X130.2535 Y56.5976 Z-2
G3 X130.0875 Y56.0324 I1.0202 J-0.6066
G1 Y55.3619
X130.095 Y55.212
X130.1251 Y55.0651
X130.1736 Y54.9231
X130.2367 Y54.7871
X130.3119 Y54.6573
X130.4054 Y54.5229
X130.5268 Y54.3752
X130.6657 Y54.2315
X130.8504 Y54.0689
X131.0528 Y53.9177
X131.3198 Y53.7498
X131.6359 Y53.5849
X132.0229 Y53.421
X132.5051 Y53.261
X133.1531 Y53.1025
X133.8816 Y52.9852
X134.6158 Y52.9123
X135.3522 Y52.8673
X136.0895 Y52.8398
X136.8271 Y52.8232
X137.5649 Y52.8132
X138.3027 Y52.8072
X139.0405 Y52.8037
X140.5161 Y52.8004
X144.2052 Y52.7988
X153.059 Y52.7986
X153.7968 Y52.8027
X154.3879 Y52.8316
X154.763 Y52.8803
X155.0272 Y52.9365
X155.2753 Y53.0105
X155.4675 Y53.085
X155.4942 Y53.098
X155.666 Y53.2131
X155.7993 Y53.3713
X155.8836 Y53.5601
X155.9125 Y53.7649
Y54.901
G3 X155.3392 Y55.0778 I-0.3173 J-0.0111
G1 X155.2974 Y55.0208 Z-1.992
X155.2577 Y54.9667 Z-1.9686
X155.2221 Y54.9182 Z-1.9307
X155.1924 Y54.8776 Z-1.8805
X155.17 Y54.8471 Z-1.8203
X155.1561 Y54.8282 Z-1.7532
X155.1514 Y54.8218 Z-1.6825
G0 Z5
X130.4711 Y56.3883
Z-1.365
G1 Z-1.6825 F3500
X130.467 Y56.3815 Z-1.7532
X130.455 Y56.3613 Z-1.8203
X130.4357 Y56.3288 Z-1.8805
X130.41 Y56.2856 Z-1.9307
X130.3792 Y56.2338 Z-1.9686
X130.3449 Y56.1762 Z-1.992
X130.3088 Y56.1154 Z-2
G3 X130.0875 Y55.3619 I1.3603 J-0.8088
G1 Y54.4067
X130.095 Y54.2569
X130.1228 Y54.1095
X130.167 Y53.9662
X130.2246 Y53.8277
X130.2987 Y53.6858
X130.3924 Y53.5368
X130.5092 Y53.3805
X130.6569 Y53.2129
X130.8305 Y53.0451
X131.0525 Y52.8627
X131.3039 Y52.6878
X131.638 Y52.4933
X132.0037 Y52.3181
X132.4857 Y52.133
X133.0917 Y51.9546
X133.8139 Y51.8038
X134.545 Y51.7047
X135.28 Y51.6402
X136.0167 Y51.5987
X136.754 Y51.5722
X137.4916 Y51.5556
X138.2294 Y51.5452
X138.9672 Y51.5387
X139.705 Y51.5348
X141.1806 Y51.5309
X144.1319 Y51.529
X152.2478 Y51.5287
X152.9856 Y51.5306
X153.7232 Y51.5491
X154.3188 Y51.6025
X154.7539 Y51.677
X155.0682 Y51.7573
X155.3099 Y51.8401
X155.4675 Y51.9087
X155.6493 Y52.0217
X155.7913 Y52.1819
X155.8816 Y52.3761
X155.9125 Y52.588
Y53.7649
G3 X155.3392 Y53.9416 I-0.3173 J-0.0111
G1 X155.2974 Y53.8847 Z-1.992
X155.2577 Y53.8306 Z-1.9686
X155.2221 Y53.782 Z-1.9307
X155.1924 Y53.7415 Z-1.8805
X155.17 Y53.711 Z-1.8203
X155.1561 Y53.6921 Z-1.7532
X155.1514 Y53.6856 Z-1.6825
G0 Z5
X130.4711 Y55.4332
Z-1.365
G1 Z-1.6825 F3500
X130.467 Y55.4264 Z-1.7532
X130.455 Y55.4062 Z-1.8203
X130.4357 Y55.3737 Z-1.8805
X130.41 Y55.3305 Z-1.9307
X130.3792 Y55.2787 Z-1.9686
X130.3449 Y55.221 Z-1.992
X130.3088 Y55.1603 Z-2
G3 X130.0875 Y54.4067 I1.3603 J-0.8088
G1 Y53.4009
X130.095 Y53.2511
X130.1169 Y53.1027
X130.1551 Y52.9577
X130.2068 Y52.8168
X130.275 Y52.6709
X130.3649 Y52.5131
X130.4756 Y52.3507
X130.6179 Y52.1742
X130.7852 Y51.9978
X131.0027 Y51.8025
X131.2484 Y51.6153
X131.5713 Y51.4079
X131.9326 Y51.2149
X132.3987 Y51.0123
X132.9742 Y50.8153
X133.6891 Y50.6331
X134.4163 Y50.508
X135.1492 Y50.4232
X135.8848 Y50.3662
X136.6216 Y50.3283
X137.359 Y50.3034
X138.0967 Y50.2871
X138.8344 Y50.2766
X139.5722 Y50.2699
X140.31 Y50.2657
X141.0478 Y50.263
X142.5234 Y50.2603
X146.2125 Y50.2588
X151.3772 Y50.2587
X152.115 Y50.2595
X152.8528 Y50.268
X153.5899 Y50.2997
X154.2414 Y50.3675
X154.712 Y50.455
X155.063 Y50.55
X155.3083 Y50.638
X155.4771 Y50.7144
X155.6554 Y50.8282
X155.7942 Y50.9878
X155.8823 Y51.18
X155.9125 Y51.3894
Y52.588
G3 X155.3392 Y52.7647 I-0.3173 J-0.0111
G1 X155.2974 Y52.7077 Z-1.992
X155.2577 Y52.6536 Z-1.9686
X155.2221 Y52.6051 Z-1.9307
X155.1924 Y52.5646 Z-1.8805
X155.17 Y52.5341 Z-1.8203
X155.1561 Y52.5151 Z-1.7532
X155.1514 Y52.5087 Z-1.6825
G0 Z5
X130.4711 Y54.4274
Z-1.365
G1 Z-1.6825 F3500
X130.467 Y54.4205 Z-1.7532
X130.455 Y54.4004 Z-1.8203
X130.4357 Y54.3678 Z-1.8805
X130.41 Y54.3246 Z-1.9307
X130.3792 Y54.2729 Z-1.9686
X130.3449 Y54.2152 Z-1.992
X130.3088 Y54.1545 Z-2
G3 X130.0875 Y53.4009 I1.3603 J-0.8088
G1 Y52.3029
X130.095 Y52.1531
X130.1166 Y52.0046
X130.1541 Y51.8594
X130.2046 Y51.7181
X130.2763 Y51.5604
X130.3629 Y51.4046
X130.4815 Y51.2266
X130.6196 Y51.0516
X130.8015 Y50.8557
X131.0132 Y50.6616
X131.2851 Y50.4498
X131.5971 Y50.2448
X132.0087 Y50.0194
X132.4569 Y49.8188
X133.0436 Y49.611
X133.7566 Y49.4213
X134.482 Y49.2865
X135.2137 Y49.1916
X135.9486 Y49.1255
X136.685 Y49.0801
X137.4221 Y49.0491
X138.1597 Y49.0283
X138.8973 Y49.0144
X139.6351 Y49.0053
X140.3729 Y48.9993
X141.1107 Y48.9954
X142.5863 Y48.9914
X145.5376 Y48.9891
X150.7023 Y48.9887
X151.4401 Y48.9898
X152.1779 Y48.996
X152.9155 Y49.0153
X153.6517 Y49.0631
X154.3193 Y49.1513
X154.7769 Y49.2496
X155.1263 Y49.3546
X155.3643 Y49.4476
X155.4957 Y49.5115
X155.6669 Y49.6268
X155.7997 Y49.7848
X155.8837 Y49.9733
X155.9125 Y50.1777
Y51.3894
G3 X155.3392 Y51.5661 I-0.3173 J-0.0111
G1 X155.2974 Y51.5091 Z-1.992
X155.2577 Y51.455 Z-1.9686
X155.2221 Y51.4065 Z-1.9307
X155.1924 Y51.366 Z-1.8805
X155.17 Y51.3355 Z-1.8203
X155.1561 Y51.3165 Z-1.7532
X155.1514 Y51.3101 Z-1.6825
G0 Z5
X130.4711 Y53.3294
Z-1.365
G1 Z-1.6825 F3500
X130.467 Y53.3225 Z-1.7532
X130.455 Y53.3023 Z-1.8203
X130.4357 Y53.2698 Z-1.8805
X130.41 Y53.2266 Z-1.9307
X130.3792 Y53.1749 Z-1.9686
X130.3449 Y53.1172 Z-1.992
X130.3088 Y53.0565 Z-2
G3 X130.0875 Y52.3029 I1.3603 J-0.8088
G1 Y51.1294
X130.095 Y50.9796
X130.1217 Y50.832
X130.1628 Y50.6878
X130.2171 Y50.5445
X130.295 Y50.3801
X130.3885 Y50.2177
X130.5186 Y50.0289
X130.6696 Y49.8435
X130.8694 Y49.6349
X131.0936 Y49.4357
X131.3948 Y49.2084
X131.7232 Y48.9998
X132.1696 Y48.7642
X132.6646 Y48.5519
X133.2997 Y48.3379
X134.0156 Y48.1593
X134.7419 Y48.0293
X135.4737 Y47.9356
X136.2085 Y47.8686
X136.9448 Y47.8213
X137.6819 Y47.7882
X138.4193 Y47.7654
X139.157 Y47.7498
X139.8947 Y47.7392
X140.6325 Y47.7321
X141.3703 Y47.7274
X142.1081 Y47.7243
X143.5837 Y47.721
X146.535 Y47.719
X150.2241
X150.9619 Y47.7207
X151.6997 Y47.7272
X152.4373 Y47.7449
X153.1741 Y47.7833
X153.9083 Y47.8561
X154.514 Y47.9607
X154.923 Y48.0656
X155.2393 Y48.1746
X155.465 Y48.2732
X155.5218 Y48.3037
X155.6831 Y48.4206
X155.8074 Y48.5761
X155.8857 Y48.7592
X155.9125 Y48.9565
Y50.1777
G3 X155.3392 Y50.3545 I-0.3173 J-0.0111
G1 X155.2974 Y50.2975 Z-1.992
X155.2577 Y50.2434 Z-1.9686
X155.2221 Y50.1949 Z-1.9307
X155.1924 Y50.1543 Z-1.8805
X155.17 Y50.1238 Z-1.8203
X155.1561 Y50.1049 Z-1.7532
X155.1514 Y50.0985 Z-1.6825
G0 Z5
X130.4711 Y52.1559
Z-1.365
G1 Z-1.6825 F3500
X130.467 Y52.149 Z-1.7532
X130.455 Y52.1289 Z-1.8203
X130.4357 Y52.0964 Z-1.8805
X130.41 Y52.0531 Z-1.9307
X130.3792 Y52.0014 Z-1.9686
X130.3449 Y51.9437 Z-1.992
X130.3088 Y51.883 Z-2
G3 X130.0875 Y51.1294 I1.3603 J-0.8088
G1 Y49.956
X130.095 Y49.8061
X130.1231 Y49.6588
X130.1655 Y49.5149
X130.2229 Y49.3657
X130.3016 Y49.202
X130.4035 Y49.0273
X130.5311 Y48.8442
X130.6994 Y48.6397
X130.8943 Y48.4383
X131.1463 Y48.2167
X131.4384 Y47.9988
X131.8085 Y47.7665
X132.2551 Y47.5338
X132.7822 Y47.311
X133.4626 Y47.0858
X134.1794 Y46.911
X134.9057 Y46.7813
X135.6373 Y46.6858
X136.3718 Y46.6161
X137.1079 Y46.5657
X137.8448 Y46.5297
X138.5822 Y46.5043
X139.3198 Y46.4865
X140.0575 Y46.4742
X140.7953 Y46.4658
X141.5331 Y46.46
X142.2709 Y46.4562
X143.7465 Y46.4519
X145.96 Y46.4495
X149.649 Y46.4492
X150.3868 Y46.4509
X151.1246 Y46.4564
X151.8623 Y46.4703
X152.5996 Y46.4988
X153.3356 Y46.5504
X154.0679 Y46.6406
X154.653 Y46.7594
X155.0248 Y46.8665
X155.317 Y46.9768
X155.5408 Y47.0829
X155.6947 Y47.2006
X155.8129 Y47.3542
X155.8872 Y47.5331
X155.9125 Y47.7252
Y48.9565
G3 X155.3392 Y49.1333 I-0.3173 J-0.0111
G1 X155.2974 Y49.0763 Z-1.992
X155.2577 Y49.0222 Z-1.9686
X155.2221 Y48.9737 Z-1.9307
X155.1924 Y48.9331 Z-1.8805
X155.17 Y48.9026 Z-1.8203
X155.1561 Y48.8837 Z-1.7532
X155.1514 Y48.8773 Z-1.6825
G0 Z5
X130.4711 Y50.9824
Z-1.365
G1 Z-1.6825 F3500
X130.467 Y50.9756 Z-1.7532
X130.455 Y50.9554 Z-1.8203
X130.4357 Y50.9229 Z-1.8805
X130.41 Y50.8797 Z-1.9307
X130.3792 Y50.8279 Z-1.9686
X130.3449 Y50.7702 Z-1.992
X130.3088 Y50.7095 Z-2
G3 X130.0875 Y49.956 I1.3603 J-0.8088
G1 Y48.7825
X130.095 Y48.6327
X130.1231 Y48.4853
X130.165 Y48.3413
X130.2243 Y48.186
X130.3011 Y48.0252
X130.4087 Y47.8398
X130.5342 Y47.6588
X130.7071 Y47.4479
X130.9014 Y47.2463
X131.1647 Y47.0137
X131.4524 Y46.7981
X131.8482 Y46.5484
X132.2794 Y46.3225
X132.8357 Y46.0859
X133.5357 Y45.8525
X134.252 Y45.6759
X134.9777 Y45.5427
X135.7088 Y45.4429
X136.4428 Y45.3687
X137.1786 Y45.3141
X137.9154 Y45.2743
X138.6526 Y45.2456
X139.3901 Y45.2251
X140.1278 Y45.2106
X140.8656 Y45.2004
X141.6033 Y45.1934
X142.3411 Y45.1886
X143.0789 Y45.1853
X144.5546 Y45.1816
X147.5058 Y45.1792
X148.9815 Y45.1793
X149.7193 Y45.1806
X150.4571 Y45.1846
X151.1948 Y45.1943
X151.9324 Y45.214
X152.6693 Y45.2495
X153.4046 Y45.3111
X154.1356 Y45.4113
X154.7181 Y45.5386
X155.073 Y45.6467
X155.3561 Y45.7584
X155.498 Y45.828
X155.6684 Y45.9434
X155.8004 Y46.1013
X155.8839 Y46.2893
X155.9125 Y46.4931
Y47.7252
G3 X155.3392 Y47.902 I-0.3173 J-0.0111
G1 X155.2974 Y47.845 Z-1.992
X155.2577 Y47.7909 Z-1.9686
X155.2221 Y47.7424 Z-1.9307
X155.1924 Y47.7018 Z-1.8805
X155.17 Y47.6713 Z-1.8203
X155.1561 Y47.6524 Z-1.7532
X155.1514 Y47.646 Z-1.6825
G0 Z5
X130.4711 Y49.809
Z-1.365
G1 Z-1.6825 F3500
X130.467 Y49.8021 Z-1.7532
X130.455 Y49.7819 Z-1.8203
X130.4357 Y49.7494 Z-1.8805
X130.41 Y49.7062 Z-1.9307
X130.3792 Y49.6545 Z-1.9686
X130.3449 Y49.5968 Z-1.992
X130.3088 Y49.5361 Z-2
G3 X130.0875 Y48.7825 I1.3603 J-0.8088
G1 Y47.609
X130.095 Y47.4592
X130.1217 Y47.3116
X130.1619 Y47.1671
X130.2205 Y47.0095
X130.2945 Y46.8506
X130.4004 Y46.6641
X130.526 Y46.4793
X130.694 Y46.2703
X130.8887 Y46.0643
X131.1458 Y45.8329
X131.4386 Y45.609
X131.8343 Y45.3541
X132.2624 Y45.1246
X132.825 Y44.879
X133.5227 Y44.639
X134.2373 Y44.4553
X134.9616 Y44.315
X135.6917 Y44.2083
X136.4251 Y44.1278
X137.1604 Y44.0675
X137.8969 Y44.0228
X138.634 Y43.9899
X139.3714 Y43.966
X140.109 Y43.9488
X140.8467 Y43.9366
X141.5845 Y43.9279
X142.3223 Y43.9218
X143.0601 Y43.9176
X144.5357 Y43.9127
X146.7491 Y43.9099
X148.2248 Y43.9094
X148.9626 Y43.9101
X149.7004 Y43.9125
X150.4382 Y43.9186
X151.1759 Y43.9313
X151.9133 Y43.9548
X152.65 Y43.9961
X153.3848 Y44.0633
X154.1152 Y44.1675
X154.6897 Y44.2927
X155.0696 Y44.4081
X155.3404 Y44.5148
X155.4976 Y44.5918
X155.6681 Y44.7072
X155.8003 Y44.865
X155.8839 Y45.0532
X155.9125 Y45.2571
Y46.4931
G3 X155.3392 Y46.6698 I-0.3173 J-0.0111
G1 X155.2974 Y46.6129 Z-1.992
X155.2577 Y46.5588 Z-1.9686
X155.2221 Y46.5102 Z-1.9307
X155.1924 Y46.4697 Z-1.8805
X155.17 Y46.4392 Z-1.8203
X155.1561 Y46.4203 Z-1.7532
X155.1514 Y46.4138 Z-1.6825
G0 Z5
X130.4711 Y48.6355
Z-1.365
G1 Z-1.6825 F3500
X130.467 Y48.6286 Z-1.7532
X130.455 Y48.6085 Z-1.8203
X130.4357 Y48.576 Z-1.8805
X130.41 Y48.5327 Z-1.9307
X130.3792 Y48.481 Z-1.9686
X130.3449 Y48.4233 Z-1.992
X130.3088 Y48.3626 Z-2
G3 X130.0875 Y47.609 I1.3603 J-0.8088
G1 Y46.4356
X130.095 Y46.2857
X130.1191 Y46.1377
X130.1572 Y45.9926
X130.213 Y45.8356
X130.2841 Y45.6774
X130.3861 Y45.4915
X130.5085 Y45.3059
X130.6713 Y45.0974
X130.8623 Y44.8895
X131.1122 Y44.6581
X131.4028 Y44.4294
X131.7877 Y44.1737
X132.2141 Y43.9374
X132.7702 Y43.6852
X133.4611 Y43.4366
X134.1731 Y43.2433
X134.8957 Y43.0941
X135.6245 Y42.9793
X136.3571 Y42.8915
X137.0919 Y42.8247
X137.828 Y42.7745
X138.5648 Y42.7369
X139.3021 Y42.7092
X140.0397 Y42.6889
X140.7773 Y42.6741
X141.5151 Y42.6635
X142.2529 Y42.6559
X142.9907 Y42.6506
X143.7285 Y42.6468
X145.2041 Y42.6424
X147.4175 Y42.6399
X148.1553 Y42.64
X148.8932 Y42.6412
X149.631 Y42.6448
X150.3687 Y42.6526
X151.1064 Y42.6677
X151.8437 Y42.6947
X152.5802 Y42.7394
X153.3147 Y42.809
X154.0452 Y42.9129
X154.633 Y43.0371
X155.0327 Y43.1557
X155.3186 Y43.2662
X155.4934 Y43.3505
X155.6655 Y43.4656
X155.799 Y43.6239
X155.8836 Y43.8129
X155.9125 Y44.0179
Y45.2571
G3 X155.3392 Y45.4338 I-0.3173 J-0.0111
G1 X155.2974 Y45.3768 Z-1.992
X155.2577 Y45.3227 Z-1.9686
X155.2221 Y45.2742 Z-1.9307
X155.1924 Y45.2337 Z-1.8805
X155.17 Y45.2032 Z-1.8203
X155.1561 Y45.1842 Z-1.7532
X155.1514 Y45.1778 Z-1.6825
G0 Z5
X130.4711 Y47.462
Z-1.365
G1 Z-1.6825 F3500
X130.467 Y47.4552 Z-1.7532
X130.455 Y47.435 Z-1.8203
X130.4357 Y47.4025 Z-1.8805
X130.41 Y47.3593 Z-1.9307
X130.3792 Y47.3075 Z-1.9686
X130.3449 Y47.2498 Z-1.992
X130.3088 Y47.1891 Z-2
G3 X130.0875 Y46.4356 I1.3603 J-0.8088
G1 Y45.2621
X130.095 Y45.1123
X130.1158 Y44.9637
X130.1511 Y44.8179
X130.2027 Y44.6639
X130.2701 Y44.5063
X130.3675 Y44.321
X130.4833 Y44.1381
X130.6404 Y43.9291
X130.8236 Y43.7224
X131.0658 Y43.4897
X131.347 Y43.26
X131.7207 Y43.0019
X132.1355 Y42.762
X132.6775 Y42.5042
X133.3478 Y42.2492
X134.0562 Y42.0429
X134.7764 Y41.8825
X135.5036 Y41.7578
X136.235 Y41.6613
X136.9691 Y41.587
X137.7047 Y41.5303
X138.4413 Y41.4874
X139.1784 Y41.4552
X139.9158 Y41.4313
X140.6534 Y41.4136
X141.3911 Y41.4006
X142.1289 Y41.3913
X142.8667 Y41.3845
X143.6045 Y41.3797
X144.3423 Y41.3763
X145.8179 Y41.3723
X147.2935 Y41.3706
X148.0314 Y41.3709
X148.7692 Y41.3726
X149.507 Y41.3771
X150.2447 Y41.3863
X150.9823 Y41.4034
X151.7196 Y41.4323
X152.456 Y41.4782
X153.1906 Y41.5473
X153.9215 Y41.6477
X154.5428 Y41.772
X154.9753 Y41.8952
X155.2838 Y42.0107
X155.5167 Y42.1198
X155.5389 Y42.1325
X155.6936 Y42.2502
X155.8123 Y42.4039
X155.887 Y42.5833
X155.9125 Y42.7759
Y44.0179
G3 X155.3392 Y44.1946 I-0.3173 J-0.0111
G1 X155.2974 Y44.1376 Z-1.992
X155.2577 Y44.0835 Z-1.9686
X155.2221 Y44.035 Z-1.9307
X155.1924 Y43.9945 Z-1.8805
X155.17 Y43.964 Z-1.8203
X155.1561 Y43.945 Z-1.7532
X155.1514 Y43.9386 Z-1.6825
G0 Z5
X130.4711 Y46.2886
Z-1.365
G1 Z-1.6825 F3500
X130.467 Y46.2817 Z-1.7532
X130.455 Y46.2615 Z-1.8203
X130.4357 Y46.229 Z-1.8805
X130.41 Y46.1858 Z-1.9307
X130.3792 Y46.1341 Z-1.9686
X130.3449 Y46.0764 Z-1.992
X130.3088 Y46.0157 Z-2
G3 X130.0875 Y45.2621 I1.3603 J-0.8088
G1 Y44.0132
X130.095 Y43.8634
X130.1201 Y43.7155
X130.1601 Y43.5673
X130.2135 Y43.4186
X130.2913 Y43.2465
X130.3923 Y43.0639
X130.521 Y42.8698
X130.686 Y42.6598
X130.8857 Y42.4439
X131.1439 Y42.206
X131.4479 Y41.9682
X131.8359 Y41.712
X132.3111 Y41.4504
X132.867 Y41.2003
X133.5619 Y40.9525
X134.2738 Y40.7584
X134.9957 Y40.6061
X135.7238 Y40.4866
X136.4557 Y40.3933
X137.1899 Y40.3208
X137.9256 Y40.2649
X138.6622 Y40.2221
X139.3993 Y40.1896
X140.1367 Y40.1652
X140.8743 Y40.1469
X141.612 Y40.1334
X142.3497 Y40.1235
X143.0875 Y40.1163
X143.8253 Y40.1111
X144.5631 Y40.1074
X146.0387 Y40.1029
X147.5143 Y40.1018
X148.2522 Y40.103
X148.99 Y40.1067
X149.7277 Y40.1144
X150.4654 Y40.1285
X151.2029 Y40.1522
X151.9397 Y40.1894
X152.6755 Y40.2447
X153.409 Y40.3238
X154.138 Y40.4376
X154.7355 Y40.5766
X155.0977 Y40.6922
X155.3769 Y40.8067
X155.5069 Y40.8726
X155.6739 Y40.9886
X155.803 Y41.1457
X155.8846 Y41.3319
X155.9125 Y41.5333
Y42.7759
G3 X155.3392 Y42.9527 I-0.3173 J-0.0111
G1 X155.2974 Y42.8957 Z-1.992
X155.2577 Y42.8416 Z-1.9686
X155.2221 Y42.7931 Z-1.9307
X155.1924 Y42.7525 Z-1.8805
X155.17 Y42.722 Z-1.8203
X155.1561 Y42.7031 Z-1.7532
X155.1514 Y42.6967 Z-1.6825
G0 Z5
X130.4711 Y45.0397
Z-1.365
G1 Z-1.6825 F3500
X130.467 Y45.0328 Z-1.7532
X130.455 Y45.0126 Z-1.8203
X130.4357 Y44.9801 Z-1.8805
X130.41 Y44.9369 Z-1.9307
X130.3792 Y44.8852 Z-1.9686
X130.3449 Y44.8275 Z-1.992
X130.3088 Y44.7667 Z-2
G3 X130.0875 Y44.0132 I1.3603 J-0.8088
G1 Y42.8397
X130.095 Y42.6899
X130.1157 Y42.5413
X130.1505 Y42.3954
X130.2032 Y42.2369
X130.2703 Y42.0788
X130.3662 Y41.8954
X130.4858 Y41.7055
X130.6401 Y41.4993
X130.8355 Y41.2778
X131.073 Y41.0486
X131.3683 Y40.8063
X131.7332 Y40.5528
X132.1693 Y40.2993
X132.7254 Y40.0332
X133.4132 Y39.7696
X134.1212 Y39.5618
X134.8405 Y39.3977
X135.5668 Y39.2681
X136.2975 Y39.166
X137.031 Y39.086
X137.7662 Y39.0237
X138.5024 Y38.9754
X139.2393 Y38.9383
X139.9766 Y38.9099
X140.7141 Y38.8884
X141.4517 Y38.8723
X142.1894 Y38.8603
X142.9272 Y38.8515
X143.665 Y38.845
X144.4028 Y38.8402
X145.1406 Y38.8369
X146.6162 Y38.8332
X147.354 Y38.8331
X148.0918 Y38.8346
X148.8297 Y38.8388
X149.5674 Y38.8473
X150.3051 Y38.8623
X151.0425 Y38.8867
X151.7794 Y38.9238
X152.5152 Y38.9779
X153.249 Y39.0548
X153.9788 Y39.1634
X154.5988 Y39.2948
X155.013 Y39.418
X155.3137 Y39.5345
X155.5463 Y39.6471
X155.6981 Y39.765
X155.8145 Y39.918
X155.8876 Y40.0957
X155.9125 Y40.2863
Y41.5333
G3 X155.3392 Y41.71 I-0.3173 J-0.0111
G1 X155.2974 Y41.653 Z-1.992
X155.2577 Y41.5989 Z-1.9686
X155.2221 Y41.5504 Z-1.9307
X155.1924 Y41.5099 Z-1.8805
X155.17 Y41.4794 Z-1.8203
X155.1561 Y41.4604 Z-1.7532
X155.1514 Y41.454 Z-1.6825
G0 Z5
X130.4711 Y43.8662
Z-1.365
G1 Z-1.6825 F3500
X130.467 Y43.8593 Z-1.7532
X130.455 Y43.8392 Z-1.8203
X130.4357 Y43.8066 Z-1.8805
X130.41 Y43.7634 Z-1.9307
X130.3792 Y43.7117 Z-1.9686
X130.3449 Y43.654 Z-1.992
X130.3088 Y43.5933 Z-2
G3 X130.0875 Y42.8397 I1.3603 J-0.8088
G1 Y41.574
X130.095 Y41.4242
X130.1205 Y41.2764
X130.1615 Y41.1259
X130.2163 Y40.9743
X130.2953 Y40.8005
X130.398 Y40.6158
X130.5286 Y40.4196
X130.6986 Y40.2041
X130.9014 Y39.9857
X131.1682 Y39.7409
X131.4777 Y39.4998
X131.8798 Y39.2355
X132.3658 Y38.9692
X132.9433 Y38.7107
X133.6387 Y38.4643
X134.3503 Y38.2692
X135.0716 Y38.1142
X135.7991 Y37.9909
X136.5304 Y37.8931
X137.2641 Y37.8159
X137.9995 Y37.7552
X138.7357 Y37.7078
X139.4726 Y37.671
X140.2099 Y37.6427
X140.9474 Y37.621
X141.685 Y37.6046
X142.4228 Y37.5923
X143.1605 Y37.5831
X143.8983 Y37.5763
X144.6361 Y37.5714
X145.3739 Y37.5679
X146.1117 Y37.5656
X146.8495 Y37.5647
X147.5873 Y37.5655
X148.3251 Y37.5687
X149.0629 Y37.5757
X149.8006 Y37.5881
X150.5382 Y37.6083
X151.2754 Y37.6391
X152.0118 Y37.6838
X152.7469 Y37.7469
X153.4796 Y37.8338
X154.2073 Y37.9556
X154.791 Y38.0989
X155.1399 Y38.2149
X155.4077 Y38.3285
X155.5148 Y38.3845
X155.6788 Y38.501
X155.8053 Y38.6573
X155.8852 Y38.8418
X155.9125 Y39.0411
Y40.2863
G3 X155.3392 Y40.463 I-0.3173 J-0.0111
G1 X155.2974 Y40.406 Z-1.992
X155.2577 Y40.3519 Z-1.9686
X155.2221 Y40.3034 Z-1.9307
X155.1924 Y40.2628 Z-1.8805
X155.17 Y40.2324 Z-1.8203
X155.1561 Y40.2134 Z-1.7532
X155.1514 Y40.207 Z-1.6825
G0 Z5
X130.4711 Y42.6005
Z-1.365
G1 Z-1.6825 F3500
X130.467 Y42.5937 Z-1.7532
X130.455 Y42.5735 Z-1.8203
X130.4357 Y42.541 Z-1.8805
X130.41 Y42.4978 Z-1.9307
X130.3792 Y42.446 Z-1.9686
X130.3449 Y42.3883 Z-1.992
X130.3088 Y42.3276 Z-2
G3 X130.0875 Y41.574 I1.3603 J-0.8088
G1 Y40.4006
X130.095 Y40.2508
X130.1153 Y40.1021
X130.1494 Y39.9561
X130.2014 Y39.7976
X130.269 Y39.6367
X130.3627 Y39.4557
X130.4857 Y39.2589
X130.6366 Y39.0555
X130.8376 Y38.8259
X131.0697 Y38.6002
X131.3757 Y38.3471
X131.7312 Y38.0982
X132.1814 Y37.8342
X132.7462 Y37.5613
X133.4341 Y37.2947
X134.1409 Y37.0831
X134.8592 Y36.9143
X135.5846 Y36.7797
X136.3146 Y36.6723
X137.0474 Y36.5869
X137.7821 Y36.5191
X138.518 Y36.4656
X139.2546 Y36.4236
X139.9917 Y36.3908
X140.7291 Y36.3655
X141.4666 Y36.346
X142.2043 Y36.3312
X142.942 Y36.32
X143.6798 Y36.3116
X144.4176 Y36.3054
X145.1554 Y36.301
X145.8932 Y36.2981
X146.631 Y36.2968
X147.3688 Y36.2974
X148.1066 Y36.3007
X148.8444 Y36.3078
X149.5821 Y36.3202
X150.3197 Y36.3401
X151.0569 Y36.37
X151.7935 Y36.4128
X152.5289 Y36.4725
X153.2621 Y36.5544
X153.9913 Y36.6671
X154.6212 Y36.8043
X155.028 Y36.9278
X155.3272 Y37.0456
X155.4975 Y37.129
X155.6681 Y37.2444
X155.8002 Y37.4022
X155.8839 Y37.5904
X155.9125 Y37.7943
Y39.0411
G3 X155.3392 Y39.2178 I-0.3173 J-0.0111
G1 X155.2974 Y39.1608 Z-1.992
X155.2577 Y39.1067 Z-1.9686
X155.2221 Y39.0582 Z-1.9307
X155.1924 Y39.0177 Z-1.8805
X155.17 Y38.9872 Z-1.8203
X155.1561 Y38.9682 Z-1.7532
X155.1514 Y38.9618 Z-1.6825
G0 Z5
X130.4711 Y41.4271
Z-1.365
G1 Z-1.6825 F3500
X130.467 Y41.4202 Z-1.7532
X130.455 Y41.4 Z-1.8203
X130.4357 Y41.3675 Z-1.8805
X130.41 Y41.3243 Z-1.9307
X130.3792 Y41.2726 Z-1.9686
X130.3449 Y41.2149 Z-1.992
X130.3088 Y41.1541 Z-2
G3 X130.0875 Y40.4006 I1.3603 J-0.8088
G1 Y39.1517
X130.095 Y39.0019
X130.1173 Y38.8535
X130.1543 Y38.7069
X130.2063 Y38.5538
X130.2792 Y38.3851
X130.3781 Y38.1989
X130.4999 Y38.0082
X130.6667 Y37.7882
X130.8567 Y37.5757
X131.1203 Y37.3245
X131.4103 Y37.0896
X131.8105 Y36.8154
X132.2606 Y36.5576
X132.8331 Y36.2882
X133.5237 Y36.0287
X134.2318 Y35.8214
X134.9507 Y35.6552
X135.6763 Y35.5217
X136.4063 Y35.4144
X137.1391 Y35.3284
X137.8737 Y35.2597
X138.6095 Y35.2051
X139.346 Y35.1619
X140.0831 Y35.128
X140.8204 Y35.1016
X141.558 Y35.0811
X142.2956 Y35.0654
X143.0333 Y35.0534
X143.7711 Y35.0443
X144.5089 Y35.0377
X145.2467 Y35.033
X145.9845 Y35.0301
X146.7223 Y35.0292
X147.4601 Y35.0306
X148.1979 Y35.0353
X148.9357 Y35.0443
X149.6733 Y35.0593
X150.4108 Y35.0823
X151.1478 Y35.1155
X151.8842 Y35.1619
X152.6193 Y35.2254
X153.352 Y35.3123
X154.0802 Y35.4307
X154.6928 Y35.573
X155.0873 Y35.6987
X155.3582 Y35.8097
X155.5067 Y35.885
X155.6737 Y36.001
X155.8029 Y36.158
X155.8846 Y36.3443
X155.9125 Y36.5457
Y37.7943
G3 X155.3392 Y37.9711 I-0.3173 J-0.0111
G1 X155.2974 Y37.9141 Z-1.992
X155.2577 Y37.86 Z-1.9686
X155.2221 Y37.8114 Z-1.9307
X155.1924 Y37.7709 Z-1.8805
X155.17 Y37.7404 Z-1.8203
X155.1561 Y37.7215 Z-1.7532
X155.1514 Y37.7151 Z-1.6825
G0 Z5
X130.4711 Y40.1781
Z-1.365
G1 Z-1.6825 F3500
X130.467 Y40.1713 Z-1.7532
X130.455 Y40.1511 Z-1.8203
X130.4357 Y40.1186 Z-1.8805
X130.41 Y40.0754 Z-1.9307
X130.3792 Y40.0237 Z-1.9686
X130.3449 Y39.966 Z-1.992
X130.3088 Y39.9052 Z-2
G3 X130.0875 Y39.1517 I1.3603 J-0.8088
G1 Y37.886
X130.095 Y37.7362
X130.1211 Y37.5885
X130.1623 Y37.4387
X130.2193 Y37.282
X130.298 Y37.1101
X130.4073 Y36.9145
X130.5371 Y36.7206
X130.7162 Y36.4946
X130.9181 Y36.2782
X131.1981 Y36.0226
X131.5051 Y35.7845
X131.9246 Y35.5102
X132.4148 Y35.2431
X133.0253 Y34.9716
X133.7213 Y34.7269
X134.4325 Y34.5305
X135.1532 Y34.3722
X135.8798 Y34.2443
X136.6103 Y34.1409
X137.3434 Y34.0575
X138.0782 Y33.9905
X138.814 Y33.9369
X139.5506 Y33.8942
X140.2877 Y33.8605
X141.025 Y33.834
X141.7625 Y33.8134
X142.5002 Y33.7975
X143.2379 Y33.7852
X143.9756 Y33.776
X144.7134 Y33.7693
X145.4512 Y33.7648
X146.189 Y33.7624
X146.9269
X147.6647 Y33.7654
X148.4025 Y33.7722
X149.1402 Y33.7842
X149.8777 Y33.803
X150.6151 Y33.8304
X151.3519 Y33.8689
X152.0878 Y33.9215
X152.8222 Y33.9925
X153.5539 Y34.087
X154.2801 Y34.2177
X154.8226 Y34.3588
X155.185 Y34.4849
X155.4303 Y34.593
X155.5239 Y34.6435
X155.6843 Y34.7605
X155.808 Y34.9159
X155.8859 Y35.0985
X155.9125 Y35.2953
Y36.5457
G3 X155.3392 Y36.7225 I-0.3173 J-0.0111
G1 X155.2974 Y36.6655 Z-1.992
X155.2577 Y36.6114 Z-1.9686
X155.2221 Y36.5629 Z-1.9307
X155.1924 Y36.5223 Z-1.8805
X155.17 Y36.4918 Z-1.8203
X155.1561 Y36.4729 Z-1.7532
X155.1514 Y36.4665 Z-1.6825
G0 Z5
X130.4711 Y38.9125
Z-1.365
G1 Z-1.6825 F3500
X130.467 Y38.9056 Z-1.7532
X130.455 Y38.8855 Z-1.8203
X130.4357 Y38.8529 Z-1.8805
X130.41 Y38.8097 Z-1.9307
X130.3792 Y38.758 Z-1.9686
X130.3449 Y38.7003 Z-1.992
X130.3088 Y38.6396 Z-2
G3 X130.0875 Y37.886 I1.3603 J-0.8088
G1 Y36.6371
X130.095 Y36.4873
X130.123 Y36.3399
X130.1637 Y36.1956
X130.2259 Y36.0281
X130.3034 Y35.8616
X130.414 Y35.6668
X130.5497 Y35.467
X130.7258 Y35.2477
X130.9432 Y35.0177
X131.2152 Y34.7727
X131.5466 Y34.5192
X131.9723 Y34.2448
X132.459 Y33.9837
X133.0983 Y33.7044
X133.796 Y33.4643
X134.5079 Y33.2706
X135.2288 Y33.1137
X135.9556 Y32.9862
X136.6861 Y32.8827
X137.4191 Y32.7987
X138.1538 Y32.7308
X138.8896 Y32.6762
X139.6261 Y32.6325
X140.3631 Y32.5977
X141.1004 Y32.5702
X141.8379 Y32.5486
X142.5755 Y32.5318
X143.3132 Y32.5189
X144.051 Y32.5091
X144.7887 Y32.5021
X145.5266 Y32.4975
X146.2644 Y32.4953
X147.0022 Y32.496
X147.74 Y32.5001
X148.4777 Y32.5084
X149.2154 Y32.5224
X149.9529 Y32.5434
X150.6902 Y32.5734
X151.4268 Y32.6146
X152.1625 Y32.6702
X152.8966 Y32.7443
X153.6276 Y32.8444
X154.3526 Y32.9811
X154.8713 Y33.1216
X155.2186 Y33.2464
X155.4587 Y33.3552
X155.5305 Y33.3949
X155.6884 Y33.5122
X155.8099 Y33.6669
X155.8864 Y33.8481
X155.9125 Y34.043
Y35.2953
G3 X155.3392 Y35.472 I-0.3173 J-0.0111
G1 X155.2974 Y35.4151 Z-1.992
X155.2577 Y35.361 Z-1.9686
X155.2221 Y35.3124 Z-1.9307
X155.1924 Y35.2719 Z-1.8805
X155.17 Y35.2414 Z-1.8203
X155.1561 Y35.2225 Z-1.7532
X155.1514 Y35.216 Z-1.6825
G0 Z5
X130.4711 Y37.6636
Z-1.365
G1 Z-1.6825 F3500
X130.467 Y37.6567 Z-1.7532
X130.455 Y37.6365 Z-1.8203
X130.4357 Y37.604 Z-1.8805
X130.41 Y37.5608 Z-1.9307
X130.3792 Y37.5091 Z-1.9686
X130.3449 Y37.4514 Z-1.992
X130.3088 Y37.3907 Z-2
G3 X130.0875 Y36.6371 I1.3603 J-0.8088
G1 Y35.4636
X130.095 Y35.3138
X130.1163 Y35.1653
X130.1512 Y35.0195
X130.2031 Y34.8632
X130.2754 Y34.6926
X130.3685 Y34.5145
X130.4991 Y34.307
X130.6497 Y34.1056
X130.8582 Y33.8691
X131.0904 Y33.6448
X131.4158 Y33.3775
X131.7695 Y33.1317
X132.2458 Y32.8546
X132.8359 Y32.572
X133.5248 Y32.3078
X134.2314 Y32.0954
X134.9489 Y31.9236
X135.6734 Y31.784
X136.4024 Y31.6702
X137.1344 Y31.5774
X137.8683 Y31.5018
X138.6035 Y31.4405
X139.3397 Y31.3909
X140.0764 Y31.3511
X140.8136 Y31.3193
X141.5509 Y31.2941
X142.2885 Y31.2743
X143.0262 Y31.2589
X143.7639 Y31.2471
X144.5016 Y31.2384
X145.2394 Y31.2325
X145.9772 Y31.2293
X146.7151 Y31.2291
X147.4529 Y31.2324
X148.1906 Y31.2399
X148.9283 Y31.2527
X149.6659 Y31.2722
X150.4032 Y31.3001
X151.14 Y31.3385
X151.876 Y31.39
X152.6106 Y31.4585
X153.3428 Y31.5497
X154.0706 Y31.6712
X154.6932 Y31.8172
X155.0799 Y31.9414
X155.3675 Y32.0599
X155.5081 Y32.1316
X155.6746 Y32.2477
X155.8034 Y32.4046
X155.8847 Y32.5906
X155.9125 Y32.7916
Y34.043
G3 X155.3392 Y34.2198 I-0.3173 J-0.0111
G1 X155.2974 Y34.1628 Z-1.992
X155.2577 Y34.1087 Z-1.9686
X155.2221 Y34.0602 Z-1.9307
X155.1924 Y34.0196 Z-1.8805
X155.17 Y33.9891 Z-1.8203
X155.1561 Y33.9702 Z-1.7532
X155.1514 Y33.9638 Z-1.6825
G0 Z5
X130.4711 Y36.4901
Z-1.365
G1 Z-1.6825 F3500
X130.467 Y36.4833 Z-1.7532
X130.455 Y36.4631 Z-1.8203
X130.4357 Y36.4306 Z-1.8805
X130.41 Y36.3874 Z-1.9307
X130.3792 Y36.3356 Z-1.9686
X130.3449 Y36.2779 Z-1.992
X130.3088 Y36.2172 Z-2
G3 X130.0875 Y35.4636 I1.3603 J-0.8088
G1 Y34.198
X130.095 Y34.0482
X130.1191 Y33.9001
X130.1583 Y33.7514
X130.2141 Y33.5925
X130.29 Y33.4216
X130.394 Y33.2307
X130.52 Y33.0378
X130.6954 Y32.8115
X130.8929 Y32.5949
X131.1694 Y32.3369
X131.473 Y32.0961
X131.8912 Y31.8159
X132.3695 Y31.5485
X132.978 Y31.2697
X133.6713 Y31.0173
X134.3803 Y30.8132
X135.0992 Y30.6471
X135.8244 Y30.5113
X136.5538 Y30.4001
X137.286 Y30.309
X138.02 Y30.2345
X138.7553 Y30.1738
X139.4915 Y30.1245
X140.2282 Y30.0847
X140.9654 Y30.0528
X141.7027 Y30.0273
X142.4403 Y30.0072
X143.1779 Y29.9916
X143.9156 Y29.9797
X144.6534 Y29.971
X145.3912 Y29.9654
X146.129 Y29.9629
X146.8668 Y29.9637
X147.6046 Y29.9685
X148.3424 Y29.9779
X149.08 Y29.9932
X149.8175 Y30.0156
X150.5547 Y30.0468
X151.2913 Y30.089
X152.027 Y30.1451
X152.7611 Y30.2186
X153.4926 Y30.3152
X154.2188 Y30.4455
X154.7928 Y30.5922
X155.1629 Y30.7191
X155.4149 Y30.8289
X155.5211 Y30.8857
X155.6826 Y31.0025
X155.8072 Y31.1582
X155.8857 Y31.3414
X155.9125 Y31.539
Y32.7916
G3 X155.3392 Y32.9684 I-0.3173 J-0.0111
G1 X155.2974 Y32.9114 Z-1.992
X155.2577 Y32.8573 Z-1.9686
X155.2221 Y32.8088 Z-1.9307
X155.1924 Y32.7682 Z-1.8805
X155.17 Y32.7377 Z-1.8203
X155.1561 Y32.7188 Z-1.7532
X155.1514 Y32.7124 Z-1.6825
G0 Z5
X130.4711 Y35.2244
Z-1.365
G1 Z-1.6825 F3500
X130.467 Y35.2176 Z-1.7532
X130.455 Y35.1974 Z-1.8203
X130.4357 Y35.1649 Z-1.8805
X130.41 Y35.1217 Z-1.9307
X130.3792 Y35.0699 Z-1.9686
X130.3449 Y35.0123 Z-1.992
X130.3088 Y34.9515 Z-2
G3 X130.0875 Y34.198 I1.3603 J-0.8088
G1 Y32.9491
X130.095 Y32.7992
X130.1206 Y32.6514
X130.1594 Y32.5065
X130.2182 Y32.3414
X130.2928 Y32.1757
X130.4002 Y31.9806
X130.5308 Y31.7826
X130.7031 Y31.5624
X130.9129 Y31.3344
X131.1797 Y31.0877
X131.503 Y30.8337
X131.9211 Y30.5563
X132.3988 Y30.292
X133.028 Y30.0073
X133.7224 Y29.758
X134.4319 Y29.5556
X135.1509 Y29.3902
X135.8762 Y29.2545
X136.6055 Y29.1428
X137.3376 Y29.051
X138.0715 Y28.9756
X138.8067 Y28.9139
X139.5428 Y28.8636
X140.2795 Y28.8227
X141.0166 Y28.7898
X141.7539 Y28.7634
X142.4915 Y28.7425
X143.2291 Y28.7261
X143.9668 Y28.7137
X144.7046 Y28.7048
X145.4424 Y28.6992
X146.1802 Y28.697
X146.918 Y28.6984
X147.6558 Y28.7041
X148.3935 Y28.7147
X149.1311 Y28.7314
X149.8686 Y28.7555
X150.6056 Y28.7885
X151.3421 Y28.8327
X152.0777 Y28.8909
X152.8115 Y28.9671
X153.5424 Y29.0676
X154.2678 Y29.2025
X154.8202 Y29.3467
X155.1799 Y29.4722
X155.4302 Y29.5828
X155.5245 Y29.6339
X155.6847 Y29.7509
X155.8082 Y29.9062
X155.8859 Y30.0887
X155.9125 Y30.2853
Y31.539
G3 X155.3392 Y31.7157 I-0.3173 J-0.0111
G1 X155.2974 Y31.6587 Z-1.992
X155.2577 Y31.6046 Z-1.9686
X155.2221 Y31.5561 Z-1.9307
X155.1924 Y31.5156 Z-1.8805
X155.17 Y31.4851 Z-1.8203
X155.1561 Y31.4661 Z-1.7532
X155.1514 Y31.4597 Z-1.6825
G0 Z5
X130.4711 Y33.9755
Z-1.365
G1 Z-1.6825 F3500
X130.467 Y33.9687 Z-1.7532
X130.455 Y33.9485 Z-1.8203
X130.4357 Y33.916 Z-1.8805
X130.41 Y33.8728 Z-1.9307
X130.3792 Y33.821 Z-1.9686
X130.3449 Y33.7634 Z-1.992
X130.3088 Y33.7026 Z-2
G3 X130.0875 Y32.9491 I1.3603 J-0.8088
G1 Y31.7756
X130.0955 Y31.6157
X130.115 Y31.467
X130.1482 Y31.3207
X130.199 Y31.1627
X130.2674 Y30.9968
X130.3596 Y30.8162
X130.4856 Y30.6116
X130.6344 Y30.4085
X130.8381 Y30.1729
X131.0674 Y29.947
X131.3869 Y29.6793
X131.7382 Y29.4302
X132.2061 Y29.1518
X132.791 Y28.8646
X133.4772 Y28.5937
X134.1817 Y28.3744
X134.8974 Y28.1953
X135.6205 Y28.0485
X136.3484 Y27.9276
X137.0794 Y27.8279
X137.8126 Y27.7457
X138.5473 Y27.678
X139.2831 Y27.6224
X140.0195 Y27.5769
X140.7563 Y27.54
X141.4936 Y27.5101
X142.231 Y27.4863
X142.9686 Y27.4674
X143.7062 Y27.453
X144.444 Y27.4423
X145.1818 Y27.4353
X145.9196 Y27.4319
X146.6574 Y27.4323
X147.3952 Y27.4369
X148.1329 Y27.4464
X148.8706 Y27.4618
X149.6081 Y27.4843
X150.3452 Y27.5152
X151.0819 Y27.5567
X151.8177 Y27.6112
X152.552 Y27.6823
X153.284 Y27.7752
X154.0117 Y27.8971
X154.6545 Y28.0452
X155.0568 Y28.1727
X155.3524 Y28.2932
X155.5055 Y28.3705
X155.673 Y28.4864
X155.8026 Y28.6436
X155.8845 Y28.8301
X155.9125 Y29.0318
Y30.2853
G3 X155.3392 Y30.462 I-0.3173 J-0.0111
G1 X155.2974 Y30.4051 Z-1.992
X155.2577 Y30.3509 Z-1.9686
X155.2221 Y30.3024 Z-1.9307
X155.1924 Y30.2619 Z-1.8805
X155.17 Y30.2314 Z-1.8203
X155.1561 Y30.2124 Z-1.7532
X155.1514 Y30.206 Z-1.6825
G0 Z5
X130.4711 Y32.8021
Z-1.365
G1 Z-1.6825 F3500
X130.467 Y32.7952 Z-1.7532
X130.455 Y32.775 Z-1.8203
X130.4357 Y32.7425 Z-1.8805
X130.41 Y32.6993 Z-1.9307
X130.3792 Y32.6476 Z-1.9686
X130.3449 Y32.5899 Z-1.992
X130.3088 Y32.5292 Z-2
G3 X130.0875 Y31.7756 I1.3603 J-0.8088
G1 Y30.5099
X130.095 Y30.3601
X130.1158 Y30.2116
X130.1511 Y30.0657
X130.2024 Y29.9097
X130.2732 Y29.7416
X130.3712 Y29.5526
X130.4901 Y29.3626
X130.6566 Y29.1387
X130.845 Y28.9237
X131.1077 Y28.6685
X131.4003 Y28.4269
X131.8053 Y28.1438
X132.2563 Y27.8796
X132.8467 Y27.5949
X133.5348 Y27.3287
X134.2402 Y27.1124
X134.9564 Y26.9351
X135.6796 Y26.789
X136.4075 Y26.6682
X137.1385 Y26.5683
X137.8716 Y26.4855
X138.6063 Y26.4171
X139.3419 Y26.3607
X140.0783 Y26.3145
X140.8151 Y26.2768
X141.5523 Y26.2462
X142.2897 Y26.2216
X143.0273 Y26.2023
X143.7649 Y26.1874
X144.5027 Y26.1766
X145.2405 Y26.1697
X145.9783 Y26.1665
X146.7161 Y26.1675
X147.4539 Y26.1729
X148.1916 Y26.1836
X148.9292 Y26.2003
X149.6667 Y26.2244
X150.4037 Y26.2571
X151.1403 Y26.3004
X151.8759 Y26.3571
X152.61 Y26.4308
X153.3416 Y26.5266
X154.0686 Y26.6525
X154.6865 Y26.799
X155.0873 Y26.9287
X155.3641 Y27.0436
X155.5097 Y27.1182
X155.6756 Y27.2344
X155.8038 Y27.3912
X155.8848 Y27.5768
X155.9125 Y27.7775
Y29.0318
G3 X155.3392 Y29.2086 I-0.3173 J-0.0111
G1 X155.2974 Y29.1516 Z-1.992
X155.2577 Y29.0975 Z-1.9686
X155.2221 Y29.049 Z-1.9307
X155.1924 Y29.0084 Z-1.8805
X155.17 Y28.9779 Z-1.8203
X155.1561 Y28.959 Z-1.7532
X155.1514 Y28.9526 Z-1.6825
G0 Z5
X130.4711 Y31.5364
Z-1.365
G1 Z-1.6825 F3500
X130.467 Y31.5296 Z-1.7532
X130.455 Y31.5094 Z-1.8203
X130.4357 Y31.4769 Z-1.8805
X130.41 Y31.4336 Z-1.9307
X130.3792 Y31.3819 Z-1.9686
X130.3449 Y31.3242 Z-1.992
X130.3088 Y31.2635 Z-2
G3 X130.0875 Y30.5099 I1.3603 J-0.8088
G1 Y29.261
X130.095 Y29.1112
X130.1167 Y28.9628
X130.1524 Y28.8171
X130.2048 Y28.66
X130.2756 Y28.4935
X130.3779 Y28.2983
X130.4985 Y28.107
X130.6658 Y27.8838
X130.8587 Y27.6654
X131.1196 Y27.4138
X131.4205 Y27.1672
X131.8281 Y26.8846
X132.2829 Y26.6206
X132.8849 Y26.333
X133.5741 Y26.0695
X134.2799 Y25.8546
X134.9963 Y25.678
X135.7195 Y25.532
X136.4473 Y25.4109
X137.1783 Y25.3103
X137.9113 Y25.2268
X138.6459 Y25.1575
X139.3815 Y25.1002
X140.1178 Y25.053
X140.8546 Y25.0143
X141.5917 Y24.9829
X142.3291 Y24.9576
X143.0666 Y24.9376
X143.8043 Y24.9223
X144.542 Y24.9113
X145.2798 Y24.9044
X146.0176 Y24.9015
X146.7554 Y24.9029
X147.4932 Y24.9091
X148.2309 Y24.9207
X148.9686 Y24.9385
X149.7059 Y24.9638
X150.443 Y24.9979
X151.1794 Y25.0428
X151.9149 Y25.1014
X152.6488 Y25.1773
X153.38 Y25.2756
X154.1066 Y25.4042
X154.7116 Y25.5506
X155.1043 Y25.6797
X155.3767 Y25.7942
X155.5127 Y25.8648
X155.6775 Y25.9811
X155.8047 Y26.1376
X155.885 Y26.3226
X155.9125 Y26.5224
Y27.7775
G3 X155.3392 Y27.9542 I-0.3173 J-0.0111
G1 X155.2974 Y27.8973 Z-1.992
X155.2577 Y27.8432 Z-1.9686
X155.2221 Y27.7946 Z-1.9307
X155.1924 Y27.7541 Z-1.8805
X155.17 Y27.7236 Z-1.8203
X155.1561 Y27.7047 Z-1.7532
X155.1514 Y27.6982 Z-1.6825
G0 Z5
X130.4711 Y30.2875
Z-1.365
G1 Z-1.6825 F3500
X130.467 Y30.2807 Z-1.7532
X130.455 Y30.2605 Z-1.8203
X130.4357 Y30.228 Z-1.8805
X130.41 Y30.1847 Z-1.9307
X130.3792 Y30.133 Z-1.9686
X130.3449 Y30.0753 Z-1.992
X130.3088 Y30.0146 Z-2
G3 X130.0875 Y29.261 I1.3603 J-0.8088
G1 Y27.9954
X130.095 Y27.8455
X130.119 Y27.6975
X130.1573 Y27.5501
X130.2129 Y27.3905
X130.2876 Y27.221
X130.3947 Y27.0229
X130.5205 Y26.8292
X130.6953 Y26.6021
X130.8943 Y26.3827
X131.1676 Y26.1261
X131.4774 Y25.879
X131.8995 Y25.5945
X132.3785 Y25.3248
X133.0057 Y25.0352
X133.6983 Y24.7808
X134.4061 Y24.5726
X135.1237 Y24.4009
X135.8476 Y24.2584
X136.5758 Y24.1398
X137.307 Y24.041
X138.0402 Y23.9586
X138.7748 Y23.8901
X139.5104 Y23.8332
X140.2467 Y23.7863
X140.9835 Y23.7477
X141.7207 Y23.7163
X142.4581 Y23.691
X143.1956 Y23.6711
X143.9333 Y23.656
X144.671 Y23.6454
X145.4088 Y23.639
X146.1466 Y23.6369
X146.8844 Y23.6394
X147.6222 Y23.647
X148.3599 Y23.6602
X149.0974 Y23.6801
X149.8347 Y23.7076
X150.5716 Y23.7445
X151.3079 Y23.7927
X152.0431 Y23.8548
X152.7766 Y23.9344
X153.5072 Y24.0373
X154.2325 Y24.1724
X154.8044 Y24.3215
X155.1731 Y24.45
X155.4247 Y24.5611
X155.5243 Y24.6149
X155.6846 Y24.7319
X155.8081 Y24.8873
X155.8859 Y25.0698
X155.9125 Y25.2665
Y26.5224
G3 X155.3392 Y26.6992 I-0.3173 J-0.0111
G1 X155.2974 Y26.6422 Z-1.992
X155.2577 Y26.5881 Z-1.9686
X155.2221 Y26.5396 Z-1.9307
X155.1924 Y26.499 Z-1.8805
X155.17 Y26.4685 Z-1.8203
X155.1561 Y26.4496 Z-1.7532
X155.1514 Y26.4432 Z-1.6825
G0 Z5
X130.4711 Y29.0218
Z-1.365
G1 Z-1.6825 F3500
X130.467 Y29.015 Z-1.7532
X130.455 Y28.9948 Z-1.8203
X130.4357 Y28.9623 Z-1.8805
X130.41 Y28.9191 Z-1.9307
X130.3792 Y28.8673 Z-1.9686
X130.3449 Y28.8097 Z-1.992
X130.3088 Y28.7489 Z-2
G3 X130.0875 Y27.9954 I1.3603 J-0.8088
G1 Y26.7465
X130.095 Y26.5966
X130.1196 Y26.4487
X130.1575 Y26.3035
X130.2155 Y26.1377
X130.2888 Y25.9722
X130.3942 Y25.7779
X130.5249 Y25.5774
X130.6944 Y25.3581
X130.9046 Y25.127
X131.1673 Y24.8813
X131.4953 Y24.6204
X131.9064 Y24.3443
X132.3932 Y24.0713
X133.0312 Y23.778
X133.7242 Y23.5247
X134.4322 Y23.317
X135.1497 Y23.1453
X135.8736 Y23.0025
X136.6017 Y22.8833
X137.3328 Y22.7836
X138.0659 Y22.7004
X138.8004 Y22.6309
X139.536 Y22.573
X140.2722 Y22.5251
X141.009 Y22.4856
X141.7461 Y22.4534
X142.4834 Y22.4274
X143.221 Y22.407
X143.9586 Y22.3915
X144.6964 Y22.3807
X145.4341 Y22.3743
X146.172 Y22.3724
X146.9098 Y22.3754
X147.6475 Y22.3835
X148.3852 Y22.3975
X149.1227 Y22.4183
X149.86 Y22.4469
X150.5968 Y22.4848
X151.333 Y22.5343
X152.0681 Y22.5979
X152.8014 Y22.6794
X153.5317 Y22.7843
X154.2565 Y22.9221
X154.8159 Y23.0689
X155.1777 Y23.1956
X155.4306 Y23.3077
X155.5253 Y23.3592
X155.6852 Y23.4762
X155.8084 Y23.6315
X155.886 Y23.8138
X155.9125 Y24.0102
Y25.2665
G3 X155.3392 Y25.4432 I-0.3173 J-0.0111
G1 X155.2974 Y25.3863 Z-1.992
X155.2577 Y25.3321 Z-1.9686
X155.2221 Y25.2836 Z-1.9307
X155.1924 Y25.2431 Z-1.8805
X155.17 Y25.2126 Z-1.8203
X155.1561 Y25.1936 Z-1.7532
X155.1514 Y25.1872 Z-1.6825
G0 Z5
X130.4711 Y27.7729
Z-1.365
G1 Z-1.6825 F3500
X130.467 Y27.7661 Z-1.7532
X130.455 Y27.7459 Z-1.8203
X130.4357 Y27.7134 Z-1.8805
X130.41 Y27.6702 Z-1.9307
X130.3792 Y27.6184 Z-1.9686
X130.3449 Y27.5607 Z-1.992
X130.3088 Y27.5 Z-2
G3 X130.0875 Y26.7465 I1.3603 J-0.8088
G1 Y25.4808
X130.095 Y25.331
X130.1217 Y25.1834
X130.1621 Y25.0367
X130.2235 Y24.868
X130.3008 Y24.6993
X130.4118 Y24.5007
X130.5457 Y24.3008
X130.7236 Y24.0764
X130.9388 Y23.8458
X131.2151 Y23.5937
X131.5512 Y23.3332
X131.9865 Y23.0487
X132.4874 Y22.7759
X133.1531 Y22.48
X133.8492 Y22.2354
X134.5591 Y22.0341
X135.2777 Y21.8671
X136.0023 Y21.7278
X136.7308 Y21.6111
X137.4621 Y21.5133
X138.1953 Y21.4313
X138.9299 Y21.3627
X139.6655 Y21.3055
X140.4018 Y21.2579
X141.1386 Y21.2187
X141.8757 Y21.1866
X142.6131 Y21.1609
X143.3506 Y21.1407
X144.0883 Y21.1255
X144.826 Y21.1152
X145.5638 Y21.1095
X146.3016 Y21.1086
X147.0394 Y21.1127
X147.7772 Y21.1223
X148.5148 Y21.138
X149.2523 Y21.1607
X149.9895 Y21.1917
X150.7262 Y21.2324
X151.4621 Y21.2849
X152.1969 Y21.3519
X152.9297 Y21.437
X153.6593 Y21.5472
X154.3828 Y21.6919
X154.8972 Y21.837
X155.2435 Y21.9655
X155.4808 Y22.076
X155.5372 Y22.1079
X155.6925 Y22.2255
X155.8118 Y22.3794
X155.8869 Y22.5592
X155.9125 Y22.7523
Y24.0102
G3 X155.3392 Y24.1869 I-0.3173 J-0.0111
G1 X155.2974 Y24.13 Z-1.992
X155.2577 Y24.0759 Z-1.9686
X155.2221 Y24.0273 Z-1.9307
X155.1924 Y23.9868 Z-1.8805
X155.17 Y23.9563 Z-1.8203
X155.1561 Y23.9374 Z-1.7532
X155.1514 Y23.9309 Z-1.6825
G0 Z5
X130.4711 Y26.5073
Z-1.365
G1 Z-1.6825 F3500
X130.467 Y26.5004 Z-1.7532
X130.455 Y26.4802 Z-1.8203
X130.4357 Y26.4477 Z-1.8805
X130.41 Y26.4045 Z-1.9307
X130.3792 Y26.3528 Z-1.9686
X130.3449 Y26.2951 Z-1.992
X130.3088 Y26.2344 Z-2
G3 X130.0875 Y25.4808 I1.3603 J-0.8088
G1 Y24.2319
X130.095 Y24.0821
X130.1221 Y23.9345
X130.1618 Y23.7899
X130.2233 Y23.6213
X130.3018 Y23.4502
X130.4094 Y23.2579
X130.5505 Y23.0475
X130.7222 Y22.8311
X130.9479 Y22.5896
X131.2126 Y22.3482
X131.566 Y22.0747
X131.9785 Y21.8053
X132.4966 Y21.5235
X133.1682 Y21.2254
X133.8644 Y20.9812
X134.5742 Y20.7798
X135.2928 Y20.6124
X136.0172 Y20.4724
X136.7456 Y20.355
X137.4768 Y20.2563
X138.2099 Y20.1734
X138.9444 Y20.1038
X139.68 Y20.0456
X140.4162 Y19.9971
X141.1529 Y19.957
X141.89 Y19.9241
X142.6273 Y19.8977
X143.3649 Y19.877
X144.1025 Y19.8615
X144.8403 Y19.851
X145.578 Y19.8454
X146.3159 Y19.8446
X147.0537 Y19.849
X147.7914 Y19.8591
X148.529 Y19.8754
X149.2665 Y19.8989
X150.0036 Y19.9306
X150.7402 Y19.9722
X151.4761 Y20.0258
X152.2108 Y20.094
X152.9435 Y20.1809
X153.6728 Y20.2924
X154.3959 Y20.4389
X154.9084 Y20.5839
X155.2474 Y20.71
X155.4846 Y20.8206
X155.5377 Y20.8507
X155.6928 Y20.9683
X155.812 Y21.1222
X155.8869 Y21.3019
X155.9125 Y21.4948
Y22.7523
G3 X155.3392 Y22.929 I-0.3173 J-0.0111
G1 X155.2974 Y22.8721 Z-1.992
X155.2577 Y22.818 Z-1.9686
X155.2221 Y22.7694 Z-1.9307
X155.1924 Y22.7289 Z-1.8805
X155.17 Y22.6984 Z-1.8203
X155.1561 Y22.6795 Z-1.7532
X155.1514 Y22.6731 Z-1.6825
G0 Z5
X130.4711 Y25.2584
Z-1.365
G1 Z-1.6825 F3500
X130.467 Y25.2515 Z-1.7532
X130.455 Y25.2313 Z-1.8203
X130.4357 Y25.1988 Z-1.8805
X130.41 Y25.1556 Z-1.9307
X130.3792 Y25.1039 Z-1.9686
X130.3449 Y25.0462 Z-1.992
X130.3088 Y24.9854 Z-2
G3 X130.0875 Y24.2319 I1.3603 J-0.8088
G1 Y23.0584
X130.0952 Y22.9049
X130.1147 Y22.7562
X130.1479 Y22.6099
X130.1975 Y22.455
X130.2695 Y22.2799
X130.3595 Y22.103
X130.4875 Y21.8948
X130.6355 Y21.6923
X130.8398 Y21.4554
X131.0753 Y21.2229
X131.3939 Y20.9553
X131.76 Y20.695
X132.2434 Y20.4067
X132.8404 Y20.1127
X133.5264 Y19.841
X134.2301 Y19.6192
X134.9447 Y19.4358
X135.6665 Y19.2828
X136.3931 Y19.1544
X137.1229 Y19.0463
X137.8551 Y18.9552
X138.5889 Y18.8785
X139.3239 Y18.814
X140.0598 Y18.76
X140.7962 Y18.715
X141.5331 Y18.6779
X142.2703 Y18.6477
X143.0077 Y18.6237
X143.7453 Y18.6053
X144.483 Y18.5921
X145.2207 Y18.5839
X145.9586 Y18.5808
X146.6964 Y18.5829
X147.4341 Y18.5905
X148.1718 Y18.6042
X148.9094 Y18.6247
X149.6466 Y18.6531
X150.3835 Y18.6907
X151.1197 Y18.7391
X151.8549 Y18.8009
X152.5886 Y18.8791
X153.3197 Y18.9785
X154.0465 Y19.1055
X154.6957 Y19.2613
X155.0841 Y19.3882
X155.3757 Y19.5101
X155.5115 Y19.5802
X155.6767 Y19.6965
X155.8044 Y19.8531
X155.8849 Y20.0384
X155.9125 Y20.2385
Y21.4948
G3 X155.3392 Y21.6716 I-0.3173 J-0.0111
G1 X155.2974 Y21.6146 Z-1.992
X155.2577 Y21.5605 Z-1.9686
X155.2221 Y21.512 Z-1.9307
X155.1924 Y21.4714 Z-1.8805
X155.17 Y21.4409 Z-1.8203
X155.1561 Y21.422 Z-1.7532
X155.1514 Y21.4156 Z-1.6825
G0 Z5
X130.4711 Y24.0849
Z-1.365
G1 Z-1.6825 F3500
X130.467 Y24.078 Z-1.7532
X130.455 Y24.0579 Z-1.8203
X130.4357 Y24.0253 Z-1.8805
X130.41 Y23.9821 Z-1.9307
X130.3792 Y23.9304 Z-1.9686
X130.3449 Y23.8727 Z-1.992
X130.3088 Y23.812 Z-2
G3 X130.0875 Y23.0584 I1.3603 J-0.8088
G1 Y21.7927
X130.095 Y21.6429
X130.1158 Y21.4944
X130.1511 Y21.3483
X130.2028 Y21.1909
X130.2736 Y21.0225
X130.3734 Y20.83
X130.4926 Y20.6393
X130.6607 Y20.413
X130.853 Y20.1934
X131.1165 Y19.9373
X131.4183 Y19.6877
X131.8293 Y19.4001
X132.2885 Y19.131
X132.896 Y18.8376
X133.584 Y18.5712
X134.2886 Y18.3523
X135.0037 Y18.1706
X135.7257 Y18.0187
X136.4523 Y17.8909
X137.1823 Y17.7832
X137.9144 Y17.6922
X138.6483 Y17.6154
X139.3832 Y17.5508
X140.119 Y17.4965
X140.8555 Y17.4513
X141.5923 Y17.4139
X142.3295 Y17.3835
X143.0669 Y17.3593
X143.8045 Y17.3409
X144.5422 Y17.3278
X145.28 Y17.3199
X146.0178 Y17.3172
X146.7556 Y17.3199
X147.4934 Y17.3282
X148.2311 Y17.3429
X148.9686 Y17.3645
X149.7058 Y17.3941
X150.4426 Y17.4331
X151.1787 Y17.483
X151.9138 Y17.5464
X152.6472 Y17.6267
X153.378 Y17.7283
X154.104 Y17.8599
X154.7151 Y18.0094
X155.1085 Y18.1398
X155.381 Y18.2552
X155.5143 Y18.3247
X155.6785 Y18.4412
X155.8052 Y18.5975
X155.8852 Y18.7822
X155.9125 Y18.9816
Y20.2385
G3 X155.3392 Y20.4153 I-0.3173 J-0.0111
G1 X155.2974 Y20.3583 Z-1.992
X155.2577 Y20.3042 Z-1.9686
X155.2221 Y20.2557 Z-1.9307
X155.1924 Y20.2151 Z-1.8805
X155.17 Y20.1846 Z-1.8203
X155.1561 Y20.1657 Z-1.7532
X155.1514 Y20.1593 Z-1.6825
G0 Z5
X130.4711 Y22.8192
Z-1.365
G1 Z-1.6825 F3500
X130.467 Y22.8124 Z-1.7532
X130.455 Y22.7922 Z-1.8203
X130.4357 Y22.7597 Z-1.8805
X130.41 Y22.7165 Z-1.9307
X130.3792 Y22.6647 Z-1.9686
X130.3449 Y22.607 Z-1.992
X130.3088 Y22.5463 Z-2
G3 X130.0875 Y21.7927 I1.3603 J-0.8088
G1 Y20.5438
X130.095 Y20.394
X130.1161 Y20.2455
X130.1512 Y20.0997
X130.2039 Y19.9395
X130.2734 Y19.7742
X130.3748 Y19.5787
X130.4963 Y19.3845
X130.661 Y19.1629
X130.8577 Y18.9385
X131.1145 Y18.6891
X131.4236 Y18.4337
X131.8271 Y18.1516
X132.2907 Y17.88
X132.9047 Y17.5838
X133.5928 Y17.3176
X134.2973 Y17.0985
X135.0123 Y16.9163
X135.7342 Y16.7637
X136.4607 Y16.6351
X137.1905 Y16.5265
X137.9225 Y16.4346
X138.6563 Y16.3569
X139.3911 Y16.2913
X140.1269 Y16.2362
X140.8633 Y16.1902
X141.6001 Y16.1521
X142.3373 Y16.1211
X143.0747 Y16.0964
X143.8123 Y16.0776
X144.5499 Y16.0643
X145.2877 Y16.0563
X146.0255 Y16.0537
X146.7633 Y16.0565
X147.5011 Y16.0652
X148.2388 Y16.0803
X148.9762 Y16.1024
X149.7134 Y16.1326
X150.4502 Y16.1721
X151.1863 Y16.223
X151.9212 Y16.2874
X152.6546 Y16.3685
X153.3852 Y16.4714
X154.1111 Y16.6037
X154.7161 Y16.752
X155.1088 Y16.8824
X155.3824 Y16.9984
X155.5146 Y17.0675
X155.6786 Y17.184
X155.8053 Y17.3403
X155.8852 Y17.5248
X155.9125 Y17.7241
Y18.9816
G3 X155.3392 Y19.1583 I-0.3173 J-0.0111
G1 X155.2974 Y19.1013 Z-1.992
X155.2577 Y19.0472 Z-1.9686
X155.2221 Y18.9987 Z-1.9307
X155.1924 Y18.9582 Z-1.8805
X155.17 Y18.9277 Z-1.8203
X155.1561 Y18.9087 Z-1.7532
X155.1514 Y18.9023 Z-1.6825
G0 Z5
X130.4711 Y21.5703
Z-1.365
G1 Z-1.6825 F3500
X130.467 Y21.5635 Z-1.7532
X130.455 Y21.5433 Z-1.8203
X130.4357 Y21.5108 Z-1.8805
X130.41 Y21.4676 Z-1.9307
X130.3792 Y21.4158 Z-1.9686
X130.3449 Y21.3581 Z-1.992
X130.3088 Y21.2974 Z-2
G3 X130.0875 Y20.5438 I1.3603 J-0.8088
G1 Y19.2782
X130.095 Y19.1284
X130.1177 Y18.9801
X130.1545 Y18.8338
X130.209 Y18.673
X130.2816 Y18.5047
X130.3865 Y18.3069
X130.5102 Y18.1129
X130.6813 Y17.8871
X130.8802 Y17.6641
X131.1473 Y17.4093
X131.4604 Y17.1553
X131.8795 Y16.8679
X132.355 Y16.5951
X132.9872 Y16.297
X133.6777 Y16.037
X134.3836 Y15.8224
X135.0994 Y15.6434
X135.8217 Y15.4931
X136.5485 Y15.3662
X137.2785 Y15.2588
X138.0107 Y15.1678
X138.7444 Y15.0906
X139.4794 Y15.0254
X140.2151 Y14.9706
X140.9515 Y14.9247
X141.6884 Y14.8868
X142.4255 Y14.8559
X143.1629 Y14.8314
X143.9005 Y14.8129
X144.6382 Y14.8
X145.376 Y14.7925
X146.1138 Y14.7906
X146.8516 Y14.7943
X147.5894 Y14.8039
X148.327 Y14.8202
X149.0645 Y14.8437
X149.8016 Y14.8754
X150.5382 Y14.9168
X151.2742 Y14.9696
X152.009 Y15.0359
X152.742 Y15.1197
X153.4722 Y15.2259
X154.1973 Y15.3624
X154.7838 Y15.5138
X155.1584 Y15.6434
X155.4155 Y15.7562
X155.5227 Y15.8139
X155.6836 Y15.9308
X155.8076 Y16.0863
X155.8858 Y16.2692
X155.9125 Y16.4663
Y17.7241
G3 X155.3392 Y17.9009 I-0.3173 J-0.0111
G1 X155.2974 Y17.8439 Z-1.992
X155.2577 Y17.7898 Z-1.9686
X155.2221 Y17.7413 Z-1.9307
X155.1924 Y17.7007 Z-1.8805
X155.17 Y17.6702 Z-1.8203
X155.1561 Y17.6513 Z-1.7532
X155.1514 Y17.6449 Z-1.6825
G0 Z5
X130.4711 Y20.3046
Z-1.365
G1 Z-1.6825 F3500
X130.467 Y20.2978 Z-1.7532
X130.455 Y20.2776 Z-1.8203
X130.4357 Y20.2451 Z-1.8805
X130.41 Y20.2019 Z-1.9307
X130.3792 Y20.1501 Z-1.9686
X130.3449 Y20.0925 Z-1.992
X130.3088 Y20.0317 Z-2
G3 X130.0875 Y19.2782 I1.3603 J-0.8088
G1 Y18.0293
X130.095 Y17.8795
X130.1068 Y17.7299
X130.1335 Y17.5823
X130.173 Y17.4376
X130.2231 Y17.2962
X130.2834 Y17.1589
X130.3521 Y17.0255
X130.428 Y16.8961
X130.5106 Y16.771
X130.5995 Y16.6501
X130.6935 Y16.5333
X130.7921 Y16.4202
X130.8951 Y16.3112
X131.0023 Y16.2062
X131.1131 Y16.1051
X131.2269 Y16.0073
X131.3432 Y15.9127
X131.4624 Y15.8216
X131.5842 Y15.7341
X131.7083 Y15.6498
X131.8344 Y15.5685
X131.9621 Y15.4899
X132.0915 Y15.414
X132.2226 Y15.3411
X132.3552 Y15.271
X132.4891 Y15.2034
X132.6242 Y15.1381
X132.7602 Y15.075
X132.8974 Y15.0143
X133.0356 Y14.956
X133.1746 Y14.8997
X133.3145 Y14.8453
X133.4549 Y14.7927
X133.5961 Y14.7421
X133.738 Y14.6934
X133.8804 Y14.6464
X134.0234 Y14.601
X134.1668 Y14.557
X134.3107 Y14.5146
X134.455 Y14.4738
X134.5997 Y14.4344
X134.7448 Y14.3963
X134.8902 Y14.3594
X135.0359 Y14.3237
X135.1819 Y14.2894
X135.3282 Y14.2562
X135.4896 Y14.221
X135.6421 Y14.1887
X135.7891 Y14.1588
X135.9505 Y14.1273
X136.1313 Y14.0932
X136.3308 Y14.0572
X136.5002 Y14.0279
X136.6912 Y13.9963
X136.9096 Y13.9618
X137.1372 Y13.9276
X137.3497 Y13.8973
X137.5964 Y13.8639
X137.8696 Y13.8289
X138.1203 Y13.7987
X138.4199 Y13.7648
X138.7258 Y13.7325
X139.0465 Y13.701
X139.412 Y13.6678
X139.7728 Y13.6377
X140.1906 Y13.606
X140.6208 Y13.5764
X140.9698 Y13.5554
X141.4683 Y13.5273
X141.9812 Y13.5022
X142.5613 Y13.4781
X143.1886 Y13.4566
X143.8509 Y13.4388
X144.534 Y13.4255
X145.2085 Y13.4173
X145.8868 Y13.4139
X146.5477 Y13.4156
X147.1804 Y13.4218
X147.783 Y13.4321
X148.3605 Y13.4463
X148.8339 Y13.4613
X149.2956 Y13.4794
X149.7545 Y13.5008
X150.1044 Y13.5196
X150.5018 Y13.5439
X150.7988 Y13.5643
X151.1009 Y13.5873
X151.4176 Y13.6137
X151.6294 Y13.6329
X151.8747 Y13.657
X152.1531 Y13.6864
X152.3103 Y13.7041
X152.4819 Y13.7248
X152.675 Y13.7495
X152.8956 Y13.7793
X153.0441 Y13.8006
X153.1924 Y13.823
X153.3405 Y13.8469
X153.4883 Y13.8721
X153.636 Y13.8985
X153.7834 Y13.926
X153.9305 Y13.9555
X154.0772 Y13.9868
X154.2235 Y14.02
X154.3693 Y14.0552
X154.5145 Y14.0929
X154.659 Y14.1329
X154.8027 Y14.1759
X154.9455 Y14.2221
X155.0868 Y14.2725
X155.2265 Y14.3269
X155.3645 Y14.3858
X155.4999 Y14.4503
X155.5215 Y14.4619
X155.6829 Y14.5788
X155.8073 Y14.7344
X155.8857 Y14.9175
X155.9125 Y15.1149
Y16.4663
G3 X155.3392 Y16.643 I-0.3173 J-0.0111
G1 X155.2974 Y16.586 Z-1.992
X155.2577 Y16.5319 Z-1.9686
X155.2221 Y16.4834 Z-1.9307
X155.1924 Y16.4429 Z-1.8805
X155.17 Y16.4124 Z-1.8203
X155.1561 Y16.3934 Z-1.7532
X155.1514 Y16.387 Z-1.6825
G0 Z5
X130.4711 Y19.0557
Z-1.365
G1 Z-1.6825 F3500
X130.467 Y19.0489 Z-1.7532
X130.455 Y19.0287 Z-1.8203
X130.4357 Y18.9962 Z-1.8805
X130.41 Y18.953 Z-1.9307
X130.3792 Y18.9012 Z-1.9686
X130.3449 Y18.8436 Z-1.992
X130.3088 Y18.7828 Z-2
G3 X130.0875 Y18.0293 I1.3603 J-0.8088
G1 Y16.6882
X130.095 Y16.5383
X130.1072 Y16.3888
X130.1343 Y16.2413
X130.1741 Y16.0967
X130.225 Y15.9556
X130.2855 Y15.8183
X130.3546 Y15.6852
X130.4312 Y15.5562
X130.5145 Y15.4315
X130.6037 Y15.3109
X130.6983 Y15.1945
X130.7977 Y15.0821
X130.9014 Y14.9737
X131.0089 Y14.8691
X131.1199 Y14.7683
X131.2341 Y14.671
X131.3512 Y14.5772
X131.4709 Y14.4868
X131.593 Y14.3997
X131.7172 Y14.3156
X131.8434 Y14.2346
X131.9714 Y14.1564
X132.1011 Y14.081
X132.2323 Y14.0082
X132.3649 Y13.9381
X132.4987 Y13.8704
X132.6338 Y13.8051
X132.7699 Y13.7421
X132.907 Y13.6812
X133.045 Y13.6225
X133.1839 Y13.5658
X133.3236 Y13.5111
X133.4639 Y13.4582
X133.605 Y13.4072
X133.7466 Y13.3578
X133.8889 Y13.3102
X134.0316 Y13.2641
X134.1749 Y13.2196
X134.3185 Y13.1766
X134.4627 Y13.135
X134.6072 Y13.0948
X134.7521 Y13.0559
X134.8973 Y13.0183
X135.0428 Y12.9819
X135.1886 Y12.9468
X135.3347 Y12.9127
X135.4826 Y12.8795
X135.6373 Y12.8459
X135.7928 Y12.8133
X135.958 Y12.7799
X136.1319 Y12.7462
X136.3097 Y12.713
X136.4967 Y12.6795
X136.694 Y12.6457
X136.8956 Y12.6126
X137.1118 Y12.5788
X137.3391 Y12.5449
X137.5707 Y12.5122
X137.8233 Y12.4783
X138.0909 Y12.4445
X138.3615 Y12.4123
X138.6591 Y12.3791
X138.9813 Y12.3455
X139.2567 Y12.3192
G3 X139.4245 Y12.9163 I0.0182 J0.317
G1 X130.7313 Y17.5595
G3 X130.3088 Y17.4417 I-0.1496 J-0.2801
X130.0875 Y16.6882 I1.3603 J-0.8088
G1 Y15.3471
X130.095 Y15.1972
X130.1192 Y15.0492
X130.157 Y14.904
X130.212 Y14.7459
X130.2878 Y14.5739
X130.3892 Y14.3863
X130.5204 Y14.1843
X130.6882 Y13.9663
X130.8996 Y13.7332
X131.0321 Y13.6088
X131.1059 Y13.5447
X131.4161 Y13.2859
X131.7174 Y13.073
X131.7958 Y13.0245
G3 X132.2061 Y13.4924 I0.1576 J0.2756
G1 X130.6608 Y15.5238
X130.6575 Y15.5282
G3 X130.0875 Y15.3471 I-0.2527 J-0.1922
G1 Y14.0814
X130.095 Y13.9316
X130.1224 Y13.7841
X130.1666 Y13.6271
X130.2308 Y13.4541
X130.2502 Y13.2707
X130.2236 Y13.0882
X130.1556 Y12.9244
X130.118 Y12.8247
X130.0952 Y12.7206
X130.0875 Y12.6142
G3 X130.7223 Y12.6253 I0.3173 J0.0111
G1 Y14.0703
G3 X130.0875 Y14.0814 I-0.3175
G1 Y11.8267
G3 X130.6608 Y11.6499 I0.3173 J0.0111
G1 X130.7026 Y11.7069 Z-1.992
X130.7423 Y11.761 Z-1.9686
X130.7779 Y11.8095 Z-1.9307
X130.8076 Y11.8501 Z-1.8805
X130.83 Y11.8806 Z-1.8203
X130.8439 Y11.8995 Z-1.7532
X130.8486 Y11.9059 Z-1.6825
G0 Z5
X155.2581 Y8.4202
Z-1.365
G1 Z-1.6825 F3500
X155.2622 Y8.4271 Z-1.7532
X155.2742 Y8.4473 Z-1.8203
X155.2935 Y8.4798 Z-1.8805
X155.3192 Y8.523 Z-1.9307
X155.35 Y8.5747 Z-1.9686
X155.3843 Y8.6324 Z-1.992
X155.4204 Y8.6931 Z-2
G3 X155.9125 Y10.3686 I-3.0245 J1.7983
G1 Y10.5363
X155.9106 Y10.5737
X155.8239 Y10.6961
X155.7204 Y10.8047
X155.6058 Y10.9014
X155.4833 Y10.988
X155.3549 Y11.0655
X155.222 Y11.1351
X155.0856 Y11.1976
X154.9465 Y11.2538
X154.8053 Y11.3044
X154.6624 Y11.3499
X154.5181 Y11.3909
X154.3728 Y11.4279
X154.2265 Y11.4613
X154.0795 Y11.4913
X153.932 Y11.5185
X153.784 Y11.543
X153.6357 Y11.5651
X153.487 Y11.5851
X153.3381 Y11.6031
X153.189 Y11.6194
X153.0397 Y11.6341
X152.8903 Y11.6474
X152.7408 Y11.6594
X152.5833 Y11.6709
X152.3157 Y11.6877
G3 X152.2313 Y11.0623 I-0.0073 J-0.3174
G1 X155.3048 Y10.2927
X155.5181 Y10.2393
G3 X155.9125 Y10.5363 I0.0771 J0.308
G1 Y10.9885
X155.905 Y11.1383
X155.8351 Y11.309
X155.7795 Y11.6737
X155.8981 Y12.2674
X155.9061 Y12.3154
X155.9109 Y12.3638
X155.9125 Y12.4125
G3 X155.2777 Y12.4014 I-0.3173 J-0.0111
G1 Y10.9995
G3 X155.9125 Y10.9885 I0.3175
G1 Y15.1149
G3 X155.6149 Y15.4208 I-0.3173 J-0.0111
G1 X155.5952 Y15.4214 Z-1.9994
X155.5418 Y15.4078 Z-1.9907
X155.4907 Y15.3948 Z-1.9726
X155.4435 Y15.3828 Z-1.9455
X155.4079 Y15.3517 Z-1.9059
X155.3787 Y15.3262 Z-1.8579
X155.357 Y15.3073 Z-1.8034
X155.3437 Y15.2956 Z-1.7443
X155.3392 Y15.2917 Z-1.6829
G0 Z5
X132.8714 Y-2.2139
Z-3.365
G1 Z-3.6825 F3500
X132.876 Y-2.2074 Z-3.7532
X132.8894 Y-2.1881 Z-3.8203
X132.9111 Y-2.1571 Z-3.8805
X132.9399 Y-2.1159 Z-3.9307
X132.9744 Y-2.0665 Z-3.9686
X133.0128 Y-2.0115 Z-3.992
X133.0533 Y-1.9536 Z-4
G3 X133.6669 Y-0.3187 I-2.8845 J2.0152
G1 X133.6724 Y-0.2433
X133.6766 Y-0.0757
X133.6855 Y1.0978
X133.6875 Y1.6007
Y1.7684
G3 X133.1142 Y1.9451 I-0.3173 J-0.0111
G1 X133.0724 Y1.8881 Z-3.992
X133.0327 Y1.834 Z-3.9686
X132.9971 Y1.7855 Z-3.9307
X132.9674 Y1.745 Z-3.8805
X132.945 Y1.7145 Z-3.8203
X132.9311 Y1.6955 Z-3.7532
X132.9264 Y1.6891 Z-3.6825
G0 Z5
X288.1768 Y69.8454
Z-3.365
G1 Z-3.6825 F3500
X288.1704 Y69.8501 Z-3.7532
X288.1514 Y69.8639 Z-3.8203
X288.1208 Y69.8861 Z-3.8805
X288.0801 Y69.9156 Z-3.9307
X288.0313 Y69.9509 Z-3.9686
X287.977 Y69.9903 Z-3.992
X287.9198 Y70.0318 Z-4
G3 X286.2958 Y70.6736 I-2.0649 J-2.8491
G1 X286.2421 Y70.6785
X286.0744 Y70.6806
X284.5656 Y70.6874
X284.3979 Y70.6875
G3 X284.2212 Y70.1142 I0.0111 J-0.3173
G1 X284.2782 Y70.0724 Z-3.992
X284.3323 Y70.0327 Z-3.9686
X284.3808 Y69.9971 Z-3.9307
X284.4213 Y69.9674 Z-3.8805
X284.4518 Y69.945 Z-3.8203
X284.4708 Y69.9311 Z-3.7531
X284.4772 Y69.9264 Z-3.6825
G0 Z5
X258.1286 Y143.2139
Z-3.365
G1 Z-3.6825 F3500
X258.124 Y143.2074 Z-3.7532
X258.1106 Y143.1881 Z-3.8203
X258.0889 Y143.1571 Z-3.8805
X258.0601 Y143.1159 Z-3.9307
X258.0256 Y143.0666 Z-3.9686
X257.9872 Y143.0115 Z-3.992
X257.9467 Y142.9536 Z-4
G3 X257.3331 Y141.3187 I2.8845 J-2.0152
G1 X257.3276 Y141.2433
X257.3234 Y141.0757
X257.3145 Y139.9022
X257.3125 Y139.3993
Y139.2316
G3 X257.8858 Y139.0549 I0.3173 J0.0111
G1 X257.9276 Y139.1119 Z-3.992
X257.9673 Y139.166 Z-3.9686
X258.0029 Y139.2145 Z-3.9307
X258.0326 Y139.255 Z-3.8805
X258.055 Y139.2855 Z-3.8203
X258.0689 Y139.3045 Z-3.7531
X258.0736 Y139.3109 Z-3.6825
G0 Z5
X226.328 Y119.0331
Z-3.365
G1 Z-3.6825 F3500
X226.3211 Y119.0372 Z-3.7531
X226.3009 Y119.0492 Z-3.8203
X226.2684 Y119.0685 Z-3.8805
X226.2252 Y119.0942 Z-3.9307
X226.1735 Y119.125 Z-3.9686
X226.1158 Y119.1593 Z-3.992
X226.0551 Y119.1954 Z-4
G3 X224.3796 Y119.6875 I-1.7983 J-3.0245
G1 X214.3206 Y119.6874
X214.153 Y119.6867
X213.1471 Y119.6763
X212.6441 Y119.6687
X212.4765 Y119.6601
X211.9736 Y119.5885
X211.8059 Y119.552
X211.3878 Y119.4503
X211.303 Y119.4251
X210.8 Y119.2381
X210.6324 Y119.1663
X210.5203 Y119.1151
X210.2057 Y118.9474
X210.1294 Y118.9037
X209.6265 Y118.5729
X209.4577 Y118.4445
X209.2912 Y118.3091
X209.2538 Y118.2769
X209.0735 Y118.1092
X208.9559 Y117.9974
X208.9024 Y117.9416
X208.7509 Y117.774
X208.6206 Y117.6271
X208.4529 Y117.4113
X208.3522 Y117.271
X208.0339 Y116.7681
X207.9498 Y116.6005
X207.8675 Y116.4329
X207.7867 Y116.2652
X207.7209 Y116.0976
X207.5425 Y115.5947
X207.5017 Y115.427
X207.4262 Y115.0918
X207.394 Y114.9241
X207.3323 Y114.4212
X207.3246 Y114.2536
X207.3154 Y113.9183
X207.3125 Y113.7506
Y88.9402
G3 X207.8858 Y88.7635 I0.3173 J0.0111
G1 X207.9276 Y88.8204 Z-3.992
X207.9673 Y88.8745 Z-3.9686
X208.0029 Y88.9231 Z-3.9307
X208.0326 Y88.9636 Z-3.8805
X208.055 Y88.9941 Z-3.8203
X208.0689 Y89.013 Z-3.7532
X208.0736 Y89.0194 Z-3.6825
G0 Z5
X133.0332 Y87.3271
Z-3.365
G1 Z-3.6825 F3500
X133.0372 Y87.3339 Z-3.7531
X133.0492 Y87.3541 Z-3.8203
X133.0686 Y87.3866 Z-3.8805
X133.0943 Y87.4298 Z-3.9307
X133.125 Y87.4816 Z-3.9686
X133.1593 Y87.5393 Z-3.992
X133.1954 Y87.6 Z-4
G3 X133.6875 Y89.2755 I-3.0245 J1.7983
G1 Y113.7506
X133.6846 Y113.9183
X133.6754 Y114.2536
X133.6679 Y114.4212
X133.6301 Y114.7565
X133.608 Y114.9241
X133.5739 Y115.0918
X133.4979 Y115.427
X133.457 Y115.5947
X133.2789 Y116.0976
X133.208 Y116.2652
X133.0518 Y116.6005
X133.0109 Y116.6848
X132.9673 Y116.7681
X132.6418 Y117.271
X132.5246 Y117.4387
X132.5079 Y117.4613
X132.3947 Y117.6063
X132.1 Y117.9416
X131.8373 Y118.1964
X131.502 Y118.4714
X131.3209 Y118.6122
X131.1667 Y118.716
X130.6638 Y119.0204
X130.4821 Y119.1151
X130.3285 Y119.183
X130.0987 Y119.2827
X129.9932 Y119.3205
X129.4902 Y119.4852
X129.3226 Y119.5222
X128.9873 Y119.5936
X128.8564 Y119.618
X128.3167 Y119.6768
X128.1491 Y119.6809
X127.8138 Y119.6861
X127.6461 Y119.6875
X123.7902
G3 X123.6134 Y119.1142 I0.0111 J-0.3173
G1 X123.6704 Y119.0724 Z-3.992
X123.7245 Y119.0327 Z-3.9686
X123.7731 Y118.9971 Z-3.9307
X123.8136 Y118.9674 Z-3.8805
X123.8441 Y118.945 Z-3.8203
X123.863 Y118.9311 Z-3.7532
X123.8694 Y118.9264 Z-3.6825
G0 Z5
X130.7419 Y58.5684
Z-3.365
G1 Z-3.6825 F3500
X130.7378 Y58.5615 Z-3.7531
X130.7258 Y58.5413 Z-3.8203
X130.7065 Y58.5088 Z-3.8805
X130.6808 Y58.4656 Z-3.9307
X130.65 Y58.4139 Z-3.9686
X130.6157 Y58.3562 Z-3.992
X130.5796 Y58.2955 Z-4
G3 X130.0875 Y56.62 I3.0245 J-1.7983
G1 Y56.4523
X130.0894 Y56.4149
X130.1861 Y56.3002
X130.2973 Y56.1996
X130.4184 Y56.1104
X130.5736 Y56.0142
X130.7735 Y55.9116
X131.0341 Y55.8032
X131.3837 Y55.6898
X131.879 Y55.5721
X132.6082 Y55.4597
X133.3437 Y55.4019
X134.0809 Y55.3718
X134.8186 Y55.3561
X135.5564 Y55.3479
X136.2942 Y55.3435
X137.032 Y55.3413
X139.2454 Y55.3391
X155.4059 Y55.3386
X155.6163 Y55.3691
X155.8093 Y55.458
X155.9691 Y55.5981
X156.0826 Y55.7778
G0 Z5
X130.9968 Y56.9322
Z-3.365
G1 Z-3.6825 F3500
X130.9889 Y56.9331 Z-3.7532
X130.9656 Y56.9356 Z-3.8203
X130.9279 Y56.9397 Z-3.8805
X130.878 Y56.9452 Z-3.9307
X130.8181 Y56.9517 Z-3.9686
X130.7514 Y56.9589 Z-3.992
X130.6812 Y56.9666 Z-4
G3 X130.0875 Y56.4523 I-0.0579 J-0.5329
G1 Y56.0324
X130.095 Y55.8826
X130.1559 Y55.7455
X130.2331 Y55.6169
X130.3222 Y55.4962
X130.4275 Y55.3774
X130.5655 Y55.2449
X130.7176 Y55.1207
X130.9143 Y54.9848
X131.1723 Y54.8357
X131.4524 Y54.7025
X131.8343 Y54.5572
X132.3054 Y54.4201
X132.9853 Y54.2803
X133.7176 Y54.1902
X134.4536 Y54.1381
X135.1908 Y54.1082
X135.9284 Y54.0911
X136.6662 Y54.0813
X137.4039 Y54.0758
X138.1418 Y54.0727
X139.6174 Y54.07
X144.0443 Y54.0687
X154.3737 Y54.0686
X154.7643 Y54.0846
X155.0822 Y54.1234
X155.3123 Y54.1705
X155.3778 Y54.1894
X155.5524 Y54.2655
X155.7018 Y54.3836
X155.8162 Y54.5358
X155.888 Y54.7122
X155.9125 Y54.901
X155.9133 Y55.0019
G0 Z5
X130.4158 Y56.8705
Z-3.365
G1 Z-3.6825 F3500
X130.4117 Y56.8637 Z-3.7531
X130.3997 Y56.8435 Z-3.8203
X130.3804 Y56.811 Z-3.8805
X130.3547 Y56.7677 Z-3.9307
X130.3239 Y56.716 Z-3.9686
X130.2896 Y56.6583 Z-3.992
X130.2535 Y56.5976 Z-4
G3 X130.0875 Y56.0324 I1.0202 J-0.6066
G1 Y55.3619
X130.095 Y55.212
X130.1251 Y55.0651
X130.1736 Y54.9231
X130.2367 Y54.7871
X130.3119 Y54.6573
X130.4054 Y54.5229
X130.5268 Y54.3752
X130.6657 Y54.2315
X130.8504 Y54.0689
X131.0528 Y53.9177
X131.3198 Y53.7498
X131.6359 Y53.5849
X132.0229 Y53.421
X132.5051 Y53.261
X133.1531 Y53.1025
X133.8816 Y52.9852
X134.6158 Y52.9123
X135.3522 Y52.8673
X136.0895 Y52.8398
X136.8271 Y52.8232
X137.5649 Y52.8132
X138.3027 Y52.8072
X139.0405 Y52.8037
X140.5161 Y52.8004
X144.2052 Y52.7988
X153.059 Y52.7986
X153.7968 Y52.8027
X154.3879 Y52.8316
X154.763 Y52.8803
X155.0272 Y52.9365
X155.2753 Y53.0105
X155.4675 Y53.085
X155.4942 Y53.098
X155.666 Y53.2131
X155.7993 Y53.3713
X155.8836 Y53.5601
X155.9125 Y53.7649
Y54.901
G3 X155.3392 Y55.0778 I-0.3173 J-0.0111
G1 X155.2974 Y55.0208 Z-3.992
X155.2577 Y54.9667 Z-3.9686
X155.2221 Y54.9182 Z-3.9307
X155.1924 Y54.8776 Z-3.8805
X155.17 Y54.8471 Z-3.8203
X155.1561 Y54.8282 Z-3.7532
X155.1514 Y54.8218 Z-3.6825
G0 Z5
X130.4711 Y56.3883
Z-3.365
G1 Z-3.6825 F3500
X130.467 Y56.3815 Z-3.7532
X130.455 Y56.3613 Z-3.8203
X130.4357 Y56.3288 Z-3.8805
X130.41 Y56.2856 Z-3.9307
X130.3792 Y56.2338 Z-3.9686
X130.3449 Y56.1762 Z-3.992
X130.3088 Y56.1154 Z-4
G3 X130.0875 Y55.3619 I1.3603 J-0.8088
G1 Y54.4067
X130.095 Y54.2569
X130.1228 Y54.1095
X130.167 Y53.9662
X130.2246 Y53.8277
X130.2987 Y53.6858
X130.3924 Y53.5368
X130.5092 Y53.3805
X130.6569 Y53.2129
X130.8305 Y53.0451
X131.0525 Y52.8627
X131.3039 Y52.6878
X131.638 Y52.4933
X132.0037 Y52.3181
X132.4857 Y52.133
X133.0917 Y51.9546
X133.8139 Y51.8038
X134.545 Y51.7047
X135.28 Y51.6402
X136.0167 Y51.5987
X136.754 Y51.5722
X137.4916 Y51.5556
X138.2294 Y51.5452
X138.9672 Y51.5387
X139.705 Y51.5348
X141.1806 Y51.5309
X144.1319 Y51.529
X152.2478 Y51.5287
X152.9856 Y51.5306
X153.7232 Y51.5491
X154.3188 Y51.6025
X154.7539 Y51.677
X155.0682 Y51.7573
X155.3099 Y51.8401
X155.4675 Y51.9087
X155.6493 Y52.0217
X155.7913 Y52.1819
X155.8816 Y52.3761
X155.9125 Y52.588
Y53.7649
G3 X155.3392 Y53.9416 I-0.3173 J-0.0111
G1 X155.2974 Y53.8847 Z-3.992
X155.2577 Y53.8306 Z-3.9686
X155.2221 Y53.782 Z-3.9307
X155.1924 Y53.7415 Z-3.8805
X155.17 Y53.711 Z-3.8203
X155.1561 Y53.6921 Z-3.7532
X155.1514 Y53.6856 Z-3.6825
G0 Z5
X130.4711 Y55.4332
Z-3.365
G1 Z-3.6825 F3500
X130.467 Y55.4264 Z-3.7531
X130.455 Y55.4062 Z-3.8203
X130.4357 Y55.3737 Z-3.8805
X130.41 Y55.3305 Z-3.9307
X130.3792 Y55.2787 Z-3.9686
X130.3449 Y55.221 Z-3.992
X130.3088 Y55.1603 Z-4
G3 X130.0875 Y54.4067 I1.3603 J-0.8088
G1 Y53.4009
X130.095 Y53.2511
X130.1169 Y53.1027
X130.1551 Y52.9577
X130.2068 Y52.8168
X130.275 Y52.6709
X130.3649 Y52.5131
X130.4756 Y52.3507
X130.6179 Y52.1742
X130.7852 Y51.9978
X131.0027 Y51.8025
X131.2484 Y51.6153
X131.5713 Y51.4079
X131.9326 Y51.2149
X132.3987 Y51.0123
X132.9742 Y50.8153
X133.6891 Y50.6331
X134.4163 Y50.508
X135.1492 Y50.4232
X135.8848 Y50.3662
X136.6216 Y50.3283
X137.359 Y50.3034
X138.0967 Y50.2871
X138.8344 Y50.2766
X139.5722 Y50.2699
X140.31 Y50.2657
X141.0478 Y50.263
X142.5234 Y50.2603
X146.2125 Y50.2588
X151.3772 Y50.2587
X152.115 Y50.2595
X152.8528 Y50.268
X153.5899 Y50.2997
X154.2414 Y50.3675
X154.712 Y50.455
X155.063 Y50.55
X155.3083 Y50.638
X155.4771 Y50.7144
X155.6554 Y50.8282
X155.7942 Y50.9878
X155.8823 Y51.18
X155.9125 Y51.3894
Y52.588
G3 X155.3392 Y52.7647 I-0.3173 J-0.0111
G1 X155.2974 Y52.7077 Z-3.992
X155.2577 Y52.6536 Z-3.9686
X155.2221 Y52.6051 Z-3.9307
X155.1924 Y52.5646 Z-3.8805
X155.17 Y52.5341 Z-3.8203
X155.1561 Y52.5151 Z-3.7532
X155.1514 Y52.5087 Z-3.6825
G0 Z5
X130.4711 Y54.4274
Z-3.365
G1 Z-3.6825 F3500
X130.467 Y54.4205 Z-3.7531
X130.455 Y54.4004 Z-3.8203
X130.4357 Y54.3678 Z-3.8805
X130.41 Y54.3246 Z-3.9307
X130.3792 Y54.2729 Z-3.9686
X130.3449 Y54.2152 Z-3.992
X130.3088 Y54.1545 Z-4
G3 X130.0875 Y53.4009 I1.3603 J-0.8088
G1 Y52.3029
X130.095 Y52.1531
X130.1166 Y52.0046
X130.1541 Y51.8594
X130.2046 Y51.7181
X130.2763 Y51.5604
X130.3629 Y51.4046
X130.4815 Y51.2266
X130.6196 Y51.0516
X130.8015 Y50.8557
X131.0132 Y50.6616
X131.2851 Y50.4498
X131.5971 Y50.2448
X132.0087 Y50.0194
X132.4569 Y49.8188
X133.0436 Y49.611
X133.7566 Y49.4213
X134.482 Y49.2865
X135.2137 Y49.1916
X135.9486 Y49.1255
X136.685 Y49.0801
X137.4221 Y49.0491
X138.1597 Y49.0283
X138.8973 Y49.0144
X139.6351 Y49.0053
X140.3729 Y48.9993
X141.1107 Y48.9954
X142.5863 Y48.9914
X145.5376 Y48.9891
X150.7023 Y48.9887
X151.4401 Y48.9898
X152.1779 Y48.996
X152.9155 Y49.0153
X153.6517 Y49.0631
X154.3193 Y49.1513
X154.7769 Y49.2496
X155.1263 Y49.3546
X155.3643 Y49.4476
X155.4957 Y49.5115
X155.6669 Y49.6268
X155.7997 Y49.7848
X155.8837 Y49.9733
X155.9125 Y50.1777
Y51.3894
G3 X155.3392 Y51.5661 I-0.3173 J-0.0111
G1 X155.2974 Y51.5091 Z-3.992
X155.2577 Y51.455 Z-3.9686
X155.2221 Y51.4065 Z-3.9307
X155.1924 Y51.366 Z-3.8805
X155.17 Y51.3355 Z-3.8203
X155.1561 Y51.3165 Z-3.7532
X155.1514 Y51.3101 Z-3.6825
G0 Z5
X130.4711 Y53.3294
Z-3.365
G1 Z-3.6825 F3500
X130.467 Y53.3225 Z-3.7531
X130.455 Y53.3023 Z-3.8203
X130.4357 Y53.2698 Z-3.8805
X130.41 Y53.2266 Z-3.9307
X130.3792 Y53.1749 Z-3.9686
X130.3449 Y53.1172 Z-3.992
X130.3088 Y53.0565 Z-4
G3 X130.0875 Y52.3029 I1.3603 J-0.8088
G1 Y51.1294
X130.095 Y50.9796
X130.1217 Y50.832
X130.1628 Y50.6878
X130.2171 Y50.5445
X130.295 Y50.3801
X130.3885 Y50.2177
X130.5186 Y50.0289
X130.6696 Y49.8435
X130.8694 Y49.6349
X131.0936 Y49.4357
X131.3948 Y49.2084
X131.7232 Y48.9998
X132.1696 Y48.7642
X132.6646 Y48.5519
X133.2997 Y48.3379
X134.0156 Y48.1593
X134.7419 Y48.0293
X135.4737 Y47.9356
X136.2085 Y47.8686
X136.9448 Y47.8213
X137.6819 Y47.7882
X138.4193 Y47.7654
X139.157 Y47.7498
X139.8947 Y47.7392
X140.6325 Y47.7321
X141.3703 Y47.7274
X142.1081 Y47.7243
X143.5837 Y47.721
X146.535 Y47.719
X150.2241
X150.9619 Y47.7207
X151.6997 Y47.7272
X152.4373 Y47.7449
X153.1741 Y47.7833
X153.9083 Y47.8561
X154.514 Y47.9607
X154.923 Y48.0656
X155.2393 Y48.1746
X155.465 Y48.2732
X155.5218 Y48.3037
X155.6831 Y48.4206
X155.8074 Y48.5761
X155.8857 Y48.7592
X155.9125 Y48.9565
Y50.1777
G3 X155.3392 Y50.3545 I-0.3173 J-0.0111
G1 X155.2974 Y50.2975 Z-3.992
X155.2577 Y50.2434 Z-3.9686
X155.2221 Y50.1949 Z-3.9307
X155.1924 Y50.1543 Z-3.8805
X155.17 Y50.1238 Z-3.8203
X155.1561 Y50.1049 Z-3.7532
X155.1514 Y50.0985 Z-3.6825
G0 Z5
X130.4711 Y52.1559
Z-3.365
G1 Z-3.6825 F3500
X130.467 Y52.149 Z-3.7531
X130.455 Y52.1289 Z-3.8203
X130.4357 Y52.0964 Z-3.8805
X130.41 Y52.0531 Z-3.9307
X130.3792 Y52.0014 Z-3.9686
X130.3449 Y51.9437 Z-3.992
X130.3088 Y51.883 Z-4
G3 X130.0875 Y51.1294 I1.3603 J-0.8088
G1 Y49.956
X130.095 Y49.8061
X130.1231 Y49.6588
X130.1655 Y49.5149
X130.2229 Y49.3657
X130.3016 Y49.202
X130.4035 Y49.0273
X130.5311 Y48.8442
X130.6994 Y48.6397
X130.8943 Y48.4383
X131.1463 Y48.2167
X131.4384 Y47.9988
X131.8085 Y47.7665
X132.2551 Y47.5338
X132.7822 Y47.311
X133.4626 Y47.0858
X134.1794 Y46.911
X134.9057 Y46.7813
X135.6373 Y46.6858
X136.3718 Y46.6161
X137.1079 Y46.5657
X137.8448 Y46.5297
X138.5822 Y46.5043
X139.3198 Y46.4865
X140.0575 Y46.4742
X140.7953 Y46.4658
X141.5331 Y46.46
X142.2709 Y46.4562
X143.7465 Y46.4519
X145.96 Y46.4495
X149.649 Y46.4492
X150.3868 Y46.4509
X151.1246 Y46.4564
X151.8623 Y46.4703
X152.5996 Y46.4988
X153.3356 Y46.5504
X154.0679 Y46.6406
X154.653 Y46.7594
X155.0248 Y46.8665
X155.317 Y46.9768
X155.5408 Y47.0829
X155.6947 Y47.2006
X155.8129 Y47.3542
X155.8872 Y47.5331
X155.9125 Y47.7252
Y48.9565
G3 X155.3392 Y49.1333 I-0.3173 J-0.0111
G1 X155.2974 Y49.0763 Z-3.992
X155.2577 Y49.0222 Z-3.9686
X155.2221 Y48.9737 Z-3.9307
X155.1924 Y48.9331 Z-3.8805
X155.17 Y48.9026 Z-3.8203
X155.1561 Y48.8837 Z-3.7532
X155.1514 Y48.8773 Z-3.6825
G0 Z5
X130.4711 Y50.9824
Z-3.365
G1 Z-3.6825 F3500
X130.467 Y50.9756 Z-3.7532
X130.455 Y50.9554 Z-3.8203
X130.4357 Y50.9229 Z-3.8805
X130.41 Y50.8797 Z-3.9307
X130.3792 Y50.8279 Z-3.9686
X130.3449 Y50.7702 Z-3.992
X130.3088 Y50.7095 Z-4
G3 X130.0875 Y49.956 I1.3603 J-0.8088
G1 Y48.7825
X130.095 Y48.6327
X130.1231 Y48.4853
X130.165 Y48.3413
X130.2243 Y48.186
X130.3011 Y48.0252
X130.4087 Y47.8398
X130.5342 Y47.6588
X130.7071 Y47.4479
X130.9014 Y47.2463
X131.1647 Y47.0137
X131.4524 Y46.7981
X131.8482 Y46.5484
X132.2794 Y46.3225
X132.8357 Y46.0859
X133.5357 Y45.8525
X134.252 Y45.6759
X134.9777 Y45.5427
X135.7088 Y45.4429
X136.4428 Y45.3687
X137.1786 Y45.3141
X137.9154 Y45.2743
X138.6526 Y45.2456
X139.3901 Y45.2251
X140.1278 Y45.2106
X140.8656 Y45.2004
X141.6033 Y45.1934
X142.3411 Y45.1886
X143.0789 Y45.1853
X144.5546 Y45.1816
X147.5058 Y45.1792
X148.9815 Y45.1793
X149.7193 Y45.1806
X150.4571 Y45.1846
X151.1948 Y45.1943
X151.9324 Y45.214
X152.6693 Y45.2495
X153.4046 Y45.3111
X154.1356 Y45.4113
X154.7181 Y45.5386
X155.073 Y45.6467
X155.3561 Y45.7584
X155.498 Y45.828
X155.6684 Y45.9434
X155.8004 Y46.1013
X155.8839 Y46.2893
X155.9125 Y46.4931
Y47.7252
G3 X155.3392 Y47.902 I-0.3173 J-0.0111
G1 X155.2974 Y47.845 Z-3.992
X155.2577 Y47.7909 Z-3.9686
X155.2221 Y47.7424 Z-3.9307
X155.1924 Y47.7018 Z-3.8805
X155.17 Y47.6713 Z-3.8203
X155.1561 Y47.6524 Z-3.7532
X155.1514 Y47.646 Z-3.6825
G0 Z5
X130.4711 Y49.809
Z-3.365
G1 Z-3.6825 F3500
X130.467 Y49.8021 Z-3.7531
X130.455 Y49.7819 Z-3.8203
X130.4357 Y49.7494 Z-3.8805
X130.41 Y49.7062 Z-3.9307
X130.3792 Y49.6545 Z-3.9686
X130.3449 Y49.5968 Z-3.992
X130.3088 Y49.5361 Z-4
G3 X130.0875 Y48.7825 I1.3603 J-0.8088
G1 Y47.609
X130.095 Y47.4592
X130.1217 Y47.3116
X130.1619 Y47.1671
X130.2205 Y47.0095
X130.2945 Y46.8506
X130.4004 Y46.6641
X130.526 Y46.4793
X130.694 Y46.2703
X130.8887 Y46.0643
X131.1458 Y45.8329
X131.4386 Y45.609
X131.8343 Y45.3541
X132.2624 Y45.1246
X132.825 Y44.879
X133.5227 Y44.639
X134.2373 Y44.4553
X134.9616 Y44.315
X135.6917 Y44.2083
X136.4251 Y44.1278
X137.1604 Y44.0675
X137.8969 Y44.0228
X138.634 Y43.9899
X139.3714 Y43.966
X140.109 Y43.9488
X140.8467 Y43.9366
X141.5845 Y43.9279
X142.3223 Y43.9218
X143.0601 Y43.9176
X144.5357 Y43.9127
X146.7491 Y43.9099
X148.2248 Y43.9094
X148.9626 Y43.9101
X149.7004 Y43.9125
X150.4382 Y43.9186
X151.1759 Y43.9313
X151.9133 Y43.9548
X152.65 Y43.9961
X153.3848 Y44.0633
X154.1152 Y44.1675
X154.6897 Y44.2927
X155.0696 Y44.4081
X155.3404 Y44.5148
X155.4976 Y44.5918
X155.6681 Y44.7072
X155.8003 Y44.865
X155.8839 Y45.0532
X155.9125 Y45.2571
Y46.4931
G3 X155.3392 Y46.6698 I-0.3173 J-0.0111
G1 X155.2974 Y46.6129 Z-3.992
X155.2577 Y46.5588 Z-3.9686
X155.2221 Y46.5102 Z-3.9307
X155.1924 Y46.4697 Z-3.8805
X155.17 Y46.4392 Z-3.8203
X155.1561 Y46.4203 Z-3.7532
X155.1514 Y46.4138 Z-3.6825
G0 Z5
X130.4711 Y48.6355
Z-3.365
G1 Z-3.6825 F3500
X130.467 Y48.6286 Z-3.7531
X130.455 Y48.6085 Z-3.8203
X130.4357 Y48.576 Z-3.8805
X130.41 Y48.5327 Z-3.9307
X130.3792 Y48.481 Z-3.9686
X130.3449 Y48.4233 Z-3.992
X130.3088 Y48.3626 Z-4
G3 X130.0875 Y47.609 I1.3603 J-0.8088
G1 Y46.4356
X130.095 Y46.2857
X130.1191 Y46.1377
X130.1572 Y45.9926
X130.213 Y45.8356
X130.2841 Y45.6774
X130.3861 Y45.4915
X130.5085 Y45.3059
X130.6713 Y45.0974
X130.8623 Y44.8895
X131.1122 Y44.6581
X131.4028 Y44.4294
X131.7877 Y44.1737
X132.2141 Y43.9374
X132.7702 Y43.6852
X133.4611 Y43.4366
X134.1731 Y43.2433
X134.8957 Y43.0941
X135.6245 Y42.9793
X136.3571 Y42.8915
X137.0919 Y42.8247
X137.828 Y42.7745
X138.5648 Y42.7369
X139.3021 Y42.7092
X140.0397 Y42.6889
X140.7773 Y42.6741
X141.5151 Y42.6635
X142.2529 Y42.6559
X142.9907 Y42.6506
X143.7285 Y42.6468
X145.2041 Y42.6424
X147.4175 Y42.6399
X148.1553 Y42.64
X148.8932 Y42.6412
X149.631 Y42.6448
X150.3687 Y42.6526
X151.1064 Y42.6677
X151.8437 Y42.6947
X152.5802 Y42.7394
X153.3147 Y42.809
X154.0452 Y42.9129
X154.633 Y43.0371
X155.0327 Y43.1557
X155.3186 Y43.2662
X155.4934 Y43.3505
X155.6655 Y43.4656
X155.799 Y43.6239
X155.8836 Y43.8129
X155.9125 Y44.0179
Y45.2571
G3 X155.3392 Y45.4338 I-0.3173 J-0.0111
G1 X155.2974 Y45.3768 Z-3.992
X155.2577 Y45.3227 Z-3.9686
X155.2221 Y45.2742 Z-3.9307
X155.1924 Y45.2337 Z-3.8805
X155.17 Y45.2032 Z-3.8203
X155.1561 Y45.1842 Z-3.7532
X155.1514 Y45.1778 Z-3.6825
G0 Z5
X130.4711 Y47.462
Z-3.365
G1 Z-3.6825 F3500
X130.467 Y47.4552 Z-3.7532
X130.455 Y47.435 Z-3.8203
X130.4357 Y47.4025 Z-3.8805
X130.41 Y47.3593 Z-3.9307
X130.3792 Y47.3075 Z-3.9686
X130.3449 Y47.2498 Z-3.992
X130.3088 Y47.1891 Z-4
G3 X130.0875 Y46.4356 I1.3603 J-0.8088
G1 Y45.2621
X130.095 Y45.1123
X130.1158 Y44.9637
X130.1511 Y44.8179
X130.2027 Y44.6639
X130.2701 Y44.5063
X130.3675 Y44.321
X130.4833 Y44.1381
X130.6404 Y43.9291
X130.8236 Y43.7224
X131.0658 Y43.4897
X131.347 Y43.26
X131.7207 Y43.0019
X132.1355 Y42.762
X132.6775 Y42.5042
X133.3478 Y42.2492
X134.0562 Y42.0429
X134.7764 Y41.8825
X135.5036 Y41.7578
X136.235 Y41.6613
X136.9691 Y41.587
X137.7047 Y41.5303
X138.4413 Y41.4874
X139.1784 Y41.4552
X139.9158 Y41.4313
X140.6534 Y41.4136
X141.3911 Y41.4006
X142.1289 Y41.3913
X142.8667 Y41.3845
X143.6045 Y41.3797
X144.3423 Y41.3763
X145.8179 Y41.3723
X147.2935 Y41.3706
X148.0314 Y41.3709
X148.7692 Y41.3726
X149.507 Y41.3771
X150.2447 Y41.3863
X150.9823 Y41.4034
X151.7196 Y41.4323
X152.456 Y41.4782
X153.1906 Y41.5473
X153.9215 Y41.6477
X154.5428 Y41.772
X154.9753 Y41.8952
X155.2838 Y42.0107
X155.5167 Y42.1198
X155.5389 Y42.1325
X155.6936 Y42.2502
X155.8123 Y42.4039
X155.887 Y42.5833
X155.9125 Y42.7759
Y44.0179
G3 X155.3392 Y44.1946 I-0.3173 J-0.0111
G1 X155.2974 Y44.1376 Z-3.992
X155.2577 Y44.0835 Z-3.9686
X155.2221 Y44.035 Z-3.9307
X155.1924 Y43.9945 Z-3.8805
X155.17 Y43.964 Z-3.8203
X155.1561 Y43.945 Z-3.7532
X155.1514 Y43.9386 Z-3.6825
G0 Z5
X130.4711 Y46.2886
Z-3.365
G1 Z-3.6825 F3500
X130.467 Y46.2817 Z-3.7531
X130.455 Y46.2615 Z-3.8203
X130.4357 Y46.229 Z-3.8805
X130.41 Y46.1858 Z-3.9307
X130.3792 Y46.1341 Z-3.9686
X130.3449 Y46.0764 Z-3.992
X130.3088 Y46.0157 Z-4
G3 X130.0875 Y45.2621 I1.3603 J-0.8088
G1 Y44.0132
X130.095 Y43.8634
X130.1201 Y43.7155
X130.1601 Y43.5673
X130.2135 Y43.4186
X130.2913 Y43.2465
X130.3923 Y43.0639
X130.521 Y42.8698
X130.686 Y42.6598
X130.8857 Y42.4439
X131.1439 Y42.206
X131.4479 Y41.9682
X131.8359 Y41.712
X132.3111 Y41.4504
X132.867 Y41.2003
X133.5619 Y40.9525
X134.2738 Y40.7584
X134.9957 Y40.6061
X135.7238 Y40.4866
X136.4557 Y40.3933
X137.1899 Y40.3208
X137.9256 Y40.2649
X138.6622 Y40.2221
X139.3993 Y40.1896
X140.1367 Y40.1652
X140.8743 Y40.1469
X141.612 Y40.1334
X142.3497 Y40.1235
X143.0875 Y40.1163
X143.8253 Y40.1111
X144.5631 Y40.1074
X146.0387 Y40.1029
X147.5143 Y40.1018
X148.2522 Y40.103
X148.99 Y40.1067
X149.7277 Y40.1144
X150.4654 Y40.1285
X151.2029 Y40.1522
X151.9397 Y40.1894
X152.6755 Y40.2447
X153.409 Y40.3238
X154.138 Y40.4376
X154.7355 Y40.5766
X155.0977 Y40.6922
X155.3769 Y40.8067
X155.5069 Y40.8726
X155.6739 Y40.9886
X155.803 Y41.1457
X155.8846 Y41.3319
X155.9125 Y41.5333
Y42.7759
G3 X155.3392 Y42.9527 I-0.3173 J-0.0111
G1 X155.2974 Y42.8957 Z-3.992
X155.2577 Y42.8416 Z-3.9686
X155.2221 Y42.7931 Z-3.9307
X155.1924 Y42.7525 Z-3.8805
X155.17 Y42.722 Z-3.8203
X155.1561 Y42.7031 Z-3.7532
X155.1514 Y42.6967 Z-3.6825
G0 Z5
X130.4711 Y45.0397
Z-3.365
G1 Z-3.6825 F3500
X130.467 Y45.0328 Z-3.7532
X130.455 Y45.0126 Z-3.8203
X130.4357 Y44.9801 Z-3.8805
X130.41 Y44.9369 Z-3.9307
X130.3792 Y44.8852 Z-3.9686
X130.3449 Y44.8275 Z-3.992
X130.3088 Y44.7667 Z-4
G3 X130.0875 Y44.0132 I1.3603 J-0.8088
G1 Y42.8397
X130.095 Y42.6899
X130.1157 Y42.5413
X130.1505 Y42.3954
X130.2032 Y42.2369
X130.2703 Y42.0788
X130.3662 Y41.8954
X130.4858 Y41.7055
X130.6401 Y41.4993
X130.8355 Y41.2778
X131.073 Y41.0486
X131.3683 Y40.8063
X131.7332 Y40.5528
X132.1693 Y40.2993
X132.7254 Y40.0332
X133.4132 Y39.7696
X134.1212 Y39.5618
X134.8405 Y39.3977
X135.5668 Y39.2681
X136.2975 Y39.166
X137.031 Y39.086
X137.7662 Y39.0237
X138.5024 Y38.9754
X139.2393 Y38.9383
X139.9766 Y38.9099
X140.7141 Y38.8884
X141.4517 Y38.8723
X142.1894 Y38.8603
X142.9272 Y38.8515
X143.665 Y38.845
X144.4028 Y38.8402
X145.1406 Y38.8369
X146.6162 Y38.8332
X147.354 Y38.8331
X148.0918 Y38.8346
X148.8297 Y38.8388
X149.5674 Y38.8473
X150.3051 Y38.8623
X151.0425 Y38.8867
X151.7794 Y38.9238
X152.5152 Y38.9779
X153.249 Y39.0548
X153.9788 Y39.1634
X154.5988 Y39.2948
X155.013 Y39.418
X155.3137 Y39.5345
X155.5463 Y39.6471
X155.6981 Y39.765
X155.8145 Y39.918
X155.8876 Y40.0957
X155.9125 Y40.2863
Y41.5333
G3 X155.3392 Y41.71 I-0.3173 J-0.0111
G1 X155.2974 Y41.653 Z-3.992
X155.2577 Y41.5989 Z-3.9686
X155.2221 Y41.5504 Z-3.9307
X155.1924 Y41.5099 Z-3.8805
X155.17 Y41.4794 Z-3.8203
X155.1561 Y41.4604 Z-3.7532
X155.1514 Y41.454 Z-3.6825
G0 Z5
X130.4711 Y43.8662
Z-3.365
G1 Z-3.6825 F3500
X130.467 Y43.8593 Z-3.7531
X130.455 Y43.8392 Z-3.8203
X130.4357 Y43.8066 Z-3.8805
X130.41 Y43.7634 Z-3.9307
X130.3792 Y43.7117 Z-3.9686
X130.3449 Y43.654 Z-3.992
X130.3088 Y43.5933 Z-4
G3 X130.0875 Y42.8397 I1.3603 J-0.8088
G1 Y41.574
X130.095 Y41.4242
X130.1205 Y41.2764
X130.1615 Y41.1259
X130.2163 Y40.9743
X130.2953 Y40.8005
X130.398 Y40.6158
X130.5286 Y40.4196
X130.6986 Y40.2041
X130.9014 Y39.9857
X131.1682 Y39.7409
X131.4777 Y39.4998
X131.8798 Y39.2355
X132.3658 Y38.9692
X132.9433 Y38.7107
X133.6387 Y38.4643
X134.3503 Y38.2692
X135.0716 Y38.1142
X135.7991 Y37.9909
X136.5304 Y37.8931
X137.2641 Y37.8159
X137.9995 Y37.7552
X138.7357 Y37.7078
X139.4726 Y37.671
X140.2099 Y37.6427
X140.9474 Y37.621
X141.685 Y37.6046
X142.4228 Y37.5923
X143.1605 Y37.5831
X143.8983 Y37.5763
X144.6361 Y37.5714
X145.3739 Y37.5679
X146.1117 Y37.5656
X146.8495 Y37.5647
X147.5873 Y37.5655
X148.3251 Y37.5687
X149.0629 Y37.5757
X149.8006 Y37.5881
X150.5382 Y37.6083
X151.2754 Y37.6391
X152.0118 Y37.6838
X152.7469 Y37.7469
X153.4796 Y37.8338
X154.2073 Y37.9556
X154.791 Y38.0989
X155.1399 Y38.2149
X155.4077 Y38.3285
X155.5148 Y38.3845
X155.6788 Y38.501
X155.8053 Y38.6573
X155.8852 Y38.8418
X155.9125 Y39.0411
Y40.2863
G3 X155.3392 Y40.463 I-0.3173 J-0.0111
G1 X155.2974 Y40.406 Z-3.992
X155.2577 Y40.3519 Z-3.9686
X155.2221 Y40.3034 Z-3.9307
X155.1924 Y40.2628 Z-3.8805
X155.17 Y40.2324 Z-3.8203
X155.1561 Y40.2134 Z-3.7532
X155.1514 Y40.207 Z-3.6825
G0 Z5
X130.4711 Y42.6005
Z-3.365
G1 Z-3.6825 F3500
X130.467 Y42.5937 Z-3.7531
X130.455 Y42.5735 Z-3.8203
X130.4357 Y42.541 Z-3.8805
X130.41 Y42.4978 Z-3.9307
X130.3792 Y42.446 Z-3.9686
X130.3449 Y42.3883 Z-3.992
X130.3088 Y42.3276 Z-4
G3 X130.0875 Y41.574 I1.3603 J-0.8088
G1 Y40.4006
X130.095 Y40.2508
X130.1153 Y40.1021
X130.1494 Y39.9561
X130.2014 Y39.7976
X130.269 Y39.6367
X130.3627 Y39.4557
X130.4857 Y39.2589
X130.6366 Y39.0555
X130.8376 Y38.8259
X131.0697 Y38.6002
X131.3757 Y38.3471
X131.7312 Y38.0982
X132.1814 Y37.8342
X132.7462 Y37.5613
X133.4341 Y37.2947
X134.1409 Y37.0831
X134.8592 Y36.9143
X135.5846 Y36.7797
X136.3146 Y36.6723
X137.0474 Y36.5869
X137.7821 Y36.5191
X138.518 Y36.4656
X139.2546 Y36.4236
X139.9917 Y36.3908
X140.7291 Y36.3655
X141.4666 Y36.346
X142.2043 Y36.3312
X142.942 Y36.32
X143.6798 Y36.3116
X144.4176 Y36.3054
X145.1554 Y36.301
X145.8932 Y36.2981
X146.631 Y36.2968
X147.3688 Y36.2974
X148.1066 Y36.3007
X148.8444 Y36.3078
X149.5821 Y36.3202
X150.3197 Y36.3401
X151.0569 Y36.37
X151.7935 Y36.4128
X152.5289 Y36.4725
X153.2621 Y36.5544
X153.9913 Y36.6671
X154.6212 Y36.8043
X155.028 Y36.9278
X155.3272 Y37.0456
X155.4975 Y37.129
X155.6681 Y37.2444
X155.8002 Y37.4022
X155.8839 Y37.5904
X155.9125 Y37.7943
Y39.0411
G3 X155.3392 Y39.2178 I-0.3173 J-0.0111
G1 X155.2974 Y39.1608 Z-3.992
X155.2577 Y39.1067 Z-3.9686
X155.2221 Y39.0582 Z-3.9307
X155.1924 Y39.0177 Z-3.8805
X155.17 Y38.9872 Z-3.8203
X155.1561 Y38.9682 Z-3.7531
X155.1514 Y38.9618 Z-3.6825
G0 Z5
X130.4711 Y41.4271
Z-3.365
G1 Z-3.6825 F3500
X130.467 Y41.4202 Z-3.7532
X130.455 Y41.4 Z-3.8203
X130.4357 Y41.3675 Z-3.8805
X130.41 Y41.3243 Z-3.9307
X130.3792 Y41.2726 Z-3.9686
X130.3449 Y41.2149 Z-3.992
X130.3088 Y41.1541 Z-4
G3 X130.0875 Y40.4006 I1.3603 J-0.8088
G1 Y39.1517
X130.095 Y39.0019
X130.1173 Y38.8535
X130.1543 Y38.7069
X130.2063 Y38.5538
X130.2792 Y38.3851
X130.3781 Y38.1989
X130.4999 Y38.0082
X130.6667 Y37.7882
X130.8567 Y37.5757
X131.1203 Y37.3245
X131.4103 Y37.0896
X131.8105 Y36.8154
X132.2606 Y36.5576
X132.8331 Y36.2882
X133.5237 Y36.0287
X134.2318 Y35.8214
X134.9507 Y35.6552
X135.6763 Y35.5217
X136.4063 Y35.4144
X137.1391 Y35.3284
X137.8737 Y35.2597
X138.6095 Y35.2051
X139.346 Y35.1619
X140.0831 Y35.128
X140.8204 Y35.1016
X141.558 Y35.0811
X142.2956 Y35.0654
X143.0333 Y35.0534
X143.7711 Y35.0443
X144.5089 Y35.0377
X145.2467 Y35.033
X145.9845 Y35.0301
X146.7223 Y35.0292
X147.4601 Y35.0306
X148.1979 Y35.0353
X148.9357 Y35.0443
X149.6733 Y35.0593
X150.4108 Y35.0823
X151.1478 Y35.1155
X151.8842 Y35.1619
X152.6193 Y35.2254
X153.352 Y35.3123
X154.0802 Y35.4307
X154.6928 Y35.573
X155.0873 Y35.6987
X155.3582 Y35.8097
X155.5067 Y35.885
X155.6737 Y36.001
X155.8029 Y36.158
X155.8846 Y36.3443
X155.9125 Y36.5457
Y37.7943
G3 X155.3392 Y37.9711 I-0.3173 J-0.0111
G1 X155.2974 Y37.9141 Z-3.992
X155.2577 Y37.86 Z-3.9686
X155.2221 Y37.8114 Z-3.9307
X155.1924 Y37.7709 Z-3.8805
X155.17 Y37.7404 Z-3.8203
X155.1561 Y37.7215 Z-3.7531
X155.1514 Y37.7151 Z-3.6825
G0 Z5
X130.4711 Y40.1781
Z-3.365
G1 Z-3.6825 F3500
X130.467 Y40.1713 Z-3.7531
X130.455 Y40.1511 Z-3.8203
X130.4357 Y40.1186 Z-3.8805
X130.41 Y40.0754 Z-3.9307
X130.3792 Y40.0237 Z-3.9686
X130.3449 Y39.966 Z-3.992
X130.3088 Y39.9052 Z-4
G3 X130.0875 Y39.1517 I1.3603 J-0.8088
G1 Y37.886
X130.095 Y37.7362
X130.1211 Y37.5885
X130.1623 Y37.4387
X130.2193 Y37.282
X130.298 Y37.1101
X130.4073 Y36.9145
X130.5371 Y36.7206
X130.7162 Y36.4946
X130.9181 Y36.2782
X131.1981 Y36.0226
X131.5051 Y35.7845
X131.9246 Y35.5102
X132.4148 Y35.2431
X133.0253 Y34.9716
X133.7213 Y34.7269
X134.4325 Y34.5305
X135.1532 Y34.3722
X135.8798 Y34.2443
X136.6103 Y34.1409
X137.3434 Y34.0575
X138.0782 Y33.9905
X138.814 Y33.9369
X139.5506 Y33.8942
X140.2877 Y33.8605
X141.025 Y33.834
X141.7625 Y33.8134
X142.5002 Y33.7975
X143.2379 Y33.7852
X143.9756 Y33.776
X144.7134 Y33.7693
X145.4512 Y33.7648
X146.189 Y33.7624
X146.9269
X147.6647 Y33.7654
X148.4025 Y33.7722
X149.1402 Y33.7842
X149.8777 Y33.803
X150.6151 Y33.8304
X151.3519 Y33.8689
X152.0878 Y33.9215
X152.8222 Y33.9925
X153.5539 Y34.087
X154.2801 Y34.2177
X154.8226 Y34.3588
X155.185 Y34.4849
X155.4303 Y34.593
X155.5239 Y34.6435
X155.6843 Y34.7605
X155.808 Y34.9159
X155.8859 Y35.0985
X155.9125 Y35.2953
Y36.5457
G3 X155.3392 Y36.7225 I-0.3173 J-0.0111
G1 X155.2974 Y36.6655 Z-3.992
X155.2577 Y36.6114 Z-3.9686
X155.2221 Y36.5629 Z-3.9307
X155.1924 Y36.5223 Z-3.8805
X155.17 Y36.4918 Z-3.8203
X155.1561 Y36.4729 Z-3.7532
X155.1514 Y36.4665 Z-3.6825
G0 Z5
X130.4711 Y38.9125
Z-3.365
G1 Z-3.6825 F3500
X130.467 Y38.9056 Z-3.7531
X130.455 Y38.8855 Z-3.8203
X130.4357 Y38.8529 Z-3.8805
X130.41 Y38.8097 Z-3.9307
X130.3792 Y38.758 Z-3.9686
X130.3449 Y38.7003 Z-3.992
X130.3088 Y38.6396 Z-4
G3 X130.0875 Y37.886 I1.3603 J-0.8088
G1 Y36.6371
X130.095 Y36.4873
X130.123 Y36.3399
X130.1637 Y36.1956
X130.2259 Y36.0281
X130.3034 Y35.8616
X130.414 Y35.6668
X130.5497 Y35.467
X130.7258 Y35.2477
X130.9432 Y35.0177
X131.2152 Y34.7727
X131.5466 Y34.5192
X131.9723 Y34.2448
X132.459 Y33.9837
X133.0983 Y33.7044
X133.796 Y33.4643
X134.5079 Y33.2706
X135.2288 Y33.1137
X135.9556 Y32.9862
X136.6861 Y32.8827
X137.4191 Y32.7987
X138.1538 Y32.7308
X138.8896 Y32.6762
X139.6261 Y32.6325
X140.3631 Y32.5977
X141.1004 Y32.5702
X141.8379 Y32.5486
X142.5755 Y32.5318
X143.3132 Y32.5189
X144.051 Y32.5091
X144.7887 Y32.5021
X145.5266 Y32.4975
X146.2644 Y32.4953
X147.0022 Y32.496
X147.74 Y32.5001
X148.4777 Y32.5084
X149.2154 Y32.5224
X149.9529 Y32.5434
X150.6902 Y32.5734
X151.4268 Y32.6146
X152.1625 Y32.6702
X152.8966 Y32.7443
X153.6276 Y32.8444
X154.3526 Y32.9811
X154.8713 Y33.1216
X155.2186 Y33.2464
X155.4587 Y33.3552
X155.5305 Y33.3949
X155.6884 Y33.5122
X155.8099 Y33.6669
X155.8864 Y33.8481
X155.9125 Y34.043
Y35.2953
G3 X155.3392 Y35.472 I-0.3173 J-0.0111
G1 X155.2974 Y35.4151 Z-3.992
X155.2577 Y35.361 Z-3.9686
X155.2221 Y35.3124 Z-3.9307
X155.1924 Y35.2719 Z-3.8805
X155.17 Y35.2414 Z-3.8203
X155.1561 Y35.2225 Z-3.7532
X155.1514 Y35.216 Z-3.6825
G0 Z5
X130.4711 Y37.6636
Z-3.365
G1 Z-3.6825 F3500
X130.467 Y37.6567 Z-3.7531
X130.455 Y37.6365 Z-3.8203
X130.4357 Y37.604 Z-3.8805
X130.41 Y37.5608 Z-3.9307
X130.3792 Y37.5091 Z-3.9686
X130.3449 Y37.4514 Z-3.992
X130.3088 Y37.3907 Z-4
G3 X130.0875 Y36.6371 I1.3603 J-0.8088
G1 Y35.4636
X130.095 Y35.3138
X130.1163 Y35.1653
X130.1512 Y35.0195
X130.2031 Y34.8632
X130.2754 Y34.6926
X130.3685 Y34.5145
X130.4991 Y34.307
X130.6497 Y34.1056
X130.8582 Y33.8691
X131.0904 Y33.6448
X131.4158 Y33.3775
X131.7695 Y33.1317
X132.2458 Y32.8546
X132.8359 Y32.572
X133.5248 Y32.3078
X134.2314 Y32.0954
X134.9489 Y31.9236
X135.6734 Y31.784
X136.4024 Y31.6702
X137.1344 Y31.5774
X137.8683 Y31.5018
X138.6035 Y31.4405
X139.3397 Y31.3909
X140.0764 Y31.3511
X140.8136 Y31.3193
X141.5509 Y31.2941
X142.2885 Y31.2743
X143.0262 Y31.2589
X143.7639 Y31.2471
X144.5016 Y31.2384
X145.2394 Y31.2325
X145.9772 Y31.2293
X146.7151 Y31.2291
X147.4529 Y31.2324
X148.1906 Y31.2399
X148.9283 Y31.2527
X149.6659 Y31.2722
X150.4032 Y31.3001
X151.14 Y31.3385
X151.876 Y31.39
X152.6106 Y31.4585
X153.3428 Y31.5497
X154.0706 Y31.6712
X154.6932 Y31.8172
X155.0799 Y31.9414
X155.3675 Y32.0599
X155.5081 Y32.1316
X155.6746 Y32.2477
X155.8034 Y32.4046
X155.8847 Y32.5906
X155.9125 Y32.7916
Y34.043
G3 X155.3392 Y34.2198 I-0.3173 J-0.0111
G1 X155.2974 Y34.1628 Z-3.992
X155.2577 Y34.1087 Z-3.9686
X155.2221 Y34.0602 Z-3.9307
X155.1924 Y34.0196 Z-3.8805
X155.17 Y33.9891 Z-3.8203
X155.1561 Y33.9702 Z-3.7532
X155.1514 Y33.9638 Z-3.6825
G0 Z5
X130.4711 Y36.4901
Z-3.365
G1 Z-3.6825 F3500
X130.467 Y36.4833 Z-3.7532
X130.455 Y36.4631 Z-3.8203
X130.4357 Y36.4306 Z-3.8805
X130.41 Y36.3874 Z-3.9307
X130.3792 Y36.3356 Z-3.9686
X130.3449 Y36.2779 Z-3.992
X130.3088 Y36.2172 Z-4
G3 X130.0875 Y35.4636 I1.3603 J-0.8088
G1 Y34.198
X130.095 Y34.0482
X130.1191 Y33.9001
X130.1583 Y33.7514
X130.2141 Y33.5925
X130.29 Y33.4216
X130.394 Y33.2307
X130.52 Y33.0378
X130.6954 Y32.8115
X130.8929 Y32.5949
X131.1694 Y32.3369
X131.473 Y32.0961
X131.8912 Y31.8159
X132.3695 Y31.5485
X132.978 Y31.2697
X133.6713 Y31.0173
X134.3803 Y30.8132
X135.0992 Y30.6471
X135.8244 Y30.5113
X136.5538 Y30.4001
X137.286 Y30.309
X138.02 Y30.2345
X138.7553 Y30.1738
X139.4915 Y30.1245
X140.2282 Y30.0847
X140.9654 Y30.0528
X141.7027 Y30.0273
X142.4403 Y30.0072
X143.1779 Y29.9916
X143.9156 Y29.9797
X144.6534 Y29.971
X145.3912 Y29.9654
X146.129 Y29.9629
X146.8668 Y29.9637
X147.6046 Y29.9685
X148.3424 Y29.9779
X149.08 Y29.9932
X149.8175 Y30.0156
X150.5547 Y30.0468
X151.2913 Y30.089
X152.027 Y30.1451
X152.7611 Y30.2186
X153.4926 Y30.3152
X154.2188 Y30.4455
X154.7928 Y30.5922
X155.1629 Y30.7191
X155.4149 Y30.8289
X155.5211 Y30.8857
X155.6826 Y31.0025
X155.8072 Y31.1582
X155.8857 Y31.3414
X155.9125 Y31.539
Y32.7916
G3 X155.3392 Y32.9684 I-0.3173 J-0.0111
G1 X155.2974 Y32.9114 Z-3.992
X155.2577 Y32.8573 Z-3.9686
X155.2221 Y32.8088 Z-3.9307
X155.1924 Y32.7682 Z-3.8805
X155.17 Y32.7377 Z-3.8203
X155.1561 Y32.7188 Z-3.7532
X155.1514 Y32.7124 Z-3.6825
G0 Z5
X130.4711 Y35.2244
Z-3.365
G1 Z-3.6825 F3500
X130.467 Y35.2176 Z-3.7532
X130.455 Y35.1974 Z-3.8203
X130.4357 Y35.1649 Z-3.8805
X130.41 Y35.1217 Z-3.9307
X130.3792 Y35.0699 Z-3.9686
X130.3449 Y35.0123 Z-3.992
X130.3088 Y34.9515 Z-4
G3 X130.0875 Y34.198 I1.3603 J-0.8088
G1 Y32.9491
X130.095 Y32.7992
X130.1206 Y32.6514
X130.1594 Y32.5065
X130.2182 Y32.3414
X130.2928 Y32.1757
X130.4002 Y31.9806
X130.5308 Y31.7826
X130.7031 Y31.5624
X130.9129 Y31.3344
X131.1797 Y31.0877
X131.503 Y30.8337
X131.9211 Y30.5563
X132.3988 Y30.292
X133.028 Y30.0073
X133.7224 Y29.758
X134.4319 Y29.5556
X135.1509 Y29.3902
X135.8762 Y29.2545
X136.6055 Y29.1428
X137.3376 Y29.051
X138.0715 Y28.9756
X138.8067 Y28.9139
X139.5428 Y28.8636
X140.2795 Y28.8227
X141.0166 Y28.7898
X141.7539 Y28.7634
X142.4915 Y28.7425
X143.2291 Y28.7261
X143.9668 Y28.7137
X144.7046 Y28.7048
X145.4424 Y28.6992
X146.1802 Y28.697
X146.918 Y28.6984
X147.6558 Y28.7041
X148.3935 Y28.7147
X149.1311 Y28.7314
X149.8686 Y28.7555
X150.6056 Y28.7885
X151.3421 Y28.8327
X152.0777 Y28.8909
X152.8115 Y28.9671
X153.5424 Y29.0676
X154.2678 Y29.2025
X154.8202 Y29.3467
X155.1799 Y29.4722
X155.4302 Y29.5828
X155.5245 Y29.6339
X155.6847 Y29.7509
X155.8082 Y29.9062
X155.8859 Y30.0887
X155.9125 Y30.2853
Y31.539
G3 X155.3392 Y31.7157 I-0.3173 J-0.0111
G1 X155.2974 Y31.6587 Z-3.992
X155.2577 Y31.6046 Z-3.9686
X155.2221 Y31.5561 Z-3.9307
X155.1924 Y31.5156 Z-3.8805
X155.17 Y31.4851 Z-3.8203
X155.1561 Y31.4661 Z-3.7532
X155.1514 Y31.4597 Z-3.6825
G0 Z5
X130.4711 Y33.9755
Z-3.365
G1 Z-3.6825 F3500
X130.467 Y33.9687 Z-3.7531
X130.455 Y33.9485 Z-3.8203
X130.4357 Y33.916 Z-3.8805
X130.41 Y33.8728 Z-3.9307
X130.3792 Y33.821 Z-3.9686
X130.3449 Y33.7634 Z-3.992
X130.3088 Y33.7026 Z-4
G3 X130.0875 Y32.9491 I1.3603 J-0.8088
G1 Y31.7756
X130.0955 Y31.6157
X130.115 Y31.467
X130.1482 Y31.3207
X130.199 Y31.1627
X130.2674 Y30.9968
X130.3596 Y30.8162
X130.4856 Y30.6116
X130.6344 Y30.4085
X130.8381 Y30.1729
X131.0674 Y29.947
X131.3869 Y29.6793
X131.7382 Y29.4302
X132.2061 Y29.1518
X132.791 Y28.8646
X133.4772 Y28.5937
X134.1817 Y28.3744
X134.8974 Y28.1953
X135.6205 Y28.0485
X136.3484 Y27.9276
X137.0794 Y27.8279
X137.8126 Y27.7457
X138.5473 Y27.678
X139.2831 Y27.6224
X140.0195 Y27.5769
X140.7563 Y27.54
X141.4936 Y27.5101
X142.231 Y27.4863
X142.9686 Y27.4674
X143.7062 Y27.453
X144.444 Y27.4423
X145.1818 Y27.4353
X145.9196 Y27.4319
X146.6574 Y27.4323
X147.3952 Y27.4369
X148.1329 Y27.4464
X148.8706 Y27.4618
X149.6081 Y27.4843
X150.3452 Y27.5152
X151.0819 Y27.5567
X151.8177 Y27.6112
X152.552 Y27.6823
X153.284 Y27.7752
X154.0117 Y27.8971
X154.6545 Y28.0452
X155.0568 Y28.1727
X155.3524 Y28.2932
X155.5055 Y28.3705
X155.673 Y28.4864
X155.8026 Y28.6436
X155.8845 Y28.8301
X155.9125 Y29.0318
Y30.2853
G3 X155.3392 Y30.462 I-0.3173 J-0.0111
G1 X155.2974 Y30.4051 Z-3.992
X155.2577 Y30.3509 Z-3.9686
X155.2221 Y30.3024 Z-3.9307
X155.1924 Y30.2619 Z-3.8805
X155.17 Y30.2314 Z-3.8203
X155.1561 Y30.2124 Z-3.7532
X155.1514 Y30.206 Z-3.6825
G0 Z5
X130.4711 Y32.8021
Z-3.365
G1 Z-3.6825 F3500
X130.467 Y32.7952 Z-3.7531
X130.455 Y32.775 Z-3.8203
X130.4357 Y32.7425 Z-3.8805
X130.41 Y32.6993 Z-3.9307
X130.3792 Y32.6476 Z-3.9686
X130.3449 Y32.5899 Z-3.992
X130.3088 Y32.5292 Z-4
G3 X130.0875 Y31.7756 I1.3603 J-0.8088
G1 Y30.5099
X130.095 Y30.3601
X130.1158 Y30.2116
X130.1511 Y30.0657
X130.2024 Y29.9097
X130.2732 Y29.7416
X130.3712 Y29.5526
X130.4901 Y29.3626
X130.6566 Y29.1387
X130.845 Y28.9237
X131.1077 Y28.6685
X131.4003 Y28.4269
X131.8053 Y28.1438
X132.2563 Y27.8796
X132.8467 Y27.5949
X133.5348 Y27.3287
X134.2402 Y27.1124
X134.9564 Y26.9351
X135.6796 Y26.789
X136.4075 Y26.6682
X137.1385 Y26.5683
X137.8716 Y26.4855
X138.6063 Y26.4171
X139.3419 Y26.3607
X140.0783 Y26.3145
X140.8151 Y26.2768
X141.5523 Y26.2462
X142.2897 Y26.2216
X143.0273 Y26.2023
X143.7649 Y26.1874
X144.5027 Y26.1766
X145.2405 Y26.1697
X145.9783 Y26.1665
X146.7161 Y26.1675
X147.4539 Y26.1729
X148.1916 Y26.1836
X148.9292 Y26.2003
X149.6667 Y26.2244
X150.4037 Y26.2571
X151.1403 Y26.3004
X151.8759 Y26.3571
X152.61 Y26.4308
X153.3416 Y26.5266
X154.0686 Y26.6525
X154.6865 Y26.799
X155.0873 Y26.9287
X155.3641 Y27.0436
X155.5097 Y27.1182
X155.6756 Y27.2344
X155.8038 Y27.3912
X155.8848 Y27.5768
X155.9125 Y27.7775
Y29.0318
G3 X155.3392 Y29.2086 I-0.3173 J-0.0111
G1 X155.2974 Y29.1516 Z-3.992
X155.2577 Y29.0975 Z-3.9686
X155.2221 Y29.049 Z-3.9307
X155.1924 Y29.0084 Z-3.8805
X155.17 Y28.9779 Z-3.8203
X155.1561 Y28.959 Z-3.7532
X155.1514 Y28.9526 Z-3.6825
G0 Z5
X130.4711 Y31.5364
Z-3.365
G1 Z-3.6825 F3500
X130.467 Y31.5296 Z-3.7531
X130.455 Y31.5094 Z-3.8203
X130.4357 Y31.4769 Z-3.8805
X130.41 Y31.4336 Z-3.9307
X130.3792 Y31.3819 Z-3.9686
X130.3449 Y31.3242 Z-3.992
X130.3088 Y31.2635 Z-4
G3 X130.0875 Y30.5099 I1.3603 J-0.8088
G1 Y29.261
X130.095 Y29.1112
X130.1167 Y28.9628
X130.1524 Y28.8171
X130.2048 Y28.66
X130.2756 Y28.4935
X130.3779 Y28.2983
X130.4985 Y28.107
