%
(Made in : Autodesk CAM Post Processor)
(G Code optimized for OpenBuilds OX CNC 1000 x 750 with GRBL V0.9j controller)

(Program Name : 1001)
(1 Operation :)
(1 : Pocket2)
(  Tool : Flat End Mill 3 Flutes, Diam = 3.175mm, Len = 20mm)
(  Spindle : RPM = 30000, set router dial to 6)
(  Machining time : 45 sec)

G90 G94
G17
G21

(Operation 1 of 1 : Pocket2)

G53 G0 Z5
G54
S30000 M3
G4 P1.0
X141.837 Y69.1043
Z6
Z-1.6825
G1 Y69.0964 Z-1.7532 F3500
X141.8369 Y69.0729 Z-1.8203
Y69.0351 Z-1.8805
Y68.9848 Z-1.9307
Y68.9246 Z-1.9686
X141.8368 Y68.8575 Z-1.992
Y68.7868 Z-2
X141.8345 Y65.0842
X141.8071 Y19.9167
X141.8148 Y19.8677
X141.8373 Y19.8235
X141.8724 Y19.7883
X141.9166 Y19.7657
X141.9656 Y19.7579
X144.0175 Y19.7545
X144.0667 Y19.7622
X144.1111 Y19.7848
X144.1463 Y19.8201
X144.1688 Y19.8645
X144.1765 Y19.9137
X144.062 Y64.0822
G2 X144.0986 Y65.0818 I13.6988 J-0.0007
G1 X144.0958 Y65.1252
X144.0814 Y65.1661
X144.0564 Y65.2016
X144.0228 Y65.229
X143.983 Y65.2463
X143.94 Y65.2522
X139.6593 Y65.2461
X139.6104 Y65.2383
X139.5662 Y65.2157
X139.5311 Y65.1807
X139.5086 Y65.1365
X139.5008 Y65.0875
X139.4688 Y19.9139
X139.4766 Y19.8648
X139.4991 Y19.8205
X139.5342 Y19.7853
X139.5785 Y19.7628
X139.6276 Y19.755
X146.3532 Y19.7548
X146.4024 Y19.7626
X146.4467 Y19.7852
X146.4818 Y19.8204
X146.5043 Y19.8648
X146.512 Y19.9139
X146.4026 Y64.0821
G2 X146.4472 Y65.0875 I11.3592 J-0.0005
G1 X146.445 Y65.1312
X146.4309 Y65.1727
X146.4061 Y65.2088
X146.3723 Y65.2367
X146.3322 Y65.2543
X146.2888 Y65.2603
X137.3258 Y65.2432
X137.2768 Y65.2354
X137.2327 Y65.2128
X137.1977 Y65.1777
X137.1751 Y65.1336
X137.1674 Y65.0846
X137.131 Y19.9171
X137.1387 Y19.8681
X137.1613 Y19.8238
X137.1964 Y19.7886
X137.2406 Y19.7661
X137.2897 Y19.7583
X148.6891 Y19.755
X148.7383 Y19.7628
X148.7826 Y19.7854
X148.8177 Y19.8207
X148.8402 Y19.865
X148.8479 Y19.9142
X148.7431 Y64.0819
G2 X148.7993 Y65.0866 I9.0201 J-0.0004
G1 X148.798 Y65.131
X148.7845 Y65.1733
X148.7598 Y65.2102
X148.7258 Y65.2388
X148.6853 Y65.2569
X148.6413 Y65.263
X134.9926 Y65.2403
X134.9437 Y65.2325
X134.8995 Y65.2099
X134.8645 Y65.1749
X134.8419 Y65.1307
X134.8342 Y65.0817
X134.7936 Y19.9143
X134.7902 Y16.1662
Y16.0956 Z-1.992
X134.7901 Y16.0285 Z-1.9686
X134.79 Y15.9683 Z-1.9307
Y15.918 Z-1.8805
Y15.8802 Z-1.8203
X134.7899 Y15.8567 Z-1.7532
Y15.8487 Z-1.6825
G0 Z5
X151.1934 Y15.896
Z-1.6825
G1 X151.1933 Y15.9039 Z-1.7532 F3500
Y15.9274 Z-1.8203
X151.1932 Y15.9652 Z-1.8805
X151.1931 Y16.0155 Z-1.9307
X151.193 Y16.0757 Z-1.9686
X151.1928 Y16.1428 Z-1.992
X151.1926 Y16.2135 Z-2
X151.1842 Y19.9144
X151.0837 Y64.0818
G2 X151.1595 Y65.0848 I6.682 J-0.0003
G1 X151.1631 Y65.1345
X151.1395 Y68.8328
X151.139 Y68.9035 Z-1.992
X151.1386 Y68.9706 Z-1.9686
X151.1382 Y69.0308 Z-1.9307
X151.1379 Y69.081 Z-1.8805
X151.1377 Y69.1189 Z-1.8203
X151.1375 Y69.1424 Z-1.7531
Y69.1503 Z-1.6825
G0 Z5
X133.134 Y69.105
Z-1.7142
G1 X133.1329 Y69.098 Z-1.7778 F3500
X133.1296 Y69.0771 Z-1.8382
X133.1243 Y69.0435 Z-1.8924
X133.1172 Y68.9988 Z-1.9377
X133.1087 Y68.9453 Z-1.9717
X133.0993 Y68.8856 Z-1.9928
X133.0893 Y68.8228 Z-2
X132.5051 Y65.1347
X132.5012 Y65.085
X132.4566 Y19.9176
X132.4604 Y19.8679
X133.0585 Y16.0674
X133.0695 Y15.9976 Z-1.992
X133.0799 Y15.9313 Z-1.9686
X133.0893 Y15.8719 Z-1.9307
X133.0971 Y15.8222 Z-1.8805
X133.103 Y15.7848 Z-1.8203
X133.1066 Y15.7616 Z-1.7532
X133.1079 Y15.7538 Z-1.6825
G0 Z5
X152.8882 Y15.8963
Z-1.7142
G1 X152.8893 Y15.9034 Z-1.7778 F3500
X152.8926 Y15.9243 Z-1.8382
X152.8979 Y15.9579 Z-1.8924
X152.905 Y16.0026 Z-1.9377
X152.9135 Y16.0561 Z-1.9717
X152.9229 Y16.1157 Z-1.9928
X152.9329 Y16.1785 Z-2
X153.5169 Y19.865
X153.5208 Y19.9147
X153.4243 Y64.0817
G2 X153.5418 Y65.0855 I4.3464 J-0.0002
G1 X153.5495 Y65.1347
X153.5494 Y65.1845
X153.2539 Y68.8214
X153.2482 Y68.8918 Z-1.992
X153.2428 Y68.9587 Z-1.9686
X153.2379 Y69.0187 Z-1.9307
X153.2338 Y69.0688 Z-1.8805
X153.2308 Y69.1065 Z-1.8203
X153.2289 Y69.1299 Z-1.7532
X153.2282 Y69.1378 Z-1.6825
G0 Z5
X133.104 Y71.0863
Z-1.7778
G1 X133.1005 Y71.0796 Z-1.8353 F3500
X133.0905 Y71.0598 Z-1.8889
X133.0744 Y71.0283 Z-1.9349
X133.0535 Y70.9873 Z-1.9702
X133.0292 Y70.9396 Z-1.9924
X133.0031 Y70.8883 Z-2
X130.1206 Y65.2315
G3 X130.086 Y65.0874 I0.2829 J-0.1441
G1 X130.0849 Y19.9137
G3 X130.1455 Y19.7271 I0.3175
G1 X132.9317 Y15.8921
X132.9732 Y15.8349 Z-1.992
X133.0126 Y15.7807 Z-1.9686
X133.048 Y15.732 Z-1.9307
X133.0776 Y15.6913 Z-1.8805
X133.0998 Y15.6607 Z-1.8203
X133.1136 Y15.6417 Z-1.7532
X133.1183 Y15.6352 Z-1.6825
G0 Z5
X152.8962 Y13.9213
Z-1.7778
G1 X152.8997 Y13.928 Z-1.8353 F3500
X152.9097 Y13.9478 Z-1.8889
X152.9258 Y13.9793 Z-1.9349
X152.9467 Y14.0203 Z-1.9702
X152.971 Y14.068 Z-1.9924
X152.9971 Y14.1193 Z-2
X155.879 Y19.7745
G3 X155.9136 Y19.9186 I-0.2829 J0.1442
G1 X155.9157 Y64.0816
G2 X155.9294 Y64.2501 I1.0437
G1 X155.9576 Y64.4228
G2 X156.0024 Y64.5986 I1.0301 J-0.1685
G1 X156.0643 Y64.7757
G2 X156.1447 Y64.9517 I0.9854 J-0.3443
G1 X156.2223 Y65.0866
X156.2391 Y65.129
X156.2432 Y65.1744
X156.2342 Y65.2191
X156.2129 Y65.2593
X156.181 Y65.2919
X156.1412 Y65.3141
X156.0968 Y65.3241
X142.006 Y66.3983
X141.9627 Y66.3956
X141.9217 Y66.3813
X141.8861 Y66.3565
X141.8586 Y66.3229
X141.8412 Y66.2831
X141.8352 Y66.2401
Y66.1694 Z-2.008
X141.8351 Y66.1023 Z-2.0314
Y66.0421 Z-2.0693
Y65.9918 Z-2.1195
Y65.954 Z-2.1797
X141.835 Y65.9305 Z-2.2469
Y65.9226 Z-2.3175
Z-3.6825
Y65.9146 Z-3.7532
Y65.8911 Z-3.8203
Y65.8533 Z-3.8805
Y65.803 Z-3.9307
X141.8349 Y65.7428 Z-3.9686
Y65.6757 Z-3.992
X141.8348 Y65.6051 Z-4
X141.8345 Y65.0842
X141.8071 Y19.9167
X141.8148 Y19.8677
X141.8373 Y19.8235
X141.8724 Y19.7883
X141.9166 Y19.7657
X141.9656 Y19.7579
X144.0175 Y19.7545
X144.0667 Y19.7622
X144.1111 Y19.7848
X144.1463 Y19.8201
X144.1688 Y19.8645
X144.1765 Y19.9137
X144.062 Y64.0822
G2 X144.0986 Y65.0818 I13.6988 J-0.0007
G1 X144.0958 Y65.1252
X144.0814 Y65.1661
X144.0564 Y65.2016
X144.0228 Y65.229
X143.983 Y65.2463
X143.94 Y65.2522
X139.6593 Y65.2461
X139.6104 Y65.2383
X139.5662 Y65.2157
X139.5311 Y65.1807
X139.5086 Y65.1365
X139.5008 Y65.0875
X139.4688 Y19.9139
X139.4766 Y19.8648
X139.4991 Y19.8205
X139.5342 Y19.7853
X139.5785 Y19.7628
X139.6276 Y19.755
X146.3532 Y19.7548
X146.4024 Y19.7626
X146.4467 Y19.7852
X146.4818 Y19.8204
X146.5043 Y19.8648
X146.512 Y19.9139
X146.4026 Y64.0821
G2 X146.4472 Y65.0875 I11.3592 J-0.0005
G1 X146.445 Y65.1312
X146.4309 Y65.1727
X146.4061 Y65.2088
X146.3723 Y65.2367
X146.3322 Y65.2543
X146.2888 Y65.2603
X137.3258 Y65.2432
X137.2768 Y65.2354
X137.2327 Y65.2128
X137.1977 Y65.1777
X137.1751 Y65.1336
X137.1674 Y65.0846
X137.131 Y19.9171
X137.1387 Y19.8681
X137.1613 Y19.8238
X137.1964 Y19.7886
X137.2406 Y19.7661
X137.2897 Y19.7583
X148.6891 Y19.755
X148.7383 Y19.7628
X148.7826 Y19.7854
X148.8177 Y19.8207
X148.8402 Y19.865
X148.8479 Y19.9142
X148.7431 Y64.0819
G2 X148.7993 Y65.0866 I9.0201 J-0.0004
G1 X148.798 Y65.131
X148.7845 Y65.1733
X148.7598 Y65.2102
X148.7258 Y65.2388
X148.6853 Y65.2569
X148.6413 Y65.263
X134.9926 Y65.2403
X134.9437 Y65.2325
X134.8995 Y65.2099
X134.8645 Y65.1749
X134.8419 Y65.1307
X134.8342 Y65.0817
X134.7936 Y19.9143
X134.7902 Y16.1662
Y16.0956 Z-3.992
X134.7901 Y16.0285 Z-3.9686
X134.79 Y15.9683 Z-3.9307
Y15.918 Z-3.8805
Y15.8802 Z-3.8203
X134.7899 Y15.8567 Z-3.7532
Y15.8487 Z-3.6825
G0 Z5
X151.1934 Y15.896
Z-3.6825
G1 X151.1933 Y15.9039 Z-3.7532 F3500
Y15.9274 Z-3.8203
X151.1932 Y15.9652 Z-3.8805
X151.1931 Y16.0155 Z-3.9307
X151.193 Y16.0757 Z-3.9686
X151.1928 Y16.1428 Z-3.992
X151.1926 Y16.2135 Z-4
X151.1842 Y19.9144
X151.0837 Y64.0818
G2 X151.1595 Y65.0848 I6.682 J-0.0003
G1 X151.1631 Y65.1345
X151.1395 Y68.8328
X151.139 Y68.9035 Z-3.992
X151.1386 Y68.9706 Z-3.9686
X151.1382 Y69.0308 Z-3.9307
X151.1379 Y69.081 Z-3.8805
X151.1377 Y69.1189 Z-3.8203
X151.1375 Y69.1424 Z-3.7531
Y69.1503 Z-3.6825
G0 Z5
X133.134 Y69.105
Z-3.7143
G1 X133.1329 Y69.098 Z-3.7778 F3500
X133.1296 Y69.0771 Z-3.8382
X133.1243 Y69.0435 Z-3.8924
X133.1172 Y68.9988 Z-3.9377
X133.1087 Y68.9453 Z-3.9717
X133.0993 Y68.8856 Z-3.9928
X133.0893 Y68.8228 Z-4
X132.5051 Y65.1347
X132.5012 Y65.085
X132.4566 Y19.9176
X132.4604 Y19.8679
X133.0585 Y16.0674
X133.0695 Y15.9976 Z-3.992
X133.0799 Y15.9313 Z-3.9686
X133.0893 Y15.8719 Z-3.9307
X133.0971 Y15.8222 Z-3.8805
X133.103 Y15.7848 Z-3.8203
X133.1066 Y15.7616 Z-3.7532
X133.1079 Y15.7538 Z-3.6825
G0 Z5
X152.8882 Y15.8963
Z-3.7143
G1 X152.8893 Y15.9034 Z-3.7778 F3500
X152.8926 Y15.9243 Z-3.8382
X152.8979 Y15.9579 Z-3.8924
X152.905 Y16.0026 Z-3.9377
X152.9135 Y16.0561 Z-3.9717
X152.9229 Y16.1157 Z-3.9928
X152.9329 Y16.1785 Z-4
X153.5169 Y19.865
X153.5208 Y19.9147
X153.4243 Y64.0817
G2 X153.5418 Y65.0855 I4.3464 J-0.0002
G1 X153.5495 Y65.1347
X153.5494 Y65.1845
X153.2539 Y68.8214
X153.2482 Y68.8918 Z-3.992
X153.2428 Y68.9587 Z-3.9686
X153.2379 Y69.0187 Z-3.9307
X153.2338 Y69.0688 Z-3.8805
X153.2308 Y69.1065 Z-3.8203
X153.2289 Y69.1299 Z-3.7532
X153.2282 Y69.1378 Z-3.6825
G0 Z5
X133.104 Y71.0863
Z-3.7778
G1 X133.1005 Y71.0796 Z-3.8353 F3500
X133.0905 Y71.0598 Z-3.8889
X133.0744 Y71.0283 Z-3.9349
X133.0535 Y70.9873 Z-3.9702
X133.0292 Y70.9396 Z-3.9924
X133.0031 Y70.8883 Z-4
X130.1206 Y65.2315
G3 X130.086 Y65.0874 I0.2829 J-0.1441
G1 X130.0849 Y19.9137
G3 X130.1455 Y19.7271 I0.3175
G1 X132.9317 Y15.8921
X132.9732 Y15.8349 Z-3.992
X133.0126 Y15.7807 Z-3.9686
X133.048 Y15.732 Z-3.9307
X133.0776 Y15.6913 Z-3.8805
X133.0998 Y15.6607 Z-3.8203
X133.1136 Y15.6417 Z-3.7532
X133.1183 Y15.6352 Z-3.6825
G0 Z5
X152.8962 Y13.9213
Z-3.7778
G1 X152.8997 Y13.928 Z-3.8353 F3500
X152.9097 Y13.9478 Z-3.8889
X152.9258 Y13.9793 Z-3.9349
X152.9467 Y14.0203 Z-3.9702
X152.971 Y14.068 Z-3.9924
X152.9971 Y14.1193 Z-4
X155.879 Y19.7745
G3 X155.9136 Y19.9186 I-0.2829 J0.1442
G1 X155.9157 Y64.0816
G2 X155.9294 Y64.2501 I1.0437
G1 X155.9576 Y64.4228
G2 X156.0024 Y64.5986 I1.0301 J-0.1685
G1 X156.0643 Y64.7757
G2 X156.1447 Y64.9517 I0.9854 J-0.3443
G1 X156.2223 Y65.0866
X156.2391 Y65.129
X156.2432 Y65.1744
X156.2342 Y65.2191
X156.2129 Y65.2593
X156.181 Y65.2919
X156.1412 Y65.3141
X156.0968 Y65.3241
X142.006 Y66.3983
X141.9627 Y66.3956
X141.9217 Y66.3813
X141.8861 Y66.3565
X141.8586 Y66.3229
X141.8412 Y66.2831
X141.8352 Y66.2401
Y66.1694 Z-4.008
X141.8351 Y66.1023 Z-4.0314
Y66.0421 Z-4.0693
Y65.9918 Z-4.1195
Y65.954 Z-4.1797
X141.835 Y65.9305 Z-4.2469
Y65.9226 Z-4.3175
Z-5.6825
Y65.9146 Z-5.7532
Y65.8911 Z-5.8203
Y65.8533 Z-5.8805
Y65.803 Z-5.9307
X141.8349 Y65.7428 Z-5.9686
Y65.6757 Z-5.992
X141.8348 Y65.6051 Z-6
X141.8345 Y65.0842
X141.8071 Y19.9167
X141.8148 Y19.8677
X141.8373 Y19.8235
X141.8724 Y19.7883
X141.9166 Y19.7657
X141.9656 Y19.7579
X144.0175 Y19.7545
X144.0667 Y19.7622
X144.1111 Y19.7848
X144.1463 Y19.8201
X144.1688 Y19.8645
X144.1765 Y19.9137
X144.062 Y64.0822
G2 X144.0986 Y65.0818 I13.6988 J-0.0007
G1 X144.0958 Y65.1252
X144.0814 Y65.1661
X144.0564 Y65.2016
X144.0228 Y65.229
X143.983 Y65.2463
X143.94 Y65.2522
X139.6593 Y65.2461
X139.6104 Y65.2383
X139.5662 Y65.2157
X139.5311 Y65.1807
X139.5086 Y65.1365
X139.5008 Y65.0875
X139.4688 Y19.9139
X139.4766 Y19.8648
X139.4991 Y19.8205
X139.5342 Y19.7853
X139.5785 Y19.7628
X139.6276 Y19.755
X146.3532 Y19.7548
X146.4024 Y19.7626
X146.4467 Y19.7852
X146.4818 Y19.8204
X146.5043 Y19.8648
X146.512 Y19.9139
X146.4026 Y64.0821
G2 X146.4472 Y65.0875 I11.3592 J-0.0005
G1 X146.445 Y65.1312
X146.4309 Y65.1727
X146.4061 Y65.2088
X146.3723 Y65.2367
X146.3322 Y65.2543
X146.2888 Y65.2603
X137.3258 Y65.2432
X137.2768 Y65.2354
X137.2327 Y65.2128
X137.1977 Y65.1777
X137.1751 Y65.1336
X137.1674 Y65.0846
X137.131 Y19.9171
X137.1387 Y19.8681
X137.1613 Y19.8238
X137.1964 Y19.7886
X137.2406 Y19.7661
X137.2897 Y19.7583
X148.6891 Y19.755
X148.7383 Y19.7628
X148.7826 Y19.7854
X148.8177 Y19.8207
X148.8402 Y19.865
X148.8479 Y19.9142
X148.7431 Y64.0819
G2 X148.7993 Y65.0866 I9.0201 J-0.0004
G1 X148.798 Y65.131
X148.7845 Y65.1733
X148.7598 Y65.2102
X148.7258 Y65.2388
X148.6853 Y65.2569
X148.6413 Y65.263
X134.9926 Y65.2403
X134.9437 Y65.2325
X134.8995 Y65.2099
X134.8645 Y65.1749
X134.8419 Y65.1307
X134.8342 Y65.0817
X134.7936 Y19.9143
X134.7902 Y16.1662
Y16.0956 Z-5.992
X134.7901 Y16.0285 Z-5.9686
X134.79 Y15.9683 Z-5.9307
Y15.918 Z-5.8805
Y15.8802 Z-5.8203
X134.7899 Y15.8567 Z-5.7532
Y15.8487 Z-5.6825
G0 Z5
X151.1934 Y15.896
Z-5.6825
G1 X151.1933 Y15.9039 Z-5.7532 F3500
Y15.9274 Z-5.8203
X151.1932 Y15.9652 Z-5.8805
X151.1931 Y16.0155 Z-5.9307
X151.193 Y16.0757 Z-5.9686
X151.1928 Y16.1428 Z-5.992
X151.1926 Y16.2135 Z-6
X151.1842 Y19.9144
X151.0837 Y64.0818
G2 X151.1595 Y65.0848 I6.682 J-0.0003
G1 X151.1631 Y65.1345
X151.1395 Y68.8328
X151.139 Y68.9035 Z-5.992
X151.1386 Y68.9706 Z-5.9686
X151.1382 Y69.0308 Z-5.9307
X151.1379 Y69.081 Z-5.8805
X151.1377 Y69.1189 Z-5.8203
X151.1375 Y69.1424 Z-5.7531
Y69.1503 Z-5.6825
G0 Z5
X133.134 Y69.105
Z-5.7143
G1 X133.1329 Y69.098 Z-5.7778 F3500
X133.1296 Y69.0771 Z-5.8382
X133.1243 Y69.0435 Z-5.8924
X133.1172 Y68.9988 Z-5.9377
X133.1087 Y68.9453 Z-5.9717
X133.0993 Y68.8856 Z-5.9928
X133.0893 Y68.8228 Z-6
X132.5051 Y65.1347
X132.5012 Y65.085
X132.4566 Y19.9176
X132.4604 Y19.8679
X133.0585 Y16.0674
X133.0695 Y15.9976 Z-5.992
X133.0799 Y15.9313 Z-5.9686
X133.0893 Y15.8719 Z-5.9307
X133.0971 Y15.8222 Z-5.8805
X133.103 Y15.7848 Z-5.8203
X133.1066 Y15.7616 Z-5.7532
X133.1079 Y15.7538 Z-5.6825
G0 Z5
X152.8882 Y15.8963
Z-5.7143
G1 X152.8893 Y15.9034 Z-5.7778 F3500
X152.8926 Y15.9243 Z-5.8382
X152.8979 Y15.9579 Z-5.8924
X152.905 Y16.0026 Z-5.9377
X152.9135 Y16.0561 Z-5.9717
X152.9229 Y16.1157 Z-5.9928
X152.9329 Y16.1785 Z-6
X153.5169 Y19.865
X153.5208 Y19.9147
X153.4243 Y64.0817
G2 X153.5418 Y65.0855 I4.3464 J-0.0002
G1 X153.5495 Y65.1347
X153.5494 Y65.1845
X153.2539 Y68.8214
X153.2482 Y68.8918 Z-5.992
X153.2428 Y68.9587 Z-5.9686
X153.2379 Y69.0187 Z-5.9307
X153.2338 Y69.0688 Z-5.8805
X153.2308 Y69.1065 Z-5.8203
X153.2289 Y69.1299 Z-5.7532
X153.2282 Y69.1378 Z-5.6825
G0 Z5
X133.104 Y71.0863
Z-5.7778
G1 X133.1005 Y71.0796 Z-5.8353 F3500
X133.0905 Y71.0598 Z-5.8889
X133.0744 Y71.0283 Z-5.9349
X133.0535 Y70.9873 Z-5.9702
X133.0292 Y70.9396 Z-5.9924
X133.0031 Y70.8883 Z-6
X130.1206 Y65.2315
G3 X130.086 Y65.0874 I0.2829 J-0.1441
G1 X130.0849 Y19.9137
G3 X130.1455 Y19.7271 I0.3175
G1 X132.9317 Y15.8921
X132.9732 Y15.8349 Z-5.992
X133.0126 Y15.7807 Z-5.9686
X133.048 Y15.732 Z-5.9307
X133.0776 Y15.6913 Z-5.8805
X133.0998 Y15.6607 Z-5.8203
X133.1136 Y15.6417 Z-5.7532
X133.1183 Y15.6352 Z-5.6825
G0 Z5
X152.8962 Y13.9213
Z-5.7778
G1 X152.8997 Y13.928 Z-5.8353 F3500
X152.9097 Y13.9478 Z-5.8889
X152.9258 Y13.9793 Z-5.9349
X152.9467 Y14.0203 Z-5.9702
X152.971 Y14.068 Z-5.9924
X152.9971 Y14.1193 Z-6
X155.879 Y19.7745
G3 X155.9136 Y19.9186 I-0.2829 J0.1442
G1 X155.9157 Y64.0816
G2 X155.9294 Y64.2501 I1.0437
G1 X155.9576 Y64.4228
G2 X156.0024 Y64.5986 I1.0301 J-0.1685
G1 X156.0643 Y64.7757
G2 X156.1447 Y64.9517 I0.9854 J-0.3443
G1 X156.2223 Y65.0866
X156.2391 Y65.129
X156.2432 Y65.1744
X156.2342 Y65.2191
X156.2129 Y65.2593
X156.181 Y65.2919
X156.1412 Y65.3141
X156.0968 Y65.3241
X142.006 Y66.3983
X141.9627 Y66.3956
X141.9217 Y66.3813
X141.8861 Y66.3565
X141.8586 Y66.3229
X141.8412 Y66.2831
X141.8352 Y66.2401
Y66.1694 Z-6.008
X141.8351 Y66.1023 Z-6.0314
Y66.0421 Z-6.0693
Y65.9918 Z-6.1195
Y65.954 Z-6.1797
X141.835 Y65.9305 Z-6.2469
Y65.9226 Z-6.3175
Z-7.6825
Y65.9146 Z-7.7532
Y65.8911 Z-7.8203
Y65.8533 Z-7.8805
Y65.803 Z-7.9307
X141.8349 Y65.7428 Z-7.9686
Y65.6757 Z-7.992
X141.8348 Y65.6051 Z-8
X141.8345 Y65.0842
X141.8071 Y19.9167
X141.8148 Y19.8677
X141.8373 Y19.8235
X141.8724 Y19.7883
X141.9166 Y19.7657
X141.9656 Y19.7579
X144.0175 Y19.7545
X144.0667 Y19.7622
X144.1111 Y19.7848
X144.1463 Y19.8201
X144.1688 Y19.8645
X144.1765 Y19.9137
X144.062 Y64.0822
G2 X144.0986 Y65.0818 I13.6988 J-0.0007
G1 X144.0958 Y65.1252
X144.0814 Y65.1661
X144.0564 Y65.2016
X144.0228 Y65.229
X143.983 Y65.2463
X143.94 Y65.2522
X139.6593 Y65.2461
X139.6104 Y65.2383
X139.5662 Y65.2157
X139.5311 Y65.1807
X139.5086 Y65.1365
X139.5008 Y65.0875
X139.4688 Y19.9139
X139.4766 Y19.8648
X139.4991 Y19.8205
X139.5342 Y19.7853
X139.5785 Y19.7628
X139.6276 Y19.755
X146.3532 Y19.7548
X146.4024 Y19.7626
X146.4467 Y19.7852
X146.4818 Y19.8204
X146.5043 Y19.8648
X146.512 Y19.9139
X146.4026 Y64.0821
G2 X146.4472 Y65.0875 I11.3592 J-0.0005
G1 X146.445 Y65.1312
X146.4309 Y65.1727
X146.4061 Y65.2088
X146.3723 Y65.2367
X146.3322 Y65.2543
X146.2888 Y65.2603
X137.3258 Y65.2432
X137.2768 Y65.2354
X137.2327 Y65.2128
X137.1977 Y65.1777
X137.1751 Y65.1336
X137.1674 Y65.0846
X137.131 Y19.9171
X137.1387 Y19.8681
X137.1613 Y19.8238
X137.1964 Y19.7886
X137.2406 Y19.7661
X137.2897 Y19.7583
X148.6891 Y19.755
X148.7383 Y19.7628
X148.7826 Y19.7854
X148.8177 Y19.8207
X148.8402 Y19.865
X148.8479 Y19.9142
X148.7431 Y64.0819
G2 X148.7993 Y65.0866 I9.0201 J-0.0004
G1 X148.798 Y65.131
X148.7845 Y65.1733
X148.7598 Y65.2102
X148.7258 Y65.2388
X148.6853 Y65.2569
X148.6413 Y65.263
X134.9926 Y65.2403
X134.9437 Y65.2325
X134.8995 Y65.2099
X134.8645 Y65.1749
X134.8419 Y65.1307
X134.8342 Y65.0817
X134.7936 Y19.9143
X134.7902 Y16.1662
Y16.0956 Z-7.992
X134.7901 Y16.0285 Z-7.9686
X134.79 Y15.9683 Z-7.9307
Y15.918 Z-7.8805
Y15.8802 Z-7.8203
X134.7899 Y15.8567 Z-7.7532
Y15.8487 Z-7.6825
G0 Z5
X151.1934 Y15.896
Z-7.6825
G1 X151.1933 Y15.9039 Z-7.7532 F3500
Y15.9274 Z-7.8203
X151.1932 Y15.9652 Z-7.8805
X151.1931 Y16.0155 Z-7.9307
X151.193 Y16.0757 Z-7.9686
X151.1928 Y16.1428 Z-7.992
X151.1926 Y16.2135 Z-8
X151.1842 Y19.9144
X151.0837 Y64.0818
G2 X151.1595 Y65.0848 I6.682 J-0.0003
G1 X151.1631 Y65.1345
X151.1395 Y68.8328
X151.139 Y68.9035 Z-7.992
X151.1386 Y68.9706 Z-7.9686
X151.1382 Y69.0308 Z-7.9307
X151.1379 Y69.081 Z-7.8805
X151.1377 Y69.1189 Z-7.8203
X151.1375 Y69.1424 Z-7.7531
Y69.1503 Z-7.6825
G0 Z5
X133.134 Y69.105
Z-7.7143
G1 X133.1329 Y69.098 Z-7.7778 F3500
X133.1296 Y69.0771 Z-7.8382
X133.1243 Y69.0435 Z-7.8924
X133.1172 Y68.9988 Z-7.9377
X133.1087 Y68.9453 Z-7.9717
X133.0993 Y68.8856 Z-7.9928
X133.0893 Y68.8228 Z-8
X132.5051 Y65.1347
X132.5012 Y65.085
X132.4566 Y19.9176
X132.4604 Y19.8679
X133.0585 Y16.0674
X133.0695 Y15.9976 Z-7.992
X133.0799 Y15.9313 Z-7.9686
X133.0893 Y15.8719 Z-7.9307
X133.0971 Y15.8222 Z-7.8805
X133.103 Y15.7848 Z-7.8203
X133.1066 Y15.7616 Z-7.7532
X133.1079 Y15.7538 Z-7.6825
G0 Z5
X152.8882 Y15.8963
Z-7.7143
G1 X152.8893 Y15.9034 Z-7.7778 F3500
X152.8926 Y15.9243 Z-7.8382
X152.8979 Y15.9579 Z-7.8924
X152.905 Y16.0026 Z-7.9377
X152.9135 Y16.0561 Z-7.9717
X152.9229 Y16.1157 Z-7.9928
X152.9329 Y16.1785 Z-8
X153.5169 Y19.865
X153.5208 Y19.9147
X153.4243 Y64.0817
G2 X153.5418 Y65.0855 I4.3464 J-0.0002
G1 X153.5495 Y65.1347
X153.5494 Y65.1845
X153.2539 Y68.8214
X153.2482 Y68.8918 Z-7.992
X153.2428 Y68.9587 Z-7.9686
X153.2379 Y69.0187 Z-7.9307
X153.2338 Y69.0688 Z-7.8805
X153.2308 Y69.1065 Z-7.8203
X153.2289 Y69.1299 Z-7.7532
X153.2282 Y69.1378 Z-7.6825
G0 Z5
X133.104 Y71.0863
Z-7.7778
G1 X133.1005 Y71.0796 Z-7.8353 F3500
X133.0905 Y71.0598 Z-7.8889
X133.0744 Y71.0283 Z-7.9349
X133.0535 Y70.9873 Z-7.9702
X133.0292 Y70.9396 Z-7.9924
X133.0031 Y70.8883 Z-8
X130.1206 Y65.2315
G3 X130.086 Y65.0874 I0.2829 J-0.1441
G1 X130.0849 Y19.9137
G3 X130.1455 Y19.7271 I0.3175
G1 X132.9317 Y15.8921
X132.9732 Y15.8349 Z-7.992
X133.0126 Y15.7807 Z-7.9686
X133.048 Y15.732 Z-7.9307
X133.0776 Y15.6913 Z-7.8805
X133.0998 Y15.6607 Z-7.8203
X133.1136 Y15.6417 Z-7.7532
X133.1183 Y15.6352 Z-7.6825
G0 Z5
X152.8962 Y13.9213
Z-7.7778
G1 X152.8997 Y13.928 Z-7.8353 F3500
X152.9097 Y13.9478 Z-7.8889
X152.9258 Y13.9793 Z-7.9349
X152.9467 Y14.0203 Z-7.9702
X152.971 Y14.068 Z-7.9924
X152.9971 Y14.1193 Z-8
X155.879 Y19.7745
G3 X155.9136 Y19.9186 I-0.2829 J0.1442
G1 X155.9157 Y64.0816
G2 X155.9294 Y64.2501 I1.0437
G1 X155.9576 Y64.4228
G2 X156.0024 Y64.5986 I1.0301 J-0.1685
G1 X156.0643 Y64.7757
G2 X156.1447 Y64.9517 I0.9854 J-0.3443
G1 X156.2223 Y65.0866
G3 X156.2628 Y65.2786 I-0.2753 J0.1582
G1 X155.8852 Y68.8081
X155.8777 Y68.8784 Z-7.992
X155.8706 Y68.9451 Z-7.9686
X155.8642 Y69.005 Z-7.9307
X155.8588 Y69.055 Z-7.8805
X155.8548 Y69.0926 Z-7.8203
X155.8523 Y69.1159 Z-7.7531
X155.8514 Y69.1238 Z-7.6825
G0 Z6

G53 Z5
M5
G4 P1.0
G53 X0 Y0
M30
%
