%
(Made in : Autodesk CAM Post Processor)
(G Code optimized for OpenBuilds OX CNC 1000 x 750 with GRBL V0.9j controller)

(Program Name : 1001)
(1 Operation :)
(1 : Pocket2)
(  Tool : Flat End Mill 3 Flutes, Diam = 3.175mm, Len = 20mm)
(  Spindle : RPM = 30000, set router dial to 6)
(  Machining time : 44 sec)

G90 G94
G17
G21

(Operation 1 of 1 : Pocket2)

G53 G0 Z5
G54
S30000 M3
G4 P1.0
X174.8715 Y69.1038
Z6
Z-1.6825
G1 Y69.0959 Z-1.7532 F3500
X174.8714 Y69.0724 Z-1.8203
Y69.0346 Z-1.8805
X174.8713 Y68.9843 Z-1.9307
Y68.9241 Z-1.9686
X174.8712 Y68.857 Z-1.992
X174.8711 Y68.7863 Z-2
X174.8666 Y65.0837
X174.8119 Y20.4165
X174.8196 Y20.3675
X174.8421 Y20.3232
X174.8772 Y20.288
X174.9214 Y20.2654
X174.9705 Y20.2576
X177.0182 Y20.2548
X177.0674 Y20.2626
X177.1118 Y20.2852
X177.147 Y20.3204
X177.1695 Y20.3648
X177.1772 Y20.414
X177.0619 Y64.0816
G2 X177.0989 Y65.0874 I13.6968
G1 X177.0961 Y65.1308
X177.0817 Y65.1718
X177.0567 Y65.2073
X177.023 Y65.2348
X176.9831 Y65.252
X176.94 Y65.2578
X172.6856 Y65.2422
X172.6367 Y65.2343
X172.5927 Y65.2118
X172.5577 Y65.1767
X172.5352 Y65.1326
X172.5275 Y65.0837
X172.4739 Y20.4165
X172.4817 Y20.3675
X172.5042 Y20.3232
X172.5393 Y20.288
X172.5836 Y20.2654
X172.6326 Y20.2576
X179.3539 Y20.2551
X179.4031 Y20.2629
X179.4474 Y20.2855
X179.4826 Y20.3207
X179.5051 Y20.3651
X179.5127 Y20.4142
X179.4025 Y64.0816
G2 X179.4471 Y65.087 I11.3572
G1 X179.4449 Y65.1308
X179.4309 Y65.1723
X179.406 Y65.2083
X179.3722 Y65.2362
X179.3321 Y65.2538
X179.2887 Y65.2598
X170.3467 Y65.2422
X170.2978 Y65.2344
X170.2536 Y65.2119
X170.2186 Y65.1768
X170.1961 Y65.1326
X170.1883 Y65.0837
X170.1358 Y20.4165
X170.1436 Y20.3675
X170.1661 Y20.3231
X170.2012 Y20.288
X170.2455 Y20.2654
X170.2946 Y20.2576
X181.69 Y20.2553
X181.7391 Y20.2631
X181.7834 Y20.2857
X181.8185 Y20.3209
X181.8411 Y20.3653
X181.8487 Y20.4145
X181.7431 Y64.0816
G2 X181.7993 Y65.0862 I9.0181
G1 X181.798 Y65.1306
X181.7845 Y65.1729
X181.7597 Y65.2098
X181.7258 Y65.2384
X181.6852 Y65.2565
X181.6413 Y65.2627
X168.0076 Y65.2423
X167.9586 Y65.2344
X167.9144 Y65.2119
X167.8794 Y65.1768
X167.8569 Y65.1327
X167.8491 Y65.0837
X167.7977 Y20.4165
X167.7934 Y16.6685
X167.7933 Y16.5979 Z-1.992
X167.7932 Y16.5307 Z-1.9686
X167.7931 Y16.4705 Z-1.9307
Y16.4203 Z-1.8805
X167.793 Y16.3824 Z-1.8203
Y16.359 Z-1.7532
Y16.351 Z-1.6825
G0 Z5
X184.1944 Y16.3963
Z-1.6825
G1 Y16.4042 Z-1.7532 F3500
X184.1943 Y16.4277 Z-1.8203
Y16.4655 Z-1.8805
X184.1941 Y16.5158 Z-1.9307
X184.194 Y16.576 Z-1.9686
X184.1938 Y16.6431 Z-1.992
X184.1937 Y16.7138 Z-2
X184.1851 Y20.4147
X184.0837 Y64.0816
G2 X184.1594 Y65.0845 I6.6801
G1 X184.163 Y65.1342
X184.1395 Y68.8326
X184.139 Y68.9032 Z-1.992
X184.1386 Y68.9703 Z-1.9686
X184.1382 Y69.0305 Z-1.9307
X184.1379 Y69.0808 Z-1.8805
X184.1376 Y69.1186 Z-1.8203
X184.1375 Y69.1421 Z-1.7532
X184.1374 Y69.15 Z-1.6825
G0 Z5
X166.1425 Y69.1038
Z-1.7142
G1 X166.1414 Y69.0967 Z-1.7778 F3500
X166.1381 Y69.0758 Z-1.8382
X166.1328 Y69.0422 Z-1.8924
X166.1257 Y68.9975 Z-1.9377
X166.1172 Y68.944 Z-1.9717
X166.1078 Y68.8843 Z-1.9928
X166.0978 Y68.8215 Z-2
X165.5137 Y65.1334
X165.5098 Y65.0837
X165.4594 Y20.4166
X165.4632 Y20.3669
X166.0608 Y16.5663
X166.0718 Y16.4965 Z-1.992
X166.0822 Y16.4302 Z-1.9686
X166.0915 Y16.3707 Z-1.9307
X166.0993 Y16.3211 Z-1.8805
X166.1052 Y16.2837 Z-1.8203
X166.1089 Y16.2605 Z-1.7531
X166.1101 Y16.2527 Z-1.6825
G0 Z5
X185.8893 Y16.3966
Z-1.7142
G1 X185.8904 Y16.4036 Z-1.7778 F3500
X185.8937 Y16.4245 Z-1.8382
X185.899 Y16.4581 Z-1.8924
X185.9061 Y16.5028 Z-1.9377
X185.9146 Y16.5563 Z-1.9717
X185.924 Y16.616 Z-1.9928
X185.934 Y16.6788 Z-2
X186.5179 Y20.3653
X186.5218 Y20.4149
X186.4243 Y64.0816
G2 X186.5418 Y65.0853 I4.3445
G1 X186.5495 Y65.1346
X186.5494 Y65.1844
X186.2541 Y68.8212
X186.2484 Y68.8917 Z-1.992
X186.243 Y68.9585 Z-1.9686
X186.2381 Y69.0185 Z-1.9307
X186.234 Y69.0687 Z-1.8805
X186.231 Y69.1064 Z-1.8203
X186.2291 Y69.1298 Z-1.7532
X186.2284 Y69.1377 Z-1.6825
G0 Z5
X166.104 Y71.0858
Z-1.7778
G1 X166.1005 Y71.079 Z-1.8353 F3500
X166.0905 Y71.0592 Z-1.8889
X166.0744 Y71.0278 Z-1.9349
X166.0535 Y70.9867 Z-1.9702
X166.0292 Y70.939 Z-1.9924
X166.0031 Y70.8877 Z-2
X163.1192 Y65.2278
G3 X163.0846 Y65.0837 I0.2829 J-0.1441
G1 X163.0845 Y20.4165
G3 X163.1451 Y20.2299 I0.3175
G1 X165.9313 Y16.3949
X165.9728 Y16.3378 Z-1.992
X166.0123 Y16.2835 Z-1.9686
X166.0477 Y16.2348 Z-1.9307
X166.0772 Y16.1941 Z-1.8805
X166.0995 Y16.1635 Z-1.8203
X166.1133 Y16.1445 Z-1.7531
X166.1179 Y16.1381 Z-1.6825
G0 Z5
X185.8962 Y14.4106
Z-1.7778
G1 X185.8997 Y14.4174 Z-1.8353 F3500
X185.9097 Y14.4372 Z-1.8889
X185.9258 Y14.4686 Z-1.9349
X185.9467 Y14.5097 Z-1.9702
X185.971 Y14.5574 Z-1.9924
X185.9971 Y14.6087 Z-2
X188.881 Y20.2686
G3 X188.9156 Y20.4128 I-0.2829 J0.1441
G1 X188.9157 Y64.0816
G2 X188.9311 Y64.2602 I1.0437
G1 X188.9646 Y64.4529
G2 X189.0179 Y64.6466 I1.0284 J-0.1787
G1 X189.0914 Y64.8393
G2 X189.1688 Y64.9994 I0.9751 J-0.3724
G1 X189.2164 Y65.0797
X189.2339 Y65.1221
X189.2385 Y65.1677
X189.2298 Y65.2128
X189.2087 Y65.2535
X189.1768 Y65.2864
X189.1368 Y65.3089
X189.092 Y65.319
X175.0389 Y66.3977
X174.9955 Y66.395
X174.9545 Y66.3808
X174.9189 Y66.3559
X174.8914 Y66.3224
X174.874 Y66.2826
X174.868 Y66.2396
X174.8679 Y66.1689 Z-2.008
X174.8678 Y66.1018 Z-2.0314
X174.8677 Y66.0416 Z-2.0693
Y65.9913 Z-2.1195
X174.8676 Y65.9535 Z-2.1797
Y65.93 Z-2.2469
Y65.9221 Z-2.3175
Z-3.6825
Y65.9141 Z-3.7532
X174.8675 Y65.8906 Z-3.8203
Y65.8528 Z-3.8805
X174.8674 Y65.8025 Z-3.9307
Y65.7423 Z-3.9686
X174.8673 Y65.6752 Z-3.992
X174.8672 Y65.6046 Z-4
X174.8666 Y65.0837
X174.8119 Y20.4165
X174.8196 Y20.3675
X174.8421 Y20.3232
X174.8772 Y20.288
X174.9214 Y20.2654
X174.9705 Y20.2576
X177.0182 Y20.2548
X177.0674 Y20.2626
X177.1118 Y20.2852
X177.147 Y20.3204
X177.1695 Y20.3648
X177.1772 Y20.414
X177.0619 Y64.0816
G2 X177.0989 Y65.0874 I13.6968
G1 X177.0961 Y65.1308
X177.0817 Y65.1718
X177.0567 Y65.2073
X177.023 Y65.2348
X176.9831 Y65.252
X176.94 Y65.2578
X172.6856 Y65.2422
X172.6367 Y65.2343
X172.5927 Y65.2118
X172.5577 Y65.1767
X172.5352 Y65.1326
X172.5275 Y65.0837
X172.4739 Y20.4165
X172.4817 Y20.3675
X172.5042 Y20.3232
X172.5393 Y20.288
X172.5836 Y20.2654
X172.6326 Y20.2576
X179.3539 Y20.2551
X179.4031 Y20.2629
X179.4474 Y20.2855
X179.4826 Y20.3207
X179.5051 Y20.3651
X179.5127 Y20.4142
X179.4025 Y64.0816
G2 X179.4471 Y65.087 I11.3572
G1 X179.4449 Y65.1308
X179.4309 Y65.1723
X179.406 Y65.2083
X179.3722 Y65.2362
X179.3321 Y65.2538
X179.2887 Y65.2598
X170.3467 Y65.2422
X170.2978 Y65.2344
X170.2536 Y65.2119
X170.2186 Y65.1768
X170.1961 Y65.1326
X170.1883 Y65.0837
X170.1358 Y20.4165
X170.1436 Y20.3675
X170.1661 Y20.3231
X170.2012 Y20.288
X170.2455 Y20.2654
X170.2946 Y20.2576
X181.69 Y20.2553
X181.7391 Y20.2631
X181.7834 Y20.2857
X181.8185 Y20.3209
X181.8411 Y20.3653
X181.8487 Y20.4145
X181.7431 Y64.0816
G2 X181.7993 Y65.0862 I9.0181
G1 X181.798 Y65.1306
X181.7845 Y65.1729
X181.7597 Y65.2098
X181.7258 Y65.2384
X181.6852 Y65.2565
X181.6413 Y65.2627
X168.0076 Y65.2423
X167.9586 Y65.2344
X167.9144 Y65.2119
X167.8794 Y65.1768
X167.8569 Y65.1327
X167.8491 Y65.0837
X167.7977 Y20.4165
X167.7934 Y16.6685
X167.7933 Y16.5979 Z-3.992
X167.7932 Y16.5307 Z-3.9686
X167.7931 Y16.4705 Z-3.9307
Y16.4203 Z-3.8805
X167.793 Y16.3824 Z-3.8203
Y16.359 Z-3.7532
Y16.351 Z-3.6825
G0 Z5
X184.1944 Y16.3963
Z-3.6825
G1 Y16.4042 Z-3.7532 F3500
X184.1943 Y16.4277 Z-3.8203
Y16.4655 Z-3.8805
X184.1941 Y16.5158 Z-3.9307
X184.194 Y16.576 Z-3.9686
X184.1938 Y16.6431 Z-3.992
X184.1937 Y16.7138 Z-4
X184.1851 Y20.4147
X184.0837 Y64.0816
G2 X184.1594 Y65.0845 I6.6801
G1 X184.163 Y65.1342
X184.1395 Y68.8326
X184.139 Y68.9032 Z-3.992
X184.1386 Y68.9703 Z-3.9686
X184.1382 Y69.0305 Z-3.9307
X184.1379 Y69.0808 Z-3.8805
X184.1376 Y69.1186 Z-3.8203
X184.1375 Y69.1421 Z-3.7532
X184.1374 Y69.15 Z-3.6825
G0 Z5
X166.1425 Y69.1038
Z-3.7143
G1 X166.1414 Y69.0967 Z-3.7778 F3500
X166.1381 Y69.0758 Z-3.8382
X166.1328 Y69.0422 Z-3.8924
X166.1257 Y68.9975 Z-3.9377
X166.1172 Y68.944 Z-3.9717
X166.1078 Y68.8843 Z-3.9928
X166.0978 Y68.8215 Z-4
X165.5137 Y65.1334
X165.5098 Y65.0837
X165.4594 Y20.4166
X165.4632 Y20.3669
X166.0608 Y16.5663
X166.0718 Y16.4965 Z-3.992
X166.0822 Y16.4302 Z-3.9686
X166.0915 Y16.3707 Z-3.9307
X166.0993 Y16.3211 Z-3.8805
X166.1052 Y16.2837 Z-3.8203
X166.1089 Y16.2605 Z-3.7531
X166.1101 Y16.2527 Z-3.6825
G0 Z5
X185.8893 Y16.3966
Z-3.7143
G1 X185.8904 Y16.4036 Z-3.7778 F3500
X185.8937 Y16.4245 Z-3.8382
X185.899 Y16.4581 Z-3.8924
X185.9061 Y16.5028 Z-3.9377
X185.9146 Y16.5563 Z-3.9717
X185.924 Y16.616 Z-3.9928
X185.934 Y16.6788 Z-4
X186.5179 Y20.3653
X186.5218 Y20.4149
X186.4243 Y64.0816
G2 X186.5418 Y65.0853 I4.3445
G1 X186.5495 Y65.1346
X186.5494 Y65.1844
X186.2541 Y68.8212
X186.2484 Y68.8917 Z-3.992
X186.243 Y68.9585 Z-3.9686
X186.2381 Y69.0185 Z-3.9307
X186.234 Y69.0687 Z-3.8805
X186.231 Y69.1064 Z-3.8203
X186.2291 Y69.1298 Z-3.7532
X186.2284 Y69.1377 Z-3.6825
G0 Z5
X166.104 Y71.0858
Z-3.7778
G1 X166.1005 Y71.079 Z-3.8353 F3500
X166.0905 Y71.0592 Z-3.8889
X166.0744 Y71.0278 Z-3.9349
X166.0535 Y70.9867 Z-3.9702
X166.0292 Y70.939 Z-3.9924
X166.0031 Y70.8877 Z-4
X163.1192 Y65.2278
G3 X163.0846 Y65.0837 I0.2829 J-0.1441
G1 X163.0845 Y20.4165
G3 X163.1451 Y20.2299 I0.3175
G1 X165.9313 Y16.3949
X165.9728 Y16.3378 Z-3.992
X166.0123 Y16.2835 Z-3.9686
X166.0477 Y16.2348 Z-3.9307
X166.0772 Y16.1941 Z-3.8805
X166.0995 Y16.1635 Z-3.8203
X166.1133 Y16.1445 Z-3.7531
X166.1179 Y16.1381 Z-3.6825
G0 Z5
X185.8962 Y14.4106
Z-3.7778
G1 X185.8997 Y14.4174 Z-3.8353 F3500
X185.9097 Y14.4372 Z-3.8889
X185.9258 Y14.4686 Z-3.9349
X185.9467 Y14.5097 Z-3.9702
X185.971 Y14.5574 Z-3.9924
X185.9971 Y14.6087 Z-4
X188.881 Y20.2686
G3 X188.9156 Y20.4128 I-0.2829 J0.1441
G1 X188.9157 Y64.0816
G2 X188.9311 Y64.2602 I1.0437
G1 X188.9646 Y64.4529
G2 X189.0179 Y64.6466 I1.0284 J-0.1787
G1 X189.0914 Y64.8393
G2 X189.1688 Y64.9994 I0.9751 J-0.3724
G1 X189.2164 Y65.0797
X189.2339 Y65.1221
X189.2385 Y65.1677
X189.2298 Y65.2128
X189.2087 Y65.2535
X189.1768 Y65.2864
X189.1368 Y65.3089
X189.092 Y65.319
X175.0389 Y66.3977
X174.9955 Y66.395
X174.9545 Y66.3808
X174.9189 Y66.3559
X174.8914 Y66.3224
X174.874 Y66.2826
X174.868 Y66.2396
X174.8679 Y66.1689 Z-4.008
X174.8678 Y66.1018 Z-4.0314
X174.8677 Y66.0416 Z-4.0693
Y65.9913 Z-4.1195
X174.8676 Y65.9535 Z-4.1797
Y65.93 Z-4.2469
Y65.9221 Z-4.3175
Z-5.6825
Y65.9141 Z-5.7532
X174.8675 Y65.8906 Z-5.8203
Y65.8528 Z-5.8805
X174.8674 Y65.8025 Z-5.9307
Y65.7423 Z-5.9686
X174.8673 Y65.6752 Z-5.992
X174.8672 Y65.6046 Z-6
X174.8666 Y65.0837
X174.8119 Y20.4165
X174.8196 Y20.3675
X174.8421 Y20.3232
X174.8772 Y20.288
X174.9214 Y20.2654
X174.9705 Y20.2576
X177.0182 Y20.2548
X177.0674 Y20.2626
X177.1118 Y20.2852
X177.147 Y20.3204
X177.1695 Y20.3648
X177.1772 Y20.414
X177.0619 Y64.0816
G2 X177.0989 Y65.0874 I13.6968
G1 X177.0961 Y65.1308
X177.0817 Y65.1718
X177.0567 Y65.2073
X177.023 Y65.2348
X176.9831 Y65.252
X176.94 Y65.2578
X172.6856 Y65.2422
X172.6367 Y65.2343
X172.5927 Y65.2118
X172.5577 Y65.1767
X172.5352 Y65.1326
X172.5275 Y65.0837
X172.4739 Y20.4165
X172.4817 Y20.3675
X172.5042 Y20.3232
X172.5393 Y20.288
X172.5836 Y20.2654
X172.6326 Y20.2576
X179.3539 Y20.2551
X179.4031 Y20.2629
X179.4474 Y20.2855
X179.4826 Y20.3207
X179.5051 Y20.3651
X179.5127 Y20.4142
X179.4025 Y64.0816
G2 X179.4471 Y65.087 I11.3572
G1 X179.4449 Y65.1308
X179.4309 Y65.1723
X179.406 Y65.2083
X179.3722 Y65.2362
X179.3321 Y65.2538
X179.2887 Y65.2598
X170.3467 Y65.2422
X170.2978 Y65.2344
X170.2536 Y65.2119
X170.2186 Y65.1768
X170.1961 Y65.1326
X170.1883 Y65.0837
X170.1358 Y20.4165
X170.1436 Y20.3675
X170.1661 Y20.3231
X170.2012 Y20.288
X170.2455 Y20.2654
X170.2946 Y20.2576
X181.69 Y20.2553
X181.7391 Y20.2631
X181.7834 Y20.2857
X181.8185 Y20.3209
X181.8411 Y20.3653
X181.8487 Y20.4145
X181.7431 Y64.0816
G2 X181.7993 Y65.0862 I9.0181
G1 X181.798 Y65.1306
X181.7845 Y65.1729
X181.7597 Y65.2098
X181.7258 Y65.2384
X181.6852 Y65.2565
X181.6413 Y65.2627
X168.0076 Y65.2423
X167.9586 Y65.2344
X167.9144 Y65.2119
X167.8794 Y65.1768
X167.8569 Y65.1327
X167.8491 Y65.0837
X167.7977 Y20.4165
X167.7934 Y16.6685
X167.7933 Y16.5979 Z-5.992
X167.7932 Y16.5307 Z-5.9686
X167.7931 Y16.4705 Z-5.9307
Y16.4203 Z-5.8805
X167.793 Y16.3824 Z-5.8203
Y16.359 Z-5.7532
Y16.351 Z-5.6825
G0 Z5
X184.1944 Y16.3963
Z-5.6825
G1 Y16.4042 Z-5.7532 F3500
X184.1943 Y16.4277 Z-5.8203
Y16.4655 Z-5.8805
X184.1941 Y16.5158 Z-5.9307
X184.194 Y16.576 Z-5.9686
X184.1938 Y16.6431 Z-5.992
X184.1937 Y16.7138 Z-6
X184.1851 Y20.4147
X184.0837 Y64.0816
G2 X184.1594 Y65.0845 I6.6801
G1 X184.163 Y65.1342
X184.1395 Y68.8326
X184.139 Y68.9032 Z-5.992
X184.1386 Y68.9703 Z-5.9686
X184.1382 Y69.0305 Z-5.9307
X184.1379 Y69.0808 Z-5.8805
X184.1376 Y69.1186 Z-5.8203
X184.1375 Y69.1421 Z-5.7532
X184.1374 Y69.15 Z-5.6825
G0 Z5
X166.1425 Y69.1038
Z-5.7143
G1 X166.1414 Y69.0967 Z-5.7778 F3500
X166.1381 Y69.0758 Z-5.8382
X166.1328 Y69.0422 Z-5.8924
X166.1257 Y68.9975 Z-5.9377
X166.1172 Y68.944 Z-5.9717
X166.1078 Y68.8843 Z-5.9928
X166.0978 Y68.8215 Z-6
X165.5137 Y65.1334
X165.5098 Y65.0837
X165.4594 Y20.4166
X165.4632 Y20.3669
X166.0608 Y16.5663
X166.0718 Y16.4965 Z-5.992
X166.0822 Y16.4302 Z-5.9686
X166.0915 Y16.3707 Z-5.9307
X166.0993 Y16.3211 Z-5.8805
X166.1052 Y16.2837 Z-5.8203
X166.1089 Y16.2605 Z-5.7531
X166.1101 Y16.2527 Z-5.6825
G0 Z5
X185.8893 Y16.3966
Z-5.7143
G1 X185.8904 Y16.4036 Z-5.7778 F3500
X185.8937 Y16.4245 Z-5.8382
X185.899 Y16.4581 Z-5.8924
X185.9061 Y16.5028 Z-5.9377
X185.9146 Y16.5563 Z-5.9717
X185.924 Y16.616 Z-5.9928
X185.934 Y16.6788 Z-6
X186.5179 Y20.3653
X186.5218 Y20.4149
X186.4243 Y64.0816
G2 X186.5418 Y65.0853 I4.3445
G1 X186.5495 Y65.1346
X186.5494 Y65.1844
X186.2541 Y68.8212
X186.2484 Y68.8917 Z-5.992
X186.243 Y68.9585 Z-5.9686
X186.2381 Y69.0185 Z-5.9307
X186.234 Y69.0687 Z-5.8805
X186.231 Y69.1064 Z-5.8203
X186.2291 Y69.1298 Z-5.7532
X186.2284 Y69.1377 Z-5.6825
G0 Z5
X166.104 Y71.0858
Z-5.7778
G1 X166.1005 Y71.079 Z-5.8353 F3500
X166.0905 Y71.0592 Z-5.8889
X166.0744 Y71.0278 Z-5.9349
X166.0535 Y70.9867 Z-5.9702
X166.0292 Y70.939 Z-5.9924
X166.0031 Y70.8877 Z-6
X163.1192 Y65.2278
G3 X163.0846 Y65.0837 I0.2829 J-0.1441
G1 X163.0845 Y20.4165
G3 X163.1451 Y20.2299 I0.3175
G1 X165.9313 Y16.3949
X165.9728 Y16.3378 Z-5.992
X166.0123 Y16.2835 Z-5.9686
X166.0477 Y16.2348 Z-5.9307
X166.0772 Y16.1941 Z-5.8805
X166.0995 Y16.1635 Z-5.8203
X166.1133 Y16.1445 Z-5.7531
X166.1179 Y16.1381 Z-5.6825
G0 Z5
X185.8962 Y14.4106
Z-5.7778
G1 X185.8997 Y14.4174 Z-5.8353 F3500
X185.9097 Y14.4372 Z-5.8889
X185.9258 Y14.4686 Z-5.9349
X185.9467 Y14.5097 Z-5.9702
X185.971 Y14.5574 Z-5.9924
X185.9971 Y14.6087 Z-6
X188.881 Y20.2686
G3 X188.9156 Y20.4128 I-0.2829 J0.1441
G1 X188.9157 Y64.0816
G2 X188.9311 Y64.2602 I1.0437
G1 X188.9646 Y64.4529
G2 X189.0179 Y64.6466 I1.0284 J-0.1787
G1 X189.0914 Y64.8393
G2 X189.1688 Y64.9994 I0.9751 J-0.3724
G1 X189.2164 Y65.0797
X189.2339 Y65.1221
X189.2385 Y65.1677
X189.2298 Y65.2128
X189.2087 Y65.2535
X189.1768 Y65.2864
X189.1368 Y65.3089
X189.092 Y65.319
X175.0389 Y66.3977
X174.9955 Y66.395
X174.9545 Y66.3808
X174.9189 Y66.3559
X174.8914 Y66.3224
X174.874 Y66.2826
X174.868 Y66.2396
X174.8679 Y66.1689 Z-6.008
X174.8678 Y66.1018 Z-6.0314
X174.8677 Y66.0416 Z-6.0693
Y65.9913 Z-6.1195
X174.8676 Y65.9535 Z-6.1797
Y65.93 Z-6.2469
Y65.9221 Z-6.3175
Z-7.6825
Y65.9141 Z-7.7532
X174.8675 Y65.8906 Z-7.8203
Y65.8528 Z-7.8805
X174.8674 Y65.8025 Z-7.9307
Y65.7423 Z-7.9686
X174.8673 Y65.6752 Z-7.992
X174.8672 Y65.6046 Z-8
X174.8666 Y65.0837
X174.8119 Y20.4165
X174.8196 Y20.3675
X174.8421 Y20.3232
X174.8772 Y20.288
X174.9214 Y20.2654
X174.9705 Y20.2576
X177.0182 Y20.2548
X177.0674 Y20.2626
X177.1118 Y20.2852
X177.147 Y20.3204
X177.1695 Y20.3648
X177.1772 Y20.414
X177.0619 Y64.0816
G2 X177.0989 Y65.0874 I13.6968
G1 X177.0961 Y65.1308
X177.0817 Y65.1718
X177.0567 Y65.2073
X177.023 Y65.2348
X176.9831 Y65.252
X176.94 Y65.2578
X172.6856 Y65.2422
X172.6367 Y65.2343
X172.5927 Y65.2118
X172.5577 Y65.1767
X172.5352 Y65.1326
X172.5275 Y65.0837
X172.4739 Y20.4165
X172.4817 Y20.3675
X172.5042 Y20.3232
X172.5393 Y20.288
X172.5836 Y20.2654
X172.6326 Y20.2576
X179.3539 Y20.2551
X179.4031 Y20.2629
X179.4474 Y20.2855
X179.4826 Y20.3207
X179.5051 Y20.3651
X179.5127 Y20.4142
X179.4025 Y64.0816
G2 X179.4471 Y65.087 I11.3572
G1 X179.4449 Y65.1308
X179.4309 Y65.1723
X179.406 Y65.2083
X179.3722 Y65.2362
X179.3321 Y65.2538
X179.2887 Y65.2598
X170.3467 Y65.2422
X170.2978 Y65.2344
X170.2536 Y65.2119
X170.2186 Y65.1768
X170.1961 Y65.1326
X170.1883 Y65.0837
X170.1358 Y20.4165
X170.1436 Y20.3675
X170.1661 Y20.3231
X170.2012 Y20.288
X170.2455 Y20.2654
X170.2946 Y20.2576
X181.69 Y20.2553
X181.7391 Y20.2631
X181.7834 Y20.2857
X181.8185 Y20.3209
X181.8411 Y20.3653
X181.8487 Y20.4145
X181.7431 Y64.0816
G2 X181.7993 Y65.0862 I9.0181
G1 X181.798 Y65.1306
X181.7845 Y65.1729
X181.7597 Y65.2098
X181.7258 Y65.2384
X181.6852 Y65.2565
X181.6413 Y65.2627
X168.0076 Y65.2423
X167.9586 Y65.2344
X167.9144 Y65.2119
X167.8794 Y65.1768
X167.8569 Y65.1327
X167.8491 Y65.0837
X167.7977 Y20.4165
X167.7934 Y16.6685
X167.7933 Y16.5979 Z-7.992
X167.7932 Y16.5307 Z-7.9686
X167.7931 Y16.4705 Z-7.9307
Y16.4203 Z-7.8805
X167.793 Y16.3824 Z-7.8203
Y16.359 Z-7.7532
Y16.351 Z-7.6825
G0 Z5
X184.1944 Y16.3963
Z-7.6825
G1 Y16.4042 Z-7.7532 F3500
X184.1943 Y16.4277 Z-7.8203
Y16.4655 Z-7.8805
X184.1941 Y16.5158 Z-7.9307
X184.194 Y16.576 Z-7.9686
X184.1938 Y16.6431 Z-7.992
X184.1937 Y16.7138 Z-8
X184.1851 Y20.4147
X184.0837 Y64.0816
G2 X184.1594 Y65.0845 I6.6801
G1 X184.163 Y65.1342
X184.1395 Y68.8326
X184.139 Y68.9032 Z-7.992
X184.1386 Y68.9703 Z-7.9686
X184.1382 Y69.0305 Z-7.9307
X184.1379 Y69.0808 Z-7.8805
X184.1376 Y69.1186 Z-7.8203
X184.1375 Y69.1421 Z-7.7532
X184.1374 Y69.15 Z-7.6825
G0 Z5
X166.1425 Y69.1038
Z-7.7143
G1 X166.1414 Y69.0967 Z-7.7778 F3500
X166.1381 Y69.0758 Z-7.8382
X166.1328 Y69.0422 Z-7.8924
X166.1257 Y68.9975 Z-7.9377
X166.1172 Y68.944 Z-7.9717
X166.1078 Y68.8843 Z-7.9928
X166.0978 Y68.8215 Z-8
X165.5137 Y65.1334
X165.5098 Y65.0837
X165.4594 Y20.4166
X165.4632 Y20.3669
X166.0608 Y16.5663
X166.0718 Y16.4965 Z-7.992
X166.0822 Y16.4302 Z-7.9686
X166.0915 Y16.3707 Z-7.9307
X166.0993 Y16.3211 Z-7.8805
X166.1052 Y16.2837 Z-7.8203
X166.1089 Y16.2605 Z-7.7531
X166.1101 Y16.2527 Z-7.6825
G0 Z5
X185.8893 Y16.3966
Z-7.7143
G1 X185.8904 Y16.4036 Z-7.7778 F3500
X185.8937 Y16.4245 Z-7.8382
X185.899 Y16.4581 Z-7.8924
X185.9061 Y16.5028 Z-7.9377
X185.9146 Y16.5563 Z-7.9717
X185.924 Y16.616 Z-7.9928
X185.934 Y16.6788 Z-8
X186.5179 Y20.3653
X186.5218 Y20.4149
X186.4243 Y64.0816
G2 X186.5418 Y65.0853 I4.3445
G1 X186.5495 Y65.1346
X186.5494 Y65.1844
X186.2541 Y68.8212
X186.2484 Y68.8917 Z-7.992
X186.243 Y68.9585 Z-7.9686
X186.2381 Y69.0185 Z-7.9307
X186.234 Y69.0687 Z-7.8805
X186.231 Y69.1064 Z-7.8203
X186.2291 Y69.1298 Z-7.7532
X186.2284 Y69.1377 Z-7.6825
G0 Z5
X166.104 Y71.0858
Z-7.7778
G1 X166.1005 Y71.079 Z-7.8353 F3500
X166.0905 Y71.0592 Z-7.8889
X166.0744 Y71.0278 Z-7.9349
X166.0535 Y70.9867 Z-7.9702
X166.0292 Y70.939 Z-7.9924
X166.0031 Y70.8877 Z-8
X163.1192 Y65.2278
G3 X163.0846 Y65.0837 I0.2829 J-0.1441
G1 X163.0845 Y20.4165
G3 X163.1451 Y20.2299 I0.3175
G1 X165.9313 Y16.3949
X165.9728 Y16.3378 Z-7.992
X166.0123 Y16.2835 Z-7.9686
X166.0477 Y16.2348 Z-7.9307
X166.0772 Y16.1941 Z-7.8805
X166.0995 Y16.1635 Z-7.8203
X166.1133 Y16.1445 Z-7.7531
X166.1179 Y16.1381 Z-7.6825
G0 Z5
X185.8962 Y14.4106
Z-7.7778
G1 X185.8997 Y14.4174 Z-7.8353 F3500
X185.9097 Y14.4372 Z-7.8889
X185.9258 Y14.4686 Z-7.9349
X185.9467 Y14.5097 Z-7.9702
X185.971 Y14.5574 Z-7.9924
X185.9971 Y14.6087 Z-8
X188.881 Y20.2686
G3 X188.9156 Y20.4128 I-0.2829 J0.1441
G1 X188.9157 Y64.0816
G2 X188.9311 Y64.2602 I1.0437
G1 X188.9646 Y64.4529
G2 X189.0179 Y64.6466 I1.0284 J-0.1787
G1 X189.0914 Y64.8393
G2 X189.1688 Y64.9994 I0.9751 J-0.3724
G1 X189.2164 Y65.0797
G3 X189.2595 Y65.2711 I-0.2731 J0.162
G1 X188.9301 Y68.8054
X188.9235 Y68.8758 Z-7.992
X188.9173 Y68.9426 Z-7.9686
X188.9117 Y69.0025 Z-7.9307
X188.907 Y69.0526 Z-7.8805
X188.9035 Y69.0902 Z-7.8203
X188.9013 Y69.1136 Z-7.7532
X188.9006 Y69.1216 Z-7.6825
G0 Z6

G53 Z5
M5
G4 P1.0
G53 X0 Y0
M30
%
