%
(Made in : Autodesk CAM Post Processor)
(G Code optimized for OpenBuilds OX CNC 1000 x 750 with GRBL V0.9j controller)

(Program Name : 1001)
(2 Operations :)
(1 : Contour2  2 )
(  Tool : Flat End Mill 2 Flutes, Diam = 1.9mm, Len = 12.7mm)
(  Spindle : RPM = 30000, set router dial to 6)
(  Machining time : 32 sec)
(2 : Horizontal1  2 )
(  Tool : Flat End Mill 2 Flutes, Diam = 1.9mm, Len = 12.7mm)
(  Spindle : RPM = 30000, set router dial to 6)
(  Machining time : 20 sec)

G90 G94
G17
G21

(Operation 1 of 2 : Contour2  2 )

G53 G0 Z5
G54
S30000 M3
G4 P1.0
X130.5591 Y55.6488
Z6
Z1.1878
G1 Z-0.81 F3200
X130.5526 Z-0.8592
X130.5336 Z-0.905
X130.5034 Z-0.9444
X130.4641 Z-0.9745
X130.4182 Z-0.9935
X130.3691 Z-1
X129.14
X129.0908 Y55.6424
X129.045 Y55.6234
X129.0056 Y55.5932
X128.9755 Y55.5538
X128.9565 Y55.508
X128.95 Y55.4588
Y11.5409
X128.9565 Y11.4917
X128.9755 Y11.4459
X129.0056 Y11.4065
X129.045 Y11.3763
X129.0908 Y11.3574
X129.14 Y11.3509
X156.86
X156.9092 Y11.3574
X156.955 Y11.3763
X156.9944 Y11.4065
X157.0245 Y11.4459
X157.0435 Y11.4917
X157.05 Y11.5409
Y54.9257
X157.0507 Y55.0358
X157.0544 Y55.0908
X157.0612 Y55.1458
X157.0715 Y55.2009
X157.0851 Y55.2559
X157.1023 Y55.3109
X157.1233 Y55.366
X157.1508 Y55.4259
X157.1572 Y55.4384
X157.1605 Y55.4447
X157.163 Y55.4494
X157.1801 Y55.4945
X157.1853 Y55.5425
X157.1783 Y55.5902
X157.1594 Y55.6346
X157.13 Y55.6729
X157.0919 Y55.7024
X157.0475 Y55.7215
X156.9998 Y55.7287
X129.9788 Y56.3661
G3 X130.2536 Y56.3164 I-0.0213 J-0.9022
G1 X130.2473 Y56.3185 Z-1.0001 F1200
G3 X130.3913 Y56.2552 Z-1.1926 I-0.2898 J-0.8547
X130.5221 Y56.1679 Z-1.385 I-0.4338 J-0.7914
X130.6358 Y56.0591 Z-1.5774 I-0.5646 J-0.7041
X130.7289 Y55.9323 Z-1.7699 I-0.6783 J-0.5953
X130.7985 Y55.7912 Z-1.9623 I-0.7714 J-0.4685
X129.9641 Y56.3663 Z-1.9999 I-0.841 J-0.3274
G1 X129.9575 Z-2
X129.8575 F3200
G3 X128.95 Y55.4588 J-0.9075
G1 Y11.5409
X128.9565 Y11.4917
X128.9755 Y11.4459
X129.0056 Y11.4065
X129.045 Y11.3763
X129.0908 Y11.3574
X129.14 Y11.3509
X156.86
X156.9092 Y11.3574
X156.955 Y11.3763
X156.9944 Y11.4065
X157.0245 Y11.4459
X157.0435 Y11.4917
X157.05 Y11.5409
Y54.9257
X157.0507 Y55.0358
X157.0544 Y55.0908
X157.0612 Y55.1458
X157.0715 Y55.2009
X157.0851 Y55.2559
X157.1023 Y55.3109
X157.1233 Y55.366
X157.1508 Y55.4259
X157.1572 Y55.4384
X157.1605 Y55.4447
X157.163 Y55.4494
X157.1801 Y55.4945
X157.1853 Y55.5425
X157.1783 Y55.5902
X157.1594 Y55.6346
X157.13 Y55.6729
X157.0919 Y55.7024
X157.0475 Y55.7215
X156.9998 Y55.7287
X129.9788 Y56.3661
G3 X130.2536 Y56.3164 I-0.0213 J-0.9022
G1 X130.2473 Y56.3185 Z-2.0001 F1200
G3 X130.3913 Y56.2552 Z-2.1926 I-0.2898 J-0.8547
X130.5221 Y56.1679 Z-2.385 I-0.4338 J-0.7914
X130.6358 Y56.0591 Z-2.5774 I-0.5646 J-0.7041
X130.7289 Y55.9323 Z-2.7699 I-0.6783 J-0.5953
X130.7985 Y55.7912 Z-2.9623 I-0.7714 J-0.4685
X129.9641 Y56.3663 Z-2.9999 I-0.841 J-0.3274
G1 X129.9575 Z-3
X129.8575 F3200
G3 X128.95 Y55.4588 J-0.9075
G1 Y11.5409
X128.9565 Y11.4917
X128.9755 Y11.4459
X129.0056 Y11.4065
X129.045 Y11.3763
X129.0908 Y11.3574
X129.14 Y11.3509
X156.86
X156.9092 Y11.3574
X156.955 Y11.3763
X156.9944 Y11.4065
X157.0245 Y11.4459
X157.0435 Y11.4917
X157.05 Y11.5409
Y54.9257
X157.0507 Y55.0358
X157.0544 Y55.0908
X157.0612 Y55.1458
X157.0715 Y55.2009
X157.0851 Y55.2559
X157.1023 Y55.3109
X157.1233 Y55.366
X157.1508 Y55.4259
X157.1572 Y55.4384
X157.1605 Y55.4447
X157.163 Y55.4494
X157.1801 Y55.4945
X157.1853 Y55.5425
X157.1783 Y55.5902
X157.1594 Y55.6346
X157.13 Y55.6729
X157.0919 Y55.7024
X157.0475 Y55.7215
X156.9998 Y55.7287
X129.9788 Y56.3661
G3 X130.2536 Y56.3164 I-0.0213 J-0.9022
G1 X130.2473 Y56.3185 Z-3.0001 F1200
G3 X130.3913 Y56.2552 Z-3.1926 I-0.2898 J-0.8547
X130.5221 Y56.1679 Z-3.385 I-0.4338 J-0.7914
X130.6358 Y56.0591 Z-3.5774 I-0.5646 J-0.7041
X130.7289 Y55.9323 Z-3.7699 I-0.6783 J-0.5953
X130.7985 Y55.7912 Z-3.9623 I-0.7714 J-0.4685
X129.9641 Y56.3663 Z-3.9999 I-0.841 J-0.3274
G1 X129.9575 Z-4
X129.8575 F3200
G3 X128.95 Y55.4588 J-0.9075
G1 Y11.5409
X128.9565 Y11.4917
X128.9755 Y11.4459
X129.0056 Y11.4065
X129.045 Y11.3763
X129.0908 Y11.3574
X129.14 Y11.3509
X156.86
X156.9092 Y11.3574
X156.955 Y11.3763
X156.9944 Y11.4065
X157.0245 Y11.4459
X157.0435 Y11.4917
X157.05 Y11.5409
Y54.9257
X157.0507 Y55.0358
X157.0544 Y55.0908
X157.0612 Y55.1458
X157.0715 Y55.2009
X157.0851 Y55.2559
X157.1023 Y55.3109
X157.1233 Y55.366
X157.1508 Y55.4259
X157.1572 Y55.4384
X157.1605 Y55.4447
X157.163 Y55.4494
X157.1801 Y55.4945
X157.1853 Y55.5425
X157.1783 Y55.5902
X157.1594 Y55.6346
X157.13 Y55.6729
X157.0919 Y55.7024
X157.0475 Y55.7215
X156.9998 Y55.7287
X129.9788 Y56.3661
G3 X130.2536 Y56.3164 I-0.0213 J-0.9022
G1 X130.2473 Y56.3185 Z-4.0001 F1200
G3 X130.3913 Y56.2552 Z-4.1926 I-0.2898 J-0.8547
X130.5221 Y56.1679 Z-4.385 I-0.4338 J-0.7914
X130.6358 Y56.0591 Z-4.5774 I-0.5646 J-0.7041
X130.7289 Y55.9323 Z-4.7699 I-0.6783 J-0.5953
X130.7985 Y55.7912 Z-4.9623 I-0.7714 J-0.4685
X129.9641 Y56.3663 Z-4.9999 I-0.841 J-0.3274
G1 X129.9575 Z-5
X129.8575 F3200
G3 X128.95 Y55.4588 J-0.9075
G1 Y11.5409
X128.9565 Y11.4917
X128.9755 Y11.4459
X129.0056 Y11.4065
X129.045 Y11.3763
X129.0908 Y11.3574
X129.14 Y11.3509
X156.86
X156.9092 Y11.3574
X156.955 Y11.3763
X156.9944 Y11.4065
X157.0245 Y11.4459
X157.0435 Y11.4917
X157.05 Y11.5409
Y54.9257
X157.0507 Y55.0358
X157.0544 Y55.0908
X157.0612 Y55.1458
X157.0715 Y55.2009
X157.0851 Y55.2559
X157.1023 Y55.3109
X157.1233 Y55.366
X157.1508 Y55.4259
X157.1572 Y55.4384
X157.1605 Y55.4447
X157.163 Y55.4494
X157.1801 Y55.4945
X157.1853 Y55.5425
X157.1783 Y55.5902
X157.1594 Y55.6346
X157.13 Y55.6729
X157.0919 Y55.7024
X157.0475 Y55.7215
X156.9998 Y55.7287
X129.9788 Y56.3661
G3 X130.2536 Y56.3164 I-0.0213 J-0.9022
G1 X130.2473 Y56.3185 Z-5.0001 F1200
G3 X130.3913 Y56.2552 Z-5.1926 I-0.2898 J-0.8547
X130.5221 Y56.1679 Z-5.385 I-0.4338 J-0.7914
X130.6358 Y56.0591 Z-5.5774 I-0.5646 J-0.7041
X130.7289 Y55.9323 Z-5.7699 I-0.6783 J-0.5953
X130.7985 Y55.7912 Z-5.9623 I-0.7714 J-0.4685
X129.9641 Y56.3663 Z-5.9999 I-0.841 J-0.3274
G1 X129.9575 Z-6
X129.8575 F3200
G3 X128.95 Y55.4588 J-0.9075
G1 Y11.5409
X128.9565 Y11.4917
X128.9755 Y11.4459
X129.0056 Y11.4065
X129.045 Y11.3763
X129.0908 Y11.3574
X129.14 Y11.3509
X156.86
X156.9092 Y11.3574
X156.955 Y11.3763
X156.9944 Y11.4065
X157.0245 Y11.4459
X157.0435 Y11.4917
X157.05 Y11.5409
Y54.9257
X157.0507 Y55.0358
X157.0544 Y55.0908
X157.0612 Y55.1458
X157.0715 Y55.2009
X157.0851 Y55.2559
X157.1023 Y55.3109
X157.1233 Y55.366
X157.1508 Y55.4259
X157.1572 Y55.4384
X157.1605 Y55.4447
X157.163 Y55.4494
X157.1801 Y55.4945
X157.1853 Y55.5425
X157.1783 Y55.5902
X157.1594 Y55.6346
X157.13 Y55.6729
X157.0919 Y55.7024
X157.0475 Y55.7215
X156.9998 Y55.7287
X129.9788 Y56.3661
G3 X130.2536 Y56.3164 I-0.0213 J-0.9022
G1 X130.2473 Y56.3185 Z-6.0001 F1200
G3 X130.3913 Y56.2552 Z-6.1926 I-0.2898 J-0.8547
X130.5221 Y56.1679 Z-6.385 I-0.4338 J-0.7914
X130.6358 Y56.0591 Z-6.5774 I-0.5646 J-0.7041
X130.7289 Y55.9323 Z-6.7699 I-0.6783 J-0.5953
X130.7985 Y55.7912 Z-6.9623 I-0.7714 J-0.4685
X129.9641 Y56.3663 Z-6.9999 I-0.841 J-0.3274
G1 X129.9575 Z-7
X129.8575 F3200
G3 X128.95 Y55.4588 J-0.9075
G1 Y11.5409
X128.9565 Y11.4917
X128.9755 Y11.4459
X129.0056 Y11.4065
X129.045 Y11.3763
X129.0908 Y11.3574
X129.14 Y11.3509
X156.86
X156.9092 Y11.3574
X156.955 Y11.3763
X156.9944 Y11.4065
X157.0245 Y11.4459
X157.0435 Y11.4917
X157.05 Y11.5409
Y54.9257
X157.0507 Y55.0358
X157.0544 Y55.0908
X157.0612 Y55.1458
X157.0715 Y55.2009
X157.0851 Y55.2559
X157.1023 Y55.3109
X157.1233 Y55.366
X157.1508 Y55.4259
X157.1572 Y55.4384
X157.1605 Y55.4447
X157.163 Y55.4494
X157.1801 Y55.4945
X157.1853 Y55.5425
X157.1783 Y55.5902
X157.1594 Y55.6346
X157.13 Y55.6729
X157.0919 Y55.7024
X157.0475 Y55.7215
X156.9998 Y55.7287
X129.9788 Y56.3661
G3 X130.2536 Y56.3164 I-0.0213 J-0.9022
G1 X130.2473 Y56.3185 Z-7.0001 F1200
G3 X130.3913 Y56.2552 Z-7.1926 I-0.2898 J-0.8547
X130.5221 Y56.1679 Z-7.385 I-0.4338 J-0.7914
X130.6358 Y56.0591 Z-7.5774 I-0.5646 J-0.7041
X130.7289 Y55.9323 Z-7.7699 I-0.6783 J-0.5953
X130.7985 Y55.7912 Z-7.9623 I-0.7714 J-0.4685
X129.9641 Y56.3663 Z-7.9999 I-0.841 J-0.3274
G1 X129.9575 Z-8
X129.8575 F3200
G3 X128.95 Y55.4588 J-0.9075
G1 Y11.5409
X128.9565 Y11.4917
X128.9755 Y11.4459
X129.0056 Y11.4065
X129.045 Y11.3763
X129.0908 Y11.3574
X129.14 Y11.3509
X156.86
X156.9092 Y11.3574
X156.955 Y11.3763
X156.9944 Y11.4065
X157.0245 Y11.4459
X157.0435 Y11.4917
X157.05 Y11.5409
Y54.9257
X157.0507 Y55.0358
X157.0544 Y55.0908
X157.0612 Y55.1458
X157.0715 Y55.2009
X157.0851 Y55.2559
X157.1023 Y55.3109
X157.1233 Y55.366
X157.1508 Y55.4259
X157.1572 Y55.4384
X157.1605 Y55.4447
X157.163 Y55.4494
X157.1811 Y55.4991
X157.1849 Y55.5518
X157.174 Y55.6036
X157.1492 Y55.6503
X157.1125 Y55.6884
X157.0667 Y55.7149
X155.5719 Y56.3202
X155.5263 Y56.3387 Z-7.9935
X155.4839 Y56.3559 Z-7.9745
X155.4474 Y56.3707 Z-7.9443
X155.4194 Y56.382 Z-7.905
X155.4018 Y56.3891 Z-7.8592
X155.3958 Y56.3916 Z-7.81
G0 Z6

(Operation 2 of 2 : Horizontal1  2 )

G54
S30000 M3
X142.2226 Y26.2447
Z6
Z-7.6601
G1 X142.2217 Y26.2431 Z-7.6866 F1200
X142.2189 Y26.2384 Z-7.7125
X142.2144 Y26.2305 Z-7.7374
X142.2084 Y26.2196 Z-7.7608
X142.201 Y26.2059 Z-7.7822
X142.1926 Y26.1895 Z-7.8013
X142.1835 Y26.1707 Z-7.8176
X142.174 Y26.1498 Z-7.8309
X142.1644 Y26.1272 Z-7.8408
X142.155 Y26.1033 Z-7.8472
X142.1461 Y26.0784 Z-7.85
G3 X142.2098 Y26.2223 Z-8.0425 I0.8539 J-0.2922
X142.2975 Y26.3529 Z-8.235 I0.7902 J-0.436
X142.4066 Y26.4662 Z-8.4276 I0.7025 J-0.5666
X142.5337 Y26.5589 Z-8.6201 I0.5934 J-0.68
X142.675 Y26.6282 Z-8.8126 I0.4663 J-0.7727
X143 Y24.8837 Z-8.9 I0.325 J-0.8419
X143.4674 Y25.3511 J0.4674 F3200
G1 Y41.7527
G3 X143.0427 Y42.1774 I-0.4247
G1 X142.9573
G3 X142.5326 Y41.7527 J-0.4247
G1 Y25.3511
G3 X143 Y24.8837 I0.4674
G2 X143.5943 Y24.337 J-0.5963
G3 X144.3927 Y24.2161 I0.4136 J0.0345
X144.4346 Y24.4318 I-0.5345 J0.2157
G1 Y42.5682
G3 X143.8582 Y43.1446 I-0.5764
G1 X142.1418
G3 X141.5654 Y42.5682 J-0.5764
G1 Y24.4318
G3 X142.1418 Y23.8554 I0.5764
G1 X143.8582
G3 X144.3927 Y24.2161 J0.5764
G2 X145.1982 Y25.0223 I1.3527 J-0.5459
G3 X145.8353 Y25.9674 I-0.3824 J0.945
G1 Y43.9689
G3 X145.2589 Y44.5453 I-0.5764
G1 X140.7411
G3 X140.1647 Y43.9689 J-0.5764
G1 Y23.0311
G3 X140.7411 Y22.4547 I0.5764
G1 X145.2589
G3 X145.8353 Y23.0311 J0.5764
G1 Y25.9674
G2 X146.5357 Y27.0179 I1.1381
G3 X147.236 Y28.0684 I-0.4377 J1.0505
G1 Y45.3696
G3 X146.6596 Y45.9461 I-0.5764
G1 X139.3404
G3 X138.764 Y45.3696 J-0.5764
G1 Y21.6304
G3 X139.3404 Y21.054 I0.5764
G1 X146.6596
G3 X147.236 Y21.6304 J0.5764
G1 Y28.0684
G2 X147.9364 Y29.119 I1.1381
G3 X148.6367 Y30.1695 I-0.4377 J1.0505
G1 Y46.7703
G3 X148.0603 Y47.3468 I-0.5764
G1 X137.9397
G3 X137.3633 Y46.7703 J-0.5764
G1 Y20.2297
G3 X137.9397 Y19.6533 I0.5764
G1 X148.0603
G3 X148.6367 Y20.2297 J0.5764
G1 Y30.1695
G2 X149.3371 Y31.22 I1.1381
G3 X150.0374 Y32.2705 I-0.4377 J1.0505
G1 Y48.171
G3 X149.461 Y48.7475 I-0.5764
G1 X136.539
G3 X135.9626 Y48.171 J-0.5764
G1 Y18.829
G3 X136.539 Y18.2526 I0.5764
G1 X149.461
G3 X150.0374 Y18.829 J0.5764
G1 Y32.2705
G2 X150.7378 Y33.3211 I1.1381
G3 X151.4381 Y34.3716 I-0.4377 J1.0505
G1 Y49.5717
G3 X150.8617 Y50.1482 I-0.5764
G1 X135.1383
G3 X134.5619 Y49.5717 J-0.5764
G1 Y17.4283
G3 X135.1383 Y16.8519 I0.5764
G1 X150.8617
G3 X151.4381 Y17.4283 J0.5764
G1 Y34.3716
G2 X152.1385 Y35.4221 I1.1381
G3 X152.8389 Y36.4727 I-0.4377 J1.0505
G1 Y50.9725
G3 X152.2624 Y51.5489 I-0.5764
G1 X133.7376
G3 X133.1611 Y50.9725 J-0.5764
G1 Y16.0276
G3 X133.7376 Y15.4512 I0.5764
G1 X152.2624
G3 X152.8389 Y16.0276 J0.5764
G1 Y36.4727
G2 X153.5392 Y37.5232 I1.1381
G3 X154.2396 Y38.5737 I-0.4377 J1.0505
G1 Y52.3732
G3 X153.6631 Y52.9496 I-0.5764
G1 X132.3369
G3 X131.7604 Y52.3732 J-0.5764
G1 Y14.6269
G3 X132.3369 Y14.0505 I0.5764
G1 X153.6631
G3 X154.2396 Y14.6269 J0.5764
G1 Y38.5737
G2 X154.9399 Y39.6243 I1.1381
G3 X155.6403 Y40.6748 I-0.4377 J1.0505
G1 Y53.7739
G3 X155.0638 Y54.3503 I-0.5764
G1 X130.9362
G3 X130.3597 Y53.7739 J-0.5764
G1 Y13.2262
G3 X130.9362 Y12.6497 I0.5764
G1 X155.0638
G3 X155.6403 Y13.2262 J0.5764
G1 Y40.6748
G2 X156.3451 Y41.7321 I1.1454
G3 X157.05 Y42.7894 I-0.4406 J1.0573
G1 Y54.9254
X157.0507 Y55.0355
X157.0543 Y55.0905
X157.0612 Y55.1456
X157.0714 Y55.2006
X157.085 Y55.2556
X157.1022 Y55.3107
X157.1232 Y55.3657
X157.1511 Y55.4264
X157.1777 Y55.4758
X157.2121 Y55.5308
X157.2521 Y55.5858
X157.2612 Y55.5972
X157.304 Y55.6466
X157.3533 Y55.6959
X157.3995 Y55.7361
X157.428 Y55.7585
X157.4261 Y55.76
X128.9523
X128.95 Y55.758
Y11.2416
X128.9523 Y11.24
X157.0477
X157.05 Y11.2416
Y42.7894
X157.0481 Y42.8163 Z-8.8981
X157.0425 Y42.8422 Z-8.8923
X157.0338 Y42.8661 Z-8.8828
X157.0229 Y42.8872 Z-8.8698
X157.0107 Y42.9051 Z-8.8536
X156.9983 Y42.9197 Z-8.8344
X156.9866 Y42.931 Z-8.8127
X156.9767 Y42.9394 Z-8.7889
X156.969 Y42.945 Z-8.7635
X156.9643 Y42.9482 Z-8.737
X156.9627 Y42.9493 Z-8.71
G0 Z6

G53 Z5
M5
G4 P1.0
G53 X0 Y0
M30
%
