%
(Made in : Autodesk CAM Post Processor)
(G Code optimized for OpenBuilds OX CNC 1000 x 750 with GRBL V0.9j controller)

(Program Name : 1001)
(2 Operations :)
(1 : Contour2  2 )
(  Tool : Flat End Mill 2 Flutes, Diam = 1.9mm, Len = 12.7mm)
(  Spindle : RPM = 30000, set router dial to 6)
(  Machining time : 31 sec)
(2 : Horizontal1  2 )
(  Tool : Flat End Mill 2 Flutes, Diam = 1.9mm, Len = 12.7mm)
(  Spindle : RPM = 30000, set router dial to 6)
(  Machining time : 20 sec)

G90 G94
G17
G21

(Operation 1 of 2 : Contour2  2 )

G53 G0 Z5
G54
S30000 M3
G4 P1.0
X163.5591 Y64.6491
Z6
Z1.1878
G1 Z-0.81 F3200
X163.5526 Z-0.8592
X163.5336 Z-0.905
X163.5034 Z-0.9444
X163.4641 Z-0.9745
X163.4182 Z-0.9935
X163.3691 Z-1
X162.14
X162.0908 Y64.6426
X162.045 Y64.6236
X162.0056 Y64.5934
X161.9755 Y64.5541
X161.9565 Y64.5082
X161.95 Y64.4591
Y21.041
X161.9565 Y20.9918
X161.9755 Y20.946
X162.0056 Y20.9066
X162.045 Y20.8764
X162.0908 Y20.8574
X162.14 Y20.851
X189.86
X189.9092 Y20.8574
X189.955 Y20.8764
X189.9944 Y20.9066
X190.0245 Y20.946
X190.0435 Y20.9918
X190.05 Y21.041
Y63.9876
X190.051 Y64.0427
X190.055 Y64.0977
X190.0624 Y64.1528
X190.073 Y64.2078
X190.0871 Y64.2629
X190.1048 Y64.318
X190.1246 Y64.369
X190.1479 Y64.4201
X190.1519 Y64.4281
X190.159 Y64.4419
X190.1627 Y64.4487
X190.1797 Y64.4938
X190.1848 Y64.5418
X190.1777 Y64.5894
X190.1588 Y64.6338
X190.1294 Y64.672
X190.0913 Y64.7015
X190.047 Y64.7205
X189.9993 Y64.7278
X162.9788 Y65.3663
G3 X163.2536 Y65.3166 I-0.0213 J-0.9022
G1 X163.2473 Y65.3188 Z-1.0001 F1200
G3 X163.3913 Y65.2555 Z-1.1926 I-0.2898 J-0.8547
X163.5221 Y65.1681 Z-1.385 I-0.4338 J-0.7914
X163.6358 Y65.0594 Z-1.5774 I-0.5646 J-0.7041
X163.7289 Y64.9326 Z-1.7699 I-0.6783 J-0.5953
X163.7985 Y64.7915 Z-1.9623 I-0.7714 J-0.4685
X162.9641 Y65.3665 Z-1.9999 I-0.841 J-0.3274
G1 X162.9575 Y65.3666 Z-2
X162.8575 F3200
G3 X161.95 Y64.4591 J-0.9075
G1 Y21.041
X161.9565 Y20.9918
X161.9755 Y20.946
X162.0056 Y20.9066
X162.045 Y20.8764
X162.0908 Y20.8574
X162.14 Y20.851
X189.86
X189.9092 Y20.8574
X189.955 Y20.8764
X189.9944 Y20.9066
X190.0245 Y20.946
X190.0435 Y20.9918
X190.05 Y21.041
Y63.9876
X190.051 Y64.0427
X190.055 Y64.0977
X190.0624 Y64.1528
X190.073 Y64.2078
X190.0871 Y64.2629
X190.1048 Y64.318
X190.1246 Y64.369
X190.1479 Y64.4201
X190.1519 Y64.4281
X190.159 Y64.4419
X190.1627 Y64.4487
X190.1797 Y64.4938
X190.1848 Y64.5418
X190.1777 Y64.5894
X190.1588 Y64.6338
X190.1294 Y64.672
X190.0913 Y64.7015
X190.047 Y64.7205
X189.9993 Y64.7278
X162.9788 Y65.3663
G3 X163.2536 Y65.3166 I-0.0213 J-0.9022
G1 X163.2473 Y65.3188 Z-2.0001 F1200
G3 X163.3913 Y65.2555 Z-2.1926 I-0.2898 J-0.8547
X163.5221 Y65.1681 Z-2.385 I-0.4338 J-0.7914
X163.6358 Y65.0594 Z-2.5774 I-0.5646 J-0.7041
X163.7289 Y64.9326 Z-2.7699 I-0.6783 J-0.5953
X163.7985 Y64.7915 Z-2.9623 I-0.7714 J-0.4685
X162.9641 Y65.3665 Z-2.9999 I-0.841 J-0.3274
G1 X162.9575 Y65.3666 Z-3
X162.8575 F3200
G3 X161.95 Y64.4591 J-0.9075
G1 Y21.041
X161.9565 Y20.9918
X161.9755 Y20.946
X162.0056 Y20.9066
X162.045 Y20.8764
X162.0908 Y20.8574
X162.14 Y20.851
X189.86
X189.9092 Y20.8574
X189.955 Y20.8764
X189.9944 Y20.9066
X190.0245 Y20.946
X190.0435 Y20.9918
X190.05 Y21.041
Y63.9876
X190.051 Y64.0427
X190.055 Y64.0977
X190.0624 Y64.1528
X190.073 Y64.2078
X190.0871 Y64.2629
X190.1048 Y64.318
X190.1246 Y64.369
X190.1479 Y64.4201
X190.1519 Y64.4281
X190.159 Y64.4419
X190.1627 Y64.4487
X190.1797 Y64.4938
X190.1848 Y64.5418
X190.1777 Y64.5894
X190.1588 Y64.6338
X190.1294 Y64.672
X190.0913 Y64.7015
X190.047 Y64.7205
X189.9993 Y64.7278
X162.9788 Y65.3663
G3 X163.2536 Y65.3166 I-0.0213 J-0.9022
G1 X163.2473 Y65.3188 Z-3.0001 F1200
G3 X163.3913 Y65.2555 Z-3.1926 I-0.2898 J-0.8547
X163.5221 Y65.1681 Z-3.385 I-0.4338 J-0.7914
X163.6358 Y65.0594 Z-3.5774 I-0.5646 J-0.7041
X163.7289 Y64.9326 Z-3.7699 I-0.6783 J-0.5953
X163.7985 Y64.7915 Z-3.9623 I-0.7714 J-0.4685
X162.9641 Y65.3665 Z-3.9999 I-0.841 J-0.3274
G1 X162.9575 Y65.3666 Z-4
X162.8575 F3200
G3 X161.95 Y64.4591 J-0.9075
G1 Y21.041
X161.9565 Y20.9918
X161.9755 Y20.946
X162.0056 Y20.9066
X162.045 Y20.8764
X162.0908 Y20.8574
X162.14 Y20.851
X189.86
X189.9092 Y20.8574
X189.955 Y20.8764
X189.9944 Y20.9066
X190.0245 Y20.946
X190.0435 Y20.9918
X190.05 Y21.041
Y63.9876
X190.051 Y64.0427
X190.055 Y64.0977
X190.0624 Y64.1528
X190.073 Y64.2078
X190.0871 Y64.2629
X190.1048 Y64.318
X190.1246 Y64.369
X190.1479 Y64.4201
X190.1519 Y64.4281
X190.159 Y64.4419
X190.1627 Y64.4487
X190.1797 Y64.4938
X190.1848 Y64.5418
X190.1777 Y64.5894
X190.1588 Y64.6338
X190.1294 Y64.672
X190.0913 Y64.7015
X190.047 Y64.7205
X189.9993 Y64.7278
X162.9788 Y65.3663
G3 X163.2536 Y65.3166 I-0.0213 J-0.9022
G1 X163.2473 Y65.3188 Z-4.0001 F1200
G3 X163.3913 Y65.2555 Z-4.1926 I-0.2898 J-0.8547
X163.5221 Y65.1681 Z-4.385 I-0.4338 J-0.7914
X163.6358 Y65.0594 Z-4.5774 I-0.5646 J-0.7041
X163.7289 Y64.9326 Z-4.7699 I-0.6783 J-0.5953
X163.7985 Y64.7915 Z-4.9623 I-0.7714 J-0.4685
X162.9641 Y65.3665 Z-4.9999 I-0.841 J-0.3274
G1 X162.9575 Y65.3666 Z-5
X162.8575 F3200
G3 X161.95 Y64.4591 J-0.9075
G1 Y21.041
X161.9565 Y20.9918
X161.9755 Y20.946
X162.0056 Y20.9066
X162.045 Y20.8764
X162.0908 Y20.8574
X162.14 Y20.851
X189.86
X189.9092 Y20.8574
X189.955 Y20.8764
X189.9944 Y20.9066
X190.0245 Y20.946
X190.0435 Y20.9918
X190.05 Y21.041
Y63.9876
X190.051 Y64.0427
X190.055 Y64.0977
X190.0624 Y64.1528
X190.073 Y64.2078
X190.0871 Y64.2629
X190.1048 Y64.318
X190.1246 Y64.369
X190.1479 Y64.4201
X190.1519 Y64.4281
X190.159 Y64.4419
X190.1627 Y64.4487
X190.1797 Y64.4938
X190.1848 Y64.5418
X190.1777 Y64.5894
X190.1588 Y64.6338
X190.1294 Y64.672
X190.0913 Y64.7015
X190.047 Y64.7205
X189.9993 Y64.7278
X162.9788 Y65.3663
G3 X163.2536 Y65.3166 I-0.0213 J-0.9022
G1 X163.2473 Y65.3188 Z-5.0001 F1200
G3 X163.3913 Y65.2555 Z-5.1926 I-0.2898 J-0.8547
X163.5221 Y65.1681 Z-5.385 I-0.4338 J-0.7914
X163.6358 Y65.0594 Z-5.5774 I-0.5646 J-0.7041
X163.7289 Y64.9326 Z-5.7699 I-0.6783 J-0.5953
X163.7985 Y64.7915 Z-5.9623 I-0.7714 J-0.4685
X162.9641 Y65.3665 Z-5.9999 I-0.841 J-0.3274
G1 X162.9575 Y65.3666 Z-6
X162.8575 F3200
G3 X161.95 Y64.4591 J-0.9075
G1 Y21.041
X161.9565 Y20.9918
X161.9755 Y20.946
X162.0056 Y20.9066
X162.045 Y20.8764
X162.0908 Y20.8574
X162.14 Y20.851
X189.86
X189.9092 Y20.8574
X189.955 Y20.8764
X189.9944 Y20.9066
X190.0245 Y20.946
X190.0435 Y20.9918
X190.05 Y21.041
Y63.9876
X190.051 Y64.0427
X190.055 Y64.0977
X190.0624 Y64.1528
X190.073 Y64.2078
X190.0871 Y64.2629
X190.1048 Y64.318
X190.1246 Y64.369
X190.1479 Y64.4201
X190.1519 Y64.4281
X190.159 Y64.4419
X190.1627 Y64.4487
X190.1797 Y64.4938
X190.1848 Y64.5418
X190.1777 Y64.5894
X190.1588 Y64.6338
X190.1294 Y64.672
X190.0913 Y64.7015
X190.047 Y64.7205
X189.9993 Y64.7278
X162.9788 Y65.3663
G3 X163.2536 Y65.3166 I-0.0213 J-0.9022
G1 X163.2473 Y65.3188 Z-6.0001 F1200
G3 X163.3913 Y65.2555 Z-6.1926 I-0.2898 J-0.8547
X163.5221 Y65.1681 Z-6.385 I-0.4338 J-0.7914
X163.6358 Y65.0594 Z-6.5774 I-0.5646 J-0.7041
X163.7289 Y64.9326 Z-6.7699 I-0.6783 J-0.5953
X163.7985 Y64.7915 Z-6.9623 I-0.7714 J-0.4685
X162.9641 Y65.3665 Z-6.9999 I-0.841 J-0.3274
G1 X162.9575 Y65.3666 Z-7
X162.8575 F3200
G3 X161.95 Y64.4591 J-0.9075
G1 Y21.041
X161.9565 Y20.9918
X161.9755 Y20.946
X162.0056 Y20.9066
X162.045 Y20.8764
X162.0908 Y20.8574
X162.14 Y20.851
X189.86
X189.9092 Y20.8574
X189.955 Y20.8764
X189.9944 Y20.9066
X190.0245 Y20.946
X190.0435 Y20.9918
X190.05 Y21.041
Y63.9876
X190.051 Y64.0427
X190.055 Y64.0977
X190.0624 Y64.1528
X190.073 Y64.2078
X190.0871 Y64.2629
X190.1048 Y64.318
X190.1246 Y64.369
X190.1479 Y64.4201
X190.1519 Y64.4281
X190.159 Y64.4419
X190.1627 Y64.4487
X190.1797 Y64.4938
X190.1848 Y64.5418
X190.1777 Y64.5894
X190.1588 Y64.6338
X190.1294 Y64.672
X190.0913 Y64.7015
X190.047 Y64.7205
X189.9993 Y64.7278
X162.9788 Y65.3663
G3 X163.2536 Y65.3166 I-0.0213 J-0.9022
G1 X163.2473 Y65.3188 Z-7.0001 F1200
G3 X163.3913 Y65.2555 Z-7.1926 I-0.2898 J-0.8547
X163.5221 Y65.1681 Z-7.385 I-0.4338 J-0.7914
X163.6358 Y65.0594 Z-7.5774 I-0.5646 J-0.7041
X163.7289 Y64.9326 Z-7.7699 I-0.6783 J-0.5953
X163.7985 Y64.7915 Z-7.9623 I-0.7714 J-0.4685
X162.9641 Y65.3665 Z-7.9999 I-0.841 J-0.3274
G1 X162.9575 Y65.3666 Z-8
X162.8575 F3200
G3 X161.95 Y64.4591 J-0.9075
G1 Y21.041
X161.9565 Y20.9918
X161.9755 Y20.946
X162.0056 Y20.9066
X162.045 Y20.8764
X162.0908 Y20.8574
X162.14 Y20.851
X189.86
X189.9092 Y20.8574
X189.955 Y20.8764
X189.9944 Y20.9066
X190.0245 Y20.946
X190.0435 Y20.9918
X190.05 Y21.041
Y63.9876
X190.051 Y64.0427
X190.055 Y64.0977
X190.0624 Y64.1528
X190.073 Y64.2078
X190.0871 Y64.2629
X190.1048 Y64.318
X190.1246 Y64.369
X190.1479 Y64.4201
X190.1519 Y64.4281
X190.159 Y64.4419
X190.1627 Y64.4487
X190.1807 Y64.4985
X190.1843 Y64.5512
X190.1733 Y64.603
X190.1484 Y64.6497
X190.1116 Y64.6877
X190.0658 Y64.7141
X188.5698 Y65.3164
X188.5242 Y65.3347 Z-7.9935
X188.4817 Y65.3518 Z-7.9745
X188.4452 Y65.3665 Z-7.9444
X188.4172 Y65.3778 Z-7.905
X188.3996 Y65.3849 Z-7.8592
X188.3936 Y65.3873 Z-7.81
G0 Z6

(Operation 2 of 2 : Horizontal1  2 )

G54
S30000 M3
X175.2226 Y35.7447
Z6
Z-7.6601
G1 X175.2217 Y35.7431 Z-7.6866 F1200
X175.2189 Y35.7384 Z-7.7125
X175.2144 Y35.7305 Z-7.7374
X175.2084 Y35.7196 Z-7.7608
X175.201 Y35.7059 Z-7.7822
X175.1926 Y35.6895 Z-7.8013
X175.1835 Y35.6707 Z-7.8176
X175.174 Y35.6498 Z-7.8309
X175.1644 Y35.6272 Z-7.8408
X175.155 Y35.6032 Z-7.8472
X175.1461 Y35.5784 Z-7.85
G3 X175.2098 Y35.7223 Z-8.0425 I0.8539 J-0.2922
X175.2975 Y35.8528 Z-8.235 I0.7902 J-0.436
X175.4066 Y35.9662 Z-8.4276 I0.7025 J-0.5666
X175.5337 Y36.0589 Z-8.6201 I0.5934 J-0.68
X175.675 Y36.1282 Z-8.8126 I0.4663 J-0.7727
X176 Y34.3837 Z-8.9 I0.325 J-0.8419
X176.4674 Y34.8511 J0.4674 F3200
G1 Y50.7527
G3 X176.0427 Y51.1774 I-0.4247
G1 X175.9573
G3 X175.5326 Y50.7527 J-0.4247
G1 Y34.8511
G3 X176 Y34.3837 I0.4674
G2 X176.5943 Y33.8369 J-0.5963
G3 X177.3927 Y33.7161 I0.4136 J0.0345
X177.4346 Y33.9318 I-0.5345 J0.2157
G1 Y51.5682
G3 X176.8582 Y52.1446 I-0.5764
G1 X175.1418
G3 X174.5654 Y51.5682 J-0.5764
G1 Y33.9318
G3 X175.1418 Y33.3554 I0.5764
G1 X176.8582
G3 X177.3927 Y33.7161 J0.5764
G2 X178.1982 Y34.5223 I1.3527 J-0.5459
G3 X178.8353 Y35.4674 I-0.3824 J0.945
G1 Y52.9689
G3 X178.2589 Y53.5453 I-0.5764
G1 X173.7411
G3 X173.1647 Y52.9689 J-0.5764
G1 Y32.5311
G3 X173.7411 Y31.9547 I0.5764
G1 X178.2589
G3 X178.8353 Y32.5311 J0.5764
G1 Y35.4674
G2 X179.5357 Y36.5179 I1.1381
G3 X180.236 Y37.5684 I-0.4377 J1.0505
G1 Y54.3696
G3 X179.6596 Y54.946 I-0.5764
G1 X172.3404
G3 X171.764 Y54.3696 J-0.5764
G1 Y31.1304
G3 X172.3404 Y30.554 I0.5764
G1 X179.6596
G3 X180.236 Y31.1304 J0.5764
G1 Y37.5684
G2 X180.9364 Y38.6189 I1.1381
G3 X181.6367 Y39.6695 I-0.4377 J1.0505
G1 Y55.7703
G3 X181.0603 Y56.3467 I-0.5764
G1 X170.9397
G3 X170.3633 Y55.7703 J-0.5764
G1 Y29.7297
G3 X170.9397 Y29.1533 I0.5764
G1 X181.0603
G3 X181.6367 Y29.7297 J0.5764
G1 Y39.6695
G2 X182.3371 Y40.72 I1.1381
G3 X183.0374 Y41.7705 I-0.4377 J1.0505
G1 Y57.171
G3 X182.461 Y57.7475 I-0.5764
G1 X169.539
G3 X168.9626 Y57.171 J-0.5764
G1 Y28.329
G3 X169.539 Y27.7526 I0.5764
G1 X182.461
G3 X183.0374 Y28.329 J0.5764
G1 Y41.7705
G2 X183.7378 Y42.8211 I1.1381
G3 X184.4381 Y43.8716 I-0.4377 J1.0505
G1 Y58.5717
G3 X183.8617 Y59.1482 I-0.5764
G1 X168.1383
G3 X167.5619 Y58.5717 J-0.5764
G1 Y26.9283
G3 X168.1383 Y26.3519 I0.5764
G1 X183.8617
G3 X184.4381 Y26.9283 J0.5764
G1 Y43.8716
G2 X185.1385 Y44.9221 I1.1381
G3 X185.8389 Y45.9727 I-0.4377 J1.0505
G1 Y59.9724
G3 X185.2624 Y60.5489 I-0.5764
G1 X166.7376
G3 X166.1611 Y59.9724 J-0.5764
G1 Y25.5276
G3 X166.7376 Y24.9511 I0.5764
G1 X185.2624
G3 X185.8389 Y25.5276 J0.5764
G1 Y45.9727
G2 X186.5392 Y47.0232 I1.1381
G3 X187.2396 Y48.0737 I-0.4377 J1.0505
G1 Y61.3731
G3 X186.6631 Y61.9496 I-0.5764
G1 X165.3369
G3 X164.7604 Y61.3731 J-0.5764
G1 Y24.1269
G3 X165.3369 Y23.5504 I0.5764
G1 X186.6631
G3 X187.2396 Y24.1269 J0.5764
G1 Y48.0737
G2 X187.9399 Y49.1242 I1.1381
G3 X188.6403 Y50.1748 I-0.4377 J1.0505
G1 Y62.7739
G3 X188.0638 Y63.3503 I-0.5764
G1 X163.9362
G3 X163.3597 Y62.7739 J-0.5764
G1 Y22.7262
G3 X163.9362 Y22.1497 I0.5764
G1 X188.0638
G3 X188.6403 Y22.7262 J0.5764
G1 Y50.1748
G2 X189.3451 Y51.2321 I1.1454
G3 X190.05 Y52.2894 I-0.4406 J1.0573
G1 Y63.94
X190.0513 Y64.0501
X190.0558 Y64.1051
X190.0636 Y64.1601
X190.0747 Y64.2151
X190.0892 Y64.2702
X190.1074 Y64.3252
X190.1294 Y64.3802
X190.1481 Y64.4204
X190.1863 Y64.4903
X190.2197 Y64.5419
X190.2637 Y64.6003
X190.3118 Y64.6549
X190.3692 Y64.7104
X190.4138 Y64.7476
X190.4279 Y64.7585
X190.4259 Y64.76
X161.9515
X161.95 Y64.7585
Y20.7419
X161.9515 Y20.74
X190.0485
X190.05 Y20.7419
Y52.2894
X190.0481 Y52.3163 Z-8.8981
X190.0425 Y52.3422 Z-8.8923
X190.0338 Y52.3661 Z-8.8828
X190.0229 Y52.3872 Z-8.8698
X190.0107 Y52.4051 Z-8.8536
X189.9983 Y52.4197 Z-8.8344
X189.9866 Y52.431 Z-8.8127
X189.9767 Y52.4393 Z-8.7889
X189.969 Y52.445 Z-8.7635
X189.9643 Y52.4482 Z-8.737
X189.9627 Y52.4493 Z-8.71
G0 Z6

G53 Z5
M5
G4 P1.0
G53 X0 Y0
M30
%
