%
(Made in : Autodesk CAM Post Processor)
(G Code optimized for OpenBuilds OX CNC 1000 x 750 with GRBL V0.9j controller)

(Program Name : 1001)
(2 Operations :)
(1 : Contour2  2 )
(  Tool : Flat End Mill 2 Flutes, Diam = 1.9mm, Len = 12.7mm)
(  Spindle : RPM = 30000, set router dial to 6)
(  Machining time : 32 sec)
(2 : Horizontal1  2 )
(  Tool : Flat End Mill 2 Flutes, Diam = 1.9mm, Len = 12.7mm)
(  Spindle : RPM = 30000, set router dial to 6)
(  Machining time : 20 sec)

G90 G94
G17
G21

(Operation 1 of 2 : Contour2  2 )

G53 G0 Z5
G54
S30000 M3
G4 P1.0
X130.5591 Y64.6474
Z6
Z1.1878
G1 Z-0.81 F3200
X130.5526 Z-0.8592
X130.5336 Z-0.905
X130.5034 Z-0.9444
X130.4641 Z-0.9745
X130.4182 Z-0.9935
X130.3691 Z-1
X129.14
X129.0908 Y64.6409
X129.045 Y64.6219
X129.0056 Y64.5917
X128.9755 Y64.5524
X128.9565 Y64.5065
X128.95 Y64.4574
Y20.542
X128.9565 Y20.4928
X128.9755 Y20.447
X129.0056 Y20.4076
X129.045 Y20.3774
X129.0908 Y20.3584
X129.14 Y20.352
X156.86
X156.9092 Y20.3584
X156.955 Y20.3774
X156.9944 Y20.4076
X157.0245 Y20.447
X157.0435 Y20.4928
X157.05 Y20.542
Y63.9876
X157.051 Y64.0427
X157.055 Y64.0977
X157.0624 Y64.1528
X157.073 Y64.2078
X157.0871 Y64.2629
X157.1048 Y64.318
X157.1258 Y64.3719
X157.1508 Y64.4259
X157.1519 Y64.4281
X157.159 Y64.4419
X157.1627 Y64.4487
X157.1797 Y64.4938
X157.1848 Y64.5418
X157.1777 Y64.5895
X157.1588 Y64.6338
X157.1294 Y64.672
X157.0913 Y64.7015
X157.047 Y64.7205
X156.9993 Y64.7278
X129.9788 Y65.3646
G3 X130.2536 Y65.3149 I-0.0213 J-0.9023
G1 X130.2473 Y65.3171 Z-1.0001 F1200
G3 X130.3913 Y65.2538 Z-1.1926 I-0.2898 J-0.8547
X130.5221 Y65.1664 Z-1.385 I-0.4338 J-0.7914
X130.6358 Y65.0577 Z-1.5774 I-0.5646 J-0.7041
X130.7289 Y64.9308 Z-1.7699 I-0.6783 J-0.5953
X130.7985 Y64.7898 Z-1.9623 I-0.7714 J-0.4685
X129.9641 Y65.3648 Z-1.9999 I-0.841 J-0.3274
G1 X129.9575 Y65.3649 Z-2
X129.8575 F3200
G3 X128.95 Y64.4574 J-0.9075
G1 Y20.542
X128.9565 Y20.4928
X128.9755 Y20.447
X129.0056 Y20.4076
X129.045 Y20.3774
X129.0908 Y20.3584
X129.14 Y20.352
X156.86
X156.9092 Y20.3584
X156.955 Y20.3774
X156.9944 Y20.4076
X157.0245 Y20.447
X157.0435 Y20.4928
X157.05 Y20.542
Y63.9876
X157.051 Y64.0427
X157.055 Y64.0977
X157.0624 Y64.1528
X157.073 Y64.2078
X157.0871 Y64.2629
X157.1048 Y64.318
X157.1258 Y64.3719
X157.1508 Y64.4259
X157.1519 Y64.4281
X157.159 Y64.4419
X157.1627 Y64.4487
X157.1797 Y64.4938
X157.1848 Y64.5418
X157.1777 Y64.5895
X157.1588 Y64.6338
X157.1294 Y64.672
X157.0913 Y64.7015
X157.047 Y64.7205
X156.9993 Y64.7278
X129.9788 Y65.3646
G3 X130.2536 Y65.3149 I-0.0213 J-0.9023
G1 X130.2473 Y65.3171 Z-2.0001 F1200
G3 X130.3913 Y65.2538 Z-2.1926 I-0.2898 J-0.8547
X130.5221 Y65.1664 Z-2.385 I-0.4338 J-0.7914
X130.6358 Y65.0577 Z-2.5774 I-0.5646 J-0.7041
X130.7289 Y64.9308 Z-2.7699 I-0.6783 J-0.5953
X130.7985 Y64.7898 Z-2.9623 I-0.7714 J-0.4685
X129.9641 Y65.3648 Z-2.9999 I-0.841 J-0.3274
G1 X129.9575 Y65.3649 Z-3
X129.8575 F3200
G3 X128.95 Y64.4574 J-0.9075
G1 Y20.542
X128.9565 Y20.4928
X128.9755 Y20.447
X129.0056 Y20.4076
X129.045 Y20.3774
X129.0908 Y20.3584
X129.14 Y20.352
X156.86
X156.9092 Y20.3584
X156.955 Y20.3774
X156.9944 Y20.4076
X157.0245 Y20.447
X157.0435 Y20.4928
X157.05 Y20.542
Y63.9876
X157.051 Y64.0427
X157.055 Y64.0977
X157.0624 Y64.1528
X157.073 Y64.2078
X157.0871 Y64.2629
X157.1048 Y64.318
X157.1258 Y64.3719
X157.1508 Y64.4259
X157.1519 Y64.4281
X157.159 Y64.4419
X157.1627 Y64.4487
X157.1797 Y64.4938
X157.1848 Y64.5418
X157.1777 Y64.5895
X157.1588 Y64.6338
X157.1294 Y64.672
X157.0913 Y64.7015
X157.047 Y64.7205
X156.9993 Y64.7278
X129.9788 Y65.3646
G3 X130.2536 Y65.3149 I-0.0213 J-0.9023
G1 X130.2473 Y65.3171 Z-3.0001 F1200
G3 X130.3913 Y65.2538 Z-3.1926 I-0.2898 J-0.8547
X130.5221 Y65.1664 Z-3.385 I-0.4338 J-0.7914
X130.6358 Y65.0577 Z-3.5774 I-0.5646 J-0.7041
X130.7289 Y64.9308 Z-3.7699 I-0.6783 J-0.5953
X130.7985 Y64.7898 Z-3.9623 I-0.7714 J-0.4685
X129.9641 Y65.3648 Z-3.9999 I-0.841 J-0.3274
G1 X129.9575 Y65.3649 Z-4
X129.8575 F3200
G3 X128.95 Y64.4574 J-0.9075
G1 Y20.542
X128.9565 Y20.4928
X128.9755 Y20.447
X129.0056 Y20.4076
X129.045 Y20.3774
X129.0908 Y20.3584
X129.14 Y20.352
X156.86
X156.9092 Y20.3584
X156.955 Y20.3774
X156.9944 Y20.4076
X157.0245 Y20.447
X157.0435 Y20.4928
X157.05 Y20.542
Y63.9876
X157.051 Y64.0427
X157.055 Y64.0977
X157.0624 Y64.1528
X157.073 Y64.2078
X157.0871 Y64.2629
X157.1048 Y64.318
X157.1258 Y64.3719
X157.1508 Y64.4259
X157.1519 Y64.4281
X157.159 Y64.4419
X157.1627 Y64.4487
X157.1797 Y64.4938
X157.1848 Y64.5418
X157.1777 Y64.5895
X157.1588 Y64.6338
X157.1294 Y64.672
X157.0913 Y64.7015
X157.047 Y64.7205
X156.9993 Y64.7278
X129.9788 Y65.3646
G3 X130.2536 Y65.3149 I-0.0213 J-0.9023
G1 X130.2473 Y65.3171 Z-4.0001 F1200
G3 X130.3913 Y65.2538 Z-4.1926 I-0.2898 J-0.8547
X130.5221 Y65.1664 Z-4.385 I-0.4338 J-0.7914
X130.6358 Y65.0577 Z-4.5774 I-0.5646 J-0.7041
X130.7289 Y64.9308 Z-4.7699 I-0.6783 J-0.5953
X130.7985 Y64.7898 Z-4.9623 I-0.7714 J-0.4685
X129.9641 Y65.3648 Z-4.9999 I-0.841 J-0.3274
G1 X129.9575 Y65.3649 Z-5
X129.8575 F3200
G3 X128.95 Y64.4574 J-0.9075
G1 Y20.542
X128.9565 Y20.4928
X128.9755 Y20.447
X129.0056 Y20.4076
X129.045 Y20.3774
X129.0908 Y20.3584
X129.14 Y20.352
X156.86
X156.9092 Y20.3584
X156.955 Y20.3774
X156.9944 Y20.4076
X157.0245 Y20.447
X157.0435 Y20.4928
X157.05 Y20.542
Y63.9876
X157.051 Y64.0427
X157.055 Y64.0977
X157.0624 Y64.1528
X157.073 Y64.2078
X157.0871 Y64.2629
X157.1048 Y64.318
X157.1258 Y64.3719
X157.1508 Y64.4259
X157.1519 Y64.4281
X157.159 Y64.4419
X157.1627 Y64.4487
X157.1797 Y64.4938
X157.1848 Y64.5418
X157.1777 Y64.5895
X157.1588 Y64.6338
X157.1294 Y64.672
X157.0913 Y64.7015
X157.047 Y64.7205
X156.9993 Y64.7278
X129.9788 Y65.3646
G3 X130.2536 Y65.3149 I-0.0213 J-0.9023
G1 X130.2473 Y65.3171 Z-5.0001 F1200
G3 X130.3913 Y65.2538 Z-5.1926 I-0.2898 J-0.8547
X130.5221 Y65.1664 Z-5.385 I-0.4338 J-0.7914
X130.6358 Y65.0577 Z-5.5774 I-0.5646 J-0.7041
X130.7289 Y64.9308 Z-5.7699 I-0.6783 J-0.5953
X130.7985 Y64.7898 Z-5.9623 I-0.7714 J-0.4685
X129.9641 Y65.3648 Z-5.9999 I-0.841 J-0.3274
G1 X129.9575 Y65.3649 Z-6
X129.8575 F3200
G3 X128.95 Y64.4574 J-0.9075
G1 Y20.542
X128.9565 Y20.4928
X128.9755 Y20.447
X129.0056 Y20.4076
X129.045 Y20.3774
X129.0908 Y20.3584
X129.14 Y20.352
X156.86
X156.9092 Y20.3584
X156.955 Y20.3774
X156.9944 Y20.4076
X157.0245 Y20.447
X157.0435 Y20.4928
X157.05 Y20.542
Y63.9876
X157.051 Y64.0427
X157.055 Y64.0977
X157.0624 Y64.1528
X157.073 Y64.2078
X157.0871 Y64.2629
X157.1048 Y64.318
X157.1258 Y64.3719
X157.1508 Y64.4259
X157.1519 Y64.4281
X157.159 Y64.4419
X157.1627 Y64.4487
X157.1797 Y64.4938
X157.1848 Y64.5418
X157.1777 Y64.5895
X157.1588 Y64.6338
X157.1294 Y64.672
X157.0913 Y64.7015
X157.047 Y64.7205
X156.9993 Y64.7278
X129.9788 Y65.3646
G3 X130.2536 Y65.3149 I-0.0213 J-0.9023
G1 X130.2473 Y65.3171 Z-6.0001 F1200
G3 X130.3913 Y65.2538 Z-6.1926 I-0.2898 J-0.8547
X130.5221 Y65.1664 Z-6.385 I-0.4338 J-0.7914
X130.6358 Y65.0577 Z-6.5774 I-0.5646 J-0.7041
X130.7289 Y64.9308 Z-6.7699 I-0.6783 J-0.5953
X130.7985 Y64.7898 Z-6.9623 I-0.7714 J-0.4685
X129.9641 Y65.3648 Z-6.9999 I-0.841 J-0.3274
G1 X129.9575 Y65.3649 Z-7
X129.8575 F3200
G3 X128.95 Y64.4574 J-0.9075
G1 Y20.542
X128.9565 Y20.4928
X128.9755 Y20.447
X129.0056 Y20.4076
X129.045 Y20.3774
X129.0908 Y20.3584
X129.14 Y20.352
X156.86
X156.9092 Y20.3584
X156.955 Y20.3774
X156.9944 Y20.4076
X157.0245 Y20.447
X157.0435 Y20.4928
X157.05 Y20.542
Y63.9876
X157.051 Y64.0427
X157.055 Y64.0977
X157.0624 Y64.1528
X157.073 Y64.2078
X157.0871 Y64.2629
X157.1048 Y64.318
X157.1258 Y64.3719
X157.1508 Y64.4259
X157.1519 Y64.4281
X157.159 Y64.4419
X157.1627 Y64.4487
X157.1797 Y64.4938
X157.1848 Y64.5418
X157.1777 Y64.5895
X157.1588 Y64.6338
X157.1294 Y64.672
X157.0913 Y64.7015
X157.047 Y64.7205
X156.9993 Y64.7278
X129.9788 Y65.3646
G3 X130.2536 Y65.3149 I-0.0213 J-0.9023
G1 X130.2473 Y65.3171 Z-7.0001 F1200
G3 X130.3913 Y65.2538 Z-7.1926 I-0.2898 J-0.8547
X130.5221 Y65.1664 Z-7.385 I-0.4338 J-0.7914
X130.6358 Y65.0577 Z-7.5774 I-0.5646 J-0.7041
X130.7289 Y64.9308 Z-7.7699 I-0.6783 J-0.5953
X130.7985 Y64.7898 Z-7.9623 I-0.7714 J-0.4685
X129.9641 Y65.3648 Z-7.9999 I-0.841 J-0.3274
G1 X129.9575 Y65.3649 Z-8
X129.8575 F3200
G3 X128.95 Y64.4574 J-0.9075
G1 Y20.542
X128.9565 Y20.4928
X128.9755 Y20.447
X129.0056 Y20.4076
X129.045 Y20.3774
X129.0908 Y20.3584
X129.14 Y20.352
X156.86
X156.9092 Y20.3584
X156.955 Y20.3774
X156.9944 Y20.4076
X157.0245 Y20.447
X157.0435 Y20.4928
X157.05 Y20.542
Y63.9876
X157.051 Y64.0427
X157.055 Y64.0977
X157.0624 Y64.1528
X157.073 Y64.2078
X157.0871 Y64.2629
X157.1048 Y64.318
X157.1258 Y64.3719
X157.1508 Y64.4259
X157.1519 Y64.4281
X157.159 Y64.4419
X157.1627 Y64.4487
X157.1807 Y64.4985
X157.1843 Y64.5512
X157.1733 Y64.603
X157.1484 Y64.6497
X157.1116 Y64.6877
X157.0658 Y64.7141
X155.5698 Y65.3164
X155.5242 Y65.3347 Z-7.9935
X155.4817 Y65.3518 Z-7.9745
X155.4452 Y65.3665 Z-7.9444
X155.4172 Y65.3778 Z-7.905
X155.3996 Y65.3849 Z-7.8592
X155.3936 Y65.3873 Z-7.81
G0 Z6

(Operation 2 of 2 : Horizontal1  2 )

G54
S30000 M3
X142.2226 Y35.2447
Z6
Z-7.6601
G1 X142.2217 Y35.2431 Z-7.6866 F1200
X142.2189 Y35.2384 Z-7.7125
X142.2144 Y35.2305 Z-7.7374
X142.2084 Y35.2196 Z-7.7608
X142.201 Y35.2059 Z-7.7822
X142.1926 Y35.1895 Z-7.8013
X142.1835 Y35.1707 Z-7.8176
X142.174 Y35.1498 Z-7.8309
X142.1644 Y35.1272 Z-7.8408
X142.155 Y35.1032 Z-7.8472
X142.1461 Y35.0784 Z-7.85
G3 X142.2098 Y35.2223 Z-8.0425 I0.8539 J-0.2922
X142.2975 Y35.3528 Z-8.235 I0.7902 J-0.436
X142.4066 Y35.4662 Z-8.4276 I0.7025 J-0.5666
X142.5337 Y35.5589 Z-8.6201 I0.5934 J-0.68
X142.675 Y35.6282 Z-8.8126 I0.4663 J-0.7727
X143 Y33.8837 Z-8.9 I0.325 J-0.8419
X143.4674 Y34.3511 J0.4674 F3200
G1 Y50.7527
G3 X143.0427 Y51.1774 I-0.4247
G1 X142.9573
G3 X142.5326 Y50.7527 J-0.4247
G1 Y34.3511
G3 X143 Y33.8837 I0.4674
G2 X143.5943 Y33.3369 J-0.5963
G3 X144.3927 Y33.2161 I0.4136 J0.0345
X144.4346 Y33.4318 I-0.5345 J0.2157
G1 Y51.5682
G3 X143.8582 Y52.1446 I-0.5764
G1 X142.1418
G3 X141.5654 Y51.5682 J-0.5764
G1 Y33.4318
G3 X142.1418 Y32.8554 I0.5764
G1 X143.8582
G3 X144.3927 Y33.2161 J0.5764
G2 X145.1982 Y34.0223 I1.3527 J-0.5459
G3 X145.8353 Y34.9674 I-0.3824 J0.945
G1 Y52.9689
G3 X145.2589 Y53.5453 I-0.5764
G1 X140.7411
G3 X140.1647 Y52.9689 J-0.5764
G1 Y32.0311
G3 X140.7411 Y31.4547 I0.5764
G1 X145.2589
G3 X145.8353 Y32.0311 J0.5764
G1 Y34.9674
G2 X146.5357 Y36.0179 I1.1381
G3 X147.236 Y37.0684 I-0.4377 J1.0505
G1 Y54.3696
G3 X146.6596 Y54.946 I-0.5764
G1 X139.3404
G3 X138.764 Y54.3696 J-0.5764
G1 Y30.6304
G3 X139.3404 Y30.054 I0.5764
G1 X146.6596
G3 X147.236 Y30.6304 J0.5764
G1 Y37.0684
G2 X147.9364 Y38.1189 I1.1381
G3 X148.6367 Y39.1695 I-0.4377 J1.0505
G1 Y55.7703
G3 X148.0603 Y56.3467 I-0.5764
G1 X137.9397
G3 X137.3633 Y55.7703 J-0.5764
G1 Y29.2297
G3 X137.9397 Y28.6533 I0.5764
G1 X148.0603
G3 X148.6367 Y29.2297 J0.5764
G1 Y39.1695
G2 X149.3371 Y40.22 I1.1381
G3 X150.0374 Y41.2705 I-0.4377 J1.0505
G1 Y57.171
G3 X149.461 Y57.7475 I-0.5764
G1 X136.539
G3 X135.9626 Y57.171 J-0.5764
G1 Y27.829
G3 X136.539 Y27.2526 I0.5764
G1 X149.461
G3 X150.0374 Y27.829 J0.5764
G1 Y41.2705
G2 X150.7378 Y42.3211 I1.1381
G3 X151.4381 Y43.3716 I-0.4377 J1.0505
G1 Y58.5717
G3 X150.8617 Y59.1482 I-0.5764
G1 X135.1383
G3 X134.5619 Y58.5717 J-0.5764
G1 Y26.4283
G3 X135.1383 Y25.8519 I0.5764
G1 X150.8617
G3 X151.4381 Y26.4283 J0.5764
G1 Y43.3716
G2 X152.1385 Y44.4221 I1.1381
G3 X152.8389 Y45.4727 I-0.4377 J1.0505
G1 Y59.9724
G3 X152.2624 Y60.5489 I-0.5764
G1 X133.7376
G3 X133.1611 Y59.9724 J-0.5764
G1 Y25.0276
G3 X133.7376 Y24.4511 I0.5764
G1 X152.2624
G3 X152.8389 Y25.0276 J0.5764
G1 Y45.4727
G2 X153.5392 Y46.5232 I1.1381
G3 X154.2396 Y47.5737 I-0.4377 J1.0505
G1 Y61.3731
G3 X153.6631 Y61.9496 I-0.5764
G1 X132.3369
G3 X131.7604 Y61.3731 J-0.5764
G1 Y23.6269
G3 X132.3369 Y23.0504 I0.5764
G1 X153.6631
G3 X154.2396 Y23.6269 J0.5764
G1 Y47.5737
G2 X154.9399 Y48.6242 I1.1381
G3 X155.6403 Y49.6748 I-0.4377 J1.0505
G1 Y62.7739
G3 X155.0638 Y63.3503 I-0.5764
G1 X130.9362
G3 X130.3597 Y62.7739 J-0.5764
G1 Y22.2262
G3 X130.9362 Y21.6497 I0.5764
G1 X155.0638
G3 X155.6403 Y22.2262 J0.5764
G1 Y49.6748
G2 X156.3451 Y50.7321 I1.1454
G3 X157.05 Y51.7894 I-0.4406 J1.0573
G1 Y63.94
X157.0513 Y64.0501
X157.0558 Y64.1051
X157.0636 Y64.1601
X157.0747 Y64.2151
X157.0892 Y64.2702
X157.1074 Y64.3252
X157.1294 Y64.3802
X157.151 Y64.4263
X157.1863 Y64.4903
X157.221 Y64.5437
X157.2637 Y64.6003
X157.3122 Y64.6553
X157.3713 Y64.7122
X157.4144 Y64.7481
X157.428 Y64.7585
X157.4261 Y64.76
X128.9523
X128.95 Y64.7585
Y20.2413
X128.9523 Y20.24
X157.0477
X157.05 Y20.2413
Y51.7894
X157.0481 Y51.8163 Z-8.8981
X157.0425 Y51.8422 Z-8.8923
X157.0338 Y51.8661 Z-8.8828
X157.0229 Y51.8872 Z-8.8698
X157.0107 Y51.9051 Z-8.8536
X156.9983 Y51.9197 Z-8.8344
X156.9866 Y51.931 Z-8.8127
X156.9767 Y51.9393 Z-8.7889
X156.969 Y51.945 Z-8.7635
X156.9643 Y51.9482 Z-8.737
X156.9627 Y51.9493 Z-8.71
G0 Z6

G53 Z5
M5
G4 P1.0
G53 X0 Y0
M30
%
