%
(Made in : Autodesk CAM Post Processor)
(G Code optimized for OpenBuilds OX CNC 1000 x 750 with GRBL V0.9j controller)

(Program Name : 1001)
(2 Operations :)
(1 : Contour2  2 )
(  Tool : Flat End Mill 2 Flutes, Diam = 1.9mm, Len = 12.7mm)
(  Spindle : RPM = 30000, set router dial to 6)
(  Machining time : 6 min 17 sec)
(2 : Horizontal1  2 )
(  Tool : Flat End Mill 2 Flutes, Diam = 1.9mm, Len = 12.7mm)
(  Spindle : RPM = 30000, set router dial to 6)
(  Machining time : 20 sec)

G90 G94
G17
G21

(Operation 1 of 2 : Contour2  2 )

G53 G0 Z5
G54
S30000 M3
G4 P1.0
X-2.2467 Y-1.2219
Z6
Z1.19
G1 Z-0.81 F3200
X-2.2408 Y-1.2192 Z-0.8592
X-2.2236 Y-1.2111 Z-0.905
X-2.1963 Y-1.1983 Z-0.9444
X-2.1607 Y-1.1816 Z-0.9745
X-2.1192 Y-1.1621 Z-0.9935
X-2.0747 Y-1.1413 Z-1
X-0.9668 Y-0.6216
X-0.925 Y-0.5948
X-0.8916 Y-0.5582
X-0.8688 Y-0.5141
X-0.8582 Y-0.4657
X-0.8604 Y-0.4161
X-0.8755 Y-0.3689
X-0.8918 Y-0.3273
X-0.9101 Y-0.2723
X-0.9248 Y-0.2172
X-0.9361 Y-0.1622
X-0.9439 Y-0.1072
X-0.9486 Y-0.0521
X-0.95 Y0.0029
Y34.8937
Y35.0038
X-0.9482 Y35.0588
X-0.9432 Y35.1139
X-0.9349 Y35.1689
X-0.9232 Y35.2239
X-0.9081 Y35.279
X-0.8893 Y35.334
X-0.8755 Y35.3689
X-0.8586 Y35.4065
X-0.8398 Y35.4441
X-0.8083 Y35.4991
X-0.7716 Y35.5541
X-0.7653 Y35.5628
X-0.7253 Y35.6135
X-0.6792 Y35.6642
X-0.6552 Y35.6879
X-0.6028 Y35.7342
X-0.5505 Y35.7743
X-0.5451 Y35.778
X-0.49 Y35.8139
X-0.435 Y35.8446
X-0.391 Y35.8658
X-0.3471 Y35.8843
X-0.3248 Y35.8927
X-0.2698 Y35.9109
X-0.2147 Y35.9254
X-0.1597 Y35.9365
X-0.1046 Y35.9442
X-0.0495 Y35.9487
X0.0055 Y35.95
X14.9822
X15.0923 Y35.9515
X15.2025 Y35.9569
X15.3126 Y35.9663
X15.4227 Y35.98
X15.516 Y35.9944
X15.5328 Y35.9971
X15.643 Y36.0185
X15.7531 Y36.0448
X15.8632 Y36.0755
X15.958 Y36.1045
X15.9733 Y36.1093
X16.0835 Y36.1496
X16.1936 Y36.1933
X16.2419 Y36.2145
X16.3037 Y36.2428
X16.4138 Y36.298
X16.4643 Y36.3246
X16.5239 Y36.3582
X16.6341 Y36.4251
X16.6491 Y36.4347
X16.7442 Y36.4983
X16.8093 Y36.5447
X16.8543 Y36.5786
X16.9493 Y36.6548
X16.9644 Y36.6673
X17.0746 Y36.7643
X17.0752 Y36.7649
X17.1847 Y36.8722
X17.1873 Y36.8749
X17.2895 Y36.985
X17.2948 Y36.9912
X17.3815 Y37.0951
X17.4049 Y37.1247
X17.4659 Y37.2051
X17.5151 Y37.275
X17.5419 Y37.3152
X17.6117 Y37.4252
X17.6252 Y37.448
X17.6752 Y37.5353
X17.7323 Y37.6454
X17.7353 Y37.6513
X17.7843 Y37.7554
X17.8305 Y37.8655
X17.8454 Y37.9035
X17.8728 Y37.9756
X17.9093 Y38.0856
X17.9413 Y38.1957
X17.9555 Y38.2484
X17.9698 Y38.3058
X17.9935 Y38.4158
X18.0124 Y38.5259
X18.0279 Y38.636
X18.0392 Y38.746
X18.0465 Y38.8561
X18.0496 Y38.9662
X18.05 Y39.0762
Y71.9859
X18.0484 Y72.096
X18.0429 Y72.206
X18.0333 Y72.3161
X18.0196 Y72.4262
X18.0023 Y72.5362
X17.9807 Y72.6463
X17.9555 Y72.7516
X17.9543 Y72.7564
X17.9236 Y72.8664
X17.8896 Y72.9765
X17.8492 Y73.0865
X17.8454 Y73.0964
X17.8054 Y73.1966
X17.7559 Y73.3067
X17.7353 Y73.3487
X17.7004 Y73.4167
X17.6401 Y73.5268
X17.6252 Y73.552
X17.5731 Y73.6369
X17.5151 Y73.725
X17.4998 Y73.7469
X17.4193 Y73.857
X17.4049 Y73.8753
X17.3304 Y73.9671
X17.2948 Y74.0087
X17.2332 Y74.0771
X17.1847 Y74.1278
X17.1252 Y74.1872
X17.0746 Y74.2357
X17.0059 Y74.2973
X16.9644 Y74.3327
X16.8722 Y74.4073
X16.8543 Y74.4214
X16.7442 Y74.5017
X16.7216 Y74.5174
X16.6341 Y74.5749
X16.5481 Y74.6275
X16.5239 Y74.6418
X16.4138 Y74.702
X16.3443 Y74.7375
X16.3037 Y74.7572
X16.1936 Y74.8067
X16.0908 Y74.8476
X16.0835 Y74.8505
X15.9733 Y74.8907
X15.8632 Y74.9245
X15.7531 Y74.9551
X15.7433 Y74.9577
X15.643 Y74.9815
X15.5328 Y75.0029
X15.4227 Y75.02
X15.3126 Y75.0336
X15.2025 Y75.0431
X15.0923 Y75.0485
X14.9822 Y75.05
X0.0055
X-0.0495 Y75.0513
X-0.1046 Y75.0558
X-0.1828 Y75.0677
X-0.2147 Y75.0746
X-0.2698 Y75.0891
X-0.3248 Y75.1072
X-0.3799 Y75.1292
X-0.435 Y75.1554
X-0.4759 Y75.1778
X-0.5451 Y75.2219
X-0.5869 Y75.253
X-0.6288 Y75.2879
X-0.6552 Y75.3121
X-0.6975 Y75.355
X-0.7349 Y75.3979
X-0.7653 Y75.4372
X-0.7902 Y75.4726
X-0.8127 Y75.508
X-0.8435 Y75.563
X-0.8699 Y75.6181
X-0.8755 Y75.6311
X-0.8944 Y75.6796
X-0.9103 Y75.7281
X-0.9249 Y75.7832
X-0.9361 Y75.8382
X-0.944 Y75.8932
X-0.9486 Y75.9483
X-0.95 Y76.0583
Y140.9971
X-0.9486 Y141.0521
X-0.9439 Y141.1072
X-0.9361 Y141.1622
X-0.9248 Y141.2172
X-0.9101 Y141.2723
X-0.8918 Y141.3273
X-0.8755 Y141.3689
X-0.8433 Y141.4374
X-0.8124 Y141.4924
X-0.7764 Y141.5474
X-0.7653 Y141.5628
X-0.7282 Y141.6102
X-0.6857 Y141.6575
X-0.6552 Y141.6879
X-0.6075 Y141.7304
X-0.5598 Y141.7676
X-0.5451 Y141.7781
X-0.49 Y141.8139
X-0.435 Y141.8446
X-0.3637 Y141.8776
X-0.3248 Y141.8927
X-0.2698 Y141.9109
X-0.2147 Y141.9254
X-0.1597 Y141.9365
X-0.1046 Y141.9442
X-0.0495 Y141.9487
X0.0055 Y141.95
X127.9682
X128.0784 Y141.9468
X128.1334 Y141.9406
X128.1885 Y141.9311
X128.2435 Y141.9183
X128.2986 Y141.9019
X128.3637 Y141.8776
X128.4087 Y141.8576
X128.4638 Y141.8291
X128.5189 Y141.7958
X128.5598 Y141.7676
X128.5944 Y141.7411
X128.629 Y141.712
X128.6857 Y141.6575
X128.7391 Y141.5969
X128.7764 Y141.5474
X128.8124 Y141.4924
X128.8433 Y141.4374
X128.8492 Y141.4258
X128.8722 Y141.3766
X128.8918 Y141.3273
X128.9102 Y141.2723
X128.9248 Y141.2172
X128.9361 Y141.1622
X128.944 Y141.1072
X128.9486 Y141.0521
X128.95 Y140.9971
Y86.0743
X128.9493 Y85.9642
X128.9457 Y85.9092
X128.9388 Y85.8542
X128.9285 Y85.7991
X128.9149 Y85.7441
X128.8977 Y85.6891
X128.8767 Y85.634
X128.8492 Y85.5741
X128.8222 Y85.524
X128.7877 Y85.4689
X128.7477 Y85.4139
X128.7391 Y85.4031
X128.6961 Y85.3535
X128.6465 Y85.3038
X128.629 Y85.288
X128.5739 Y85.2429
X128.5189 Y85.2042
X128.5025 Y85.1938
X128.4556 Y85.1664
X128.4087 Y85.1424
X128.3537 Y85.1183
X128.2986 Y85.0981
X128.2509 Y85.0837
X128.1885 Y85.0689
X128.1334 Y85.0594
X128.0784 Y85.0532
X127.9682 Y85.05
X73.9518
X73.95 Y85.0476
Y27.0791
X73.9495 Y26.969
X73.9461 Y26.914
X73.9395 Y26.8589
X73.9296 Y26.8039
X73.9162 Y26.7489
X73.8979 Y26.6898
X73.8787 Y26.6388
X73.854 Y26.5838
X73.8249 Y26.5287
X73.7878 Y26.4691
X73.7514 Y26.4187
X73.7167 Y26.3765
X73.6777 Y26.3342
X73.6515 Y26.3086
X73.6095 Y26.2713
X73.5676 Y26.2382
X73.5101 Y26.1985
X73.4574 Y26.1674
X73.4024 Y26.1394
X73.3473 Y26.1158
X73.3075 Y26.1011
X73.2676 Y26.0885
X73.2372 Y26.0801
X73.1821 Y26.0676
X73.1271 Y26.0585
X73.072 Y26.0527
X73.017 Y26.0502
X72.9068 Y26.05
X23.952
X23.95 Y26.0478
Y0.0029
X23.9486 Y-0.0521
X23.9439 Y-0.1072
X23.9361 Y-0.1622
X23.9248 Y-0.2172
X23.9145 Y-0.2574
X23.9022 Y-0.2977
X23.8918 Y-0.3273
X23.8697 Y-0.3823
X23.8433 Y-0.4374
X23.8193 Y-0.481
X23.7921 Y-0.5246
X23.7764 Y-0.5474
X23.7345 Y-0.6025
X23.6857 Y-0.6575
X23.6819 Y-0.6614
X23.6269 Y-0.7138
X23.5718 Y-0.7587
X23.5598 Y-0.7676
X23.5107 Y-0.801
X23.4617 Y-0.8303
X23.4127 Y-0.8557
X23.3637 Y-0.8776
X23.3516 Y-0.8826
X23.2965 Y-0.9025
X23.2414 Y-0.9188
X23.1864 Y-0.9315
X23.1313 Y-0.9409
X23.0763 Y-0.9469
X23.0212 Y-0.9498
X22.9111 Y-0.95
X0.0055
X-0.0495 Y-0.9487
X-0.1046 Y-0.9442
X-0.1597 Y-0.9365
X-0.2147 Y-0.9254
X-0.2698 Y-0.9109
X-0.3248 Y-0.8927
X-0.3637 Y-0.8776
X-0.435 Y-0.8446
X-0.49 Y-0.8139
X-0.5451 Y-0.7781
X-0.5598 Y-0.7676
X-0.6075 Y-0.7304
X-0.6552 Y-0.6879
X-0.6857 Y-0.6575
X-0.7282 Y-0.6102
X-0.7653 Y-0.5628
X-0.7764 Y-0.5474
X-0.8124 Y-0.4924
X-0.8433 Y-0.4374
X-0.8755 Y-0.3689
X-0.8931 Y-0.3238
X-0.9084 Y-0.2779
X-0.9214 Y-0.2313 Z-1.0001
X-0.932 Y-0.1841
X-0.9402 Y-0.1364
X-0.9459 Y-0.0883 Z-1.0002
X-0.9492 Y-0.04 Z-1.0003
X-0.95 Y0.0084 Z-1.0004
Y0.2019 Z-1.0008
Y0.3955 Z-1.0015
Y0.5891 Z-1.0023
Y0.7827 Z-1.0033
Y0.9762 Z-1.0045
Y1.1698 Z-1.0058
Y1.3634 Z-1.0073
Y1.557 Z-1.009
Y1.7505 Z-1.0109
Y1.9441 Z-1.0129
Y2.1377 Z-1.0151
Y2.3313 Z-1.0174
Y2.5248 Z-1.0199
Y2.7184 Z-1.0225
Y2.912 Z-1.0253
Y3.1056 Z-1.0283
Y3.2991 Z-1.0314
Y3.4927 Z-1.0347
Y3.6863 Z-1.0381
Y3.8799 Z-1.0416
Y4.0734 Z-1.0453
Y4.267 Z-1.0491
Y4.4606 Z-1.0531
Y4.6542 Z-1.0572
Y4.8477 Z-1.0614
Y5.0413 Z-1.0658
Y5.2349 Z-1.0702
Y5.4285 Z-1.0749
Y5.622 Z-1.0796
Y5.8156 Z-1.0845
Y6.0092 Z-1.0894
Y6.106 Z-1.092
Y6.2028 Z-1.0945
Y6.2995 Z-1.0971
Y6.3963 Z-1.0997
Y6.4931 Z-1.1024
Y6.5899 Z-1.1051
Y6.6867 Z-1.1078
Y6.7835 Z-1.1105
Y6.8803 Z-1.1133
Y6.9771 Z-1.1161
Y7.0738 Z-1.1189
Y7.1706 Z-1.1217
Y7.2674 Z-1.1246
Y7.3642 Z-1.1275
Y7.461 Z-1.1304
Y7.5578 Z-1.1334
Y7.6546 Z-1.1363
Y7.7514 Z-1.1393
Y7.8481 Z-1.1423
Y7.9449 Z-1.1454
Y8.0417 Z-1.1485
Y8.1385 Z-1.1516
Y8.2353 Z-1.1547
Y8.3321 Z-1.1578
Y8.4289 Z-1.161
Y8.5257 Z-1.1642
Y8.6224 Z-1.1674
Y8.7192 Z-1.1706
Y8.816 Z-1.1739
Y8.9128 Z-1.1772
Y9.0096 Z-1.1805
Y9.1064 Z-1.1838
Y9.2032 Z-1.1871
Y9.3967 Z-1.1939
Y9.4935 Z-1.1972
Y9.5903 Z-1.2006
Y9.6871 Z-1.204
Y9.7839 Z-1.2074
Y9.8807 Z-1.2108
Y9.9775 Z-1.2141
Y10.0742 Z-1.2175
Y10.171 Z-1.2209
Y10.2678 Z-1.2243
Y10.3646 Z-1.2277
Y10.4614 Z-1.231
Y10.5582 Z-1.2344
Y10.7518 Z-1.2412
Y11.0421 Z-1.2513
Y11.3325 Z-1.2614
Y11.6228 Z-1.2716
Y11.9132 Z-1.2817
Y12.2036 Z-1.2919
Y12.4939 Z-1.302
Y12.7843 Z-1.3121
Y13.0747 Z-1.3223
Y13.365 Z-1.3324
Y13.6554 Z-1.3426
Y14.1393 Z-1.3595
Y14.6233 Z-1.3764
Y15.1072 Z-1.3933
Y15.7847 Z-1.4169
Y16.6558 Z-1.4473
Y18.1076 Z-1.498
Y25.0763 Z-1.7413
Y25.3666 Z-1.7515
Y25.657 Z-1.7616
Y25.7538 Z-1.765
Y25.8506 Z-1.7684
Y25.9474 Z-1.7717
Y26.0442 Z-1.7751
Y26.1409 Z-1.7785
Y26.2377 Z-1.7819
Y26.3345 Z-1.7853
Y26.4313 Z-1.7886
Y26.5281 Z-1.792
Y26.6249 Z-1.7954
Y26.7217 Z-1.7988
Y26.8185 Z-1.8022
Y26.9152 Z-1.8055
Y27.012 Z-1.8089
Y27.1088 Z-1.8123
Y27.2056 Z-1.8156
Y27.3024 Z-1.819
Y27.3992 Z-1.8223
Y27.496 Z-1.8255
Y27.5928 Z-1.8288
Y27.6895 Z-1.832
Y27.7863 Z-1.8353
Y27.8831 Z-1.8385
Y27.9799 Z-1.8416
Y28.0767 Z-1.8448
Y28.1735 Z-1.8479
Y28.2703 Z-1.851
Y28.3671 Z-1.8541
Y28.4638 Z-1.8571
Y28.5606 Z-1.8601
Y28.6574 Z-1.8631
Y28.7542 Z-1.8661
Y28.851 Z-1.8691
Y28.9478 Z-1.872
Y29.0446 Z-1.8749
Y29.1414 Z-1.8778
Y29.2381 Z-1.8806
Y29.3349 Z-1.8834
Y29.4317 Z-1.8862
Y29.5285 Z-1.889
Y29.6253 Z-1.8917
Y29.7221 Z-1.8945
Y29.8189 Z-1.8971
Y29.9157 Z-1.8998
Y30.0124 Z-1.9024
Y30.1092 Z-1.905
Y30.206 Z-1.9076
Y30.3028 Z-1.9101
Y30.3996 Z-1.9126
Y30.5932 Z-1.9176
Y30.7867 Z-1.9224
Y30.9803 Z-1.9271
Y31.1739 Z-1.9316
Y31.3675 Z-1.9361
Y31.561 Z-1.9404
Y31.7546 Z-1.9445
Y31.9482 Z-1.9486
Y32.1418 Z-1.9525
Y32.3353 Z-1.9562
Y32.5289 Z-1.9599
Y32.7225 Z-1.9634
Y32.9161 Z-1.9667
Y33.1096 Z-1.9699
Y33.3032 Z-1.9729
Y33.4968 Z-1.9758
Y33.6904 Z-1.9786
Y33.8839 Z-1.9812
Y34.0775 Z-1.9836
Y34.2711 Z-1.9859
Y34.4647 Z-1.988
Y34.6582 Z-1.9899
Y34.8518 Z-1.9917
X-0.9489 Y35.0454 Z-1.9933
X-0.9454 Y35.0936 Z-1.9937
X-0.9394 Y35.1417 Z-1.9941
X-0.9309 Y35.1893 Z-1.9944
X-0.9201 Y35.2365 Z-1.9948
X-0.9069 Y35.283 Z-1.9951
X-0.8913 Y35.3288 Z-1.9954
X-0.8734 Y35.3738 Z-1.9957
X-0.8532 Y35.4178 Z-1.996
X-0.8308 Y35.4607 Z-1.9963
X-0.8063 Y35.5024 Z-1.9966
X-0.7796 Y35.5428 Z-1.9969
X-0.751 Y35.5818 Z-1.9971
X-0.7204 Y35.6193 Z-1.9974
X-0.6879 Y35.6552 Z-1.9976
X-0.6536 Y35.6894 Z-1.9978
X-0.6177 Y35.7218 Z-1.9981
X-0.5801 Y35.7523 Z-1.9983
X-0.5411 Y35.7809 Z-1.9985
X-0.5006 Y35.8074 Z-1.9986
X-0.4588 Y35.8318 Z-1.9988
X-0.4159 Y35.8541 Z-1.999
X-0.3718 Y35.8742 Z-1.9991
X-0.3268 Y35.892 Z-1.9993
X-0.281 Y35.9075 Z-1.9994
X-0.2344 Y35.9206 Z-1.9995
X-0.1872 Y35.9314 Z-1.9996
X-0.1395 Y35.9397 Z-1.9997
X-0.0915 Y35.9456 Z-1.9998
X-0.0432 Y35.949
X0.0052 Y35.95 Z-1.9999
X0.102 Z-2
X0.2158
X14.9822
X15.0923 Y35.9515
X15.2025 Y35.9569
X15.3126 Y35.9663
X15.4227 Y35.98
X15.516 Y35.9944
X15.5328 Y35.9971
X15.643 Y36.0185
X15.7531 Y36.0448
X15.8632 Y36.0755
X15.958 Y36.1045
X15.9733 Y36.1093
X16.0835 Y36.1496
X16.1936 Y36.1933
X16.2419 Y36.2145
X16.3037 Y36.2428
X16.4138 Y36.298
X16.4643 Y36.3246
X16.5239 Y36.3582
X16.6341 Y36.4251
X16.6491 Y36.4347
X16.7442 Y36.4983
X16.8093 Y36.5447
X16.8543 Y36.5786
X16.9493 Y36.6548
X16.9644 Y36.6673
X17.0746 Y36.7643
X17.0752 Y36.7649
X17.1847 Y36.8722
X17.1873 Y36.8749
X17.2895 Y36.985
X17.2948 Y36.9912
X17.3815 Y37.0951
X17.4049 Y37.1247
X17.4659 Y37.2051
X17.5151 Y37.275
X17.5419 Y37.3152
X17.6117 Y37.4252
X17.6252 Y37.448
X17.6752 Y37.5353
X17.7323 Y37.6454
X17.7353 Y37.6513
X17.7843 Y37.7554
X17.8305 Y37.8655
X17.8454 Y37.9035
X17.8728 Y37.9756
X17.9093 Y38.0856
X17.9413 Y38.1957
X17.9555 Y38.2484
X17.9698 Y38.3058
X17.9935 Y38.4158
X18.0124 Y38.5259
X18.0279 Y38.636
X18.0392 Y38.746
X18.0465 Y38.8561
X18.0496 Y38.9662
X18.05 Y39.0762
Y71.9859
X18.0484 Y72.096
X18.0429 Y72.206
X18.0333 Y72.3161
X18.0196 Y72.4262
X18.0023 Y72.5362
X17.9807 Y72.6463
X17.9555 Y72.7516
X17.9543 Y72.7564
X17.9236 Y72.8664
X17.8896 Y72.9765
X17.8492 Y73.0865
X17.8454 Y73.0964
X17.8054 Y73.1966
X17.7559 Y73.3067
X17.7353 Y73.3487
X17.7004 Y73.4167
X17.6401 Y73.5268
X17.6252 Y73.552
X17.5731 Y73.6369
X17.5151 Y73.725
X17.4998 Y73.7469
X17.4193 Y73.857
X17.4049 Y73.8753
X17.3304 Y73.9671
X17.2948 Y74.0087
X17.2332 Y74.0771
X17.1847 Y74.1278
X17.1252 Y74.1872
X17.0746 Y74.2357
X17.0059 Y74.2973
X16.9644 Y74.3327
X16.8722 Y74.4073
X16.8543 Y74.4214
X16.7442 Y74.5017
X16.7216 Y74.5174
X16.6341 Y74.5749
X16.5481 Y74.6275
X16.5239 Y74.6418
X16.4138 Y74.702
X16.3443 Y74.7375
X16.3037 Y74.7572
X16.1936 Y74.8067
X16.0908 Y74.8476
X16.0835 Y74.8505
X15.9733 Y74.8907
X15.8632 Y74.9245
X15.7531 Y74.9551
X15.7433 Y74.9577
X15.643 Y74.9815
X15.5328 Y75.0029
X15.4227 Y75.02
X15.3126 Y75.0336
X15.2025 Y75.0431
X15.0923 Y75.0485
X14.9822 Y75.05
X0.0055
X-0.0495 Y75.0513
X-0.1046 Y75.0558
X-0.1828 Y75.0677
X-0.2147 Y75.0746
X-0.2698 Y75.0891
X-0.3248 Y75.1072
X-0.3799 Y75.1292
X-0.435 Y75.1554
X-0.4759 Y75.1778
X-0.5451 Y75.2219
X-0.5869 Y75.253
X-0.6288 Y75.2879
X-0.6552 Y75.3121
X-0.6975 Y75.355
X-0.7349 Y75.3979
X-0.7653 Y75.4372
X-0.7902 Y75.4726
X-0.8127 Y75.508
X-0.8435 Y75.563
X-0.8699 Y75.6181
X-0.8755 Y75.6311
X-0.8944 Y75.6796
X-0.9103 Y75.7281
X-0.9249 Y75.7832
X-0.9361 Y75.8382
X-0.944 Y75.8932
X-0.9486 Y75.9483
X-0.95 Y76.0583
Y140.9971
X-0.9486 Y141.0521
X-0.9439 Y141.1072
X-0.9361 Y141.1622
X-0.9248 Y141.2172
X-0.9101 Y141.2723
X-0.8918 Y141.3273
X-0.8755 Y141.3689
X-0.8433 Y141.4374
X-0.8124 Y141.4924
X-0.7764 Y141.5474
X-0.7653 Y141.5628
X-0.7282 Y141.6102
X-0.6857 Y141.6575
X-0.6552 Y141.6879
X-0.6075 Y141.7304
X-0.5598 Y141.7676
X-0.5451 Y141.7781
X-0.49 Y141.8139
X-0.435 Y141.8446
X-0.3637 Y141.8776
X-0.3248 Y141.8927
X-0.2698 Y141.9109
X-0.2147 Y141.9254
X-0.1597 Y141.9365
X-0.1046 Y141.9442
X-0.0495 Y141.9487
X0.0055 Y141.95
X127.9682
X128.0784 Y141.9468
X128.1334 Y141.9406
X128.1885 Y141.9311
X128.2435 Y141.9183
X128.2986 Y141.9019
X128.3637 Y141.8776
X128.4087 Y141.8576
X128.4638 Y141.8291
X128.5189 Y141.7958
X128.5598 Y141.7676
X128.5944 Y141.7411
X128.629 Y141.712
X128.6857 Y141.6575
X128.7391 Y141.5969
X128.7764 Y141.5474
X128.8124 Y141.4924
X128.8433 Y141.4374
X128.8492 Y141.4258
X128.8722 Y141.3766
X128.8918 Y141.3273
X128.9102 Y141.2723
X128.9248 Y141.2172
X128.9361 Y141.1622
X128.944 Y141.1072
X128.9486 Y141.0521
X128.95 Y140.9971
Y86.0743
X128.9493 Y85.9642
X128.9457 Y85.9092
X128.9388 Y85.8542
X128.9285 Y85.7991
X128.9149 Y85.7441
X128.8977 Y85.6891
X128.8767 Y85.634
X128.8492 Y85.5741
X128.8222 Y85.524
X128.7877 Y85.4689
X128.7477 Y85.4139
X128.7391 Y85.4031
X128.6961 Y85.3535
X128.6465 Y85.3038
X128.629 Y85.288
X128.5739 Y85.2429
X128.5189 Y85.2042
X128.5025 Y85.1938
X128.4556 Y85.1664
X128.4087 Y85.1424
X128.3537 Y85.1183
X128.2986 Y85.0981
X128.2509 Y85.0837
X128.1885 Y85.0689
X128.1334 Y85.0594
X128.0784 Y85.0532
X127.9682 Y85.05
X73.9518
X73.95 Y85.0476
Y27.0791
X73.9495 Y26.969
X73.9461 Y26.914
X73.9395 Y26.8589
X73.9296 Y26.8039
X73.9162 Y26.7489
X73.8979 Y26.6898
X73.8787 Y26.6388
X73.854 Y26.5838
X73.8249 Y26.5287
X73.7878 Y26.4691
X73.7514 Y26.4187
X73.7167 Y26.3765
X73.6777 Y26.3342
X73.6515 Y26.3086
X73.6095 Y26.2713
X73.5676 Y26.2382
X73.5101 Y26.1985
X73.4574 Y26.1674
X73.4024 Y26.1394
X73.3473 Y26.1158
X73.3075 Y26.1011
X73.2676 Y26.0885
X73.2372 Y26.0801
X73.1821 Y26.0676
X73.1271 Y26.0585
X73.072 Y26.0527
X73.017 Y26.0502
X72.9068 Y26.05
X23.952
X23.95 Y26.0478
Y0.0029
X23.9486 Y-0.0521
X23.9439 Y-0.1072
X23.9361 Y-0.1622
X23.9248 Y-0.2172
X23.9145 Y-0.2574
X23.9022 Y-0.2977
X23.8918 Y-0.3273
X23.8697 Y-0.3823
X23.8433 Y-0.4374
X23.8193 Y-0.481
X23.7921 Y-0.5246
X23.7764 Y-0.5474
X23.7345 Y-0.6025
X23.6857 Y-0.6575
X23.6819 Y-0.6614
X23.6269 Y-0.7138
X23.5718 Y-0.7587
X23.5598 Y-0.7676
X23.5107 Y-0.801
X23.4617 Y-0.8303
X23.4127 Y-0.8557
X23.3637 Y-0.8776
X23.3516 Y-0.8826
X23.2965 Y-0.9025
X23.2414 Y-0.9188
X23.1864 Y-0.9315
X23.1313 Y-0.9409
X23.0763 Y-0.9469
X23.0212 Y-0.9498
X22.9111 Y-0.95
X0.0055
X-0.0495 Y-0.9487
X-0.1046 Y-0.9442
X-0.1597 Y-0.9365
X-0.2147 Y-0.9254
X-0.2698 Y-0.9109
X-0.3248 Y-0.8927
X-0.3637 Y-0.8776
X-0.435 Y-0.8446
X-0.49 Y-0.8139
X-0.5451 Y-0.7781
X-0.5598 Y-0.7676
X-0.6075 Y-0.7304
X-0.6552 Y-0.6879
X-0.6857 Y-0.6575
X-0.7282 Y-0.6102
X-0.7653 Y-0.5628
X-0.7764 Y-0.5474
X-0.8124 Y-0.4924
X-0.8433 Y-0.4374
X-0.8755 Y-0.3689
X-0.8918 Y-0.3273
X-0.9101 Y-0.2723
X-0.9248 Y-0.2172
X-0.9361 Y-0.1622
X-0.9439 Y-0.1072
X-0.9486 Y-0.0521
X-0.95 Y0.0029
Y34.8937
Y35.0038
X-0.9482 Y35.0588
X-0.9432 Y35.1139
X-0.9349 Y35.1689
X-0.9232 Y35.2239
X-0.9081 Y35.279
X-0.8893 Y35.334
X-0.8755 Y35.3689
X-0.8586 Y35.4065
X-0.8398 Y35.4441
X-0.8083 Y35.4991
X-0.7716 Y35.5541
X-0.7653 Y35.5628
X-0.7253 Y35.6135
X-0.6792 Y35.6642
X-0.6552 Y35.6879
X-0.6028 Y35.7342
X-0.5505 Y35.7743
X-0.5451 Y35.778
X-0.49 Y35.8139
X-0.435 Y35.8446
X-0.391 Y35.8658
X-0.3471 Y35.8843
X-0.3248 Y35.8927
X-0.2698 Y35.9109
X-0.2147 Y35.9254
X-0.1597 Y35.9365
X-0.1046 Y35.9442
X-0.0495 Y35.9487
X0.0055 Y35.95
X0.2158
X0.4093 Z-2.0001
X0.6029 Z-2.0004
X0.7965 Z-2.0008
X0.9901 Z-2.0015
X1.1836 Z-2.0023
X1.3772 Z-2.0033
X1.5708 Z-2.0045
X1.7644 Z-2.0058
X1.9579 Z-2.0073
X2.1515 Z-2.009
X2.3451 Z-2.0109
X2.5387 Z-2.0129
X2.7322 Z-2.0151
X2.9258 Z-2.0174
X3.1194 Z-2.0199
X3.313 Z-2.0225
X3.5065 Z-2.0253
X3.7001 Z-2.0283
X3.8937 Z-2.0314
X4.0873 Z-2.0347
X4.2808 Z-2.0381
X4.4744 Z-2.0416
X4.668 Z-2.0453
X4.8615 Z-2.0491
X5.0551 Z-2.0531
X5.2487 Z-2.0572
X5.4423 Z-2.0614
X5.6358 Z-2.0658
X5.8294 Z-2.0702
X6.023 Z-2.0749
X6.2166 Z-2.0796
X6.4101 Z-2.0845
X6.6037 Z-2.0894
X6.7005 Z-2.092
X6.7973 Z-2.0945
X6.8941 Z-2.0971
X6.9909 Z-2.0997
X7.0877 Z-2.1024
X7.1844 Z-2.1051
X7.2812 Z-2.1078
X7.378 Z-2.1105
X7.4748 Z-2.1133
X7.5716 Z-2.1161
X7.6684 Z-2.1189
X7.7652 Z-2.1217
X7.862 Z-2.1246
X7.9587 Z-2.1275
X8.0555 Z-2.1304
X8.1523 Z-2.1334
X8.2491 Z-2.1363
X8.3459 Z-2.1393
X8.4427 Z-2.1423
X8.5395 Z-2.1454
X8.6363 Z-2.1485
X8.733 Z-2.1516
X8.8298 Z-2.1547
X8.9266 Z-2.1578
X9.0234 Z-2.161
X9.1202 Z-2.1642
X9.217 Z-2.1674
X9.3138 Z-2.1706
X9.4106 Z-2.1739
X9.5073 Z-2.1772
X9.6041 Z-2.1805
X9.7009 Z-2.1838
X9.7977 Z-2.1871
X9.9913 Z-2.1939
X10.0881 Z-2.1972
X10.1849 Z-2.2006
X10.2816 Z-2.204
X10.3784 Z-2.2074
X10.4752 Z-2.2108
X10.572 Z-2.2141
X10.6688 Z-2.2175
X10.7656 Z-2.2209
X10.8624 Z-2.2243
X10.9592 Z-2.2277
X11.0559 Z-2.231
X11.1527 Z-2.2344
X11.3463 Z-2.2412
X11.6367 Z-2.2513
X11.927 Z-2.2614
X12.2174 Z-2.2716
X12.5077 Z-2.2817
X12.7981 Z-2.2919
X13.0885 Z-2.302
X13.3788 Z-2.3121
X13.6692 Z-2.3223
X13.9596 Z-2.3324
X14.2499 Z-2.3426
X14.7339 Z-2.3595
X14.9274 Z-2.3662
X15.0242 Y35.9503 Z-2.3696
X15.121 Y35.9526 Z-2.373
X15.2176 Y35.9578 Z-2.3764
X15.314 Y35.9665 Z-2.3797
X15.4101 Y35.9782 Z-2.3831
X15.5058 Y35.9927 Z-2.3865
X15.6011 Y36.0096 Z-2.3899
X15.6956 Y36.0305 Z-2.3933
X15.7893 Y36.0547 Z-2.3966
X15.8824 Y36.0811 Z-2.4
X15.9749 Y36.1098 Z-2.4034
X16.0659 Y36.1427 Z-2.4068
X16.156 Y36.1781 Z-2.4101
X16.2451 Y36.2159 Z-2.4135
X16.3329 Y36.2567 Z-2.4169
X16.419 Y36.3007 Z-2.4203
X16.5041 Y36.347 Z-2.4237
X16.5876 Y36.3959 Z-2.427
X16.6693 Y36.4478 Z-2.4304
X16.7495 Y36.502 Z-2.4338
X16.828 Y36.5585 Z-2.4372
X16.9044 Y36.618 Z-2.4406
X16.979 Y36.6797 Z-2.4439
X17.0517 Y36.7435 Z-2.4473
X17.1222 Y36.8099 Z-2.4507
X17.1906 Y36.8784 Z-2.4541
X17.2569 Y36.9488 Z-2.4575
X17.3208 Y37.0216 Z-2.4608
X17.3824 Y37.0962 Z-2.4642
X17.4419 Y37.1725 Z-2.4676
X17.4984 Y37.2511 Z-2.471
X17.5526 Y37.3313 Z-2.4744
X17.6045 Y37.413 Z-2.4777
X17.6534 Y37.4966 Z-2.4811
X17.6996 Y37.5816 Z-2.4845
X17.7436 Y37.6678 Z-2.4879
X17.7844 Y37.7556 Z-2.4912
X17.8222 Y37.8447 Z-2.4946
X17.8575 Y37.9348 Z-2.498
X17.8904 Y38.0258 Z-2.5014
X17.9191 Y38.1183 Z-2.5048
X17.9455 Y38.2114 Z-2.5081
X17.9696 Y38.3051 Z-2.5115
X17.9905 Y38.3996 Z-2.5149
X18.0074 Y38.4949 Z-2.5183
X18.0219 Y38.5906 Z-2.5217
X18.0336 Y38.6867 Z-2.525
X18.0422 Y38.7831 Z-2.5284
X18.0474 Y38.8798 Z-2.5318
X18.0497 Y38.9765 Z-2.5352
X18.05 Y39.0733 Z-2.5386
Y40.9123 Z-2.6028
Y41.5898 Z-2.6264
Y42.0737 Z-2.6433
Y42.5577 Z-2.6602
Y43.0416 Z-2.6771
Y43.332 Z-2.6872
Y43.6223 Z-2.6974
Y43.9127 Z-2.7075
Y44.203 Z-2.7177
Y44.4934 Z-2.7278
Y44.7838 Z-2.7379
Y45.0741 Z-2.7481
Y45.3645 Z-2.7582
Y45.6549 Z-2.7683
Y45.7516 Z-2.7717
Y45.8484 Z-2.7751
Y45.9452 Z-2.7785
Y46.042 Z-2.7819
Y46.1388 Z-2.7852
Y46.2356 Z-2.7886
Y46.3324 Z-2.792
Y46.4291 Z-2.7954
Y46.5259 Z-2.7988
Y46.6227 Z-2.8021
Y46.7195 Z-2.8055
Y46.8163 Z-2.8089
Y46.9131 Z-2.8123
Y47.0099 Z-2.8156
Y47.1067 Z-2.8189
Y47.2034 Z-2.8222
Y47.3002 Z-2.8255
Y47.397 Z-2.8288
Y47.4938 Z-2.832
Y47.5906 Z-2.8352
Y47.6874 Z-2.8384
Y47.7842 Z-2.8416
Y47.881 Z-2.8447
Y47.9777 Z-2.8479
Y48.0745 Z-2.851
Y48.1713 Z-2.854
Y48.2681 Z-2.8571
Y48.3649 Z-2.8601
Y48.4617 Z-2.8631
Y48.5585 Z-2.8661
Y48.6553 Z-2.8691
Y48.752 Z-2.872
Y48.8488 Z-2.8749
Y48.9456 Z-2.8778
Y49.0424 Z-2.8806
Y49.1392 Z-2.8834
Y49.236 Z-2.8862
Y49.3328 Z-2.889
Y49.4296 Z-2.8917
Y49.5263 Z-2.8944
Y49.6231 Z-2.8971
Y49.7199 Z-2.8998
Y49.8167 Z-2.9024
Y49.9135 Z-2.905
Y50.0103 Z-2.9076
Y50.1071 Z-2.9101
Y50.2039 Z-2.9126
Y50.3974 Z-2.9176
Y50.591 Z-2.9224
Y50.7846 Z-2.9271
Y50.9782 Z-2.9316
Y51.1717 Z-2.936
Y51.3653 Z-2.9404
Y51.5589 Z-2.9445
Y51.7525 Z-2.9486
Y51.946 Z-2.9525
Y52.1396 Z-2.9562
Y52.3332 Z-2.9599
Y52.5268 Z-2.9633
Y52.7203 Z-2.9667
Y52.9139 Z-2.9699
Y53.1075 Z-2.9729
Y53.301 Z-2.9758
Y53.4946 Z-2.9786
Y53.6882 Z-2.9812
Y53.8818 Z-2.9836
Y54.0753 Z-2.9859
Y54.2689 Z-2.988
Y54.4625 Z-2.9899
Y54.6561 Z-2.9917
Y54.8496 Z-2.9933
Y55.0432 Z-2.9948
Y55.2368 Z-2.996
Y55.4304 Z-2.9971
Y55.6239 Z-2.9981
Y55.8175 Z-2.9988
Y56.0111 Z-2.9994
Y56.2047 Z-2.9998
Y56.3982 Z-3
Y56.5126
Y71.9859
X18.0484 Y72.096
X18.0429 Y72.206
X18.0333 Y72.3161
X18.0196 Y72.4262
X18.0023 Y72.5362
X17.9807 Y72.6463
X17.9555 Y72.7516
X17.9543 Y72.7564
X17.9236 Y72.8664
X17.8896 Y72.9765
X17.8492 Y73.0865
X17.8454 Y73.0964
X17.8054 Y73.1966
X17.7559 Y73.3067
X17.7353 Y73.3487
X17.7004 Y73.4167
X17.6401 Y73.5268
X17.6252 Y73.552
X17.5731 Y73.6369
X17.5151 Y73.725
X17.4998 Y73.7469
X17.4193 Y73.857
X17.4049 Y73.8753
X17.3304 Y73.9671
X17.2948 Y74.0087
X17.2332 Y74.0771
X17.1847 Y74.1278
X17.1252 Y74.1872
X17.0746 Y74.2357
X17.0059 Y74.2973
X16.9644 Y74.3327
X16.8722 Y74.4073
X16.8543 Y74.4214
X16.7442 Y74.5017
X16.7216 Y74.5174
X16.6341 Y74.5749
X16.5481 Y74.6275
X16.5239 Y74.6418
X16.4138 Y74.702
X16.3443 Y74.7375
X16.3037 Y74.7572
X16.1936 Y74.8067
X16.0908 Y74.8476
X16.0835 Y74.8505
X15.9733 Y74.8907
X15.8632 Y74.9245
X15.7531 Y74.9551
X15.7433 Y74.9577
X15.643 Y74.9815
X15.5328 Y75.0029
X15.4227 Y75.02
X15.3126 Y75.0336
X15.2025 Y75.0431
X15.0923 Y75.0485
X14.9822 Y75.05
X0.0055
X-0.0495 Y75.0513
X-0.1046 Y75.0558
X-0.1828 Y75.0677
X-0.2147 Y75.0746
X-0.2698 Y75.0891
X-0.3248 Y75.1072
X-0.3799 Y75.1292
X-0.435 Y75.1554
X-0.4759 Y75.1778
X-0.5451 Y75.2219
X-0.5869 Y75.253
X-0.6288 Y75.2879
X-0.6552 Y75.3121
X-0.6975 Y75.355
X-0.7349 Y75.3979
X-0.7653 Y75.4372
X-0.7902 Y75.4726
X-0.8127 Y75.508
X-0.8435 Y75.563
X-0.8699 Y75.6181
X-0.8755 Y75.6311
X-0.8944 Y75.6796
X-0.9103 Y75.7281
X-0.9249 Y75.7832
X-0.9361 Y75.8382
X-0.944 Y75.8932
X-0.9486 Y75.9483
X-0.95 Y76.0583
Y140.9971
X-0.9486 Y141.0521
X-0.9439 Y141.1072
X-0.9361 Y141.1622
X-0.9248 Y141.2172
X-0.9101 Y141.2723
X-0.8918 Y141.3273
X-0.8755 Y141.3689
X-0.8433 Y141.4374
X-0.8124 Y141.4924
X-0.7764 Y141.5474
X-0.7653 Y141.5628
X-0.7282 Y141.6102
X-0.6857 Y141.6575
X-0.6552 Y141.6879
X-0.6075 Y141.7304
X-0.5598 Y141.7676
X-0.5451 Y141.7781
X-0.49 Y141.8139
X-0.435 Y141.8446
X-0.3637 Y141.8776
X-0.3248 Y141.8927
X-0.2698 Y141.9109
X-0.2147 Y141.9254
X-0.1597 Y141.9365
X-0.1046 Y141.9442
X-0.0495 Y141.9487
X0.0055 Y141.95
X127.9682
X128.0784 Y141.9468
X128.1334 Y141.9406
X128.1885 Y141.9311
X128.2435 Y141.9183
X128.2986 Y141.9019
X128.3637 Y141.8776
X128.4087 Y141.8576
X128.4638 Y141.8291
X128.5189 Y141.7958
X128.5598 Y141.7676
X128.5944 Y141.7411
X128.629 Y141.712
X128.6857 Y141.6575
X128.7391 Y141.5969
X128.7764 Y141.5474
X128.8124 Y141.4924
X128.8433 Y141.4374
X128.8492 Y141.4258
X128.8722 Y141.3766
X128.8918 Y141.3273
X128.9102 Y141.2723
X128.9248 Y141.2172
X128.9361 Y141.1622
X128.944 Y141.1072
X128.9486 Y141.0521
X128.95 Y140.9971
Y86.0743
X128.9493 Y85.9642
X128.9457 Y85.9092
X128.9388 Y85.8542
X128.9285 Y85.7991
X128.9149 Y85.7441
X128.8977 Y85.6891
X128.8767 Y85.634
X128.8492 Y85.5741
X128.8222 Y85.524
X128.7877 Y85.4689
X128.7477 Y85.4139
X128.7391 Y85.4031
X128.6961 Y85.3535
X128.6465 Y85.3038
X128.629 Y85.288
X128.5739 Y85.2429
X128.5189 Y85.2042
X128.5025 Y85.1938
X128.4556 Y85.1664
X128.4087 Y85.1424
X128.3537 Y85.1183
X128.2986 Y85.0981
X128.2509 Y85.0837
X128.1885 Y85.0689
X128.1334 Y85.0594
X128.0784 Y85.0532
X127.9682 Y85.05
X73.9518
X73.95 Y85.0476
Y27.0791
X73.9495 Y26.969
X73.9461 Y26.914
X73.9395 Y26.8589
X73.9296 Y26.8039
X73.9162 Y26.7489
X73.8979 Y26.6898
X73.8787 Y26.6388
X73.854 Y26.5838
X73.8249 Y26.5287
X73.7878 Y26.4691
X73.7514 Y26.4187
X73.7167 Y26.3765
X73.6777 Y26.3342
X73.6515 Y26.3086
X73.6095 Y26.2713
X73.5676 Y26.2382
X73.5101 Y26.1985
X73.4574 Y26.1674
X73.4024 Y26.1394
X73.3473 Y26.1158
X73.3075 Y26.1011
X73.2676 Y26.0885
X73.2372 Y26.0801
X73.1821 Y26.0676
X73.1271 Y26.0585
X73.072 Y26.0527
X73.017 Y26.0502
X72.9068 Y26.05
X23.952
X23.95 Y26.0478
Y0.0029
X23.9486 Y-0.0521
X23.9439 Y-0.1072
X23.9361 Y-0.1622
X23.9248 Y-0.2172
X23.9145 Y-0.2574
X23.9022 Y-0.2977
X23.8918 Y-0.3273
X23.8697 Y-0.3823
X23.8433 Y-0.4374
X23.8193 Y-0.481
X23.7921 Y-0.5246
X23.7764 Y-0.5474
X23.7345 Y-0.6025
X23.6857 Y-0.6575
X23.6819 Y-0.6614
X23.6269 Y-0.7138
X23.5718 Y-0.7587
X23.5598 Y-0.7676
X23.5107 Y-0.801
X23.4617 Y-0.8303
X23.4127 Y-0.8557
X23.3637 Y-0.8776
X23.3516 Y-0.8826
X23.2965 Y-0.9025
X23.2414 Y-0.9188
X23.1864 Y-0.9315
X23.1313 Y-0.9409
X23.0763 Y-0.9469
X23.0212 Y-0.9498
X22.9111 Y-0.95
X0.0055
X-0.0495 Y-0.9487
X-0.1046 Y-0.9442
X-0.1597 Y-0.9365
X-0.2147 Y-0.9254
X-0.2698 Y-0.9109
X-0.3248 Y-0.8927
X-0.3637 Y-0.8776
X-0.435 Y-0.8446
X-0.49 Y-0.8139
X-0.5451 Y-0.7781
X-0.5598 Y-0.7676
X-0.6075 Y-0.7304
X-0.6552 Y-0.6879
X-0.6857 Y-0.6575
X-0.7282 Y-0.6102
X-0.7653 Y-0.5628
X-0.7764 Y-0.5474
X-0.8124 Y-0.4924
X-0.8433 Y-0.4374
X-0.8755 Y-0.3689
X-0.8918 Y-0.3273
X-0.9101 Y-0.2723
X-0.9248 Y-0.2172
X-0.9361 Y-0.1622
X-0.9439 Y-0.1072
X-0.9486 Y-0.0521
X-0.95 Y0.0029
Y34.8937
Y35.0038
X-0.9482 Y35.0588
X-0.9432 Y35.1139
X-0.9349 Y35.1689
X-0.9232 Y35.2239
X-0.9081 Y35.279
X-0.8893 Y35.334
X-0.8755 Y35.3689
X-0.8586 Y35.4065
X-0.8398 Y35.4441
X-0.8083 Y35.4991
X-0.7716 Y35.5541
X-0.7653 Y35.5628
X-0.7253 Y35.6135
X-0.6792 Y35.6642
X-0.6552 Y35.6879
X-0.6028 Y35.7342
X-0.5505 Y35.7743
X-0.5451 Y35.778
X-0.49 Y35.8139
X-0.435 Y35.8446
X-0.391 Y35.8658
X-0.3471 Y35.8843
X-0.3248 Y35.8927
X-0.2698 Y35.9109
X-0.2147 Y35.9254
X-0.1597 Y35.9365
X-0.1046 Y35.9442
X-0.0495 Y35.9487
X0.0055 Y35.95
X14.9822
X15.0923 Y35.9515
X15.2025 Y35.9569
X15.3126 Y35.9663
X15.4227 Y35.98
X15.516 Y35.9944
X15.5328 Y35.9971
X15.643 Y36.0185
X15.7531 Y36.0448
X15.8632 Y36.0755
X15.958 Y36.1045
X15.9733 Y36.1093
X16.0835 Y36.1496
X16.1936 Y36.1933
X16.2419 Y36.2145
X16.3037 Y36.2428
X16.4138 Y36.298
X16.4643 Y36.3246
X16.5239 Y36.3582
X16.6341 Y36.4251
X16.6491 Y36.4347
X16.7442 Y36.4983
X16.8093 Y36.5447
X16.8543 Y36.5786
X16.9493 Y36.6548
X16.9644 Y36.6673
X17.0746 Y36.7643
X17.0752 Y36.7649
X17.1847 Y36.8722
X17.1873 Y36.8749
X17.2895 Y36.985
X17.2948 Y36.9912
X17.3815 Y37.0951
X17.4049 Y37.1247
X17.4659 Y37.2051
X17.5151 Y37.275
X17.5419 Y37.3152
X17.6117 Y37.4252
X17.6252 Y37.448
X17.6752 Y37.5353
X17.7323 Y37.6454
X17.7353 Y37.6513
X17.7843 Y37.7554
X17.8305 Y37.8655
X17.8454 Y37.9035
X17.8728 Y37.9756
X17.9093 Y38.0856
X17.9413 Y38.1957
X17.9555 Y38.2484
X17.9698 Y38.3058
X17.9935 Y38.4158
X18.0124 Y38.5259
X18.0279 Y38.636
X18.0392 Y38.746
X18.0465 Y38.8561
X18.0496 Y38.9662
X18.05 Y39.0762
Y56.5126
Y56.7062 Z-3.0001
Y56.8998 Z-3.0004
Y57.0933 Z-3.0008
Y57.2869 Z-3.0015
Y57.4805 Z-3.0023
Y57.6741 Z-3.0033
Y57.8676 Z-3.0045
Y58.0612 Z-3.0058
Y58.2548 Z-3.0073
Y58.4484 Z-3.009
Y58.6419 Z-3.0109
Y58.8355 Z-3.0129
Y59.0291 Z-3.0151
Y59.2227 Z-3.0174
Y59.4162 Z-3.0199
Y59.6098 Z-3.0225
Y59.8034 Z-3.0253
Y59.997 Z-3.0283
Y60.1905 Z-3.0314
Y60.3841 Z-3.0347
Y60.5777 Z-3.0381
Y60.7713 Z-3.0416
Y60.9648 Z-3.0453
Y61.1584 Z-3.0491
Y61.352 Z-3.0531
Y61.5456 Z-3.0572
Y61.7391 Z-3.0614
Y61.9327 Z-3.0658
Y62.1263 Z-3.0702
Y62.3199 Z-3.0749
Y62.5134 Z-3.0796
Y62.707 Z-3.0845
Y62.9006 Z-3.0894
Y62.9974 Z-3.092
Y63.0942 Z-3.0945
Y63.1909 Z-3.0971
Y63.2877 Z-3.0997
Y63.3845 Z-3.1024
Y63.4813 Z-3.1051
Y63.5781 Z-3.1078
Y63.6749 Z-3.1105
Y63.7717 Z-3.1133
Y63.8685 Z-3.1161
Y63.9652 Z-3.1189
Y64.062 Z-3.1217
Y64.1588 Z-3.1246
Y64.2556 Z-3.1275
Y64.3524 Z-3.1304
Y64.4492 Z-3.1334
Y64.546 Z-3.1363
Y64.6427 Z-3.1393
Y64.7395 Z-3.1423
Y64.8363 Z-3.1454
Y64.9331 Z-3.1485
Y65.0299 Z-3.1516
Y65.1267 Z-3.1547
Y65.2235 Z-3.1578
Y65.3203 Z-3.161
Y65.417 Z-3.1642
Y65.5138 Z-3.1674
Y65.6106 Z-3.1706
Y65.7074 Z-3.1739
Y65.8042 Z-3.1772
Y65.901 Z-3.1805
Y65.9978 Z-3.1838
Y66.0946 Z-3.1871
Y66.2881 Z-3.1939
Y66.3849 Z-3.1972
Y66.4817 Z-3.2006
Y66.5785 Z-3.204
Y66.6753 Z-3.2074
Y66.7721 Z-3.2108
Y66.8689 Z-3.2141
Y66.9656 Z-3.2175
Y67.0624 Z-3.2209
Y67.1592 Z-3.2243
Y67.256 Z-3.2277
Y67.3528 Z-3.231
Y67.4496 Z-3.2344
Y67.6432 Z-3.2412
Y67.9335 Z-3.2513
Y68.2239 Z-3.2614
Y68.5142 Z-3.2716
Y68.8046 Z-3.2817
Y69.095 Z-3.2919
Y69.3853 Z-3.302
Y69.6757 Z-3.3121
Y69.966 Z-3.3223
Y70.2564 Z-3.3324
Y70.5468 Z-3.3426
Y71.0307 Z-3.3595
Y71.5146 Z-3.3764
Y71.9018 Z-3.3899
Y71.9986 Z-3.3933
X18.0484 Y72.0954 Z-3.3966
X18.0437 Y72.192 Z-3.4
X18.0361 Y72.2885 Z-3.4034
X18.0254 Y72.3847 Z-3.4068
X18.0113 Y72.4805 Z-3.4102
X17.995 Y72.5759 Z-3.4135
X17.9755 Y72.6707 Z-3.4169
X17.952 Y72.7646 Z-3.4203
X17.9261 Y72.8578 Z-3.4237
X17.8979 Y72.9504 Z-3.4271
X17.8665 Y73.042 Z-3.4304
X17.8314 Y73.1322 Z-3.4338
X17.7944 Y73.2216 Z-3.4372
X17.7544 Y73.3098 Z-3.4406
X17.7111 Y73.3963 Z-3.4439
X17.6656 Y73.4817 Z-3.4473
X17.6172 Y73.5655 Z-3.4507
X17.5662 Y73.6478 Z-3.4541
X17.5127 Y73.7284 Z-3.4575
X17.4567 Y73.8074 Z-3.4608
X17.3979 Y73.8843 Z-3.4642
X17.3369 Y73.9594 Z-3.4676
X17.2736 Y74.0327 Z-3.471
X17.2078 Y74.1037 Z-3.4744
X17.1399 Y74.1726 Z-3.4777
X17.0702 Y74.2397 Z-3.4811
X16.9979 Y74.3041 Z-3.4845
X16.9237 Y74.3662 Z-3.4879
X16.8479 Y74.4264 Z-3.4913
X16.7699 Y74.4838 Z-3.4946
X16.69 Y74.5384 Z-3.498
X16.6087 Y74.5909 Z-3.5014
X16.5257 Y74.6407 Z-3.5048
X16.4411 Y74.6877 Z-3.5081
X16.3551 Y74.7321 Z-3.5115
X16.2678 Y74.7738 Z-3.5149
X16.1791 Y74.8127 Z-3.5183
X16.0891 Y74.8483 Z-3.5217
X15.9984 Y74.8819 Z-3.525
X15.9063 Y74.9118 Z-3.5284
X15.8134 Y74.9388 Z-3.5318
X15.7198 Y74.9635 Z-3.5352
X15.6255 Y74.9853 Z-3.5386
X15.5304 Y75.0033 Z-3.5419
X15.4348 Y75.0183 Z-3.5453
X15.3388 Y75.0307 Z-3.5487
X15.2425 Y75.0402 Z-3.5521
X15.1459 Y75.0464 Z-3.5555
X15.0491 Y75.0494 Z-3.5588
X14.9523 Y75.05 Z-3.5622
X13.8877 Z-3.5994
X13.2102 Z-3.623
X12.7262 Z-3.6399
X12.2423 Z-3.6568
X11.7584 Z-3.6737
X11.468 Z-3.6839
X11.1776 Z-3.694
X10.8873 Z-3.7041
X10.5969 Z-3.7143
X10.3065 Z-3.7244
X10.0162 Z-3.7346
X9.7258 Z-3.7447
X9.4355 Z-3.7548
X9.1451 Z-3.765
X9.0483 Z-3.7683
X8.9515 Z-3.7717
X8.8547 Z-3.7751
X8.7579 Z-3.7785
X8.6612 Z-3.7819
X8.5644 Z-3.7852
X8.4676 Z-3.7886
X8.3708 Z-3.792
X8.274 Z-3.7954
X8.1772 Z-3.7988
X8.0804 Z-3.8021
X7.9836 Z-3.8055
X7.8869 Z-3.8089
X7.7901 Z-3.8123
X7.6933 Z-3.8156
X7.5965 Z-3.8189
X7.4997 Z-3.8222
X7.4029 Z-3.8255
X7.3061 Z-3.8288
X7.2093 Z-3.832
X7.1126 Z-3.8352
X7.0158 Z-3.8384
X6.919 Z-3.8416
X6.8222 Z-3.8447
X6.7254 Z-3.8479
X6.6286 Z-3.851
X6.5318 Z-3.854
X6.4351 Z-3.8571
X6.3383 Z-3.8601
X6.2415 Z-3.8631
X6.1447 Z-3.8661
X6.0479 Z-3.8691
X5.9511 Z-3.872
X5.8543 Z-3.8749
X5.7575 Z-3.8778
X5.6608 Z-3.8806
X5.564 Z-3.8834
X5.4672 Z-3.8862
X5.3704 Z-3.889
X5.2736 Z-3.8917
X5.1768 Z-3.8944
X5.08 Z-3.8971
X4.9832 Z-3.8998
X4.8865 Z-3.9024
X4.7897 Z-3.905
X4.6929 Z-3.9076
X4.5961 Z-3.9101
X4.4993 Z-3.9126
X4.3057 Z-3.9176
X4.1122 Z-3.9224
X3.9186 Z-3.9271
X3.725 Z-3.9316
X3.5314 Z-3.936
X3.3379 Z-3.9404
X3.1443 Z-3.9445
X2.9507 Z-3.9486
X2.7571 Z-3.9525
X2.5636 Z-3.9562
X2.37 Z-3.9599
X2.1764 Z-3.9633
X1.9828 Z-3.9667
X1.7893 Z-3.9699
X1.5957 Z-3.9729
X1.4021 Z-3.9758
X1.2085 Z-3.9786
X1.015 Z-3.9811
X0.8214 Z-3.9836
X0.6278 Z-3.9859
X0.4342 Z-3.988
X0.2407 Z-3.9899
X0.0471 Z-3.9917
X-0.0497 Y75.0513 Z-3.9925
X-0.0979 Y75.055 Z-3.9929
X-0.1459 Y75.0613 Z-3.9933
X-0.1936 Y75.0699 Z-3.9937
X-0.2407 Y75.081 Z-3.9941
X-0.2872 Y75.0944 Z-3.9944
X-0.3329 Y75.1102 Z-3.9948
X-0.3778 Y75.1283 Z-3.9951
X-0.4217 Y75.1487 Z-3.9954
X-0.4645 Y75.1713 Z-3.9957
X-0.5061 Y75.196 Z-3.996
X-0.5464 Y75.2228 Z-3.9963
X-0.5852 Y75.2517 Z-3.9966
X-0.6226 Y75.2824 Z-3.9969
X-0.6583 Y75.3151 Z-3.9971
X-0.6924 Y75.3495 Z-3.9974
X-0.7246 Y75.3856 Z-3.9976
X-0.7549 Y75.4233 Z-3.9978
X-0.7833 Y75.4625 Z-3.9981
X-0.8097 Y75.5031 Z-3.9983
X-0.8339 Y75.5449 Z-3.9985
X-0.856 Y75.588 Z-3.9986
X-0.8759 Y75.6321 Z-3.9988
X-0.8935 Y75.6772 Z-3.999
X-0.9088 Y75.7231 Z-3.9991
X-0.9217 Y75.7698 Z-3.9993
X-0.9322 Y75.817 Z-3.9994
X-0.9403 Y75.8647 Z-3.9995
X-0.946 Y75.9128 Z-3.9996
X-0.9492 Y75.9611 Z-3.9997
X-0.95 Y76.0095 Z-3.9998
Y76.203 Z-4
Y76.3175
Y140.9971
X-0.9486 Y141.0521
X-0.9439 Y141.1072
X-0.9361 Y141.1622
X-0.9248 Y141.2172
X-0.9101 Y141.2723
X-0.8918 Y141.3273
X-0.8755 Y141.3689
X-0.8433 Y141.4374
X-0.8124 Y141.4924
X-0.7764 Y141.5474
X-0.7653 Y141.5628
X-0.7282 Y141.6102
X-0.6857 Y141.6575
X-0.6552 Y141.6879
X-0.6075 Y141.7304
X-0.5598 Y141.7676
X-0.5451 Y141.7781
X-0.49 Y141.8139
X-0.435 Y141.8446
X-0.3637 Y141.8776
X-0.3248 Y141.8927
X-0.2698 Y141.9109
X-0.2147 Y141.9254
X-0.1597 Y141.9365
X-0.1046 Y141.9442
X-0.0495 Y141.9487
X0.0055 Y141.95
X127.9682
X128.0784 Y141.9468
X128.1334 Y141.9406
X128.1885 Y141.9311
X128.2435 Y141.9183
X128.2986 Y141.9019
X128.3637 Y141.8776
X128.4087 Y141.8576
X128.4638 Y141.8291
X128.5189 Y141.7958
X128.5598 Y141.7676
X128.5944 Y141.7411
X128.629 Y141.712
X128.6857 Y141.6575
X128.7391 Y141.5969
X128.7764 Y141.5474
X128.8124 Y141.4924
X128.8433 Y141.4374
X128.8492 Y141.4258
X128.8722 Y141.3766
X128.8918 Y141.3273
X128.9102 Y141.2723
X128.9248 Y141.2172
X128.9361 Y141.1622
X128.944 Y141.1072
X128.9486 Y141.0521
X128.95 Y140.9971
Y86.0743
X128.9493 Y85.9642
X128.9457 Y85.9092
X128.9388 Y85.8542
X128.9285 Y85.7991
X128.9149 Y85.7441
X128.8977 Y85.6891
X128.8767 Y85.634
X128.8492 Y85.5741
X128.8222 Y85.524
X128.7877 Y85.4689
X128.7477 Y85.4139
X128.7391 Y85.4031
X128.6961 Y85.3535
X128.6465 Y85.3038
X128.629 Y85.288
X128.5739 Y85.2429
X128.5189 Y85.2042
X128.5025 Y85.1938
X128.4556 Y85.1664
X128.4087 Y85.1424
X128.3537 Y85.1183
X128.2986 Y85.0981
X128.2509 Y85.0837
X128.1885 Y85.0689
X128.1334 Y85.0594
X128.0784 Y85.0532
X127.9682 Y85.05
X73.9518
X73.95 Y85.0476
Y27.0791
X73.9495 Y26.969
X73.9461 Y26.914
X73.9395 Y26.8589
X73.9296 Y26.8039
X73.9162 Y26.7489
X73.8979 Y26.6898
X73.8787 Y26.6388
X73.854 Y26.5838
X73.8249 Y26.5287
X73.7878 Y26.4691
X73.7514 Y26.4187
X73.7167 Y26.3765
X73.6777 Y26.3342
X73.6515 Y26.3086
X73.6095 Y26.2713
X73.5676 Y26.2382
X73.5101 Y26.1985
X73.4574 Y26.1674
X73.4024 Y26.1394
X73.3473 Y26.1158
X73.3075 Y26.1011
X73.2676 Y26.0885
X73.2372 Y26.0801
X73.1821 Y26.0676
X73.1271 Y26.0585
X73.072 Y26.0527
X73.017 Y26.0502
X72.9068 Y26.05
X23.952
X23.95 Y26.0478
Y0.0029
X23.9486 Y-0.0521
X23.9439 Y-0.1072
X23.9361 Y-0.1622
X23.9248 Y-0.2172
X23.9145 Y-0.2574
X23.9022 Y-0.2977
X23.8918 Y-0.3273
X23.8697 Y-0.3823
X23.8433 Y-0.4374
X23.8193 Y-0.481
X23.7921 Y-0.5246
X23.7764 Y-0.5474
X23.7345 Y-0.6025
X23.6857 Y-0.6575
X23.6819 Y-0.6614
X23.6269 Y-0.7138
X23.5718 Y-0.7587
X23.5598 Y-0.7676
X23.5107 Y-0.801
X23.4617 Y-0.8303
X23.4127 Y-0.8557
X23.3637 Y-0.8776
X23.3516 Y-0.8826
X23.2965 Y-0.9025
X23.2414 Y-0.9188
X23.1864 Y-0.9315
X23.1313 Y-0.9409
X23.0763 Y-0.9469
X23.0212 Y-0.9498
X22.9111 Y-0.95
X0.0055
X-0.0495 Y-0.9487
X-0.1046 Y-0.9442
X-0.1597 Y-0.9365
X-0.2147 Y-0.9254
X-0.2698 Y-0.9109
X-0.3248 Y-0.8927
X-0.3637 Y-0.8776
X-0.435 Y-0.8446
X-0.49 Y-0.8139
X-0.5451 Y-0.7781
X-0.5598 Y-0.7676
X-0.6075 Y-0.7304
X-0.6552 Y-0.6879
X-0.6857 Y-0.6575
X-0.7282 Y-0.6102
X-0.7653 Y-0.5628
X-0.7764 Y-0.5474
X-0.8124 Y-0.4924
X-0.8433 Y-0.4374
X-0.8755 Y-0.3689
X-0.8918 Y-0.3273
X-0.9101 Y-0.2723
X-0.9248 Y-0.2172
X-0.9361 Y-0.1622
X-0.9439 Y-0.1072
X-0.9486 Y-0.0521
X-0.95 Y0.0029
Y34.8937
Y35.0038
X-0.9482 Y35.0588
X-0.9432 Y35.1139
X-0.9349 Y35.1689
X-0.9232 Y35.2239
X-0.9081 Y35.279
X-0.8893 Y35.334
X-0.8755 Y35.3689
X-0.8586 Y35.4065
X-0.8398 Y35.4441
X-0.8083 Y35.4991
X-0.7716 Y35.5541
X-0.7653 Y35.5628
X-0.7253 Y35.6135
X-0.6792 Y35.6642
X-0.6552 Y35.6879
X-0.6028 Y35.7342
X-0.5505 Y35.7743
X-0.5451 Y35.778
X-0.49 Y35.8139
X-0.435 Y35.8446
X-0.391 Y35.8658
X-0.3471 Y35.8843
X-0.3248 Y35.8927
X-0.2698 Y35.9109
X-0.2147 Y35.9254
X-0.1597 Y35.9365
X-0.1046 Y35.9442
X-0.0495 Y35.9487
X0.0055 Y35.95
X14.9822
X15.0923 Y35.9515
X15.2025 Y35.9569
X15.3126 Y35.9663
X15.4227 Y35.98
X15.516 Y35.9944
X15.5328 Y35.9971
X15.643 Y36.0185
X15.7531 Y36.0448
X15.8632 Y36.0755
X15.958 Y36.1045
X15.9733 Y36.1093
X16.0835 Y36.1496
X16.1936 Y36.1933
X16.2419 Y36.2145
X16.3037 Y36.2428
X16.4138 Y36.298
X16.4643 Y36.3246
X16.5239 Y36.3582
X16.6341 Y36.4251
X16.6491 Y36.4347
X16.7442 Y36.4983
X16.8093 Y36.5447
X16.8543 Y36.5786
X16.9493 Y36.6548
X16.9644 Y36.6673
X17.0746 Y36.7643
X17.0752 Y36.7649
X17.1847 Y36.8722
X17.1873 Y36.8749
X17.2895 Y36.985
X17.2948 Y36.9912
X17.3815 Y37.0951
X17.4049 Y37.1247
X17.4659 Y37.2051
X17.5151 Y37.275
X17.5419 Y37.3152
X17.6117 Y37.4252
X17.6252 Y37.448
X17.6752 Y37.5353
X17.7323 Y37.6454
X17.7353 Y37.6513
X17.7843 Y37.7554
X17.8305 Y37.8655
X17.8454 Y37.9035
X17.8728 Y37.9756
X17.9093 Y38.0856
X17.9413 Y38.1957
X17.9555 Y38.2484
X17.9698 Y38.3058
X17.9935 Y38.4158
X18.0124 Y38.5259
X18.0279 Y38.636
X18.0392 Y38.746
X18.0465 Y38.8561
X18.0496 Y38.9662
X18.05 Y39.0762
Y56.5126
Y71.9859
X18.0484 Y72.096
X18.0429 Y72.206
X18.0333 Y72.3161
X18.0196 Y72.4262
X18.0023 Y72.5362
X17.9807 Y72.6463
X17.9555 Y72.7516
X17.9543 Y72.7564
X17.9236 Y72.8664
X17.8896 Y72.9765
X17.8492 Y73.0865
X17.8454 Y73.0964
X17.8054 Y73.1966
X17.7559 Y73.3067
X17.7353 Y73.3487
X17.7004 Y73.4167
X17.6401 Y73.5268
X17.6252 Y73.552
X17.5731 Y73.6369
X17.5151 Y73.725
X17.4998 Y73.7469
X17.4193 Y73.857
X17.4049 Y73.8753
X17.3304 Y73.9671
X17.2948 Y74.0087
X17.2332 Y74.0771
X17.1847 Y74.1278
X17.1252 Y74.1872
X17.0746 Y74.2357
X17.0059 Y74.2973
X16.9644 Y74.3327
X16.8722 Y74.4073
X16.8543 Y74.4214
X16.7442 Y74.5017
X16.7216 Y74.5174
X16.6341 Y74.5749
X16.5481 Y74.6275
X16.5239 Y74.6418
X16.4138 Y74.702
X16.3443 Y74.7375
X16.3037 Y74.7572
X16.1936 Y74.8067
X16.0908 Y74.8476
X16.0835 Y74.8505
X15.9733 Y74.8907
X15.8632 Y74.9245
X15.7531 Y74.9551
X15.7433 Y74.9577
X15.643 Y74.9815
X15.5328 Y75.0029
X15.4227 Y75.02
X15.3126 Y75.0336
X15.2025 Y75.0431
X15.0923 Y75.0485
X14.9822 Y75.05
X0.0055
X-0.0495 Y75.0513
X-0.1046 Y75.0558
X-0.1828 Y75.0677
X-0.2147 Y75.0746
X-0.2698 Y75.0891
X-0.3248 Y75.1072
X-0.3799 Y75.1292
X-0.435 Y75.1554
X-0.4759 Y75.1778
X-0.5451 Y75.2219
X-0.5869 Y75.253
X-0.6288 Y75.2879
X-0.6552 Y75.3121
X-0.6975 Y75.355
X-0.7349 Y75.3979
X-0.7653 Y75.4372
X-0.7902 Y75.4726
X-0.8127 Y75.508
X-0.8435 Y75.563
X-0.8699 Y75.6181
X-0.8755 Y75.6311
X-0.8944 Y75.6796
X-0.9103 Y75.7281
X-0.9249 Y75.7832
X-0.9361 Y75.8382
X-0.944 Y75.8932
X-0.9486 Y75.9483
X-0.95 Y76.0583
Y76.3175
Y76.511 Z-4.0001
Y76.7046 Z-4.0004
Y76.8982 Z-4.0008
Y77.0918 Z-4.0015
Y77.2853 Z-4.0023
Y77.4789 Z-4.0033
Y77.6725 Z-4.0045
Y77.8661 Z-4.0058
Y78.0596 Z-4.0073
Y78.2532 Z-4.009
Y78.4468 Z-4.0109
Y78.6404 Z-4.0129
Y78.8339 Z-4.0151
Y79.0275 Z-4.0174
Y79.2211 Z-4.0199
Y79.4146 Z-4.0225
Y79.6082 Z-4.0253
Y79.8018 Z-4.0283
Y79.9954 Z-4.0314
Y80.1889 Z-4.0347
Y80.3825 Z-4.0381
Y80.5761 Z-4.0416
Y80.7697 Z-4.0453
Y80.9632 Z-4.0491
Y81.1568 Z-4.0531
Y81.3504 Z-4.0572
Y81.544 Z-4.0614
Y81.7375 Z-4.0658
Y81.9311 Z-4.0702
Y82.1247 Z-4.0749
Y82.3183 Z-4.0796
Y82.5118 Z-4.0845
Y82.7054 Z-4.0894
Y82.8022 Z-4.092
Y82.899 Z-4.0945
Y82.9958 Z-4.0971
Y83.0926 Z-4.0997
Y83.1894 Z-4.1024
Y83.2861 Z-4.1051
Y83.3829 Z-4.1078
Y83.4797 Z-4.1105
Y83.5765 Z-4.1133
Y83.6733 Z-4.1161
Y83.7701 Z-4.1189
Y83.8669 Z-4.1217
Y83.9637 Z-4.1246
Y84.0604 Z-4.1275
Y84.1572 Z-4.1304
Y84.254 Z-4.1334
Y84.3508 Z-4.1363
Y84.4476 Z-4.1393
Y84.5444 Z-4.1423
Y84.6412 Z-4.1454
Y84.738 Z-4.1485
Y84.8347 Z-4.1516
Y84.9315 Z-4.1547
Y85.0283 Z-4.1578
Y85.1251 Z-4.161
Y85.2219 Z-4.1642
Y85.3187 Z-4.1674
Y85.4155 Z-4.1706
Y85.5123 Z-4.1739
Y85.609 Z-4.1772
Y85.7058 Z-4.1805
Y85.8026 Z-4.1838
Y85.8994 Z-4.1871
Y86.093 Z-4.1939
Y86.1898 Z-4.1972
Y86.2865 Z-4.2006
Y86.3833 Z-4.204
Y86.4801 Z-4.2074
Y86.5769 Z-4.2108
Y86.6737 Z-4.2141
Y86.7705 Z-4.2175
Y86.8673 Z-4.2209
Y86.9641 Z-4.2243
Y87.0608 Z-4.2277
Y87.1576 Z-4.231
Y87.2544 Z-4.2344
Y87.448 Z-4.2412
Y87.7384 Z-4.2513
Y88.0287 Z-4.2614
Y88.3191 Z-4.2716
Y88.6094 Z-4.2817
Y88.8998 Z-4.2919
Y89.1902 Z-4.302
Y89.4805 Z-4.3121
Y89.7709 Z-4.3223
Y90.0613 Z-4.3324
Y90.3516 Z-4.3426
Y90.8356 Z-4.3595
Y91.3195 Z-4.3764
Y91.8034 Z-4.3933
Y92.4809 Z-4.4169
Y93.352 Z-4.4473
Y94.8038 Z-4.498
Y101.7725 Z-4.7413
Y102.0629 Z-4.7515
Y102.3532 Z-4.7616
Y102.45 Z-4.765
Y102.5468 Z-4.7684
Y102.6436 Z-4.7717
Y102.7404 Z-4.7751
Y102.8372 Z-4.7785
Y102.934 Z-4.7819
Y103.0308 Z-4.7853
Y103.1275 Z-4.7886
Y103.2243 Z-4.792
Y103.3211 Z-4.7954
Y103.4179 Z-4.7988
Y103.5147 Z-4.8022
Y103.6115 Z-4.8055
Y103.7083 Z-4.8089
Y103.8051 Z-4.8123
Y103.9018 Z-4.8156
Y103.9986 Z-4.819
Y104.0954 Z-4.8223
Y104.1922 Z-4.8255
Y104.289 Z-4.8288
Y104.3858 Z-4.832
Y104.4826 Z-4.8353
Y104.5794 Z-4.8385
Y104.6761 Z-4.8416
Y104.7729 Z-4.8448
Y104.8697 Z-4.8479
Y104.9665 Z-4.851
Y105.0633 Z-4.8541
Y105.1601 Z-4.8571
Y105.2569 Z-4.8601
Y105.3537 Z-4.8631
Y105.4504 Z-4.8661
Y105.5472 Z-4.8691
Y105.644 Z-4.872
Y105.7408 Z-4.8749
Y105.8376 Z-4.8778
Y105.9344 Z-4.8806
Y106.0312 Z-4.8834
Y106.128 Z-4.8862
Y106.2247 Z-4.889
Y106.3215 Z-4.8917
Y106.4183 Z-4.8945
Y106.5151 Z-4.8971
Y106.6119 Z-4.8998
Y106.7087 Z-4.9024
Y106.8055 Z-4.905
Y106.9023 Z-4.9076
Y106.999 Z-4.9101
Y107.0958 Z-4.9126
Y107.2894 Z-4.9176
Y107.483 Z-4.9224
Y107.6766 Z-4.9271
Y107.8701 Z-4.9316
Y108.0637 Z-4.9361
Y108.2573 Z-4.9404
Y108.4509 Z-4.9445
Y108.6444 Z-4.9486
Y108.838 Z-4.9525
Y109.0316 Z-4.9562
Y109.2251 Z-4.9599
Y109.4187 Z-4.9634
Y109.6123 Z-4.9667
Y109.8059 Z-4.9699
Y109.9994 Z-4.9729
Y110.193 Z-4.9758
Y110.3866 Z-4.9786
Y110.5802 Z-4.9812
Y110.7737 Z-4.9836
Y110.9673 Z-4.9859
Y111.1609 Z-4.988
Y111.3545 Z-4.9899
Y111.548 Z-4.9917
Y111.7416 Z-4.9933
Y111.9352 Z-4.9948
Y112.1288 Z-4.996
Y112.3223 Z-4.9971
Y112.5159 Z-4.9981
Y112.7095 Z-4.9988
Y112.9031 Z-4.9994
Y113.0966 Z-4.9998
Y113.2902 Z-5
Y113.404
Y140.9971
X-0.9486 Y141.0521
X-0.9439 Y141.1072
X-0.9361 Y141.1622
X-0.9248 Y141.2172
X-0.9101 Y141.2723
X-0.8918 Y141.3273
X-0.8755 Y141.3689
X-0.8433 Y141.4374
X-0.8124 Y141.4924
X-0.7764 Y141.5474
X-0.7653 Y141.5628
X-0.7282 Y141.6102
X-0.6857 Y141.6575
X-0.6552 Y141.6879
X-0.6075 Y141.7304
X-0.5598 Y141.7676
X-0.5451 Y141.7781
X-0.49 Y141.8139
X-0.435 Y141.8446
X-0.3637 Y141.8776
X-0.3248 Y141.8927
X-0.2698 Y141.9109
X-0.2147 Y141.9254
X-0.1597 Y141.9365
X-0.1046 Y141.9442
X-0.0495 Y141.9487
X0.0055 Y141.95
X127.9682
X128.0784 Y141.9468
X128.1334 Y141.9406
X128.1885 Y141.9311
X128.2435 Y141.9183
X128.2986 Y141.9019
X128.3637 Y141.8776
X128.4087 Y141.8576
X128.4638 Y141.8291
X128.5189 Y141.7958
X128.5598 Y141.7676
X128.5944 Y141.7411
X128.629 Y141.712
X128.6857 Y141.6575
X128.7391 Y141.5969
X128.7764 Y141.5474
X128.8124 Y141.4924
X128.8433 Y141.4374
X128.8492 Y141.4258
X128.8722 Y141.3766
X128.8918 Y141.3273
X128.9102 Y141.2723
X128.9248 Y141.2172
X128.9361 Y141.1622
X128.944 Y141.1072
X128.9486 Y141.0521
X128.95 Y140.9971
Y86.0743
X128.9493 Y85.9642
X128.9457 Y85.9092
X128.9388 Y85.8542
X128.9285 Y85.7991
X128.9149 Y85.7441
X128.8977 Y85.6891
X128.8767 Y85.634
X128.8492 Y85.5741
X128.8222 Y85.524
X128.7877 Y85.4689
X128.7477 Y85.4139
X128.7391 Y85.4031
X128.6961 Y85.3535
X128.6465 Y85.3038
X128.629 Y85.288
X128.5739 Y85.2429
X128.5189 Y85.2042
X128.5025 Y85.1938
X128.4556 Y85.1664
X128.4087 Y85.1424
X128.3537 Y85.1183
X128.2986 Y85.0981
X128.2509 Y85.0837
X128.1885 Y85.0689
X128.1334 Y85.0594
X128.0784 Y85.0532
X127.9682 Y85.05
X73.9518
X73.95 Y85.0476
Y27.0791
X73.9495 Y26.969
X73.9461 Y26.914
X73.9395 Y26.8589
X73.9296 Y26.8039
X73.9162 Y26.7489
X73.8979 Y26.6898
X73.8787 Y26.6388
X73.854 Y26.5838
X73.8249 Y26.5287
X73.7878 Y26.4691
X73.7514 Y26.4187
X73.7167 Y26.3765
X73.6777 Y26.3342
X73.6515 Y26.3086
X73.6095 Y26.2713
X73.5676 Y26.2382
X73.5101 Y26.1985
X73.4574 Y26.1674
X73.4024 Y26.1394
X73.3473 Y26.1158
X73.3075 Y26.1011
X73.2676 Y26.0885
X73.2372 Y26.0801
X73.1821 Y26.0676
X73.1271 Y26.0585
X73.072 Y26.0527
X73.017 Y26.0502
X72.9068 Y26.05
X23.952
X23.95 Y26.0478
Y0.0029
X23.9486 Y-0.0521
X23.9439 Y-0.1072
X23.9361 Y-0.1622
X23.9248 Y-0.2172
X23.9145 Y-0.2574
X23.9022 Y-0.2977
X23.8918 Y-0.3273
X23.8697 Y-0.3823
X23.8433 Y-0.4374
X23.8193 Y-0.481
X23.7921 Y-0.5246
X23.7764 Y-0.5474
X23.7345 Y-0.6025
X23.6857 Y-0.6575
X23.6819 Y-0.6614
X23.6269 Y-0.7138
X23.5718 Y-0.7587
X23.5598 Y-0.7676
X23.5107 Y-0.801
X23.4617 Y-0.8303
X23.4127 Y-0.8557
X23.3637 Y-0.8776
X23.3516 Y-0.8826
X23.2965 Y-0.9025
X23.2414 Y-0.9188
X23.1864 Y-0.9315
X23.1313 Y-0.9409
X23.0763 Y-0.9469
X23.0212 Y-0.9498
X22.9111 Y-0.95
X0.0055
X-0.0495 Y-0.9487
X-0.1046 Y-0.9442
X-0.1597 Y-0.9365
X-0.2147 Y-0.9254
X-0.2698 Y-0.9109
X-0.3248 Y-0.8927
X-0.3637 Y-0.8776
X-0.435 Y-0.8446
X-0.49 Y-0.8139
X-0.5451 Y-0.7781
X-0.5598 Y-0.7676
X-0.6075 Y-0.7304
X-0.6552 Y-0.6879
X-0.6857 Y-0.6575
X-0.7282 Y-0.6102
X-0.7653 Y-0.5628
X-0.7764 Y-0.5474
X-0.8124 Y-0.4924
X-0.8433 Y-0.4374
X-0.8755 Y-0.3689
X-0.8918 Y-0.3273
X-0.9101 Y-0.2723
X-0.9248 Y-0.2172
X-0.9361 Y-0.1622
X-0.9439 Y-0.1072
X-0.9486 Y-0.0521
X-0.95 Y0.0029
Y34.8937
Y35.0038
X-0.9482 Y35.0588
X-0.9432 Y35.1139
X-0.9349 Y35.1689
X-0.9232 Y35.2239
X-0.9081 Y35.279
X-0.8893 Y35.334
X-0.8755 Y35.3689
X-0.8586 Y35.4065
X-0.8398 Y35.4441
X-0.8083 Y35.4991
X-0.7716 Y35.5541
X-0.7653 Y35.5628
X-0.7253 Y35.6135
X-0.6792 Y35.6642
X-0.6552 Y35.6879
X-0.6028 Y35.7342
X-0.5505 Y35.7743
X-0.5451 Y35.778
X-0.49 Y35.8139
X-0.435 Y35.8446
X-0.391 Y35.8658
X-0.3471 Y35.8843
X-0.3248 Y35.8927
X-0.2698 Y35.9109
X-0.2147 Y35.9254
X-0.1597 Y35.9365
X-0.1046 Y35.9442
X-0.0495 Y35.9487
X0.0055 Y35.95
X14.9822
X15.0923 Y35.9515
X15.2025 Y35.9569
X15.3126 Y35.9663
X15.4227 Y35.98
X15.516 Y35.9944
X15.5328 Y35.9971
X15.643 Y36.0185
X15.7531 Y36.0448
X15.8632 Y36.0755
X15.958 Y36.1045
X15.9733 Y36.1093
X16.0835 Y36.1496
X16.1936 Y36.1933
X16.2419 Y36.2145
X16.3037 Y36.2428
X16.4138 Y36.298
X16.4643 Y36.3246
X16.5239 Y36.3582
X16.6341 Y36.4251
X16.6491 Y36.4347
X16.7442 Y36.4983
X16.8093 Y36.5447
X16.8543 Y36.5786
X16.9493 Y36.6548
X16.9644 Y36.6673
X17.0746 Y36.7643
X17.0752 Y36.7649
X17.1847 Y36.8722
X17.1873 Y36.8749
X17.2895 Y36.985
X17.2948 Y36.9912
X17.3815 Y37.0951
X17.4049 Y37.1247
X17.4659 Y37.2051
X17.5151 Y37.275
X17.5419 Y37.3152
X17.6117 Y37.4252
X17.6252 Y37.448
X17.6752 Y37.5353
X17.7323 Y37.6454
X17.7353 Y37.6513
X17.7843 Y37.7554
X17.8305 Y37.8655
X17.8454 Y37.9035
X17.8728 Y37.9756
X17.9093 Y38.0856
X17.9413 Y38.1957
X17.9555 Y38.2484
X17.9698 Y38.3058
X17.9935 Y38.4158
X18.0124 Y38.5259
X18.0279 Y38.636
X18.0392 Y38.746
X18.0465 Y38.8561
X18.0496 Y38.9662
X18.05 Y39.0762
Y71.9859
X18.0484 Y72.096
X18.0429 Y72.206
X18.0333 Y72.3161
X18.0196 Y72.4262
X18.0023 Y72.5362
X17.9807 Y72.6463
X17.9555 Y72.7516
X17.9543 Y72.7564
X17.9236 Y72.8664
X17.8896 Y72.9765
X17.8492 Y73.0865
X17.8454 Y73.0964
X17.8054 Y73.1966
X17.7559 Y73.3067
X17.7353 Y73.3487
X17.7004 Y73.4167
X17.6401 Y73.5268
X17.6252 Y73.552
X17.5731 Y73.6369
X17.5151 Y73.725
X17.4998 Y73.7469
X17.4193 Y73.857
X17.4049 Y73.8753
X17.3304 Y73.9671
X17.2948 Y74.0087
X17.2332 Y74.0771
X17.1847 Y74.1278
X17.1252 Y74.1872
X17.0746 Y74.2357
X17.0059 Y74.2973
X16.9644 Y74.3327
X16.8722 Y74.4073
X16.8543 Y74.4214
X16.7442 Y74.5017
X16.7216 Y74.5174
X16.6341 Y74.5749
X16.5481 Y74.6275
X16.5239 Y74.6418
X16.4138 Y74.702
X16.3443 Y74.7375
X16.3037 Y74.7572
X16.1936 Y74.8067
X16.0908 Y74.8476
X16.0835 Y74.8505
X15.9733 Y74.8907
X15.8632 Y74.9245
X15.7531 Y74.9551
X15.7433 Y74.9577
X15.643 Y74.9815
X15.5328 Y75.0029
X15.4227 Y75.02
X15.3126 Y75.0336
X15.2025 Y75.0431
X15.0923 Y75.0485
X14.9822 Y75.05
X0.0055
X-0.0495 Y75.0513
X-0.1046 Y75.0558
X-0.1828 Y75.0677
X-0.2147 Y75.0746
X-0.2698 Y75.0891
X-0.3248 Y75.1072
X-0.3799 Y75.1292
X-0.435 Y75.1554
X-0.4759 Y75.1778
X-0.5451 Y75.2219
X-0.5869 Y75.253
X-0.6288 Y75.2879
X-0.6552 Y75.3121
X-0.6975 Y75.355
X-0.7349 Y75.3979
X-0.7653 Y75.4372
X-0.7902 Y75.4726
X-0.8127 Y75.508
X-0.8435 Y75.563
X-0.8699 Y75.6181
X-0.8755 Y75.6311
X-0.8944 Y75.6796
X-0.9103 Y75.7281
X-0.9249 Y75.7832
X-0.9361 Y75.8382
X-0.944 Y75.8932
X-0.9486 Y75.9483
X-0.95 Y76.0583
Y113.404
Y113.5976 Z-5.0001
Y113.7912 Z-5.0004
Y113.9847 Z-5.0008
Y114.1783 Z-5.0015
Y114.3719 Z-5.0023
Y114.5655 Z-5.0033
Y114.759 Z-5.0045
Y114.9526 Z-5.0058
Y115.1462 Z-5.0073
Y115.3398 Z-5.009
Y115.5333 Z-5.0109
Y115.7269 Z-5.0129
Y115.9205 Z-5.0151
Y116.1141 Z-5.0174
Y116.3076 Z-5.0199
Y116.5012 Z-5.0225
Y116.6948 Z-5.0253
Y116.8884 Z-5.0283
Y117.0819 Z-5.0314
Y117.2755 Z-5.0347
Y117.4691 Z-5.0381
Y117.6627 Z-5.0416
Y117.8562 Z-5.0453
Y118.0498 Z-5.0491
Y118.2434 Z-5.0531
Y118.437 Z-5.0572
Y118.6305 Z-5.0614
Y118.8241 Z-5.0658
Y119.0177 Z-5.0702
Y119.2113 Z-5.0749
Y119.4048 Z-5.0796
Y119.5984 Z-5.0845
Y119.792 Z-5.0894
Y119.8888 Z-5.092
Y119.9856 Z-5.0945
Y120.0823 Z-5.0971
Y120.1791 Z-5.0997
Y120.2759 Z-5.1024
Y120.3727 Z-5.1051
Y120.4695 Z-5.1078
Y120.5663 Z-5.1105
Y120.6631 Z-5.1133
Y120.7599 Z-5.1161
Y120.8566 Z-5.1189
Y120.9534 Z-5.1217
Y121.0502 Z-5.1246
Y121.147 Z-5.1275
Y121.2438 Z-5.1304
Y121.3406 Z-5.1334
Y121.4374 Z-5.1363
Y121.5341 Z-5.1393
Y121.6309 Z-5.1423
Y121.7277 Z-5.1454
Y121.8245 Z-5.1485
Y121.9213 Z-5.1516
Y122.0181 Z-5.1547
Y122.1149 Z-5.1578
Y122.2117 Z-5.161
Y122.3084 Z-5.1642
Y122.4052 Z-5.1674
Y122.502 Z-5.1706
Y122.5988 Z-5.1739
Y122.6956 Z-5.1772
Y122.7924 Z-5.1805
Y122.8892 Z-5.1838
Y122.986 Z-5.1871
Y123.1795 Z-5.1939
Y123.2763 Z-5.1972
Y123.3731 Z-5.2006
Y123.4699 Z-5.204
Y123.5667 Z-5.2074
Y123.6635 Z-5.2108
Y123.7603 Z-5.2141
Y123.857 Z-5.2175
Y123.9538 Z-5.2209
Y124.0506 Z-5.2243
Y124.1474 Z-5.2277
Y124.2442 Z-5.231
Y124.341 Z-5.2344
Y124.5346 Z-5.2412
Y124.8249 Z-5.2513
Y125.1153 Z-5.2614
Y125.4056 Z-5.2716
Y125.696 Z-5.2817
Y125.9864 Z-5.2919
Y126.2767 Z-5.302
Y126.5671 Z-5.3121
Y126.8575 Z-5.3223
Y127.1478 Z-5.3324
Y127.4382 Z-5.3426
Y127.9221 Z-5.3595
Y128.4061 Z-5.3764
Y128.89 Z-5.3933
Y129.5675 Z-5.4169
Y130.4386 Z-5.4473
Y131.8904 Z-5.498
Y138.8591 Z-5.7413
Y139.1494 Z-5.7515
Y139.4398 Z-5.7616
Y139.5366 Z-5.765
Y139.6334 Z-5.7684
Y139.7302 Z-5.7717
Y139.827 Z-5.7751
Y139.9238 Z-5.7785
Y140.0205 Z-5.7819
Y140.1173 Z-5.7853
Y140.2141 Z-5.7886
Y140.3109 Z-5.792
Y140.4077 Z-5.7954
Y140.5045 Z-5.7988
Y140.6013 Z-5.8022
Y140.698 Z-5.8055
Y140.7948 Z-5.8089
Y140.8916 Z-5.8123
Y140.9884 Z-5.8156
X-0.9493 Y141.0368 Z-5.8173
X-0.9462 Y141.0851 Z-5.819
X-0.9406 Y141.1332 Z-5.8206
X-0.9326 Y141.1809 Z-5.8223
X-0.9222 Y141.2281 Z-5.8239
X-0.9094 Y141.2748 Z-5.8255
X-0.8942 Y141.3208 Z-5.8272
X-0.8767 Y141.3659 Z-5.8288
X-0.8569 Y141.4101 Z-5.8304
X-0.8349 Y141.4532 Z-5.832
X-0.8108 Y141.4951 Z-5.8337
X-0.7845 Y141.5358 Z-5.8353
X-0.7562 Y141.575 Z-5.8369
X-0.7259 Y141.6128 Z-5.8385
X-0.6938 Y141.649 Z-5.84
X-0.6598 Y141.6835 Z-5.8416
X-0.6242 Y141.7162 Z-5.8432
X-0.5869 Y141.747 Z-5.8448
X-0.5481 Y141.776 Z-5.8463
X-0.5079 Y141.8029 Z-5.8479
X-0.4663 Y141.8277 Z-5.8494
X-0.4236 Y141.8504 Z-5.851
X-0.3797 Y141.8708 Z-5.8525
X-0.3349 Y141.889 Z-5.8541
X-0.2892 Y141.9049 Z-5.8556
X-0.2427 Y141.9185 Z-5.8571
X-0.1956 Y141.9297 Z-5.8586
X-0.148 Y141.9384 Z-5.8601
X-0.1 Y141.9447 Z-5.8616
X-0.0518 Y141.9486 Z-5.8631
X0.045 Y141.95 Z-5.8661
X0.1418 Z-5.8691
X0.2386 Z-5.872
X0.3353 Z-5.8749
X0.4321 Z-5.8778
X0.5289 Z-5.8806
X0.6257 Z-5.8834
X0.7225 Z-5.8862
X0.8193 Z-5.889
X0.9161 Z-5.8917
X1.0129 Z-5.8945
X1.1096 Z-5.8971
X1.2064 Z-5.8998
X1.3032 Z-5.9024
X1.4 Z-5.905
X1.4968 Z-5.9076
X1.5936 Z-5.9101
X1.6904 Z-5.9126
X1.8839 Z-5.9176
X2.0775 Z-5.9224
X2.2711 Z-5.9271
X2.4647 Z-5.9316
X2.6582 Z-5.9361
X2.8518 Z-5.9404
X3.0454 Z-5.9445
X3.239 Z-5.9486
X3.4325 Z-5.9525
X3.6261 Z-5.9562
X3.8197 Z-5.9599
X4.0133 Z-5.9634
X4.2068 Z-5.9667
X4.4004 Z-5.9699
X4.594 Z-5.9729
X4.7876 Z-5.9758
X4.9811 Z-5.9786
X5.1747 Z-5.9812
X5.3683 Z-5.9836
X5.5619 Z-5.9859
X5.7554 Z-5.988
X5.949 Z-5.9899
X6.1426 Z-5.9917
X6.3362 Z-5.9933
X6.5297 Z-5.9948
X6.7233 Z-5.996
X6.9169 Z-5.9971
X7.1105 Z-5.9981
X7.304 Z-5.9988
X7.4976 Z-5.9994
X7.6912 Z-5.9998
X7.8848 Z-6
X7.9986
X127.9682
X128.0784 Y141.9468
X128.1334 Y141.9406
X128.1885 Y141.9311
X128.2435 Y141.9183
X128.2986 Y141.9019
X128.3637 Y141.8776
X128.4087 Y141.8576
X128.4638 Y141.8291
X128.5189 Y141.7958
X128.5598 Y141.7676
X128.5944 Y141.7411
X128.629 Y141.712
X128.6857 Y141.6575
X128.7391 Y141.5969
X128.7764 Y141.5474
X128.8124 Y141.4924
X128.8433 Y141.4374
X128.8492 Y141.4258
X128.8722 Y141.3766
X128.8918 Y141.3273
X128.9102 Y141.2723
X128.9248 Y141.2172
X128.9361 Y141.1622
X128.944 Y141.1072
X128.9486 Y141.0521
X128.95 Y140.9971
Y86.0743
X128.9493 Y85.9642
X128.9457 Y85.9092
X128.9388 Y85.8542
X128.9285 Y85.7991
X128.9149 Y85.7441
X128.8977 Y85.6891
X128.8767 Y85.634
X128.8492 Y85.5741
X128.8222 Y85.524
X128.7877 Y85.4689
X128.7477 Y85.4139
X128.7391 Y85.4031
X128.6961 Y85.3535
X128.6465 Y85.3038
X128.629 Y85.288
X128.5739 Y85.2429
X128.5189 Y85.2042
X128.5025 Y85.1938
X128.4556 Y85.1664
X128.4087 Y85.1424
X128.3537 Y85.1183
X128.2986 Y85.0981
X128.2509 Y85.0837
X128.1885 Y85.0689
X128.1334 Y85.0594
X128.0784 Y85.0532
X127.9682 Y85.05
X73.9518
X73.95 Y85.0476
Y27.0791
X73.9495 Y26.969
X73.9461 Y26.914
X73.9395 Y26.8589
X73.9296 Y26.8039
X73.9162 Y26.7489
X73.8979 Y26.6898
X73.8787 Y26.6388
X73.854 Y26.5838
X73.8249 Y26.5287
X73.7878 Y26.4691
X73.7514 Y26.4187
X73.7167 Y26.3765
X73.6777 Y26.3342
X73.6515 Y26.3086
X73.6095 Y26.2713
X73.5676 Y26.2382
X73.5101 Y26.1985
X73.4574 Y26.1674
X73.4024 Y26.1394
X73.3473 Y26.1158
X73.3075 Y26.1011
X73.2676 Y26.0885
X73.2372 Y26.0801
X73.1821 Y26.0676
X73.1271 Y26.0585
X73.072 Y26.0527
X73.017 Y26.0502
X72.9068 Y26.05
X23.952
X23.95 Y26.0478
Y0.0029
X23.9486 Y-0.0521
X23.9439 Y-0.1072
X23.9361 Y-0.1622
X23.9248 Y-0.2172
X23.9145 Y-0.2574
X23.9022 Y-0.2977
X23.8918 Y-0.3273
X23.8697 Y-0.3823
X23.8433 Y-0.4374
X23.8193 Y-0.481
X23.7921 Y-0.5246
X23.7764 Y-0.5474
X23.7345 Y-0.6025
X23.6857 Y-0.6575
X23.6819 Y-0.6614
X23.6269 Y-0.7138
X23.5718 Y-0.7587
X23.5598 Y-0.7676
X23.5107 Y-0.801
X23.4617 Y-0.8303
X23.4127 Y-0.8557
X23.3637 Y-0.8776
X23.3516 Y-0.8826
X23.2965 Y-0.9025
X23.2414 Y-0.9188
X23.1864 Y-0.9315
X23.1313 Y-0.9409
X23.0763 Y-0.9469
X23.0212 Y-0.9498
X22.9111 Y-0.95
X0.0055
X-0.0495 Y-0.9487
X-0.1046 Y-0.9442
X-0.1597 Y-0.9365
X-0.2147 Y-0.9254
X-0.2698 Y-0.9109
X-0.3248 Y-0.8927
X-0.3637 Y-0.8776
X-0.435 Y-0.8446
X-0.49 Y-0.8139
X-0.5451 Y-0.7781
X-0.5598 Y-0.7676
X-0.6075 Y-0.7304
X-0.6552 Y-0.6879
X-0.6857 Y-0.6575
X-0.7282 Y-0.6102
X-0.7653 Y-0.5628
X-0.7764 Y-0.5474
X-0.8124 Y-0.4924
X-0.8433 Y-0.4374
X-0.8755 Y-0.3689
X-0.8918 Y-0.3273
X-0.9101 Y-0.2723
X-0.9248 Y-0.2172
X-0.9361 Y-0.1622
X-0.9439 Y-0.1072
X-0.9486 Y-0.0521
X-0.95 Y0.0029
Y34.8937
Y35.0038
X-0.9482 Y35.0588
X-0.9432 Y35.1139
X-0.9349 Y35.1689
X-0.9232 Y35.2239
X-0.9081 Y35.279
X-0.8893 Y35.334
X-0.8755 Y35.3689
X-0.8586 Y35.4065
X-0.8398 Y35.4441
X-0.8083 Y35.4991
X-0.7716 Y35.5541
X-0.7653 Y35.5628
X-0.7253 Y35.6135
X-0.6792 Y35.6642
X-0.6552 Y35.6879
X-0.6028 Y35.7342
X-0.5505 Y35.7743
X-0.5451 Y35.778
X-0.49 Y35.8139
X-0.435 Y35.8446
X-0.391 Y35.8658
X-0.3471 Y35.8843
X-0.3248 Y35.8927
X-0.2698 Y35.9109
X-0.2147 Y35.9254
X-0.1597 Y35.9365
X-0.1046 Y35.9442
X-0.0495 Y35.9487
X0.0055 Y35.95
X14.9822
X15.0923 Y35.9515
X15.2025 Y35.9569
X15.3126 Y35.9663
X15.4227 Y35.98
X15.516 Y35.9944
X15.5328 Y35.9971
X15.643 Y36.0185
X15.7531 Y36.0448
X15.8632 Y36.0755
X15.958 Y36.1045
X15.9733 Y36.1093
X16.0835 Y36.1496
X16.1936 Y36.1933
X16.2419 Y36.2145
X16.3037 Y36.2428
X16.4138 Y36.298
X16.4643 Y36.3246
X16.5239 Y36.3582
X16.6341 Y36.4251
X16.6491 Y36.4347
X16.7442 Y36.4983
X16.8093 Y36.5447
X16.8543 Y36.5786
X16.9493 Y36.6548
X16.9644 Y36.6673
X17.0746 Y36.7643
X17.0752 Y36.7649
X17.1847 Y36.8722
X17.1873 Y36.8749
X17.2895 Y36.985
X17.2948 Y36.9912
X17.3815 Y37.0951
X17.4049 Y37.1247
X17.4659 Y37.2051
X17.5151 Y37.275
X17.5419 Y37.3152
X17.6117 Y37.4252
X17.6252 Y37.448
X17.6752 Y37.5353
X17.7323 Y37.6454
X17.7353 Y37.6513
X17.7843 Y37.7554
X17.8305 Y37.8655
X17.8454 Y37.9035
X17.8728 Y37.9756
X17.9093 Y38.0856
X17.9413 Y38.1957
X17.9555 Y38.2484
X17.9698 Y38.3058
X17.9935 Y38.4158
X18.0124 Y38.5259
X18.0279 Y38.636
X18.0392 Y38.746
X18.0465 Y38.8561
X18.0496 Y38.9662
X18.05 Y39.0762
Y71.9859
X18.0484 Y72.096
X18.0429 Y72.206
X18.0333 Y72.3161
X18.0196 Y72.4262
X18.0023 Y72.5362
X17.9807 Y72.6463
X17.9555 Y72.7516
X17.9543 Y72.7564
X17.9236 Y72.8664
X17.8896 Y72.9765
X17.8492 Y73.0865
X17.8454 Y73.0964
X17.8054 Y73.1966
X17.7559 Y73.3067
X17.7353 Y73.3487
X17.7004 Y73.4167
X17.6401 Y73.5268
X17.6252 Y73.552
X17.5731 Y73.6369
X17.5151 Y73.725
X17.4998 Y73.7469
X17.4193 Y73.857
X17.4049 Y73.8753
X17.3304 Y73.9671
X17.2948 Y74.0087
X17.2332 Y74.0771
X17.1847 Y74.1278
X17.1252 Y74.1872
X17.0746 Y74.2357
X17.0059 Y74.2973
X16.9644 Y74.3327
X16.8722 Y74.4073
X16.8543 Y74.4214
X16.7442 Y74.5017
X16.7216 Y74.5174
X16.6341 Y74.5749
X16.5481 Y74.6275
X16.5239 Y74.6418
X16.4138 Y74.702
X16.3443 Y74.7375
X16.3037 Y74.7572
X16.1936 Y74.8067
X16.0908 Y74.8476
X16.0835 Y74.8505
X15.9733 Y74.8907
X15.8632 Y74.9245
X15.7531 Y74.9551
X15.7433 Y74.9577
X15.643 Y74.9815
X15.5328 Y75.0029
X15.4227 Y75.02
X15.3126 Y75.0336
X15.2025 Y75.0431
X15.0923 Y75.0485
X14.9822 Y75.05
X0.0055
X-0.0495 Y75.0513
X-0.1046 Y75.0558
X-0.1828 Y75.0677
X-0.2147 Y75.0746
X-0.2698 Y75.0891
X-0.3248 Y75.1072
X-0.3799 Y75.1292
X-0.435 Y75.1554
X-0.4759 Y75.1778
X-0.5451 Y75.2219
X-0.5869 Y75.253
X-0.6288 Y75.2879
X-0.6552 Y75.3121
X-0.6975 Y75.355
X-0.7349 Y75.3979
X-0.7653 Y75.4372
X-0.7902 Y75.4726
X-0.8127 Y75.508
X-0.8435 Y75.563
X-0.8699 Y75.6181
X-0.8755 Y75.6311
X-0.8944 Y75.6796
X-0.9103 Y75.7281
X-0.9249 Y75.7832
X-0.9361 Y75.8382
X-0.944 Y75.8932
X-0.9486 Y75.9483
X-0.95 Y76.0583
Y113.404
Y140.9971
X-0.9486 Y141.0521
X-0.9439 Y141.1072
X-0.9361 Y141.1622
X-0.9248 Y141.2172
X-0.9101 Y141.2723
X-0.8918 Y141.3273
X-0.8755 Y141.3689
X-0.8433 Y141.4374
X-0.8124 Y141.4924
X-0.7764 Y141.5474
X-0.7653 Y141.5628
X-0.7282 Y141.6102
X-0.6857 Y141.6575
X-0.6552 Y141.6879
X-0.6075 Y141.7304
X-0.5598 Y141.7676
X-0.5451 Y141.7781
X-0.49 Y141.8139
X-0.435 Y141.8446
X-0.3637 Y141.8776
X-0.3248 Y141.8927
X-0.2698 Y141.9109
X-0.2147 Y141.9254
X-0.1597 Y141.9365
X-0.1046 Y141.9442
X-0.0495 Y141.9487
X0.0055 Y141.95
X7.9986
X8.1921 Z-6.0001
X8.3857 Z-6.0004
X8.5793 Z-6.0008
X8.7729 Z-6.0015
X8.9664 Z-6.0023
X9.16 Z-6.0033
X9.3536 Z-6.0045
X9.5472 Z-6.0058
X9.7407 Z-6.0073
X9.9343 Z-6.009
X10.1279 Z-6.0109
X10.3215 Z-6.0129
X10.515 Z-6.0151
X10.7086 Z-6.0174
X10.9022 Z-6.0199
X11.0958 Z-6.0225
X11.2893 Z-6.0253
X11.4829 Z-6.0283
X11.6765 Z-6.0314
X11.8701 Z-6.0347
X12.0636 Z-6.0381
X12.2572 Z-6.0416
X12.4508 Z-6.0453
X12.6444 Z-6.0491
X12.8379 Z-6.0531
X13.0315 Z-6.0572
X13.2251 Z-6.0614
X13.4187 Z-6.0658
X13.6122 Z-6.0702
X13.8058 Z-6.0749
X13.9994 Z-6.0796
X14.193 Z-6.0845
X14.3865 Z-6.0894
X14.4833 Z-6.092
X14.5801 Z-6.0945
X14.6769 Z-6.0971
X14.7737 Z-6.0997
X14.8705 Z-6.1024
X14.9672 Z-6.1051
X15.064 Z-6.1078
X15.1608 Z-6.1105
X15.2576 Z-6.1133
X15.3544 Z-6.1161
X15.4512 Z-6.1189
X15.548 Z-6.1217
X15.6448 Z-6.1246
X15.7415 Z-6.1275
X15.8383 Z-6.1304
X15.9351 Z-6.1334
X16.0319 Z-6.1363
X16.1287 Z-6.1393
X16.2255 Z-6.1423
X16.3223 Z-6.1454
X16.4191 Z-6.1485
X16.5158 Z-6.1516
X16.6126 Z-6.1547
X16.7094 Z-6.1578
X16.8062 Z-6.161
X16.903 Z-6.1642
X16.9998 Z-6.1674
X17.0966 Z-6.1706
X17.1934 Z-6.1739
X17.2901 Z-6.1772
X17.3869 Z-6.1805
X17.4837 Z-6.1838
X17.5805 Z-6.1871
X17.7741 Z-6.1939
X17.8709 Z-6.1972
X17.9677 Z-6.2006
X18.0644 Z-6.204
X18.1612 Z-6.2074
X18.258 Z-6.2108
X18.3548 Z-6.2141
X18.4516 Z-6.2175
X18.5484 Z-6.2209
X18.6452 Z-6.2243
X18.742 Z-6.2277
X18.8387 Z-6.231
X18.9355 Z-6.2344
X19.1291 Z-6.2412
X19.4195 Z-6.2513
X19.7098 Z-6.2614
X20.0002 Z-6.2716
X20.2906 Z-6.2817
X20.5809 Z-6.2919
X20.8713 Z-6.302
X21.1616 Z-6.3121
X21.452 Z-6.3223
X21.7424 Z-6.3324
X22.0327 Z-6.3426
X22.5167 Z-6.3595
X23.0006 Z-6.3764
X23.4845 Z-6.3933
X24.162 Z-6.4169
X25.0331 Z-6.4473
X26.4849 Z-6.498
X33.4536 Z-6.7413
X33.744 Z-6.7515
X34.0344 Z-6.7616
X34.1311 Z-6.765
X34.2279 Z-6.7684
X34.3247 Z-6.7717
X34.4215 Z-6.7751
X34.5183 Z-6.7785
X34.6151 Z-6.7819
X34.7119 Z-6.7853
X34.8087 Z-6.7886
X34.9054 Z-6.792
X35.0022 Z-6.7954
X35.099 Z-6.7988
X35.1958 Z-6.8022
X35.2926 Z-6.8055
X35.3894 Z-6.8089
X35.4862 Z-6.8123
X35.583 Z-6.8156
X35.6797 Z-6.819
X35.7765 Z-6.8223
X35.8733 Z-6.8255
X35.9701 Z-6.8288
X36.0669 Z-6.832
X36.1637 Z-6.8353
X36.2605 Z-6.8385
X36.3573 Z-6.8416
X36.454 Z-6.8448
X36.5508 Z-6.8479
X36.6476 Z-6.851
X36.7444 Z-6.8541
X36.8412 Z-6.8571
X36.938 Z-6.8601
X37.0348 Z-6.8631
X37.1315 Z-6.8661
X37.2283 Z-6.8691
X37.3251 Z-6.872
X37.4219 Z-6.8749
X37.5187 Z-6.8778
X37.6155 Z-6.8806
X37.7123 Z-6.8834
X37.8091 Z-6.8862
X37.9058 Z-6.889
X38.0026 Z-6.8917
X38.0994 Z-6.8945
X38.1962 Z-6.8971
X38.293 Z-6.8998
X38.3898 Z-6.9024
X38.4866 Z-6.905
X38.5834 Z-6.9076
X38.6801 Z-6.9101
X38.7769 Z-6.9126
X38.9705 Z-6.9176
X39.1641 Z-6.9224
X39.3577 Z-6.9271
X39.5512 Z-6.9316
X39.7448 Z-6.9361
X39.9384 Z-6.9404
X40.132 Z-6.9445
X40.3255 Z-6.9486
X40.5191 Z-6.9525
X40.7127 Z-6.9562
X40.9063 Z-6.9599
X41.0998 Z-6.9634
X41.2934 Z-6.9667
X41.487 Z-6.9699
X41.6806 Z-6.9729
X41.8741 Z-6.9758
X42.0677 Z-6.9786
X42.2613 Z-6.9812
X42.4549 Z-6.9836
X42.6484 Z-6.9859
X42.842 Z-6.988
X43.0356 Z-6.9899
X43.2292 Z-6.9917
X43.4227 Z-6.9933
X43.6163 Z-6.9948
X43.8099 Z-6.996
X44.0035 Z-6.9971
X44.197 Z-6.9981
X44.3906 Z-6.9988
X44.5842 Z-6.9994
X44.7777 Z-6.9998
X44.9713 Z-7
X45.0851
X127.9682
X128.0784 Y141.9468
X128.1334 Y141.9406
X128.1885 Y141.9311
X128.2435 Y141.9183
X128.2986 Y141.9019
X128.3637 Y141.8776
X128.4087 Y141.8576
X128.4638 Y141.8291
X128.5189 Y141.7958
X128.5598 Y141.7676
X128.5944 Y141.7411
X128.629 Y141.712
X128.6857 Y141.6575
X128.7391 Y141.5969
X128.7764 Y141.5474
X128.8124 Y141.4924
X128.8433 Y141.4374
X128.8492 Y141.4258
X128.8722 Y141.3766
X128.8918 Y141.3273
X128.9102 Y141.2723
X128.9248 Y141.2172
X128.9361 Y141.1622
X128.944 Y141.1072
X128.9486 Y141.0521
X128.95 Y140.9971
Y86.0743
X128.9493 Y85.9642
X128.9457 Y85.9092
X128.9388 Y85.8542
X128.9285 Y85.7991
X128.9149 Y85.7441
X128.8977 Y85.6891
X128.8767 Y85.634
X128.8492 Y85.5741
X128.8222 Y85.524
X128.7877 Y85.4689
X128.7477 Y85.4139
X128.7391 Y85.4031
X128.6961 Y85.3535
X128.6465 Y85.3038
X128.629 Y85.288
X128.5739 Y85.2429
X128.5189 Y85.2042
X128.5025 Y85.1938
X128.4556 Y85.1664
X128.4087 Y85.1424
X128.3537 Y85.1183
X128.2986 Y85.0981
X128.2509 Y85.0837
X128.1885 Y85.0689
X128.1334 Y85.0594
X128.0784 Y85.0532
X127.9682 Y85.05
X73.9518
X73.95 Y85.0476
Y27.0791
X73.9495 Y26.969
X73.9461 Y26.914
X73.9395 Y26.8589
X73.9296 Y26.8039
X73.9162 Y26.7489
X73.8979 Y26.6898
X73.8787 Y26.6388
X73.854 Y26.5838
X73.8249 Y26.5287
X73.7878 Y26.4691
X73.7514 Y26.4187
X73.7167 Y26.3765
X73.6777 Y26.3342
X73.6515 Y26.3086
X73.6095 Y26.2713
X73.5676 Y26.2382
X73.5101 Y26.1985
X73.4574 Y26.1674
X73.4024 Y26.1394
X73.3473 Y26.1158
X73.3075 Y26.1011
X73.2676 Y26.0885
X73.2372 Y26.0801
X73.1821 Y26.0676
X73.1271 Y26.0585
X73.072 Y26.0527
X73.017 Y26.0502
X72.9068 Y26.05
X23.952
X23.95 Y26.0478
Y0.0029
X23.9486 Y-0.0521
X23.9439 Y-0.1072
X23.9361 Y-0.1622
X23.9248 Y-0.2172
X23.9145 Y-0.2574
X23.9022 Y-0.2977
X23.8918 Y-0.3273
X23.8697 Y-0.3823
X23.8433 Y-0.4374
X23.8193 Y-0.481
X23.7921 Y-0.5246
X23.7764 Y-0.5474
X23.7345 Y-0.6025
X23.6857 Y-0.6575
X23.6819 Y-0.6614
X23.6269 Y-0.7138
X23.5718 Y-0.7587
X23.5598 Y-0.7676
X23.5107 Y-0.801
X23.4617 Y-0.8303
X23.4127 Y-0.8557
X23.3637 Y-0.8776
X23.3516 Y-0.8826
X23.2965 Y-0.9025
X23.2414 Y-0.9188
X23.1864 Y-0.9315
X23.1313 Y-0.9409
X23.0763 Y-0.9469
X23.0212 Y-0.9498
X22.9111 Y-0.95
X0.0055
X-0.0495 Y-0.9487
X-0.1046 Y-0.9442
X-0.1597 Y-0.9365
X-0.2147 Y-0.9254
X-0.2698 Y-0.9109
X-0.3248 Y-0.8927
X-0.3637 Y-0.8776
X-0.435 Y-0.8446
X-0.49 Y-0.8139
X-0.5451 Y-0.7781
X-0.5598 Y-0.7676
X-0.6075 Y-0.7304
X-0.6552 Y-0.6879
X-0.6857 Y-0.6575
X-0.7282 Y-0.6102
X-0.7653 Y-0.5628
X-0.7764 Y-0.5474
X-0.8124 Y-0.4924
X-0.8433 Y-0.4374
X-0.8755 Y-0.3689
X-0.8918 Y-0.3273
X-0.9101 Y-0.2723
X-0.9248 Y-0.2172
X-0.9361 Y-0.1622
X-0.9439 Y-0.1072
X-0.9486 Y-0.0521
X-0.95 Y0.0029
Y34.8937
Y35.0038
X-0.9482 Y35.0588
X-0.9432 Y35.1139
X-0.9349 Y35.1689
X-0.9232 Y35.2239
X-0.9081 Y35.279
X-0.8893 Y35.334
X-0.8755 Y35.3689
X-0.8586 Y35.4065
X-0.8398 Y35.4441
X-0.8083 Y35.4991
X-0.7716 Y35.5541
X-0.7653 Y35.5628
X-0.7253 Y35.6135
X-0.6792 Y35.6642
X-0.6552 Y35.6879
X-0.6028 Y35.7342
X-0.5505 Y35.7743
X-0.5451 Y35.778
X-0.49 Y35.8139
X-0.435 Y35.8446
X-0.391 Y35.8658
X-0.3471 Y35.8843
X-0.3248 Y35.8927
X-0.2698 Y35.9109
X-0.2147 Y35.9254
X-0.1597 Y35.9365
X-0.1046 Y35.9442
X-0.0495 Y35.9487
X0.0055 Y35.95
X14.9822
X15.0923 Y35.9515
X15.2025 Y35.9569
X15.3126 Y35.9663
X15.4227 Y35.98
X15.516 Y35.9944
X15.5328 Y35.9971
X15.643 Y36.0185
X15.7531 Y36.0448
X15.8632 Y36.0755
X15.958 Y36.1045
X15.9733 Y36.1093
X16.0835 Y36.1496
X16.1936 Y36.1933
X16.2419 Y36.2145
X16.3037 Y36.2428
X16.4138 Y36.298
X16.4643 Y36.3246
X16.5239 Y36.3582
X16.6341 Y36.4251
X16.6491 Y36.4347
X16.7442 Y36.4983
X16.8093 Y36.5447
X16.8543 Y36.5786
X16.9493 Y36.6548
X16.9644 Y36.6673
X17.0746 Y36.7643
X17.0752 Y36.7649
X17.1847 Y36.8722
X17.1873 Y36.8749
X17.2895 Y36.985
X17.2948 Y36.9912
X17.3815 Y37.0951
X17.4049 Y37.1247
X17.4659 Y37.2051
X17.5151 Y37.275
X17.5419 Y37.3152
X17.6117 Y37.4252
X17.6252 Y37.448
X17.6752 Y37.5353
X17.7323 Y37.6454
X17.7353 Y37.6513
X17.7843 Y37.7554
X17.8305 Y37.8655
X17.8454 Y37.9035
X17.8728 Y37.9756
X17.9093 Y38.0856
X17.9413 Y38.1957
X17.9555 Y38.2484
X17.9698 Y38.3058
X17.9935 Y38.4158
X18.0124 Y38.5259
X18.0279 Y38.636
X18.0392 Y38.746
X18.0465 Y38.8561
X18.0496 Y38.9662
X18.05 Y39.0762
Y71.9859
X18.0484 Y72.096
X18.0429 Y72.206
X18.0333 Y72.3161
X18.0196 Y72.4262
X18.0023 Y72.5362
X17.9807 Y72.6463
X17.9555 Y72.7516
X17.9543 Y72.7564
X17.9236 Y72.8664
X17.8896 Y72.9765
X17.8492 Y73.0865
X17.8454 Y73.0964
X17.8054 Y73.1966
X17.7559 Y73.3067
X17.7353 Y73.3487
X17.7004 Y73.4167
X17.6401 Y73.5268
X17.6252 Y73.552
X17.5731 Y73.6369
X17.5151 Y73.725
X17.4998 Y73.7469
X17.4193 Y73.857
X17.4049 Y73.8753
X17.3304 Y73.9671
X17.2948 Y74.0087
X17.2332 Y74.0771
X17.1847 Y74.1278
X17.1252 Y74.1872
X17.0746 Y74.2357
X17.0059 Y74.2973
X16.9644 Y74.3327
X16.8722 Y74.4073
X16.8543 Y74.4214
X16.7442 Y74.5017
X16.7216 Y74.5174
X16.6341 Y74.5749
X16.5481 Y74.6275
X16.5239 Y74.6418
X16.4138 Y74.702
X16.3443 Y74.7375
X16.3037 Y74.7572
X16.1936 Y74.8067
X16.0908 Y74.8476
X16.0835 Y74.8505
X15.9733 Y74.8907
X15.8632 Y74.9245
X15.7531 Y74.9551
X15.7433 Y74.9577
X15.643 Y74.9815
X15.5328 Y75.0029
X15.4227 Y75.02
X15.3126 Y75.0336
X15.2025 Y75.0431
X15.0923 Y75.0485
X14.9822 Y75.05
X0.0055
X-0.0495 Y75.0513
X-0.1046 Y75.0558
X-0.1828 Y75.0677
X-0.2147 Y75.0746
X-0.2698 Y75.0891
X-0.3248 Y75.1072
X-0.3799 Y75.1292
X-0.435 Y75.1554
X-0.4759 Y75.1778
X-0.5451 Y75.2219
X-0.5869 Y75.253
X-0.6288 Y75.2879
X-0.6552 Y75.3121
X-0.6975 Y75.355
X-0.7349 Y75.3979
X-0.7653 Y75.4372
X-0.7902 Y75.4726
X-0.8127 Y75.508
X-0.8435 Y75.563
X-0.8699 Y75.6181
X-0.8755 Y75.6311
X-0.8944 Y75.6796
X-0.9103 Y75.7281
X-0.9249 Y75.7832
X-0.9361 Y75.8382
X-0.944 Y75.8932
X-0.9486 Y75.9483
X-0.95 Y76.0583
Y140.9971
X-0.9486 Y141.0521
X-0.9439 Y141.1072
X-0.9361 Y141.1622
X-0.9248 Y141.2172
X-0.9101 Y141.2723
X-0.8918 Y141.3273
X-0.8755 Y141.3689
X-0.8433 Y141.4374
X-0.8124 Y141.4924
X-0.7764 Y141.5474
X-0.7653 Y141.5628
X-0.7282 Y141.6102
X-0.6857 Y141.6575
X-0.6552 Y141.6879
X-0.6075 Y141.7304
X-0.5598 Y141.7676
X-0.5451 Y141.7781
X-0.49 Y141.8139
X-0.435 Y141.8446
X-0.3637 Y141.8776
X-0.3248 Y141.8927
X-0.2698 Y141.9109
X-0.2147 Y141.9254
X-0.1597 Y141.9365
X-0.1046 Y141.9442
X-0.0495 Y141.9487
X0.0055 Y141.95
X45.0851
X45.2787 Z-7.0001
X45.4723 Z-7.0004
X45.6659 Z-7.0008
X45.8594 Z-7.0015
X46.053 Z-7.0023
X46.2466 Z-7.0033
X46.4401 Z-7.0045
X46.6337 Z-7.0058
X46.8273 Z-7.0073
X47.0209 Z-7.009
X47.2144 Z-7.0109
X47.408 Z-7.0129
X47.6016 Z-7.0151
X47.7952 Z-7.0174
X47.9887 Z-7.0199
X48.1823 Z-7.0225
X48.3759 Z-7.0253
X48.5695 Z-7.0283
X48.763 Z-7.0314
X48.9566 Z-7.0347
X49.1502 Z-7.0381
X49.3438 Z-7.0416
X49.5373 Z-7.0453
X49.7309 Z-7.0491
X49.9245 Z-7.0531
X50.1181 Z-7.0572
X50.3116 Z-7.0614
X50.5052 Z-7.0658
X50.6988 Z-7.0702
X50.8924 Z-7.0749
X51.0859 Z-7.0796
X51.2795 Z-7.0845
X51.4731 Z-7.0894
X51.5699 Z-7.092
X51.6667 Z-7.0945
X51.7635 Z-7.0971
X51.8602 Z-7.0997
X51.957 Z-7.1024
X52.0538 Z-7.1051
X52.1506 Z-7.1078
X52.2474 Z-7.1105
X52.3442 Z-7.1133
X52.441 Z-7.1161
X52.5378 Z-7.1189
X52.6345 Z-7.1217
X52.7313 Z-7.1246
X52.8281 Z-7.1275
X52.9249 Z-7.1304
X53.0217 Z-7.1334
X53.1185 Z-7.1363
X53.2153 Z-7.1393
X53.312 Z-7.1423
X53.4088 Z-7.1454
X53.5056 Z-7.1485
X53.6024 Z-7.1516
X53.6992 Z-7.1547
X53.796 Z-7.1578
X53.8928 Z-7.161
X53.9896 Z-7.1642
X54.0863 Z-7.1674
X54.1831 Z-7.1706
X54.2799 Z-7.1739
X54.3767 Z-7.1772
X54.4735 Z-7.1805
X54.5703 Z-7.1838
X54.6671 Z-7.1871
X54.8606 Z-7.1939
X54.9574 Z-7.1972
X55.0542 Z-7.2006
X55.151 Z-7.204
X55.2478 Z-7.2074
X55.3446 Z-7.2108
X55.4414 Z-7.2141
X55.5382 Z-7.2175
X55.6349 Z-7.2209
X55.7317 Z-7.2243
X55.8285 Z-7.2277
X55.9253 Z-7.231
X56.0221 Z-7.2344
X56.2157 Z-7.2412
X56.506 Z-7.2513
X56.7964 Z-7.2614
X57.0868 Z-7.2716
X57.3771 Z-7.2817
X57.6675 Z-7.2919
X57.9578 Z-7.302
X58.2482 Z-7.3121
X58.5386 Z-7.3223
X58.8289 Z-7.3324
X59.1193 Z-7.3426
X59.6032 Z-7.3595
X60.0872 Z-7.3764
X60.5711 Z-7.3933
X61.2486 Z-7.4169
X62.1197 Z-7.4473
X63.5715 Z-7.498
X70.5402 Z-7.7413
X70.8306 Z-7.7515
X71.1209 Z-7.7616
X71.2177 Z-7.765
X71.3145 Z-7.7684
X71.4113 Z-7.7717
X71.5081 Z-7.7751
X71.6049 Z-7.7785
X71.7016 Z-7.7819
X71.7984 Z-7.7853
X71.8952 Z-7.7886
X71.992 Z-7.792
X72.0888 Z-7.7954
X72.1856 Z-7.7988
X72.2824 Z-7.8022
X72.3792 Z-7.8055
X72.4759 Z-7.8089
X72.5727 Z-7.8123
X72.6695 Z-7.8156
X72.7663 Z-7.819
X72.8631 Z-7.8223
X72.9599 Z-7.8255
X73.0567 Z-7.8288
X73.1535 Z-7.832
X73.2502 Z-7.8353
X73.347 Z-7.8385
X73.4438 Z-7.8416
X73.5406 Z-7.8448
X73.6374 Z-7.8479
X73.7342 Z-7.851
X73.831 Z-7.8541
X73.9277 Z-7.8571
X74.0245 Z-7.8601
X74.1213 Z-7.8631
X74.2181 Z-7.8661
X74.3149 Z-7.8691
X74.4117 Z-7.872
X74.5085 Z-7.8749
X74.6053 Z-7.8778
X74.702 Z-7.8806
X74.7988 Z-7.8834
X74.8956 Z-7.8862
X74.9924 Z-7.889
X75.0892 Z-7.8917
X75.186 Z-7.8945
X75.2828 Z-7.8971
X75.3796 Z-7.8998
X75.4763 Z-7.9024
X75.5731 Z-7.905
X75.6699 Z-7.9076
X75.7667 Z-7.9101
X75.8635 Z-7.9126
X76.0571 Z-7.9176
X76.2506 Z-7.9224
X76.4442 Z-7.9271
X76.6378 Z-7.9316
X76.8314 Z-7.9361
X77.0249 Z-7.9404
X77.2185 Z-7.9445
X77.4121 Z-7.9486
X77.6057 Z-7.9525
X77.7992 Z-7.9562
X77.9928 Z-7.9599
X78.1864 Z-7.9634
X78.38 Z-7.9667
X78.5735 Z-7.9699
X78.7671 Z-7.9729
X78.9607 Z-7.9758
X79.1543 Z-7.9786
X79.3478 Z-7.9812
X79.5414 Z-7.9836
X79.735 Z-7.9859
X79.9286 Z-7.988
X80.1221 Z-7.9899
X80.3157 Z-7.9917
X80.5093 Z-7.9933
X80.7029 Z-7.9948
X80.8964 Z-7.996
X81.09 Z-7.9971
X81.2836 Z-7.9981
X81.4772 Z-7.9988
X81.6707 Z-7.9994
X81.8643 Z-7.9998
X82.0579 Z-8
X82.1717
X127.9682
X128.0784 Y141.9468
X128.1334 Y141.9406
X128.1885 Y141.9311
X128.2435 Y141.9183
X128.2986 Y141.9019
X128.3637 Y141.8776
X128.4087 Y141.8576
X128.4638 Y141.8291
X128.5189 Y141.7958
X128.5598 Y141.7676
X128.5944 Y141.7411
X128.629 Y141.712
X128.6857 Y141.6575
X128.7391 Y141.5969
X128.7764 Y141.5474
X128.8124 Y141.4924
X128.8433 Y141.4374
X128.8492 Y141.4258
X128.8722 Y141.3766
X128.8918 Y141.3273
X128.9102 Y141.2723
X128.9248 Y141.2172
X128.9361 Y141.1622
X128.944 Y141.1072
X128.9486 Y141.0521
X128.95 Y140.9971
Y86.0743
X128.9493 Y85.9642
X128.9457 Y85.9092
X128.9388 Y85.8542
X128.9285 Y85.7991
X128.9149 Y85.7441
X128.8977 Y85.6891
X128.8767 Y85.634
X128.8492 Y85.5741
X128.8222 Y85.524
X128.7877 Y85.4689
X128.7477 Y85.4139
X128.7391 Y85.4031
X128.6961 Y85.3535
X128.6465 Y85.3038
X128.629 Y85.288
X128.5739 Y85.2429
X128.5189 Y85.2042
X128.5025 Y85.1938
X128.4556 Y85.1664
X128.4087 Y85.1424
X128.3537 Y85.1183
X128.2986 Y85.0981
X128.2509 Y85.0837
X128.1885 Y85.0689
X128.1334 Y85.0594
X128.0784 Y85.0532
X127.9682 Y85.05
X73.9518
X73.95 Y85.0476
Y27.0791
X73.9495 Y26.969
X73.9461 Y26.914
X73.9395 Y26.8589
X73.9296 Y26.8039
X73.9162 Y26.7489
X73.8979 Y26.6898
X73.8787 Y26.6388
X73.854 Y26.5838
X73.8249 Y26.5287
X73.7878 Y26.4691
X73.7514 Y26.4187
X73.7167 Y26.3765
X73.6777 Y26.3342
X73.6515 Y26.3086
X73.6095 Y26.2713
X73.5676 Y26.2382
X73.5101 Y26.1985
X73.4574 Y26.1674
X73.4024 Y26.1394
X73.3473 Y26.1158
X73.3075 Y26.1011
X73.2676 Y26.0885
X73.2372 Y26.0801
X73.1821 Y26.0676
X73.1271 Y26.0585
X73.072 Y26.0527
X73.017 Y26.0502
X72.9068 Y26.05
X23.952
X23.95 Y26.0478
Y0.0029
X23.9486 Y-0.0521
X23.9439 Y-0.1072
X23.9361 Y-0.1622
X23.9248 Y-0.2172
X23.9145 Y-0.2574
X23.9022 Y-0.2977
X23.8918 Y-0.3273
X23.8697 Y-0.3823
X23.8433 Y-0.4374
X23.8193 Y-0.481
X23.7921 Y-0.5246
X23.7764 Y-0.5474
X23.7345 Y-0.6025
X23.6857 Y-0.6575
X23.6819 Y-0.6614
X23.6269 Y-0.7138
X23.5718 Y-0.7587
X23.5598 Y-0.7676
X23.5107 Y-0.801
X23.4617 Y-0.8303
X23.4127 Y-0.8557
X23.3637 Y-0.8776
X23.3516 Y-0.8826
X23.2965 Y-0.9025
X23.2414 Y-0.9188
X23.1864 Y-0.9315
X23.1313 Y-0.9409
X23.0763 Y-0.9469
X23.0212 Y-0.9498
X22.9111 Y-0.95
X0.0055
X-0.0495 Y-0.9487
X-0.1046 Y-0.9442
X-0.1597 Y-0.9365
X-0.2147 Y-0.9254
X-0.2698 Y-0.9109
X-0.3248 Y-0.8927
X-0.3637 Y-0.8776
X-0.435 Y-0.8446
X-0.49 Y-0.8139
X-0.5451 Y-0.7781
X-0.5598 Y-0.7676
X-0.6075 Y-0.7304
X-0.6552 Y-0.6879
X-0.6857 Y-0.6575
X-0.7282 Y-0.6102
X-0.7653 Y-0.5628
X-0.7764 Y-0.5474
X-0.8124 Y-0.4924
X-0.8433 Y-0.4374
X-0.8755 Y-0.3689
X-0.8918 Y-0.3273
X-0.9101 Y-0.2723
X-0.9248 Y-0.2172
X-0.9361 Y-0.1622
X-0.9439 Y-0.1072
X-0.9486 Y-0.0521
X-0.95 Y0.0029
Y34.8937
Y35.0038
X-0.9482 Y35.0588
X-0.9432 Y35.1139
X-0.9349 Y35.1689
X-0.9232 Y35.2239
X-0.9081 Y35.279
X-0.8893 Y35.334
X-0.8755 Y35.3689
X-0.8586 Y35.4065
X-0.8398 Y35.4441
X-0.8083 Y35.4991
X-0.7716 Y35.5541
X-0.7653 Y35.5628
X-0.7253 Y35.6135
X-0.6792 Y35.6642
X-0.6552 Y35.6879
X-0.6028 Y35.7342
X-0.5505 Y35.7743
X-0.5451 Y35.778
X-0.49 Y35.8139
X-0.435 Y35.8446
X-0.391 Y35.8658
X-0.3471 Y35.8843
X-0.3248 Y35.8927
X-0.2698 Y35.9109
X-0.2147 Y35.9254
X-0.1597 Y35.9365
X-0.1046 Y35.9442
X-0.0495 Y35.9487
X0.0055 Y35.95
X14.9822
X15.0923 Y35.9515
X15.2025 Y35.9569
X15.3126 Y35.9663
X15.4227 Y35.98
X15.516 Y35.9944
X15.5328 Y35.9971
X15.643 Y36.0185
X15.7531 Y36.0448
X15.8632 Y36.0755
X15.958 Y36.1045
X15.9733 Y36.1093
X16.0835 Y36.1496
X16.1936 Y36.1933
X16.2419 Y36.2145
X16.3037 Y36.2428
X16.4138 Y36.298
X16.4643 Y36.3246
X16.5239 Y36.3582
X16.6341 Y36.4251
X16.6491 Y36.4347
X16.7442 Y36.4983
X16.8093 Y36.5447
X16.8543 Y36.5786
X16.9493 Y36.6548
X16.9644 Y36.6673
X17.0746 Y36.7643
X17.0752 Y36.7649
X17.1847 Y36.8722
X17.1873 Y36.8749
X17.2895 Y36.985
X17.2948 Y36.9912
X17.3815 Y37.0951
X17.4049 Y37.1247
X17.4659 Y37.2051
X17.5151 Y37.275
X17.5419 Y37.3152
X17.6117 Y37.4252
X17.6252 Y37.448
X17.6752 Y37.5353
X17.7323 Y37.6454
X17.7353 Y37.6513
X17.7843 Y37.7554
X17.8305 Y37.8655
X17.8454 Y37.9035
X17.8728 Y37.9756
X17.9093 Y38.0856
X17.9413 Y38.1957
X17.9555 Y38.2484
X17.9698 Y38.3058
X17.9935 Y38.4158
X18.0124 Y38.5259
X18.0279 Y38.636
X18.0392 Y38.746
X18.0465 Y38.8561
X18.0496 Y38.9662
X18.05 Y39.0762
Y71.9859
X18.0484 Y72.096
X18.0429 Y72.206
X18.0333 Y72.3161
X18.0196 Y72.4262
X18.0023 Y72.5362
X17.9807 Y72.6463
X17.9555 Y72.7516
X17.9543 Y72.7564
X17.9236 Y72.8664
X17.8896 Y72.9765
X17.8492 Y73.0865
X17.8454 Y73.0964
X17.8054 Y73.1966
X17.7559 Y73.3067
X17.7353 Y73.3487
X17.7004 Y73.4167
X17.6401 Y73.5268
X17.6252 Y73.552
X17.5731 Y73.6369
X17.5151 Y73.725
X17.4998 Y73.7469
X17.4193 Y73.857
X17.4049 Y73.8753
X17.3304 Y73.9671
X17.2948 Y74.0087
X17.2332 Y74.0771
X17.1847 Y74.1278
X17.1252 Y74.1872
X17.0746 Y74.2357
X17.0059 Y74.2973
X16.9644 Y74.3327
X16.8722 Y74.4073
X16.8543 Y74.4214
X16.7442 Y74.5017
X16.7216 Y74.5174
X16.6341 Y74.5749
X16.5481 Y74.6275
X16.5239 Y74.6418
X16.4138 Y74.702
X16.3443 Y74.7375
X16.3037 Y74.7572
X16.1936 Y74.8067
X16.0908 Y74.8476
X16.0835 Y74.8505
X15.9733 Y74.8907
X15.8632 Y74.9245
X15.7531 Y74.9551
X15.7433 Y74.9577
X15.643 Y74.9815
X15.5328 Y75.0029
X15.4227 Y75.02
X15.3126 Y75.0336
X15.2025 Y75.0431
X15.0923 Y75.0485
X14.9822 Y75.05
X0.0055
X-0.0495 Y75.0513
X-0.1046 Y75.0558
X-0.1828 Y75.0677
X-0.2147 Y75.0746
X-0.2698 Y75.0891
X-0.3248 Y75.1072
X-0.3799 Y75.1292
X-0.435 Y75.1554
X-0.4759 Y75.1778
X-0.5451 Y75.2219
X-0.5869 Y75.253
X-0.6288 Y75.2879
X-0.6552 Y75.3121
X-0.6975 Y75.355
X-0.7349 Y75.3979
X-0.7653 Y75.4372
X-0.7902 Y75.4726
X-0.8127 Y75.508
X-0.8435 Y75.563
X-0.8699 Y75.6181
X-0.8755 Y75.6311
X-0.8944 Y75.6796
X-0.9103 Y75.7281
X-0.9249 Y75.7832
X-0.9361 Y75.8382
X-0.944 Y75.8932
X-0.9486 Y75.9483
X-0.95 Y76.0583
Y140.9971
X-0.9486 Y141.0521
X-0.9439 Y141.1072
X-0.9361 Y141.1622
X-0.9248 Y141.2172
X-0.9101 Y141.2723
X-0.8918 Y141.3273
X-0.8755 Y141.3689
X-0.8433 Y141.4374
X-0.8124 Y141.4924
X-0.7764 Y141.5474
X-0.7653 Y141.5628
X-0.7282 Y141.6102
X-0.6857 Y141.6575
X-0.6552 Y141.6879
X-0.6075 Y141.7304
X-0.5598 Y141.7676
X-0.5451 Y141.7781
X-0.49 Y141.8139
X-0.435 Y141.8446
X-0.3637 Y141.8776
X-0.3248 Y141.8927
X-0.2698 Y141.9109
X-0.2147 Y141.9254
X-0.1597 Y141.9365
X-0.1046 Y141.9442
X-0.0495 Y141.9487
X0.0055 Y141.95
X45.0851
X82.1717
X82.2241 Y141.9574
X82.2724 Y141.9789
X82.3129 Y142.0129
X82.3425 Y142.0568
X82.3588 Y142.1071
X82.3606 Y142.1599
X82.1915 Y143.7637
X82.1863 Y143.8126 Z-7.9935
X82.1815 Y143.8582 Z-7.9745
X82.1774 Y143.8973 Z-7.9443
X82.1742 Y143.9274 Z-7.905
X82.1722 Y143.9462 Z-7.8592
X82.1715 Y143.9527 Z-7.81
G0 Z5
X11.2371 Y16.0436
Z1.1884
G1 Z-0.81 F3200
X11.2403 Y16.0493 Z-0.8592
X11.2496 Y16.0658 Z-0.905
X11.2645 Y16.0921 Z-0.9444
X11.2838 Y16.1264 Z-0.9745
X11.3063 Y16.1663 Z-0.9935
X11.3304 Y16.2091 Z-1
X11.9761 Y17.3546
X11.9946 Y17.4006
X12.0006 Y17.4499
X11.9936 Y17.499
X11.9742 Y17.5446
X11.9436 Y17.5836
X11.9039 Y17.6134
X11.8988 Y17.6163
X11.7887 Y17.673
X11.6785 Y17.7206
X11.6711 Y17.7235
X11.5684 Y17.7604
X11.4583 Y17.7921
X11.3482 Y17.8168
X11.2454 Y17.8335
X11.2381 Y17.8344
X11.1279 Y17.8454
X11.0178 Y17.8494
X10.9077 Y17.8472
X10.7976 Y17.8387
X10.7546 Y17.8335
X10.6874 Y17.8235
X10.5773 Y17.8005
X10.4672 Y17.7717
X10.3571 Y17.7339
X10.3296 Y17.7235
X10.2469 Y17.6894
X10.1368 Y17.6355
X10.0961 Y17.6134
X10.0267 Y17.5726
X9.9222 Y17.5033
X9.9166 Y17.4993
X9.8065 Y17.413
X9.7832 Y17.3933
X9.6963 Y17.3123
X9.6681 Y17.2832
X9.5862 Y17.1926
X9.57 Y17.1732
X9.4862 Y17.0631
X9.4761 Y17.0483
X9.4148 Y16.953
X9.366 Y16.866
X9.3538 Y16.843
X9.3017 Y16.7329
X9.2585 Y16.6228
X9.2558 Y16.6153
X9.2225 Y16.5128
X9.1947 Y16.4027
X9.1739 Y16.2926
X9.1593 Y16.1826
X9.1518 Y16.0725
X9.1509 Y15.9624
X9.1562 Y15.8524
X9.1687 Y15.7423
X9.1872 Y15.6322
X9.2131 Y15.5222
X9.2461 Y15.4121
X9.2558 Y15.3853
X9.2871 Y15.302
X9.3363 Y15.192
X9.366 Y15.134
X9.3946 Y15.0819
X9.4627 Y14.9718
X9.4761 Y14.9517
X9.542 Y14.8618
X9.5862 Y14.8074
X9.6352 Y14.7517
X9.6963 Y14.6877
X9.7446 Y14.6416
X9.8065 Y14.587
X9.8751 Y14.5316
X9.9166 Y14.5007
X10.0267 Y14.4274
X10.0361 Y14.4215
X10.1368 Y14.3645
X10.2449 Y14.3114
X10.2469 Y14.3105
X10.3571 Y14.266
X10.4672 Y14.2283
X10.5693 Y14.2014
X10.5773 Y14.1995
X10.6874 Y14.1769
X10.7976 Y14.1615
X10.9077 Y14.1528
X11.0178 Y14.1505
X11.1279 Y14.1546
X11.2381 Y14.1661
X11.3482 Y14.1832
X11.4308 Y14.2014
X11.4583 Y14.2079
X11.5684 Y14.2396
X11.6785 Y14.2794
X11.7552 Y14.3114
X11.7887 Y14.327
X11.8988 Y14.3837
X11.9639 Y14.4215
X12.0089 Y14.4499
X12.119 Y14.5269
X12.1249 Y14.5316
X12.2292 Y14.6179
X12.2554 Y14.6416
X12.3393 Y14.7244
X12.3648 Y14.7517
X12.4494 Y14.8508
X12.458 Y14.8618
X12.5373 Y14.9718
X12.5595 Y15.0057
X12.6055 Y15.0819
X12.6637 Y15.192
X12.6696 Y15.2043
X12.713 Y15.302
X12.7539 Y15.4121
X12.7798 Y15.4956
X12.7869 Y15.5222
X12.8128 Y15.6322
X12.8321 Y15.7423
X12.8439 Y15.8524
X12.8491 Y15.9624
X12.8482 Y16.0725
X12.8407 Y16.1826
X12.8267 Y16.2926
X12.8053 Y16.4027
X12.7798 Y16.5044
X12.7775 Y16.5128
X12.7415 Y16.6228
X12.6983 Y16.7329
X12.6696 Y16.7957
X12.6462 Y16.843
X12.5852 Y16.953
X12.5595 Y16.9943
X12.5139 Y17.0631
X12.4494 Y17.1492
X12.43 Y17.1732
X12.3393 Y17.2756
X12.3319 Y17.2832
X12.2292 Y17.3821
X12.2168 Y17.3933
X12.119 Y17.4731
X12.0778 Y17.5033
X12.0089 Y17.5501
X11.9039 Y17.6134
X11.8198 Y17.6581
X11.7333 Y17.6981 Z-1.0001
X11.6449 Y17.7335 Z-1.0002
X11.5549 Y17.7647 Z-1.0004
X11.4633 Y17.7908 Z-1.0006
X11.3705 Y17.8122 Z-1.0008
X11.2768 Y17.8293 Z-1.0011
X11.1822 Y17.8407 Z-1.0014
X11.0872 Y17.8474 Z-1.0018
X10.992 Y17.8496 Z-1.0022
X10.8018 Y17.8392 Z-1.0032
X10.7074 Y17.8267 Z-1.0037
X10.6138 Y17.809 Z-1.0043
X10.5212 Y17.7866 Z-1.005
X10.4298 Y17.7599 Z-1.0056
X10.3402 Y17.7276 Z-1.0063
X10.252 Y17.6917 Z-1.0071
X10.1659 Y17.6509 Z-1.0079
X10.0821 Y17.6055 Z-1.0087
X10.0006 Y17.5563 Z-1.0096
X9.9217 Y17.503 Z-1.0105
X9.8458 Y17.4454 Z-1.0115
X9.773 Y17.384 Z-1.0125
X9.7033 Y17.319 Z-1.0135
X9.6372 Y17.2505 Z-1.0146
X9.5746 Y17.1787 Z-1.0157
X9.5155 Y17.104 Z-1.0169
X9.41 Y16.9454 Z-1.0193
X9.3639 Y16.8621 Z-1.0205
X9.3214 Y16.7768 Z-1.0219
X9.2836 Y16.6894 Z-1.0232
X9.2504 Y16.6001 Z-1.0246
X9.2216 Y16.5093 Z-1.026
X9.1981 Y16.417 Z-1.0274
X9.1786 Y16.3238 Z-1.0289
X9.165 Y16.2295 Z-1.0305
X9.155 Y16.1348 Z-1.032
X9.151 Y16.0396 Z-1.0336
X9.1513 Y15.9444 Z-1.0352
X9.1565 Y15.8492 Z-1.0369
X9.1671 Y15.7546 Z-1.0386
X9.1815 Y15.6604 Z-1.0403
X9.2018 Y15.5674 Z-1.0421
X9.2258 Y15.4752 Z-1.0439
X9.2895 Y15.2957 Z-1.0476
X9.3283 Y15.2087 Z-1.0495
X9.3714 Y15.1237 Z-1.0515
X9.4185 Y15.041 Z-1.0534
X9.47 Y14.9608 Z-1.0555
X9.5252 Y14.8832 Z-1.0575
X9.5849 Y14.809 Z-1.0596
X9.648 Y14.7377 Z-1.0617
X9.7149 Y14.6699 Z-1.0638
X9.7849 Y14.6052 Z-1.066
X9.8584 Y14.5447 Z-1.0681
X9.9347 Y14.4877 Z-1.0704
X10.0142 Y14.4352 Z-1.0726
X10.0961 Y14.3866 Z-1.0749
X10.1802 Y14.3419 Z-1.0772
X10.2667 Y14.3019 Z-1.0796
X10.3552 Y14.2667 Z-1.082
X10.5367 Y14.2092 Z-1.0868
X10.6295 Y14.1878 Z-1.0893
X10.7234 Y14.1714 Z-1.0918
X10.8178 Y14.1593 Z-1.0943
X10.9128 Y14.1525 Z-1.0968
X11.0081 Y14.1503 Z-1.0994
X11.1033 Y14.1533 Z-1.102
X11.1982 Y14.1609 Z-1.1046
X11.2926 Y14.1738 Z-1.1073
X11.3863 Y14.191 Z-1.11
X11.4789 Y14.2134 Z-1.1127
X11.5703 Y14.2401 Z-1.1154
X11.66 Y14.2722 Z-1.1182
X11.7481 Y14.3083 Z-1.121
X11.8341 Y14.3491 Z-1.1238
X11.9179 Y14.3945 Z-1.1266
X11.9995 Y14.4437 Z-1.1295
X12.0784 Y14.4971 Z-1.1324
X12.1543 Y14.5546 Z-1.1353
X12.2271 Y14.616 Z-1.1383
X12.2967 Y14.681 Z-1.1412
X12.3628 Y14.7496 Z-1.1442
X12.4254 Y14.8214 Z-1.1472
X12.4846 Y14.896 Z-1.1503
X12.5389 Y14.9743 Z-1.1533
X12.59 Y15.0547 Z-1.1564
X12.6362 Y15.138 Z-1.1595
X12.6787 Y15.2232 Z-1.1626
X12.7163 Y15.3107 Z-1.1658
X12.7495 Y15.4 Z-1.169
X12.7785 Y15.4907 Z-1.1722
X12.8019 Y15.5831 Z-1.1754
X12.8217 Y15.6762 Z-1.1786
X12.8355 Y15.7705 Z-1.1819
X12.845 Y15.8653 Z-1.1851
X12.849 Y15.9604 Z-1.1884
X12.8487 Y16.0557 Z-1.1918
X12.8436 Y16.1508 Z-1.1951
X12.8335 Y16.2455 Z-1.1984
X12.8186 Y16.3396 Z-1.2017
X12.7982 Y16.4326 Z-1.2051
X12.7742 Y16.5248 Z-1.2084
X12.7442 Y16.6152 Z-1.2117
X12.7106 Y16.7044 Z-1.215
X12.6717 Y16.7913 Z-1.2183
X12.6286 Y16.8762 Z-1.2217
X12.5815 Y16.959 Z-1.225
X12.53 Y17.0391 Z-1.2283
X12.4748 Y17.1168 Z-1.2316
X12.4151 Y17.191 Z-1.235
X12.352 Y17.2623 Z-1.2383
X12.2851 Y17.3301 Z-1.2416
X12.2151 Y17.3948 Z-1.2449
X12.1416 Y17.4553 Z-1.2483
X12.0653 Y17.5123 Z-1.2516
X11.9858 Y17.5648 Z-1.2549
X11.9039 Y17.6134 Z-1.2582
X11.8198 Y17.6581 Z-1.2616
X11.7333 Y17.6981 Z-1.2649
X11.6449 Y17.7335 Z-1.2682
X11.5549 Y17.7647 Z-1.2715
X11.4633 Y17.7908 Z-1.2749
X11.3705 Y17.8122 Z-1.2782
X11.2768 Y17.8293 Z-1.2815
X11.1822 Y17.8407 Z-1.2848
X11.0872 Y17.8474 Z-1.2882
X10.992 Y17.8496 Z-1.2915
X10.8968 Y17.8466 Z-1.2948
X10.8018 Y17.8392 Z-1.2981
X10.7074 Y17.8267 Z-1.3015
X10.6138 Y17.809 Z-1.3048
X10.5212 Y17.7866 Z-1.3081
X10.4298 Y17.7599 Z-1.3114
X10.3402 Y17.7276 Z-1.3148
X10.252 Y17.6917 Z-1.3181
X10.1659 Y17.6509 Z-1.3214
X10.0821 Y17.6055 Z-1.3247
X10.0006 Y17.5563 Z-1.3281
X9.9217 Y17.503 Z-1.3314
X9.8458 Y17.4454 Z-1.3347
X9.773 Y17.384 Z-1.338
X9.7033 Y17.319 Z-1.3414
X9.6372 Y17.2505 Z-1.3447
X9.5746 Y17.1787 Z-1.348
X9.5155 Y17.104 Z-1.3513
X9.4611 Y17.0258 Z-1.3547
X9.41 Y16.9454 Z-1.358
X9.3639 Y16.8621 Z-1.3613
X9.3214 Y16.7768 Z-1.3646
X9.2836 Y16.6894 Z-1.368
X9.2504 Y16.6001 Z-1.3713
X9.2216 Y16.5093 Z-1.3746
X9.1981 Y16.417 Z-1.3779
X9.1786 Y16.3238 Z-1.3813
X9.165 Y16.2295 Z-1.3846
X9.155 Y16.1348 Z-1.3879
X9.151 Y16.0396 Z-1.3912
X9.1513 Y15.9444 Z-1.3946
X9.1565 Y15.8492 Z-1.3979
X9.1671 Y15.7546 Z-1.4012
X9.1815 Y15.6604 Z-1.4045
X9.2018 Y15.5674 Z-1.4079
X9.2258 Y15.4752 Z-1.4112
X9.256 Y15.3848 Z-1.4145
X9.2895 Y15.2957 Z-1.4178
X9.3283 Y15.2087 Z-1.4212
X9.3714 Y15.1237 Z-1.4245
X9.4185 Y15.041 Z-1.4278
X9.47 Y14.9608 Z-1.4311
X9.5252 Y14.8832 Z-1.4345
X9.5849 Y14.809 Z-1.4378
X9.648 Y14.7377 Z-1.4411
X9.7149 Y14.6699 Z-1.4444
X9.7849 Y14.6052 Z-1.4478
X9.8584 Y14.5447 Z-1.4511
X9.9347 Y14.4877 Z-1.4544
X10.0142 Y14.4352 Z-1.4577
X10.0961 Y14.3866 Z-1.4611
X10.1802 Y14.3419 Z-1.4644
X10.2667 Y14.3019 Z-1.4677
X10.3552 Y14.2667 Z-1.471
X10.4451 Y14.2353 Z-1.4744
X10.5367 Y14.2092 Z-1.4777
X10.6295 Y14.1878 Z-1.481
X10.7234 Y14.1714 Z-1.4843
X10.8178 Y14.1593 Z-1.4877
X10.9128 Y14.1525 Z-1.491
X11.0081 Y14.1503 Z-1.4943
X11.1033 Y14.1533 Z-1.4976
X11.1982 Y14.1609 Z-1.501
X11.2926 Y14.1738 Z-1.5043
X11.3863 Y14.191 Z-1.5076
X11.4789 Y14.2134 Z-1.5109
X11.5703 Y14.2401 Z-1.5143
X11.66 Y14.2722 Z-1.5176
X11.7481 Y14.3083 Z-1.5209
X11.8341 Y14.3491 Z-1.5242
X11.9179 Y14.3945 Z-1.5275
X11.9995 Y14.4437 Z-1.5309
X12.0784 Y14.4971 Z-1.5342
X12.1543 Y14.5546 Z-1.5375
X12.2271 Y14.616 Z-1.5408
X12.2967 Y14.681 Z-1.5442
X12.3628 Y14.7496 Z-1.5475
X12.4254 Y14.8214 Z-1.5508
X12.4846 Y14.896 Z-1.5541
X12.5389 Y14.9743 Z-1.5575
X12.59 Y15.0547 Z-1.5608
X12.6362 Y15.138 Z-1.5641
X12.6787 Y15.2232 Z-1.5674
X12.7163 Y15.3107 Z-1.5708
X12.7495 Y15.4 Z-1.5741
X12.7785 Y15.4907 Z-1.5774
X12.8019 Y15.5831 Z-1.5807
X12.8217 Y15.6762 Z-1.5841
X12.8355 Y15.7705 Z-1.5874
X12.845 Y15.8653 Z-1.5907
X12.849 Y15.9604 Z-1.594
X12.8487 Y16.0557 Z-1.5974
X12.8436 Y16.1508 Z-1.6007
X12.8335 Y16.2455 Z-1.604
X12.8186 Y16.3396 Z-1.6073
X12.7982 Y16.4326 Z-1.6107
X12.7742 Y16.5248 Z-1.614
X12.7442 Y16.6152 Z-1.6173
X12.7106 Y16.7044 Z-1.6206
X12.6717 Y16.7913 Z-1.624
X12.6286 Y16.8762 Z-1.6273
X12.5815 Y16.959 Z-1.6306
X12.53 Y17.0391 Z-1.6339
X12.4748 Y17.1168 Z-1.6373
X12.4151 Y17.191 Z-1.6406
X12.352 Y17.2623 Z-1.6439
X12.2851 Y17.3301 Z-1.6472
X12.2151 Y17.3948 Z-1.6506
X12.1416 Y17.4553 Z-1.6539
X12.0653 Y17.5123 Z-1.6572
X11.9858 Y17.5648 Z-1.6605
X11.9039 Y17.6134 Z-1.6639
X11.8198 Y17.6581 Z-1.6672
X11.7333 Y17.6981 Z-1.6705
X11.6449 Y17.7335 Z-1.6738
X11.5549 Y17.7647 Z-1.6771
X11.4633 Y17.7908 Z-1.6805
X11.3705 Y17.8122 Z-1.6838
X11.2768 Y17.8293 Z-1.6871
X11.1822 Y17.8407 Z-1.6904
X11.0872 Y17.8474 Z-1.6938
X10.992 Y17.8496 Z-1.6971
X10.8968 Y17.8466 Z-1.7004
X10.8018 Y17.8392 Z-1.7037
X10.7074 Y17.8267 Z-1.7071
X10.6138 Y17.809 Z-1.7104
X10.5212 Y17.7866 Z-1.7137
X10.4298 Y17.7599 Z-1.717
X10.3402 Y17.7276 Z-1.7204
X10.252 Y17.6917 Z-1.7237
X10.1659 Y17.6509 Z-1.727
X10.0821 Y17.6055 Z-1.7303
X10.0006 Y17.5563 Z-1.7337
X9.9217 Y17.503 Z-1.737
X9.8458 Y17.4454 Z-1.7403
X9.773 Y17.384 Z-1.7436
X9.7033 Y17.319 Z-1.747
X9.6372 Y17.2505 Z-1.7503
X9.5746 Y17.1787 Z-1.7536
X9.5155 Y17.104 Z-1.7569
X9.4611 Y17.0258 Z-1.7603
X9.41 Y16.9454 Z-1.7636
X9.3639 Y16.8621 Z-1.7669
X9.3214 Y16.7768 Z-1.7702
X9.2836 Y16.6894 Z-1.7736
X9.2504 Y16.6001 Z-1.7769
X9.2216 Y16.5093 Z-1.7802
X9.1981 Y16.417 Z-1.7835
X9.1786 Y16.3238 Z-1.7869
X9.165 Y16.2295 Z-1.7902
X9.155 Y16.1348 Z-1.7935
X9.151 Y16.0396 Z-1.7968
X9.1513 Y15.9444 Z-1.8002
X9.1565 Y15.8492 Z-1.8035
X9.1671 Y15.7546 Z-1.8068
X9.1815 Y15.6604 Z-1.8101
X9.2018 Y15.5674 Z-1.8134
X9.2258 Y15.4752 Z-1.8167
X9.256 Y15.3848 Z-1.82
X9.2895 Y15.2957 Z-1.8232
X9.3283 Y15.2087 Z-1.8265
X9.3714 Y15.1237 Z-1.8297
X9.4185 Y15.041 Z-1.8328
X9.47 Y14.9608 Z-1.836
X9.5252 Y14.8832 Z-1.8391
X9.5849 Y14.809 Z-1.8422
X9.648 Y14.7377 Z-1.8453
X9.7149 Y14.6699 Z-1.8484
X9.7849 Y14.6052 Z-1.8515
X9.8584 Y14.5447 Z-1.8545
X9.9347 Y14.4877 Z-1.8575
X10.0142 Y14.4352 Z-1.8605
X10.0961 Y14.3866 Z-1.8634
X10.1802 Y14.3419 Z-1.8663
X10.2667 Y14.3019 Z-1.8692
X10.3552 Y14.2667 Z-1.8721
X10.4451 Y14.2353 Z-1.875
X10.5367 Y14.2092 Z-1.8778
X10.6295 Y14.1878 Z-1.8806
X10.7234 Y14.1714 Z-1.8834
X10.8178 Y14.1593 Z-1.8861
X10.9128 Y14.1525 Z-1.8888
X11.0081 Y14.1503 Z-1.8915
X11.1033 Y14.1533 Z-1.8942
X11.1982 Y14.1609 Z-1.8969
X11.2926 Y14.1738 Z-1.8995
X11.3863 Y14.191 Z-1.9021
X11.4789 Y14.2134 Z-1.9046
X11.5703 Y14.2401 Z-1.9072
X11.66 Y14.2722 Z-1.9097
X11.7481 Y14.3083 Z-1.9121
X11.8341 Y14.3491 Z-1.9146
X11.9995 Y14.4437 Z-1.9194
X12.0784 Y14.4971 Z-1.9218
X12.1543 Y14.5546 Z-1.9241
X12.2271 Y14.616 Z-1.9264
X12.2967 Y14.681 Z-1.9287
X12.3628 Y14.7496 Z-1.9309
X12.4254 Y14.8214 Z-1.9331
X12.4846 Y14.896 Z-1.9353
X12.5389 Y14.9743 Z-1.9374
X12.59 Y15.0547 Z-1.9395
X12.6362 Y15.138 Z-1.9416
X12.6787 Y15.2232 Z-1.9437
X12.7163 Y15.3107 Z-1.9457
X12.7495 Y15.4 Z-1.9477
X12.7785 Y15.4907 Z-1.9496
X12.8019 Y15.5831 Z-1.9515
X12.8217 Y15.6762 Z-1.9534
X12.845 Y15.8653 Z-1.9571
X12.849 Y15.9604 Z-1.9589
X12.8487 Y16.0557 Z-1.9606
X12.8436 Y16.1508 Z-1.9624
X12.8335 Y16.2455 Z-1.964
X12.8186 Y16.3396 Z-1.9657
X12.7982 Y16.4326 Z-1.9673
X12.7742 Y16.5248 Z-1.9689
X12.7442 Y16.6152 Z-1.9704
X12.7106 Y16.7044 Z-1.9719
X12.6717 Y16.7913 Z-1.9734
X12.6286 Y16.8762 Z-1.9748
X12.5815 Y16.959 Z-1.9762
X12.53 Y17.0391 Z-1.9776
X12.4748 Y17.1168 Z-1.9789
X12.4151 Y17.191 Z-1.9802
X12.352 Y17.2623 Z-1.9814
X12.2151 Y17.3948 Z-1.9838
X12.1416 Y17.4553 Z-1.9849
X12.0653 Y17.5123 Z-1.986
X11.9858 Y17.5648 Z-1.9871
X11.9039 Y17.6134 Z-1.9881
X11.8198 Y17.6581 Z-1.9891
X11.7333 Y17.6981 Z-1.99
X11.6449 Y17.7335 Z-1.9909
X11.5549 Y17.7647 Z-1.9917
X11.4633 Y17.7908 Z-1.9926
X11.3705 Y17.8122 Z-1.9933
X11.2768 Y17.8293 Z-1.9941
X11.1822 Y17.8407 Z-1.9948
X11.0872 Y17.8474 Z-1.9954
X10.992 Y17.8496 Z-1.996
X10.8018 Y17.8392 Z-1.9971
X10.7074 Y17.8267 Z-1.9976
X10.6138 Y17.809 Z-1.998
X10.5212 Y17.7866 Z-1.9984
X10.4298 Y17.7599 Z-1.9988
X10.3402 Y17.7276 Z-1.9991
X10.252 Y17.6917 Z-1.9993
X10.1659 Y17.6509 Z-1.9996
X10.0821 Y17.6055 Z-1.9997
X10.0006 Y17.5563 Z-1.9999
X9.9217 Y17.503 Z-2
X9.8158 Y17.4203
X9.8065 Y17.413
X9.7832 Y17.3933
X9.6963 Y17.3123
X9.6681 Y17.2832
X9.5862 Y17.1926
X9.57 Y17.1732
X9.4862 Y17.0631
X9.4761 Y17.0483
X9.4148 Y16.953
X9.366 Y16.866
X9.3538 Y16.843
X9.3017 Y16.7329
X9.2585 Y16.6228
X9.2558 Y16.6153
X9.2225 Y16.5128
X9.1947 Y16.4027
X9.1739 Y16.2926
X9.1593 Y16.1826
X9.1518 Y16.0725
X9.1509 Y15.9624
X9.1562 Y15.8524
X9.1687 Y15.7423
X9.1872 Y15.6322
X9.2131 Y15.5222
X9.2461 Y15.4121
X9.2558 Y15.3853
X9.2871 Y15.302
X9.3363 Y15.192
X9.366 Y15.134
X9.3946 Y15.0819
X9.4627 Y14.9718
X9.4761 Y14.9517
X9.542 Y14.8618
X9.5862 Y14.8074
X9.6352 Y14.7517
X9.6963 Y14.6877
X9.7446 Y14.6416
X9.8065 Y14.587
X9.8751 Y14.5316
X9.9166 Y14.5007
X10.0267 Y14.4274
X10.0361 Y14.4215
X10.1368 Y14.3645
X10.2449 Y14.3114
X10.2469 Y14.3105
X10.3571 Y14.266
X10.4672 Y14.2283
X10.5693 Y14.2014
X10.5773 Y14.1995
X10.6874 Y14.1769
X10.7976 Y14.1615
X10.9077 Y14.1528
X11.0178 Y14.1505
X11.1279 Y14.1546
X11.2381 Y14.1661
X11.3482 Y14.1832
X11.4308 Y14.2014
X11.4583 Y14.2079
X11.5684 Y14.2396
X11.6785 Y14.2794
X11.7552 Y14.3114
X11.7887 Y14.327
X11.8988 Y14.3837
X11.9639 Y14.4215
X12.0089 Y14.4499
X12.119 Y14.5269
X12.1249 Y14.5316
X12.2292 Y14.6179
X12.2554 Y14.6416
X12.3393 Y14.7244
X12.3648 Y14.7517
X12.4494 Y14.8508
X12.458 Y14.8618
X12.5373 Y14.9718
X12.5595 Y15.0057
X12.6055 Y15.0819
X12.6637 Y15.192
X12.6696 Y15.2043
X12.713 Y15.302
X12.7539 Y15.4121
X12.7798 Y15.4956
X12.7869 Y15.5222
X12.8128 Y15.6322
X12.8321 Y15.7423
X12.8439 Y15.8524
X12.8491 Y15.9624
X12.8482 Y16.0725
X12.8407 Y16.1826
X12.8267 Y16.2926
X12.8053 Y16.4027
X12.7798 Y16.5044
X12.7775 Y16.5128
X12.7415 Y16.6228
X12.6983 Y16.7329
X12.6696 Y16.7957
X12.6462 Y16.843
X12.5852 Y16.953
X12.5595 Y16.9943
X12.5139 Y17.0631
X12.4494 Y17.1492
X12.43 Y17.1732
X12.3393 Y17.2756
X12.3319 Y17.2832
X12.2292 Y17.3821
X12.2168 Y17.3933
X12.119 Y17.4731
X12.0778 Y17.5033
X12.0089 Y17.5501
X11.9039 Y17.6134
X11.8988 Y17.6163
X11.7887 Y17.673
X11.6785 Y17.7206
X11.6711 Y17.7235
X11.5684 Y17.7604
X11.4583 Y17.7921
X11.3482 Y17.8168
X11.2454 Y17.8335
X11.2381 Y17.8344
X11.1279 Y17.8454
X11.0178 Y17.8494
X10.9077 Y17.8472
X10.7976 Y17.8387
X10.7546 Y17.8335
X10.6874 Y17.8235
X10.5773 Y17.8005
X10.4672 Y17.7717
X10.3571 Y17.7339
X10.3296 Y17.7235
X10.2469 Y17.6894
X10.1368 Y17.6355
X10.0961 Y17.6134
X10.0267 Y17.5726
X9.9222 Y17.5033
X9.9166 Y17.4993
X9.8158 Y17.4203
X9.744 Y17.3578
X9.6758 Y17.2913 Z-2.0001
X9.611 Y17.2215 Z-2.0002
X9.55 Y17.1483 Z-2.0004
X9.4927 Y17.0722 Z-2.0006
X9.4397 Y16.9931 Z-2.0008
X9.3456 Y16.8275 Z-2.0014
X9.3053 Y16.7412 Z-2.0018
X9.2695 Y16.6529 Z-2.0022
X9.2379 Y16.5631 Z-2.0027
X9.2114 Y16.4716 Z-2.0032
X9.1895 Y16.3789 Z-2.0037
X9.1727 Y16.2851 Z-2.0043
X9.1601 Y16.1907 Z-2.005
X9.153 Y16.0957 Z-2.0056
X9.1502 Y16.0005 Z-2.0063
X9.1529 Y15.9053 Z-2.0071
X9.16 Y15.8103 Z-2.0079
X9.1726 Y15.7159 Z-2.0087
X9.1893 Y15.6221 Z-2.0096
X9.2112 Y15.5294 Z-2.0105
X9.2376 Y15.4379 Z-2.0115
X9.2694 Y15.3481 Z-2.0125
X9.3049 Y15.2597 Z-2.0135
X9.3452 Y15.1734 Z-2.0146
X9.4392 Y15.0078 Z-2.0169
X9.4921 Y14.9286 Z-2.0181
X9.5493 Y14.8524 Z-2.0193
X9.6103 Y14.7793 Z-2.0205
X9.6751 Y14.7095 Z-2.0219
X9.7432 Y14.6429 Z-2.0232
X9.8148 Y14.5801 Z-2.0246
X9.8891 Y14.5205 Z-2.026
X9.9671 Y14.4658 Z-2.0274
X10.0474 Y14.4145 Z-2.0289
X10.1304 Y14.3679 Z-2.0305
X10.2155 Y14.325 Z-2.032
X10.3027 Y14.2868 Z-2.0336
X10.392 Y14.2534 Z-2.0352
X10.4825 Y14.2237 Z-2.0369
X10.6678 Y14.1799 Z-2.0403
X10.7621 Y14.1661 Z-2.0421
X10.8568 Y14.1558 Z-2.0439
X10.9519 Y14.1511 Z-2.0458
X11.0472 Z-2.0476
X11.1423 Y14.1557 Z-2.0495
X11.237 Y14.166 Z-2.0515
X11.3312 Y14.1797 Z-2.0534
X11.4243 Y14.1999 Z-2.0555
X11.5166 Y14.2235 Z-2.0575
X11.6072 Y14.2529 Z-2.0596
X11.6964 Y14.2863 Z-2.0617
X11.7836 Y14.3246 Z-2.0638
X11.8687 Y14.3674 Z-2.066
X11.9518 Y14.414 Z-2.0681
X12.0321 Y14.4653 Z-2.0704
X12.1101 Y14.5199 Z-2.0726
X12.2561 Y14.6423 Z-2.0772
X12.3243 Y14.7088 Z-2.0796
X12.3891 Y14.7786 Z-2.082
X12.4501 Y14.8517 Z-2.0844
X12.5074 Y14.9278 Z-2.0868
X12.5603 Y15.007 Z-2.0893
X12.6093 Y15.0887 Z-2.0918
X12.6544 Y15.1726 Z-2.0943
X12.6947 Y15.2589 Z-2.0968
X12.7303 Y15.3473 Z-2.0994
X12.7621 Y15.437 Z-2.102
X12.7886 Y15.5285 Z-2.1046
X12.8105 Y15.6212 Z-2.1073
X12.8279 Y15.7148 Z-2.11
X12.8399 Y15.8093 Z-2.1127
X12.847 Y15.9043 Z-2.1154
X12.8498 Y15.9995 Z-2.1182
