%
(Made in : Autodesk CAM Post Processor)
(G Code optimized for OpenBuilds OX CNC 1000 x 750 with GRBL V0.9j controller)

(Program Name : 1001)
(1 Operation :)
(1 : Pocket1)
(  Tool : Flat End Mill 3 Flutes, Diam = 3.175mm, Len = 20mm)
(  Spindle : RPM = 30000, set router dial to 6)
(  Machining time : 13 min 1 sec)

G90 G94
G17
G21

(Operation 1 of 1 : Pocket1)

G53 G0 Z5
G54
S30000 M3
G4 P1.0
X217.1235 Y37.6115
Z6
Z3
G1 Z2.4173 F1200
X217.1165 Y37.6246 Z2.3213
X217.0954 Y37.6623 Z2.2343
X217.0603 Y37.7199 Z2.1644
X217.0123 Y37.7906 Z2.1182
X216.9539 Y37.8661 Z2.1
G3 X217.1028 Y37.6494 Z1.7783 I-1.1641 J-0.9589
X217.2117 Y37.4102 Z1.4566 I-1.3129 J-0.7421
X217.2774 Y37.1556 Z1.1349 I-1.4218 J-0.5029
X217.298 Y36.8935 Z0.8132 I-1.4875 J-0.2484
X217.2727 Y36.6319 Z0.4914 I-1.5081 J0.0137
X217.2023 Y36.3786 Z0.1697 I-1.4828 J0.2754
X217.089 Y36.1413 Z-0.152 I-1.4124 J0.5287
X216.9363 Y35.9274 Z-0.4737 I-1.2992 J0.7659
X216.7487 Y35.7432 Z-0.7954 I-1.1464 J0.9799
X216.532 Y35.5944 Z-1.1171 I-0.9589 J1.1641
X216.2928 Y35.4854 Z-1.4388 I-0.7422 J1.3129
X216.0382 Y35.4197 Z-1.7605 I-0.5029 J1.4218
X214.2818 Y36.9073 Z-2 I-0.2484 J1.4875
G1 X214.2817 Y36.5615 F3500
G3 X215.2449 Y35.5983 I0.9632
G1 X257.3531 Y35.5987
G3 X258.3163 Y36.5619 J0.9632
G1 Y37.253
G3 X257.3531 Y38.2162 I-0.9633
G1 X215.2451
G3 X214.2818 Y37.253 J-0.9633
G1 Y36.9073
G2 X213.3705 Y35.1469 I-2.1563 J0.0001
G3 X213.971 Y33.2577 I0.6005 J-0.8492
G1 X259.6937 Y33.2581
G3 X260.657 Y34.2213 J0.9632
G1 X260.6569 Y39.5936
G3 X259.6937 Y40.5569 I-0.9632
G1 X212.9046
G3 X211.9413 Y39.5936 J-0.9633
G1 X211.941 Y34.2209
G3 X212.9042 Y33.2577 I0.9632 J-0.0001
G1 X213.971
G2 X215.7265 Y32.0874 J-1.9018
G3 X217.4819 Y30.9171 I1.7555 J0.7315
G1 X262.0343 Y30.9175
G3 X262.9976 Y31.8807 J0.9632
G1 Y41.9343
G3 X262.0343 Y42.8975 I-0.9633
G1 X210.5641
G3 X209.6008 Y41.9342 J-0.9633
G1 X209.6003 Y31.8802
G3 X210.5634 Y30.917 I0.9632
G1 X217.4819 Y30.9171
G2 X219.2374 Y29.7468 J-1.9018
G3 X220.9929 Y28.5765 I1.7554 J0.7315
G1 X264.3749 Y28.5769
G3 X265.3382 Y29.5401 J0.9632
G1 Y44.2749
G3 X264.3749 Y45.2381 I-0.9633
G1 X208.2236
G3 X207.2603 Y44.2749 J-0.9633
G1 X207.2595 Y29.5396
G3 X208.2227 Y28.5764 I0.9632 J-0.0001
G1 X220.9929 Y28.5765
G2 X222.7484 Y27.4062 J-1.9018
G3 X224.5038 Y26.2359 I1.7555 J0.7315
G1 X266.7156 Y26.2363
G3 X267.6788 Y27.1995 J0.9632
G1 Y46.6155
G3 X266.7155 Y47.5787 I-0.9632
G1 X205.8831
G3 X204.9198 Y46.6155 J-0.9633
G1 X204.9187 Y27.1989
G3 X205.8819 Y26.2357 I0.9632 J-0.0001
G1 X224.5038 Y26.2359
G2 X226.2593 Y25.0656 J-1.9018
G3 X228.0148 Y23.8953 I1.7555 J0.7315
G1 X269.0562 Y23.8957
G3 X270.0194 Y24.8589 J0.9632
G1 Y48.9561
G3 X269.0562 Y49.9194 I-0.9633
G1 X203.5426
G3 X202.5793 Y48.9561 J-0.9633
G1 X202.578 Y24.8583
G3 X203.5412 Y23.8951 I0.9632 J-0.0001
G1 X228.0148 Y23.8953
G2 X229.7703 Y22.725 J-1.9018
G3 X231.5257 Y21.5547 I1.7555 J0.7315
G1 X271.3968 Y21.5551
G3 X272.3601 Y22.5183 J0.9632
G1 X272.36 Y51.2967
G3 X271.3968 Y52.26 I-0.9632
G1 X201.2021
G3 X200.2388 Y51.2967 J-0.9633
G1 X200.2373 Y22.5177
G3 X201.2004 Y21.5544 I0.9632 J-0.0001
G1 X231.5257 Y21.5547
G2 X233.2812 Y20.3844 J-1.9018
G3 X235.0367 Y19.2141 I1.7555 J0.7315
G1 X273.7579 Y19.2144
G3 X274.7007 Y20.1585 J0.9428
G1 Y53.6374
G3 X273.7374 Y54.6006 I-0.9633
G1 X198.8616
G3 X197.8983 Y53.6374 J-0.9633
G1 X197.8965 Y20.1601
G3 X198.8428 Y19.2138 I0.9463 J-0.0001
G1 X235.0367 Y19.2141
G2 X236.7672 Y18.0604 J-1.8747
G3 X238.4978 Y16.9068 I1.7305 J0.7211
G1 X276.3473 Y16.9071
G3 X277.1571 Y17.8249 J0.8162
G1 X277.0067 Y19.0241
G2 X276.9341 Y20.1863 I9.2666 J1.1622
G1 X277.008 Y55.9447
G3 X276.0447 Y56.908 I-0.9633
G1 X196.5544
G3 X195.591 Y55.9447 J-0.9633
G1 X195.6611 Y20.1215
G2 X195.5846 Y18.9332 I-9.2804 J0.0005
G1 X195.4413 Y17.8234
G3 X196.2475 Y16.9064 I0.8062 J-0.1041
G1 X238.4978 Y16.9068
G2 X240.1713 Y15.7911 J-1.813
G3 X241.8449 Y14.6754 I1.6735 J0.6973
G1 X279.2296 Y14.6758
G3 X279.8951 Y15.5587 J0.6923
G2 X279.4462 Y17.2647 I39.1881 J11.225
X279.1736 Y19.0076 I10.6562 J2.5591
G1 X279.2394 Y58.1761
G3 X278.2761 Y59.1394 I-0.9633
G1 X194.3231
G3 X193.3598 Y58.1761 J-0.9633
G1 X193.4935 Y20.1216
G2 X193.2602 Y17.8116 I-11.5565 J0.0006
X192.7046 Y15.5573 I-28.2044 J5.7553
G3 X193.3676 Y14.675 I0.663 J-0.1921
G1 X241.8449 Y14.6754
G2 X243.4433 Y13.6098 J-1.7316
G3 X245.0417 Y12.5442 I1.5984 J0.666
G1 X282.5557 Y12.5446
G3 X283.0586 Y13.378 J0.5684
G2 X281.8678 Y16.1792 I16.2108 J8.5446
X281.273 Y19.1644 I11.8638 J3.9156
G1 X281.3706 Y60.3073
G3 X280.4073 Y61.2706 I-0.9633
G1 X192.192
G3 X191.2287 Y60.3073 J-0.9633
G1 X191.3623 Y20.1217
G2 X190.8645 Y16.6374 I-12.4473 J0.0007
X189.5399 Y13.3765 I-16.5795 J4.8352
G3 X190.0407 Y12.5437 I0.5008 J-0.2658
G1 X245.0417 Y12.5442
G2 X246.5362 Y11.5479 J-1.619
G3 X248.0306 Y10.5516 I1.4944 J0.6227
G1 X286.7021 Y10.552
G3 X287.0214 Y11.3111 J0.4467
G2 X284.8403 Y14.1582 I10.6353 J10.4062
X283.5211 Y17.4932 I9.9291 J5.8562
X283.2275 Y20.1863 I11.8326 J2.6522
G1 X283.3632 Y62.2999
G3 X282.4 Y63.2632 I-0.9632
G1 X190.1995
G3 X189.2362 Y62.2999 J-0.9633
G1 X189.3697 Y20.1218
G2 X188.3443 Y15.3414 I-11.6593 J0.0006
X185.5798 Y11.3089 I-12.5601 J5.647
G3 X185.8963 Y10.5511 I0.3165 J-0.3128
G1 X248.0306 Y10.5516
X248.0795 Y10.5554 Z-1.9922
X248.1272 Y10.5667 Z-1.9845
X248.1683 Y10.583 Z-1.9619
X248.2067 Y10.6049 Z-1.9394
X248.2604 Y10.65 Z-1.8691
X248.2891 Y10.6847 Z-1.7806
X248.2978 Y10.6976 Z-1.6825
G0 Z5
X340.9223 Y12.7477
Z2.4173
G1 X340.9224 Y12.7626 Z2.3213 F1200
X340.9219 Y12.8058 Z2.2343
X340.9187 Y12.8732 Z2.1644
X340.9102 Y12.9582 Z2.1182
X340.8952 Y13.0524 Z2.1
G3 X340.9222 Y12.7909 Z1.7783 I-1.4809 J-0.2854
X340.9035 Y12.5287 Z1.4566 I-1.5079 J-0.024
X340.8395 Y12.2737 Z1.1349 I-1.4892 J0.2383
X340.7322 Y12.0337 Z0.8132 I-1.4252 J0.4932
X340.5848 Y11.816 Z0.4914 I-1.3179 J0.7332
X340.4019 Y11.6272 Z0.1697 I-1.1705 J0.9509
X340.189 Y11.473 Z-0.152 I-0.9876 J1.1397
X339.9526 Y11.3582 Z-0.4737 I-0.7747 J1.2939
X339.6997 Y11.2861 Z-0.7954 I-0.5383 J1.4088
X339.4383 Y11.259 Z-1.1171 I-0.2854 J1.4809
X339.176 Y11.2778 Z-1.4388 I-0.024 J1.5079
X338.9211 Y11.3418 Z-1.7605 I0.2383 J1.4892
X338.0898 Y13.4882 Z-2 I0.4932 J1.4252
G2 X337.8532 Y13.0711 I-12.1583 J6.621 F3500
X337.7416 Y12.8962 I-2.2832 J1.3342
G3 X337.6273 Y12.7232 I3.6673 J-2.5482
X338.0775 Y11.9087 I0.4502 J-0.2828
G1 X339.1305 Y11.9088
G3 X340.0937 Y12.872 J0.9632
G1 X340.0935 Y17.2843
G3 X339.4969 Y17.3445 I-0.3013
G2 X338.0898 Y13.4882 I-13.5653 J2.7648
X336.974 Y12.9349 I-0.9522 J0.5186
G3 X335.8155 Y12.4777 I-0.1867 J-1.2233
G2 X334.7808 Y11.3098 I-10.682 J8.4214
G3 X335.0957 Y10.5527 I0.3149 J-0.313
G1 X340.4865 Y10.5528
G3 X341.4497 Y11.516 J0.9632
G1 X341.4472 Y78.4866
G3 X340.4839 Y79.4498 I-0.9632
G1 X339.3969
G3 X338.4337 Y78.4865 J-0.9633
G1 X338.57 Y20.1225
G2 X337.5484 Y15.3408 I-11.7015 J-0.0001
X335.8155 Y12.4777 I-12.4149 J5.5584
G1 X335.7885 Y12.4369 Z-1.9922
X335.768 Y12.3923 Z-1.9845
X335.7557 Y12.3499 Z-1.9619
X335.7493 Y12.3061 Z-1.9394
X335.7519 Y12.2361 Z-1.8691
X335.7616 Y12.1921 Z-1.7806
X335.7664 Y12.1773 Z-1.6825
G0 Z5
X11.8916 Y11.559
Z2.4173
G1 X11.9041 Y11.551 Z2.3213 F1200
X11.941 Y11.5285 Z2.2343
X11.9998 Y11.4954 Z2.1644
X12.0762 Y11.4573 Z2.1182
X12.164 Y11.4199 Z2.1
G3 X11.9282 Y11.5361 Z1.7783 I0.546 J1.4058
X11.7161 Y11.6915 Z1.4566 I0.7818 J1.2897
X11.5343 Y11.8813 Z1.1349 I0.9939 J1.1343
X11.3881 Y12.0998 Z0.8132 I1.1757 J0.9445
X11.2821 Y12.3404 Z0.4914 I1.3219 J0.726
X11.2195 Y12.5957 Z0.1697 I1.4279 J0.4854
X11.2022 Y12.858 Z-0.152 I1.4905 J0.2301
X11.2307 Y13.1193 Z-0.4737 I1.5078 J-0.0322
X11.3042 Y13.3717 Z-0.7954 I1.4793 J-0.2936
X11.4203 Y13.6076 Z-1.1171 I1.4058 J-0.546
X11.5757 Y13.8196 Z-1.4388 I1.2897 J-0.7818
X11.7655 Y14.0015 Z-1.7605 I1.1343 J-0.9939
X14.0253 Y13.5637 Z-2 I0.9445 J-1.1757
G2 X12.8759 Y16.1591 I13.1324 J7.3679 F3500
X12.2208 Y20.187 I12.0517 J4.0272
G1 X12.3457 Y77.9673
G3 X12.0845 Y78.2284 I-0.2612
G1 X12.0316
G3 X11.7705 Y77.9673 J-0.2612
G1 X11.7729 Y12.6356
G3 X12.6385 Y11.7701 I0.8655
G1 X14.2942
G3 X14.6817 Y12.4997 J0.4677
G2 X14.0253 Y13.5637 I12.4759 J8.4319
X14.1197 Y14.6737 I0.8653 J0.4854
G3 X14.2846 Y15.7755 I-0.8526 J0.6908
G2 X13.4275 Y20.1869 I10.9219 J4.4108
G1 X13.5662 Y78.4859
G3 X12.603 Y79.449 I-0.963
G1 X11.5132 Y79.4489
G3 X10.55 Y78.4855 I0.0001 J-0.9633
G1 X10.5525 Y11.5128
G3 X11.5158 Y10.5496 I0.9633
G1 X16.9046
G3 X17.2238 Y11.3087 J0.4466
G2 X14.4548 Y15.3754 I9.9811 J9.7719
X14.2846 Y15.7755 I10.7516 J4.8109
X14.6801 Y17.3926 I1.3215 J0.5337
G3 X15.2852 Y18.9434 I-1.1457 J1.3405
G2 X15.2363 Y19.4454 I11.1167 J1.3359
G1 X15.3447 Y80.2838
G3 X14.4008 Y81.2276 I-0.9438
G1 X9.7155 Y81.227
G3 X8.7715 Y80.2829 I0.0001 J-0.9441
G1 X8.7742 Y9.7151
G3 X9.7182 Y8.7712 I0.944
G1 X342.2845 Y8.7741
G3 X343.2285 Y9.7181 J0.9439
G1 X343.2259 Y80.2846
G3 X342.2819 Y81.2286 I-0.944
G1 X337.5989 Y81.2284
G3 X336.6549 Y80.2844 J-0.944
G1 X336.7885 Y20.1225
G2 X334.2488 Y13.1805 I-10.7571 J-0.0001
X327.8889 Y9.4131 I-8.5986 J7.2639
X325.0764 Y9.1697 I-2.4708 J12.1746
G3 X322.2537 Y9.2086 I-2.8267 J-102.7198
G1 X294.4003 Y9.3297
G2 X287.9306 Y12.7327 I1.4709 J10.648
X285.0363 Y19.4454 I8.2712 J7.5467
G1 X285.1416 Y64.0976
G3 X284.1976 Y65.0416 I-0.944
G1 X188.4019
G3 X187.4579 Y64.0976 J-0.944
G1 X187.5886 Y20.1219
G2 X185.032 Y13.1603 I-10.7582 J0.0006
X178.6379 Y9.4034 I-8.5803 J7.2836
X176.2973 Y9.1912 I-2.1757 J10.9878
G3 X173.9473 Y9.2086 I-2.3512 J-159.7485
G1 X24.5974 Y9.3302
G2 X18.1296 Y12.7338 I1.4738 J10.6476
X15.2852 Y18.9434 I8.2723 J7.5456
X16.0835 Y20.3698 I1.3776 J0.1656
G3 X16.967 Y21.7452 I-0.6332 J1.3781
G1 X17.0789 Y81.9989
G3 X16.1158 Y82.962 I-0.963 J0.0001
G1 X8.0005 Y82.961
G3 X7.0373 Y81.9976 I0.0001 J-0.9633
G1 X7.0401 Y8.0002
G3 X8.0033 Y7.037 I0.9633
G1 X343.9995 Y7.0399
G3 X344.9627 Y8.0032 J0.9632
G1 X344.96 Y81.9996
G3 X343.9967 Y82.9628 I-0.9632
G1 X335.884 Y82.9625
G3 X334.9207 Y81.9993 J-0.9633
G1 X335.0571 Y20.1225
G2 X332.9083 Y14.2763 I-9.0268 J-0.0001
X327.5446 Y11.11 I-7.2583 J6.1693
X324.9034 Y10.8924 I-2.2378 J11.0269
G3 X322.2538 Y10.94 I-2.6525 J-73.9562
G1 X294.6373 Y11.0449
G2 X289.1927 Y13.9181 I1.2341 J8.9338
X286.7629 Y19.5744 I7.0101 J6.3614
G1 X286.8758 Y65.8125
G3 X285.9125 Y66.7757 I-0.9633
G1 X186.6871
G3 X185.7238 Y65.8125 J-0.9633
G1 X185.8571 Y20.122
G2 X183.6941 Y14.2593 I-9.0278 J0.0005
X178.3015 Y11.1018 I-7.2426 J6.1858
X176.1284 Y10.9144 I-1.9392 J9.7936
G3 X173.9473 Y10.94 I-2.1817 J-93.0842
G1 X24.8348 Y11.0453
G2 X19.3919 Y13.919 I1.2365 J8.9334
X16.9629 Y19.5744 I7.011 J6.3605
G1 X16.967 Y21.7452
G2 X18.1372 Y23.4933 I1.8962 J-0.0035
G3 X19.3074 Y25.2415 I-0.7261 J1.7518
G1 X19.4196 Y84.3398
G3 X18.4565 Y85.3028 I-0.963 J0.0001
G1 X5.6599 Y85.3013
G3 X4.6967 Y84.3379 I0.0001 J-0.9633
G1 X4.6996 Y5.6596
G3 X5.6629 Y4.6964 I0.9633
G1 X346.3402 Y4.6994
G3 X347.3034 Y5.6626 J0.9632
G1 X347.3004 Y84.3402
G3 X346.3372 Y85.3035 I-0.9633
G1 X333.5434 Y85.303
G3 X332.5801 Y84.3397 J-0.9633
G1 X332.7165 Y20.1225
G2 X331.0961 Y15.7576 I-6.6886 J-0.0001
X327.079 Y13.4038 I-5.4467 J4.6907
X324.6696 Y13.2213 I-1.9332 J9.5259
G3 X322.2538 Y13.2806 I-2.4176 J-49.2788
G1 X294.9576 Y13.3634
G2 X290.8988 Y15.5204 I0.9141 J6.6172
X289.097 Y19.7487 I5.3062 J4.7592
G1 X289.2163 Y68.1531
G3 X288.2531 Y69.1163 I-0.9633
G1 X184.3467
G3 X183.3834 Y68.153 J-0.9633
G1 X183.5166 Y20.1221
G2 X181.8855 Y15.745 I-6.6897 J0.0004
X177.8469 Y13.3978 I-5.4345 J4.7028
X175.9 Y13.2438 I-1.6311 J8.2373
G3 X173.9474 Y13.2806 I-1.9522 J-51.8672
G1 X25.1557 Y13.3637
G2 X21.0982 Y15.5211 I0.9159 J6.6169
X19.297 Y19.7487 I5.3069 J4.7586
G1 X19.3074 Y25.2415
G2 X20.4778 Y26.9898 I1.8963 J-0.0036
G3 X21.6481 Y28.738 I-0.726 J1.7519
G1 X21.7603 Y86.6806
G3 X20.7971 Y87.6437 I-0.963 J0.0001
G1 X3.3192 Y87.6415
G3 X2.356 Y86.6782 I0.0001 J-0.9633
G1 X2.3591 Y3.3191
G3 X3.3224 Y2.3558 I0.9633
G1 X348.6808 Y2.3589
G3 X349.644 Y3.3221 J0.9632
G1 X349.6409 Y86.6809
G3 X348.6776 Y87.6441 I-0.9632
G1 X331.2028 Y87.6435
G3 X330.2396 Y86.6802 J-0.9633
G1 X330.376 Y20.1224
G2 X329.284 Y17.239 I-4.3528
X326.6135 Y15.6976 I-3.6357 J3.2149
X324.4357 Y15.5501 I-1.6417 J8.0893
G3 X322.2539 Y15.6211 I-2.183 J-33.5331
G1 X295.2778 Y15.682
G2 X292.6049 Y17.1227 I0.5943 J4.3025
X291.431 Y19.9231 I3.6046 J3.1573
G1 X291.5569 Y70.4936
G3 X290.5936 Y71.4569 I-0.9632
G1 X182.0062
G3 X181.0429 Y70.4936 J-0.9633
G1 X181.176 Y20.1222
G2 X180.0769 Y17.2307 I-4.3538 J0.0002
X177.3923 Y15.6938 I-3.627 J3.2226
X175.6716 Y15.5732 I-1.3382 J6.7581
G3 X173.9474 Y15.6211 I-1.724 J-31.0014
G1 X25.4766 Y15.6822
G2 X22.8045 Y17.1232 I0.5955 J4.3022
X21.631 Y19.9231 I3.6051 J3.1568
G1 X21.6481 Y28.738
G2 X22.8807 Y30.5843 I2.0049 J-0.0039
G3 X24.1132 Y32.4306 I-0.7667 J1.8464
G1 X24.1161 Y89.9997
X0.0081 Y89.9968
X0.0005 Y89.9823
X0.0036 Y0.0058
X0.0395 Y0.0002
X351.9919 Y0.0032
X351.9995 Y0.0177
X351.9964 Y89.9942
X351.9605 Y89.9998
X327.8839 Y89.999
X327.8846 Y20.1224
G2 X327.8699 Y19.9481 I-1.0438
G1 X327.8375 Y19.7563
G2 X327.7854 Y19.5634 I-1.0291 J0.1743
G1 X327.7133 Y19.3715
G2 X327.6375 Y19.2121 I-0.9771 J0.3672
G1 X327.5627 Y19.0842
G2 X327.474 Y18.9556 I-0.9012 J0.5266
G1 X327.3708 Y18.8277
G2 X327.2531 Y18.7039 I-0.8125 J0.6552
G1 X327.1206 Y18.5857
G2 X326.9881 Y18.4853 I-0.6947 J0.779
G1 X326.8575 Y18.4018
G2 X326.6964 Y18.3177 I-0.5622 J0.8794
G1 X326.504 Y18.2376
G2 X326.3105 Y18.1783 I-0.4011 J0.9636
G1 X326.118 Y18.1392
G2 X325.9121 Y18.1184 I-0.2076 J1.0229
G1 X322.2558 Y18.1125
X295.954 Y18.1135
G2 X295.8112 Y18.1233 J1.0438
G1 X295.6187 Y18.1499
G2 X295.4253 Y18.1957 I0.1428 J1.0339
G1 X295.2329 Y18.2612
G2 X295.0716 Y18.3318 I0.3362 J0.9881
G1 X294.9409 Y18.4027
G2 X294.8095 Y18.4872 I0.4975 J0.9176
G1 X294.6787 Y18.5859
G2 X294.5526 Y18.6983 I0.6289 J0.833
G1 X294.4324 Y18.8243
G2 X294.3156 Y18.9711 I0.7551 J0.7206
G1 X294.2051 Y19.139
G2 X294.1137 Y19.3109 I0.8719 J0.5738
G1 X294.0411 Y19.4847
G2 X293.9859 Y19.6583 I0.9633 J0.4019
G1 X293.9474 Y19.8302
G2 X293.925 Y19.9807 I1.0185 J0.2283
G1 X293.9155 Y20.1086
X293.9126 Y20.1864
X293.9125 Y73.8125
X178.6875
X178.6846 Y20.1223
G2 X178.67 Y19.9481 I-1.0437 J0.0001
G1 X178.6375 Y19.7563
G2 X178.5867 Y19.5669 I-1.0291 J0.1743
G1 X178.5179 Y19.3817
G2 X178.4336 Y19.2068 I-0.9783 J0.3637
G1 X178.3353 Y19.0436
G2 X178.2311 Y18.8998 I-0.8941 J0.5385
G1 X178.1234 Y18.7751
G2 X178.0148 Y18.6667 I-0.7898 J0.6823
G1 X177.9071 Y18.5739
G2 X177.7868 Y18.4845 I-0.6813 J0.7908
G1 X177.6538 Y18.3997
G2 X177.4903 Y18.3148 I-0.561 J0.8802
G1 X177.2955 Y18.2346
G2 X177.1008 Y18.1758 I-0.3975 J0.9651
G1 X176.9084 Y18.1377
G2 X176.7077 Y18.1179 I-0.2027 J1.0239
G1 X173.9494 Y18.1125
X26.1537 Y18.1135
G2 X26.0106 Y18.1234 J1.0437
G1 X25.8182 Y18.15
G2 X25.6248 Y18.1959 I0.1431 J1.0339
G1 X25.4323 Y18.2614
G2 X25.2724 Y18.3314 I0.3365 J0.988
G1 X25.1441 Y18.4007
G2 X25.0127 Y18.4851 I0.4965 J0.9181
G1 X24.8798 Y18.5852
G2 X24.7517 Y18.6992 I0.6279 J0.8338
G1 X24.6299 Y18.8271
G2 X24.5255 Y18.956 I0.7559 J0.7197
G1 X24.4376 Y19.0839
G2 X24.3477 Y19.2432 I0.8604 J0.5908
G1 X24.2606 Y19.4351
G2 X24.1948 Y19.6281 I0.9504 J0.4315
G1 X24.1498 Y19.8199
G2 X24.125 Y19.9807 I1.0161 J0.2385
G1 X24.1155 Y20.1086
X24.1126 Y20.1864
X24.1132 Y32.4306
X24.1094 Y32.4795 Z-1.9922
X24.0982 Y32.5271 Z-1.9845
X24.0818 Y32.5682 Z-1.9619
X24.0599 Y32.6067 Z-1.9394
X24.0149 Y32.6603 Z-1.8691
X23.9801 Y32.6891 Z-1.7806
X23.9673 Y32.6978 Z-1.6825
G0 Z5
X11.8916 Y11.559
Z0.4173
G1 X11.9041 Y11.551 Z0.3213 F1200
X11.941 Y11.5285 Z0.2343
X11.9998 Y11.4954 Z0.1644
X12.0762 Y11.4573 Z0.1182
X12.164 Y11.4199 Z0.1
G3 X11.9282 Y11.5361 Z-0.2217 I0.546 J1.4058
X11.7161 Y11.6915 Z-0.5434 I0.7818 J1.2897
X11.5343 Y11.8813 Z-0.8651 I0.9939 J1.1343
X11.3881 Y12.0998 Z-1.1868 I1.1757 J0.9445
X11.2821 Y12.3404 Z-1.5086 I1.3219 J0.726
X11.2195 Y12.5957 Z-1.8303 I1.4279 J0.4854
X11.2022 Y12.858 Z-2.152 I1.4905 J0.2301
X11.2307 Y13.1193 Z-2.4737 I1.5078 J-0.0322
X11.3042 Y13.3717 Z-2.7954 I1.4793 J-0.2936
X11.4203 Y13.6076 Z-3.1171 I1.4058 J-0.546
X11.5757 Y13.8196 Z-3.4388 I1.2897 J-0.7818
X11.7655 Y14.0015 Z-3.7605 I1.1343 J-0.9939
X14.0253 Y13.5637 Z-4 I0.9445 J-1.1757
G2 X12.8759 Y16.1591 I13.1324 J7.3679 F3500
X12.2208 Y20.187 I12.0517 J4.0272
G1 X12.3457 Y77.9673
G3 X12.0845 Y78.2284 I-0.2612
G1 X12.0316
G3 X11.7705 Y77.9673 J-0.2612
G1 X11.7729 Y12.6356
G3 X12.6385 Y11.7701 I0.8655
G1 X14.2942
G3 X14.6817 Y12.4997 J0.4677
G2 X14.0253 Y13.5637 I12.4759 J8.4319
X14.1197 Y14.6737 I0.8653 J0.4854
G3 X14.2846 Y15.7755 I-0.8526 J0.6908
G2 X13.4275 Y20.1869 I10.9219 J4.4108
G1 X13.5662 Y78.4859
G3 X12.603 Y79.449 I-0.963
G1 X11.5132 Y79.4489
G3 X10.55 Y78.4855 I0.0001 J-0.9633
G1 X10.5525 Y11.5128
G3 X11.5158 Y10.5496 I0.9633
G1 X16.9046
G3 X17.2238 Y11.3087 J0.4466
G2 X14.4548 Y15.3754 I9.9811 J9.7719
X14.2846 Y15.7755 I10.7516 J4.8109
G1 X14.2639 Y15.8199 Z-3.9922
X14.2366 Y15.8607 Z-3.9845
X14.2069 Y15.8934 Z-3.9619
X14.1729 Y15.9217 Z-3.9394
X14.1119 Y15.9562 Z-3.8691
X14.0693 Y15.9709 Z-3.7806
X14.0542 Y15.9745 Z-3.6825
G0 Z5
X217.1235 Y37.6115
Z0.4173
G1 X217.1165 Y37.6246 Z0.3213 F1200
X217.0954 Y37.6623 Z0.2343
X217.0603 Y37.7199 Z0.1644
X217.0123 Y37.7906 Z0.1182
X216.9539 Y37.8661 Z0.1
G3 X217.1028 Y37.6494 Z-0.2217 I-1.1641 J-0.9589
X217.2117 Y37.4102 Z-0.5434 I-1.3129 J-0.7421
X217.2774 Y37.1556 Z-0.8651 I-1.4218 J-0.5029
X217.298 Y36.8935 Z-1.1868 I-1.4875 J-0.2484
X217.2727 Y36.6319 Z-1.5086 I-1.5081 J0.0137
X217.2023 Y36.3786 Z-1.8303 I-1.4828 J0.2754
X217.089 Y36.1413 Z-2.152 I-1.4124 J0.5287
X216.9363 Y35.9274 Z-2.4737 I-1.2992 J0.7659
X216.7487 Y35.7432 Z-2.7954 I-1.1464 J0.9799
X216.532 Y35.5944 Z-3.1171 I-0.9589 J1.1641
X216.2928 Y35.4854 Z-3.4388 I-0.7422 J1.3129
X216.0382 Y35.4197 Z-3.7605 I-0.5029 J1.4218
X214.2818 Y36.9073 Z-4 I-0.2484 J1.4875
G1 X214.2817 Y36.5615 F3500
G3 X215.2449 Y35.5983 I0.9632
G1 X257.3531 Y35.5987
G3 X258.3163 Y36.5619 J0.9632
G1 Y37.253
G3 X257.3531 Y38.2162 I-0.9633
G1 X215.2451
G3 X214.2818 Y37.253 J-0.9633
G1 Y36.9073
G2 X213.3705 Y35.1469 I-2.1563 J0.0001
G3 X213.971 Y33.2577 I0.6005 J-0.8492
G1 X259.6937 Y33.2581
G3 X260.657 Y34.2213 J0.9632
G1 X260.6569 Y39.5936
G3 X259.6937 Y40.5569 I-0.9632
G1 X212.9046
G3 X211.9413 Y39.5936 J-0.9633
G1 X211.941 Y34.2209
G3 X212.9042 Y33.2577 I0.9632 J-0.0001
G1 X213.971
G2 X215.7265 Y32.0874 J-1.9018
G3 X217.4819 Y30.9171 I1.7555 J0.7315
G1 X262.0343 Y30.9175
G3 X262.9976 Y31.8807 J0.9632
G1 Y41.9343
G3 X262.0343 Y42.8975 I-0.9633
G1 X210.5641
G3 X209.6008 Y41.9342 J-0.9633
G1 X209.6003 Y31.8802
G3 X210.5634 Y30.917 I0.9632
G1 X217.4819 Y30.9171
G2 X219.2374 Y29.7468 J-1.9018
G3 X220.9929 Y28.5765 I1.7554 J0.7315
G1 X264.3749 Y28.5769
G3 X265.3382 Y29.5401 J0.9632
G1 Y44.2749
G3 X264.3749 Y45.2381 I-0.9633
G1 X208.2236
G3 X207.2603 Y44.2749 J-0.9633
G1 X207.2595 Y29.5396
G3 X208.2227 Y28.5764 I0.9632 J-0.0001
G1 X220.9929 Y28.5765
G2 X222.7484 Y27.4062 J-1.9018
G3 X224.5038 Y26.2359 I1.7555 J0.7315
G1 X266.7156 Y26.2363
G3 X267.6788 Y27.1995 J0.9632
G1 Y46.6155
G3 X266.7155 Y47.5787 I-0.9632
G1 X205.8831
G3 X204.9198 Y46.6155 J-0.9633
G1 X204.9187 Y27.1989
G3 X205.8819 Y26.2357 I0.9632 J-0.0001
G1 X224.5038 Y26.2359
G2 X226.2593 Y25.0656 J-1.9018
G3 X228.0148 Y23.8953 I1.7555 J0.7315
G1 X269.0562 Y23.8957
G3 X270.0194 Y24.8589 J0.9632
G1 Y48.9561
G3 X269.0562 Y49.9194 I-0.9633
G1 X203.5426
G3 X202.5793 Y48.9561 J-0.9633
G1 X202.578 Y24.8583
G3 X203.5412 Y23.8951 I0.9632 J-0.0001
G1 X228.0148 Y23.8953
G2 X229.7703 Y22.725 J-1.9018
G3 X231.5257 Y21.5547 I1.7555 J0.7315
G1 X271.3968 Y21.5551
G3 X272.3601 Y22.5183 J0.9632
G1 X272.36 Y51.2967
G3 X271.3968 Y52.26 I-0.9632
G1 X201.2021
G3 X200.2388 Y51.2967 J-0.9633
G1 X200.2373 Y22.5177
G3 X201.2004 Y21.5544 I0.9632 J-0.0001
G1 X231.5257 Y21.5547
G2 X233.2812 Y20.3844 J-1.9018
G3 X235.0367 Y19.2141 I1.7555 J0.7315
G1 X273.7579 Y19.2144
G3 X274.7007 Y20.1585 J0.9428
G1 Y53.6374
G3 X273.7374 Y54.6006 I-0.9633
G1 X198.8616
G3 X197.8983 Y53.6374 J-0.9633
G1 X197.8965 Y20.1601
G3 X198.8428 Y19.2138 I0.9463 J-0.0001
G1 X235.0367 Y19.2141
G2 X236.7672 Y18.0604 J-1.8747
G3 X238.4978 Y16.9068 I1.7305 J0.7211
G1 X276.3473 Y16.9071
G3 X277.1571 Y17.8249 J0.8162
G1 X277.0067 Y19.0241
G2 X276.9341 Y20.1863 I9.2666 J1.1622
G1 X277.008 Y55.9447
G3 X276.0447 Y56.908 I-0.9633
G1 X196.5544
G3 X195.591 Y55.9447 J-0.9633
G1 X195.6611 Y20.1215
G2 X195.5846 Y18.9332 I-9.2804 J0.0005
G1 X195.4413 Y17.8234
G3 X196.2475 Y16.9064 I0.8062 J-0.1041
G1 X238.4978 Y16.9068
G2 X240.1713 Y15.7911 J-1.813
G3 X241.8449 Y14.6754 I1.6735 J0.6973
G1 X279.2296 Y14.6758
G3 X279.8951 Y15.5587 J0.6923
G2 X279.4462 Y17.2647 I39.1881 J11.225
X279.1736 Y19.0076 I10.6562 J2.5591
G1 X279.2394 Y58.1761
G3 X278.2761 Y59.1394 I-0.9633
G1 X194.3231
G3 X193.3598 Y58.1761 J-0.9633
G1 X193.4935 Y20.1216
G2 X193.2602 Y17.8116 I-11.5565 J0.0006
X192.7046 Y15.5573 I-28.2044 J5.7553
G3 X193.3676 Y14.675 I0.663 J-0.1921
G1 X241.8449 Y14.6754
G2 X243.4433 Y13.6098 J-1.7316
G3 X245.0417 Y12.5442 I1.5984 J0.666
G1 X282.5557 Y12.5446
G3 X283.0586 Y13.378 J0.5684
G2 X281.8678 Y16.1792 I16.2108 J8.5446
X281.273 Y19.1644 I11.8638 J3.9156
G1 X281.3706 Y60.3073
G3 X280.4073 Y61.2706 I-0.9633
G1 X192.192
G3 X191.2287 Y60.3073 J-0.9633
G1 X191.3623 Y20.1217
G2 X190.8645 Y16.6374 I-12.4473 J0.0007
X189.5399 Y13.3765 I-16.5795 J4.8352
G3 X190.0407 Y12.5437 I0.5008 J-0.2658
G1 X245.0417 Y12.5442
G2 X246.5362 Y11.5479 J-1.619
G3 X248.0306 Y10.5516 I1.4944 J0.6227
G1 X286.7021 Y10.552
G3 X287.0214 Y11.3111 J0.4467
G2 X284.8403 Y14.1582 I10.6353 J10.4062
X283.5211 Y17.4932 I9.9291 J5.8562
X283.2275 Y20.1863 I11.8326 J2.6522
G1 X283.3632 Y62.2999
G3 X282.4 Y63.2632 I-0.9632
G1 X190.1995
G3 X189.2362 Y62.2999 J-0.9633
G1 X189.3697 Y20.1218
G2 X188.3443 Y15.3414 I-11.6593 J0.0006
X185.5798 Y11.3089 I-12.5601 J5.647
G3 X185.8963 Y10.5511 I0.3165 J-0.3128
G1 X248.0306 Y10.5516
X248.0795 Y10.5554 Z-3.9922
X248.1272 Y10.5667 Z-3.9845
X248.1683 Y10.583 Z-3.9619
X248.2067 Y10.6049 Z-3.9394
X248.2604 Y10.65 Z-3.8691
X248.2891 Y10.6847 Z-3.7806
X248.2978 Y10.6976 Z-3.6825
G0 Z5
X340.9223 Y12.7477
Z0.4173
G1 X340.9224 Y12.7626 Z0.3213 F1200
X340.9219 Y12.8058 Z0.2343
X340.9187 Y12.8732 Z0.1644
X340.9102 Y12.9582 Z0.1182
X340.8952 Y13.0524 Z0.1
G3 X340.9222 Y12.7909 Z-0.2217 I-1.4809 J-0.2854
X340.9035 Y12.5287 Z-0.5434 I-1.5079 J-0.024
X340.8395 Y12.2737 Z-0.8651 I-1.4892 J0.2383
X340.7322 Y12.0337 Z-1.1868 I-1.4252 J0.4932
X340.5848 Y11.816 Z-1.5086 I-1.3179 J0.7332
X340.4019 Y11.6272 Z-1.8303 I-1.1705 J0.9509
X340.189 Y11.473 Z-2.152 I-0.9876 J1.1397
X339.9526 Y11.3582 Z-2.4737 I-0.7747 J1.2939
X339.6997 Y11.2861 Z-2.7954 I-0.5383 J1.4088
X339.4383 Y11.259 Z-3.1171 I-0.2854 J1.4809
X339.176 Y11.2778 Z-3.4388 I-0.024 J1.5079
X338.9211 Y11.3418 Z-3.7605 I0.2383 J1.4892
X338.0898 Y13.4882 Z-4 I0.4932 J1.4252
G2 X337.8532 Y13.0711 I-12.1583 J6.621 F3500
X337.7416 Y12.8962 I-2.2832 J1.3342
G3 X337.6273 Y12.7232 I3.6673 J-2.5482
X338.0775 Y11.9087 I0.4502 J-0.2828
G1 X339.1305 Y11.9088
G3 X340.0937 Y12.872 J0.9632
G1 X340.0935 Y17.2843
G3 X339.4969 Y17.3445 I-0.3013
G2 X338.0898 Y13.4882 I-13.5653 J2.7648
X336.974 Y12.9349 I-0.9522 J0.5186
G3 X335.8155 Y12.4777 I-0.1867 J-1.2233
G2 X334.7808 Y11.3098 I-10.682 J8.4214
G3 X335.0957 Y10.5527 I0.3149 J-0.313
G1 X340.4865 Y10.5528
G3 X341.4497 Y11.516 J0.9632
G1 X341.4472 Y78.4866
G3 X340.4839 Y79.4498 I-0.9632
G1 X339.3969
G3 X338.4337 Y78.4865 J-0.9633
G1 X338.57 Y20.1225
G2 X337.5484 Y15.3408 I-11.7015 J-0.0001
X335.8155 Y12.4777 I-12.4149 J5.5584
X334.3156 Y12.021 I-1.0784 J0.8502
G3 X332.7748 Y11.73 I-0.5032 J-1.56
G2 X327.8889 Y9.4131 I-7.1246 J8.7144
X325.0764 Y9.1697 I-2.4708 J12.1746
G3 X322.2537 Y9.2086 I-2.8267 J-102.7198
G1 X294.4003 Y9.3297
G2 X287.9306 Y12.7327 I1.4709 J10.648
X285.0363 Y19.4454 I8.2712 J7.5467
G1 X285.1416 Y64.0976
G3 X284.1976 Y65.0416 I-0.944
G1 X188.4019
G3 X187.4579 Y64.0976 J-0.944
G1 X187.5886 Y20.1219
G2 X185.032 Y13.1603 I-10.7582 J0.0006
X178.6379 Y9.4034 I-8.5803 J7.2836
X176.2973 Y9.1912 I-2.1757 J10.9878
G3 X173.9473 Y9.2086 I-2.3512 J-159.7485
G1 X24.5974 Y9.3302
G2 X18.1296 Y12.7338 I1.4738 J10.6476
X15.2363 Y19.4454 I8.2723 J7.5456
G1 X15.3447 Y80.2838
G3 X14.4008 Y81.2276 I-0.9438
G1 X9.7155 Y81.227
G3 X8.7715 Y80.2829 I0.0001 J-0.9441
G1 X8.7742 Y9.7151
G3 X9.7182 Y8.7712 I0.944
G1 X342.2845 Y8.7741
G3 X343.2285 Y9.7181 J0.9439
G1 X343.2259 Y80.2846
G3 X342.2819 Y81.2286 I-0.944
G1 X337.5989 Y81.2284
G3 X336.6549 Y80.2844 J-0.944
G1 X336.7885 Y20.1225
G2 X334.2488 Y13.1805 I-10.7571 J-0.0001
X332.7748 Y11.73 I-8.5986 J7.2639
X331.123 Y11.6119 I-0.9097 J1.1127
G3 X329.4705 Y11.7194 I-0.9301 J-1.5425
G2 X327.5446 Y11.11 I-3.8206 J8.7263
X324.9034 Y10.8924 I-2.2378 J11.0269
G3 X322.2538 Y10.94 I-2.6525 J-73.9562
G1 X294.6373 Y11.0449
G2 X289.1927 Y13.9181 I1.2341 J8.9338
X286.7629 Y19.5744 I7.0101 J6.3614
G1 X286.8758 Y65.8125
G3 X285.9125 Y66.7757 I-0.9633
G1 X186.6871
G3 X185.7238 Y65.8125 J-0.9633
G1 X185.8571 Y20.122
G2 X183.6941 Y14.2593 I-9.0278 J0.0005
X178.3015 Y11.1018 I-7.2426 J6.1858
X176.1284 Y10.9144 I-1.9392 J9.7936
G3 X173.9473 Y10.94 I-2.1817 J-93.0842
G1 X24.8348 Y11.0453
G2 X19.3919 Y13.919 I1.2365 J8.9334
X16.9629 Y19.5744 I7.011 J6.3605
G1 X17.0789 Y81.9989
G3 X16.1158 Y82.962 I-0.963 J0.0001
G1 X8.0005 Y82.961
G3 X7.0373 Y81.9976 I0.0001 J-0.9633
G1 X7.0401 Y8.0002
G3 X8.0033 Y7.037 I0.9633
G1 X343.9995 Y7.0399
G3 X344.9627 Y8.0032 J0.9632
G1 X344.96 Y81.9996
G3 X343.9967 Y82.9628 I-0.9632
G1 X335.884 Y82.9625
G3 X334.9207 Y81.9993 J-0.9633
G1 X335.0571 Y20.1225
G2 X332.9083 Y14.2763 I-9.0268 J-0.0001
X329.4705 Y11.7194 I-7.2583 J6.1693
X327.2113 Y12.2365 I-0.7806 J1.783
G3 X325.1078 Y13.2097 I-2.1143 J-1.8102
G2 X324.6696 Y13.2213 I0.038 J9.72
G3 X322.2538 Y13.2806 I-2.4176 J-49.2788
G1 X294.9576 Y13.3634
G2 X290.8988 Y15.5204 I0.9141 J6.6172
X289.097 Y19.7487 I5.3062 J4.7592
G1 X289.2163 Y68.1531
G3 X288.2531 Y69.1163 I-0.9633
G1 X184.3467
G3 X183.3834 Y68.153 J-0.9633
G1 X183.5166 Y20.1221
G2 X181.8855 Y15.745 I-6.6897 J0.0004
X177.8469 Y13.3978 I-5.4345 J4.7028
X175.9 Y13.2438 I-1.6311 J8.2373
G3 X173.9474 Y13.2806 I-1.9522 J-51.8672
G1 X25.1557 Y13.3637
G2 X21.0982 Y15.5211 I0.9159 J6.6169
X19.297 Y19.7487 I5.3069 J4.7586
G1 X19.4196 Y84.3398
G3 X18.4565 Y85.3028 I-0.963 J0.0001
G1 X5.6599 Y85.3013
G3 X4.6967 Y84.3379 I0.0001 J-0.9633
G1 X4.6996 Y5.6596
G3 X5.6629 Y4.6964 I0.9633
G1 X346.3402 Y4.6994
G3 X347.3034 Y5.6626 J0.9632
G1 X347.3004 Y84.3402
G3 X346.3372 Y85.3035 I-0.9633
G1 X333.5434 Y85.303
G3 X332.5801 Y84.3397 J-0.9633
G1 X332.7165 Y20.1225
G2 X331.0961 Y15.7576 I-6.6886 J-0.0001
X327.079 Y13.4038 I-5.4467 J4.6907
X325.1078 Y13.2097 I-1.9332 J9.5259
X323.3701 Y14.4161 I0.0073 J1.8652
G3 X321.6324 Y15.6225 I-1.7419 J-0.6544
G1 X295.2778 Y15.682
G2 X292.6049 Y17.1227 I0.5943 J4.3025
X291.431 Y19.9231 I3.6046 J3.1573
G1 X291.5569 Y70.4936
G3 X290.5936 Y71.4569 I-0.9632
G1 X182.0062
G3 X181.0429 Y70.4936 J-0.9633
G1 X181.176 Y20.1222
G2 X180.0769 Y17.2307 I-4.3538 J0.0002
X177.3923 Y15.6938 I-3.627 J3.2226
X175.6716 Y15.5732 I-1.3382 J6.7581
G3 X173.9474 Y15.6211 I-1.724 J-31.0014
G1 X25.4766 Y15.6822
G2 X22.8045 Y17.1232 I0.5955 J4.3022
X21.631 Y19.9231 I3.6051 J3.1568
G1 X21.7603 Y86.6806
G3 X20.7971 Y87.6437 I-0.963 J0.0001
G1 X3.3192 Y87.6415
G3 X2.356 Y86.6782 I0.0001 J-0.9633
G1 X2.3591 Y3.3191
G3 X3.3224 Y2.3558 I0.9633
G1 X348.6808 Y2.3589
G3 X349.644 Y3.3221 J0.9632
G1 X349.6409 Y86.6809
G3 X348.6776 Y87.6441 I-0.9632
G1 X331.2028 Y87.6435
G3 X330.2396 Y86.6802 J-0.9633
G1 X330.376 Y20.1224
G2 X329.284 Y17.239 I-4.3528
X326.6135 Y15.6976 I-3.6357 J3.2149
X324.4357 Y15.5501 I-1.6417 J8.0893
G3 X322.2539 Y15.6211 I-2.183 J-33.5331
G1 X321.6324 Y15.6225
G2 X319.7677 Y16.8676 I0.0045 J2.0257
G3 X317.903 Y18.1127 I-1.8647 J-0.7739
G1 X295.954 Y18.1135
G2 X295.8112 Y18.1233 J1.0438
G1 X295.6187 Y18.1499
G2 X295.4253 Y18.1957 I0.1428 J1.0339
G1 X295.2329 Y18.2612
G2 X295.0716 Y18.3318 I0.3362 J0.9881
G1 X294.9409 Y18.4027
G2 X294.8095 Y18.4872 I0.4975 J0.9176
G1 X294.6787 Y18.5859
G2 X294.5526 Y18.6983 I0.6289 J0.833
G1 X294.4324 Y18.8243
G2 X294.3156 Y18.9711 I0.7551 J0.7206
G1 X294.2051 Y19.139
G2 X294.1137 Y19.3109 I0.8719 J0.5738
G1 X294.0411 Y19.4847
G2 X293.9859 Y19.6583 I0.9633 J0.4019
G1 X293.9474 Y19.8302
G2 X293.925 Y19.9807 I1.0185 J0.2283
G1 X293.9155 Y20.1086
X293.9126 Y20.1864
X293.9125 Y73.8125
X178.6875
X178.6846 Y20.1223
G2 X178.67 Y19.9481 I-1.0437 J0.0001
G1 X178.6375 Y19.7563
G2 X178.5867 Y19.5669 I-1.0291 J0.1743
G1 X178.5179 Y19.3817
G2 X178.4336 Y19.2068 I-0.9783 J0.3637
G1 X178.3353 Y19.0436
G2 X178.2311 Y18.8998 I-0.8941 J0.5385
G1 X178.1234 Y18.7751
G2 X178.0148 Y18.6667 I-0.7898 J0.6823
G1 X177.9071 Y18.5739
G2 X177.7868 Y18.4845 I-0.6813 J0.7908
G1 X177.6538 Y18.3997
G2 X177.4903 Y18.3148 I-0.561 J0.8802
G1 X177.2955 Y18.2346
G2 X177.1008 Y18.1758 I-0.3975 J0.9651
G1 X176.9084 Y18.1377
G2 X176.7077 Y18.1179 I-0.2027 J1.0239
G1 X173.9494 Y18.1125
X26.1537 Y18.1135
G2 X26.0106 Y18.1234 J1.0437
G1 X25.8182 Y18.15
G2 X25.6248 Y18.1959 I0.1431 J1.0339
G1 X25.4323 Y18.2614
G2 X25.2724 Y18.3314 I0.3365 J0.988
G1 X25.1441 Y18.4007
G2 X25.0127 Y18.4851 I0.4965 J0.9181
G1 X24.8798 Y18.5852
G2 X24.7517 Y18.6992 I0.6279 J0.8338
G1 X24.6299 Y18.8271
G2 X24.5255 Y18.956 I0.7559 J0.7197
G1 X24.4376 Y19.0839
G2 X24.3477 Y19.2432 I0.8604 J0.5908
G1 X24.2606 Y19.4351
G2 X24.1948 Y19.6281 I0.9504 J0.4315
G1 X24.1498 Y19.8199
G2 X24.125 Y19.9807 I1.0161 J0.2385
G1 X24.1155 Y20.1086
X24.1126 Y20.1864
X24.1161 Y89.9997
X0.0081 Y89.9968
X0.0005 Y89.9823
X0.0036 Y0.0058
X0.0395 Y0.0002
X351.9919 Y0.0032
X351.9995 Y0.0177
X351.9964 Y89.9942
X351.9605 Y89.9998
X327.8839 Y89.999
X327.8846 Y20.1224
G2 X327.8699 Y19.9481 I-1.0438
G1 X327.8375 Y19.7563
G2 X327.7854 Y19.5634 I-1.0291 J0.1743
G1 X327.7133 Y19.3715
G2 X327.6375 Y19.2121 I-0.9771 J0.3672
G1 X327.5627 Y19.0842
G2 X327.474 Y18.9556 I-0.9012 J0.5266
G1 X327.3708 Y18.8277
G2 X327.2531 Y18.7039 I-0.8125 J0.6552
G1 X327.1206 Y18.5857
G2 X326.9881 Y18.4853 I-0.6947 J0.779
G1 X326.8575 Y18.4018
G2 X326.6964 Y18.3177 I-0.5622 J0.8794
G1 X326.504 Y18.2376
G2 X326.3105 Y18.1783 I-0.4011 J0.9636
G1 X326.118 Y18.1392
G2 X325.9121 Y18.1184 I-0.2076 J1.0229
G1 X322.2558 Y18.1125
X317.903 Y18.1127
X317.8542 Y18.1089 Z-3.9922
X317.8065 Y18.0976 Z-3.9845
X317.7654 Y18.0813 Z-3.9619
X317.727 Y18.0594 Z-3.9394
X317.6733 Y18.0143 Z-3.8691
X317.6446 Y17.9796 Z-3.7806
X317.6358 Y17.9667 Z-3.6825
G0 Z5
X340.9223 Y12.7477
Z3
G1 Z-1.5827 F1200
X340.9224 Y12.7626 Z-1.6787
X340.9219 Y12.8058 Z-1.7657
X340.9187 Y12.8732 Z-1.8356
X340.9102 Y12.9582 Z-1.8818
X340.8952 Y13.0524 Z-1.9
G3 X340.9222 Y12.7909 Z-2.2217 I-1.4809 J-0.2854
X340.9035 Y12.5287 Z-2.5434 I-1.5079 J-0.024
X340.8395 Y12.2737 Z-2.8651 I-1.4892 J0.2383
X340.7322 Y12.0337 Z-3.1868 I-1.4252 J0.4932
X340.5848 Y11.816 Z-3.5086 I-1.3179 J0.7332
X340.4019 Y11.6272 Z-3.8303 I-1.1705 J0.9509
X340.189 Y11.473 Z-4.152 I-0.9876 J1.1397
X339.9526 Y11.3582 Z-4.4737 I-0.7747 J1.2939
X339.6997 Y11.2861 Z-4.7954 I-0.5383 J1.4088
X339.4383 Y11.259 Z-5.1171 I-0.2854 J1.4809
X339.176 Y11.2778 Z-5.4388 I-0.024 J1.5079
X338.9211 Y11.3418 Z-5.7605 I0.2383 J1.4892
X338.0898 Y13.4882 Z-6 I0.4932 J1.4252
G2 X337.8532 Y13.0711 I-12.1583 J6.621 F3500
X337.7416 Y12.8962 I-2.2832 J1.3342
G3 X337.6273 Y12.7232 I3.6673 J-2.5482
X338.0775 Y11.9087 I0.4502 J-0.2828
G1 X339.1305 Y11.9088
G3 X340.0937 Y12.872 J0.9632
G1 X340.0935 Y17.2843
G3 X339.4969 Y17.3445 I-0.3013
G2 X338.0898 Y13.4882 I-13.5653 J2.7648
X336.974 Y12.9349 I-0.9522 J0.5186
G3 X335.8155 Y12.4777 I-0.1867 J-1.2233
G2 X334.7808 Y11.3098 I-10.682 J8.4214
G3 X335.0957 Y10.5527 I0.3149 J-0.313
G1 X340.4865 Y10.5528
G3 X341.4497 Y11.516 J0.9632
G1 X341.4472 Y78.4866
G3 X340.4839 Y79.4498 I-0.9632
G1 X339.3969
G3 X338.4337 Y78.4865 J-0.9633
G1 X338.57 Y20.1225
G2 X337.5484 Y15.3408 I-11.7015 J-0.0001
X335.8155 Y12.4777 I-12.4149 J5.5584
G1 X335.7885 Y12.4369 Z-5.9922
X335.768 Y12.3923 Z-5.9845
X335.7557 Y12.3499 Z-5.9619
X335.7493 Y12.3061 Z-5.9394
X335.7519 Y12.2361 Z-5.8691
X335.7616 Y12.1921 Z-5.7806
X335.7664 Y12.1773 Z-5.6825
G0 Z5
X217.1235 Y37.6115
Z3
G1 Z-1.5827 F1200
X217.1165 Y37.6246 Z-1.6787
X217.0954 Y37.6623 Z-1.7657
X217.0603 Y37.7199 Z-1.8356
X217.0123 Y37.7906 Z-1.8818
X216.9539 Y37.8661 Z-1.9
G3 X217.1028 Y37.6494 Z-2.2217 I-1.1641 J-0.9589
X217.2117 Y37.4102 Z-2.5434 I-1.3129 J-0.7421
X217.2774 Y37.1556 Z-2.8651 I-1.4218 J-0.5029
X217.298 Y36.8935 Z-3.1868 I-1.4875 J-0.2484
X217.2727 Y36.6319 Z-3.5086 I-1.5081 J0.0137
X217.2023 Y36.3786 Z-3.8303 I-1.4828 J0.2754
X217.089 Y36.1413 Z-4.152 I-1.4124 J0.5287
X216.9363 Y35.9274 Z-4.4737 I-1.2992 J0.7659
X216.7487 Y35.7432 Z-4.7954 I-1.1464 J0.9799
X216.532 Y35.5944 Z-5.1171 I-0.9589 J1.1641
X216.2928 Y35.4854 Z-5.4388 I-0.7422 J1.3129
X216.0382 Y35.4197 Z-5.7605 I-0.5029 J1.4218
X214.2818 Y36.9073 Z-6 I-0.2484 J1.4875
G1 X214.2817 Y36.5615 F3500
G3 X215.2449 Y35.5983 I0.9632
G1 X257.3531 Y35.5987
G3 X258.3163 Y36.5619 J0.9632
G1 Y37.253
G3 X257.3531 Y38.2162 I-0.9633
G1 X215.2451
G3 X214.2818 Y37.253 J-0.9633
G1 Y36.9073
G2 X213.3705 Y35.1469 I-2.1563 J0.0001
G3 X213.971 Y33.2577 I0.6005 J-0.8492
G1 X259.6937 Y33.2581
G3 X260.657 Y34.2213 J0.9632
G1 X260.6569 Y39.5936
G3 X259.6937 Y40.5569 I-0.9632
G1 X212.9046
G3 X211.9413 Y39.5936 J-0.9633
G1 X211.941 Y34.2209
G3 X212.9042 Y33.2577 I0.9632 J-0.0001
G1 X213.971
G2 X215.7265 Y32.0874 J-1.9018
G3 X217.4819 Y30.9171 I1.7555 J0.7315
G1 X262.0343 Y30.9175
G3 X262.9976 Y31.8807 J0.9632
G1 Y41.9343
G3 X262.0343 Y42.8975 I-0.9633
G1 X210.5641
G3 X209.6008 Y41.9342 J-0.9633
G1 X209.6003 Y31.8802
G3 X210.5634 Y30.917 I0.9632
G1 X217.4819 Y30.9171
G2 X219.2374 Y29.7468 J-1.9018
G3 X220.9929 Y28.5765 I1.7554 J0.7315
G1 X264.3749 Y28.5769
G3 X265.3382 Y29.5401 J0.9632
G1 Y44.2749
G3 X264.3749 Y45.2381 I-0.9633
G1 X208.2236
G3 X207.2603 Y44.2749 J-0.9633
G1 X207.2595 Y29.5396
G3 X208.2227 Y28.5764 I0.9632 J-0.0001
G1 X220.9929 Y28.5765
G2 X222.7484 Y27.4062 J-1.9018
G3 X224.5038 Y26.2359 I1.7555 J0.7315
G1 X266.7156 Y26.2363
G3 X267.6788 Y27.1995 J0.9632
G1 Y46.6155
G3 X266.7155 Y47.5787 I-0.9632
G1 X205.8831
G3 X204.9198 Y46.6155 J-0.9633
G1 X204.9187 Y27.1989
G3 X205.8819 Y26.2357 I0.9632 J-0.0001
G1 X224.5038 Y26.2359
G2 X226.2593 Y25.0656 J-1.9018
G3 X228.0148 Y23.8953 I1.7555 J0.7315
G1 X269.0562 Y23.8957
G3 X270.0194 Y24.8589 J0.9632
G1 Y48.9561
G3 X269.0562 Y49.9194 I-0.9633
G1 X203.5426
G3 X202.5793 Y48.9561 J-0.9633
G1 X202.578 Y24.8583
G3 X203.5412 Y23.8951 I0.9632 J-0.0001
G1 X228.0148 Y23.8953
G2 X229.7703 Y22.725 J-1.9018
G3 X231.5257 Y21.5547 I1.7555 J0.7315
G1 X271.3968 Y21.5551
G3 X272.3601 Y22.5183 J0.9632
G1 X272.36 Y51.2967
G3 X271.3968 Y52.26 I-0.9632
G1 X201.2021
G3 X200.2388 Y51.2967 J-0.9633
G1 X200.2373 Y22.5177
G3 X201.2004 Y21.5544 I0.9632 J-0.0001
G1 X231.5257 Y21.5547
G2 X233.2812 Y20.3844 J-1.9018
G3 X235.0367 Y19.2141 I1.7555 J0.7315
G1 X273.7579 Y19.2144
G3 X274.7007 Y20.1585 J0.9428
G1 Y53.6374
G3 X273.7374 Y54.6006 I-0.9633
G1 X198.8616
G3 X197.8983 Y53.6374 J-0.9633
G1 X197.8965 Y20.1601
G3 X198.8428 Y19.2138 I0.9463 J-0.0001
G1 X235.0367 Y19.2141
G2 X236.7672 Y18.0604 J-1.8747
G3 X238.4978 Y16.9068 I1.7305 J0.7211
G1 X276.3473 Y16.9071
G3 X277.1571 Y17.8249 J0.8162
G1 X277.0067 Y19.0241
G2 X276.9341 Y20.1863 I9.2666 J1.1622
G1 X277.008 Y55.9447
G3 X276.0447 Y56.908 I-0.9633
G1 X196.5544
G3 X195.591 Y55.9447 J-0.9633
G1 X195.6611 Y20.1215
G2 X195.5846 Y18.9332 I-9.2804 J0.0005
G1 X195.4413 Y17.8234
G3 X196.2475 Y16.9064 I0.8062 J-0.1041
G1 X238.4978 Y16.9068
G2 X240.1713 Y15.7911 J-1.813
G3 X241.8449 Y14.6754 I1.6735 J0.6973
G1 X279.2296 Y14.6758
G3 X279.8951 Y15.5587 J0.6923
G2 X279.4462 Y17.2647 I39.1881 J11.225
X279.1736 Y19.0076 I10.6562 J2.5591
G1 X279.2394 Y58.1761
G3 X278.2761 Y59.1394 I-0.9633
G1 X194.3231
G3 X193.3598 Y58.1761 J-0.9633
G1 X193.4935 Y20.1216
G2 X193.2602 Y17.8116 I-11.5565 J0.0006
X192.7046 Y15.5573 I-28.2044 J5.7553
G3 X193.3676 Y14.675 I0.663 J-0.1921
G1 X241.8449 Y14.6754
G2 X243.4433 Y13.6098 J-1.7316
G3 X245.0417 Y12.5442 I1.5984 J0.666
G1 X282.5557 Y12.5446
G3 X283.0586 Y13.378 J0.5684
G2 X281.8678 Y16.1792 I16.2108 J8.5446
X281.273 Y19.1644 I11.8638 J3.9156
G1 X281.3706 Y60.3073
G3 X280.4073 Y61.2706 I-0.9633
G1 X192.192
G3 X191.2287 Y60.3073 J-0.9633
G1 X191.3623 Y20.1217
G2 X190.8645 Y16.6374 I-12.4473 J0.0007
X189.5399 Y13.3765 I-16.5795 J4.8352
G3 X190.0407 Y12.5437 I0.5008 J-0.2658
G1 X245.0417 Y12.5442
G2 X246.5362 Y11.5479 J-1.619
G3 X248.0306 Y10.5516 I1.4944 J0.6227
G1 X286.7021 Y10.552
G3 X287.0214 Y11.3111 J0.4467
G2 X284.8403 Y14.1582 I10.6353 J10.4062
X283.5211 Y17.4932 I9.9291 J5.8562
X283.2275 Y20.1863 I11.8326 J2.6522
G1 X283.3632 Y62.2999
G3 X282.4 Y63.2632 I-0.9632
G1 X190.1995
G3 X189.2362 Y62.2999 J-0.9633
G1 X189.3697 Y20.1218
G2 X188.3443 Y15.3414 I-11.6593 J0.0006
X185.5798 Y11.3089 I-12.5601 J5.647
G3 X185.8963 Y10.5511 I0.3165 J-0.3128
G1 X248.0306 Y10.5516
X248.0795 Y10.5554 Z-5.9922
X248.1272 Y10.5667 Z-5.9845
X248.1683 Y10.583 Z-5.9619
X248.2067 Y10.6049 Z-5.9394
X248.2604 Y10.65 Z-5.8691
X248.2891 Y10.6847 Z-5.7806
X248.2978 Y10.6976 Z-5.6825
G0 Z5
X11.8916 Y11.559
Z3
G1 Z-1.5827 F1200
X11.9041 Y11.551 Z-1.6787
X11.941 Y11.5285 Z-1.7657
X11.9998 Y11.4954 Z-1.8356
X12.0762 Y11.4573 Z-1.8818
X12.164 Y11.4199 Z-1.9
G3 X11.9282 Y11.5361 Z-2.2217 I0.546 J1.4058
X11.7161 Y11.6915 Z-2.5434 I0.7818 J1.2897
X11.5343 Y11.8813 Z-2.8651 I0.9939 J1.1343
X11.3881 Y12.0998 Z-3.1868 I1.1757 J0.9445
X11.2821 Y12.3404 Z-3.5086 I1.3219 J0.726
X11.2195 Y12.5957 Z-3.8303 I1.4279 J0.4854
X11.2022 Y12.858 Z-4.152 I1.4905 J0.2301
X11.2307 Y13.1193 Z-4.4737 I1.5078 J-0.0322
X11.3042 Y13.3717 Z-4.7954 I1.4793 J-0.2936
X11.4203 Y13.6076 Z-5.1171 I1.4058 J-0.546
X11.5757 Y13.8196 Z-5.4388 I1.2897 J-0.7818
X11.7655 Y14.0015 Z-5.7605 I1.1343 J-0.9939
X14.0253 Y13.5637 Z-6 I0.9445 J-1.1757
G2 X12.8759 Y16.1591 I13.1324 J7.3679 F3500
X12.2208 Y20.187 I12.0517 J4.0272
G1 X12.3457 Y77.9673
G3 X12.0845 Y78.2284 I-0.2612
G1 X12.0316
G3 X11.7705 Y77.9673 J-0.2612
G1 X11.7729 Y12.6356
G3 X12.6385 Y11.7701 I0.8655
G1 X14.2942
G3 X14.6817 Y12.4997 J0.4677
G2 X14.0253 Y13.5637 I12.4759 J8.4319
X14.1197 Y14.6737 I0.8653 J0.4854
G3 X14.2846 Y15.7755 I-0.8526 J0.6908
G2 X13.4275 Y20.1869 I10.9219 J4.4108
G1 X13.5662 Y78.4859
G3 X12.603 Y79.449 I-0.963
G1 X11.5132 Y79.4489
G3 X10.55 Y78.4855 I0.0001 J-0.9633
G1 X10.5525 Y11.5128
G3 X11.5158 Y10.5496 I0.9633
G1 X16.9046
G3 X17.2238 Y11.3087 J0.4466
G2 X14.4548 Y15.3754 I9.9811 J9.7719
X14.2846 Y15.7755 I10.7516 J4.8109
X14.6801 Y17.3926 I1.3215 J0.5337
G3 X15.2852 Y18.9434 I-1.1457 J1.3405
G2 X15.2363 Y19.4454 I11.1167 J1.3359
G1 X15.3447 Y80.2838
G3 X14.4008 Y81.2276 I-0.9438
G1 X9.7155 Y81.227
G3 X8.7715 Y80.2829 I0.0001 J-0.9441
G1 X8.7742 Y9.7151
G3 X9.7182 Y8.7712 I0.944
G1 X342.2845 Y8.7741
G3 X343.2285 Y9.7181 J0.9439
G1 X343.2259 Y80.2846
G3 X342.2819 Y81.2286 I-0.944
G1 X337.5989 Y81.2284
G3 X336.6549 Y80.2844 J-0.944
G1 X336.7885 Y20.1225
G2 X334.2488 Y13.1805 I-10.7571 J-0.0001
X327.8889 Y9.4131 I-8.5986 J7.2639
X325.0764 Y9.1697 I-2.4708 J12.1746
G3 X322.2537 Y9.2086 I-2.8267 J-102.7198
G1 X294.4003 Y9.3297
G2 X287.9306 Y12.7327 I1.4709 J10.648
X285.0363 Y19.4454 I8.2712 J7.5467
G1 X285.1416 Y64.0976
G3 X284.1976 Y65.0416 I-0.944
G1 X188.4019
G3 X187.4579 Y64.0976 J-0.944
G1 X187.5886 Y20.1219
G2 X185.032 Y13.1603 I-10.7582 J0.0006
X178.6379 Y9.4034 I-8.5803 J7.2836
X176.2973 Y9.1912 I-2.1757 J10.9878
G3 X173.9473 Y9.2086 I-2.3512 J-159.7485
G1 X24.5974 Y9.3302
G2 X18.1296 Y12.7338 I1.4738 J10.6476
X15.2852 Y18.9434 I8.2723 J7.5456
X16.0835 Y20.3698 I1.3776 J0.1656
G3 X16.967 Y21.7452 I-0.6332 J1.3781
G1 X17.0789 Y81.9989
G3 X16.1158 Y82.962 I-0.963 J0.0001
G1 X8.0005 Y82.961
G3 X7.0373 Y81.9976 I0.0001 J-0.9633
G1 X7.0401 Y8.0002
G3 X8.0033 Y7.037 I0.9633
G1 X343.9995 Y7.0399
G3 X344.9627 Y8.0032 J0.9632
G1 X344.96 Y81.9996
G3 X343.9967 Y82.9628 I-0.9632
G1 X335.884 Y82.9625
G3 X334.9207 Y81.9993 J-0.9633
G1 X335.0571 Y20.1225
G2 X332.9083 Y14.2763 I-9.0268 J-0.0001
X327.5446 Y11.11 I-7.2583 J6.1693
X324.9034 Y10.8924 I-2.2378 J11.0269
G3 X322.2538 Y10.94 I-2.6525 J-73.9562
G1 X294.6373 Y11.0449
G2 X289.1927 Y13.9181 I1.2341 J8.9338
X286.7629 Y19.5744 I7.0101 J6.3614
G1 X286.8758 Y65.8125
G3 X285.9125 Y66.7757 I-0.9633
G1 X186.6871
G3 X185.7238 Y65.8125 J-0.9633
G1 X185.8571 Y20.122
G2 X183.6941 Y14.2593 I-9.0278 J0.0005
X178.3015 Y11.1018 I-7.2426 J6.1858
X176.1284 Y10.9144 I-1.9392 J9.7936
G3 X173.9473 Y10.94 I-2.1817 J-93.0842
G1 X24.8348 Y11.0453
G2 X19.3919 Y13.919 I1.2365 J8.9334
X16.9629 Y19.5744 I7.011 J6.3605
G1 X16.967 Y21.7452
G2 X18.1372 Y23.4933 I1.8962 J-0.0035
G3 X19.3074 Y25.2415 I-0.7261 J1.7518
G1 X19.4196 Y84.3398
G3 X18.4565 Y85.3028 I-0.963 J0.0001
G1 X5.6599 Y85.3013
G3 X4.6967 Y84.3379 I0.0001 J-0.9633
G1 X4.6996 Y5.6596
G3 X5.6629 Y4.6964 I0.9633
G1 X346.3402 Y4.6994
G3 X347.3034 Y5.6626 J0.9632
G1 X347.3004 Y84.3402
G3 X346.3372 Y85.3035 I-0.9633
G1 X333.5434 Y85.303
G3 X332.5801 Y84.3397 J-0.9633
G1 X332.7165 Y20.1225
G2 X331.0961 Y15.7576 I-6.6886 J-0.0001
X327.079 Y13.4038 I-5.4467 J4.6907
X324.6696 Y13.2213 I-1.9332 J9.5259
G3 X322.2538 Y13.2806 I-2.4176 J-49.2788
G1 X294.9576 Y13.3634
G2 X290.8988 Y15.5204 I0.9141 J6.6172
X289.097 Y19.7487 I5.3062 J4.7592
G1 X289.2163 Y68.1531
G3 X288.2531 Y69.1163 I-0.9633
G1 X184.3467
G3 X183.3834 Y68.153 J-0.9633
G1 X183.5166 Y20.1221
G2 X181.8855 Y15.745 I-6.6897 J0.0004
X177.8469 Y13.3978 I-5.4345 J4.7028
X175.9 Y13.2438 I-1.6311 J8.2373
G3 X173.9474 Y13.2806 I-1.9522 J-51.8672
G1 X25.1557 Y13.3637
G2 X21.0982 Y15.5211 I0.9159 J6.6169
X19.297 Y19.7487 I5.3069 J4.7586
G1 X19.3074 Y25.2415
G2 X20.4778 Y26.9898 I1.8963 J-0.0036
G3 X21.6481 Y28.738 I-0.726 J1.7519
G1 X21.7603 Y86.6806
G3 X20.7971 Y87.6437 I-0.963 J0.0001
G1 X3.3192 Y87.6415
G3 X2.356 Y86.6782 I0.0001 J-0.9633
G1 X2.3591 Y3.3191
G3 X3.3224 Y2.3558 I0.9633
G1 X348.6808 Y2.3589
G3 X349.644 Y3.3221 J0.9632
G1 X349.6409 Y86.6809
G3 X348.6776 Y87.6441 I-0.9632
G1 X331.2028 Y87.6435
G3 X330.2396 Y86.6802 J-0.9633
G1 X330.376 Y20.1224
G2 X329.284 Y17.239 I-4.3528
X326.6135 Y15.6976 I-3.6357 J3.2149
X324.4357 Y15.5501 I-1.6417 J8.0893
G3 X322.2539 Y15.6211 I-2.183 J-33.5331
G1 X295.2778 Y15.682
G2 X292.6049 Y17.1227 I0.5943 J4.3025
X291.431 Y19.9231 I3.6046 J3.1573
G1 X291.5569 Y70.4936
G3 X290.5936 Y71.4569 I-0.9632
G1 X182.0062
G3 X181.0429 Y70.4936 J-0.9633
G1 X181.176 Y20.1222
G2 X180.0769 Y17.2307 I-4.3538 J0.0002
X177.3923 Y15.6938 I-3.627 J3.2226
X175.6716 Y15.5732 I-1.3382 J6.7581
G3 X173.9474 Y15.6211 I-1.724 J-31.0014
G1 X25.4766 Y15.6822
G2 X22.8045 Y17.1232 I0.5955 J4.3022
X21.631 Y19.9231 I3.6051 J3.1568
G1 X21.6481 Y28.738
G2 X22.8807 Y30.5843 I2.0049 J-0.0039
G3 X24.1132 Y32.4306 I-0.7667 J1.8464
G1 X24.1161 Y89.9997
X0.0081 Y89.9968
X0.0005 Y89.9823
X0.0036 Y0.0058
X0.0395 Y0.0002
X351.9919 Y0.0032
X351.9995 Y0.0177
X351.9964 Y89.9942
X351.9605 Y89.9998
X327.8839 Y89.999
X327.8846 Y20.1224
G2 X327.8699 Y19.9481 I-1.0438
G1 X327.8375 Y19.7563
G2 X327.7854 Y19.5634 I-1.0291 J0.1743
G1 X327.7133 Y19.3715
G2 X327.6375 Y19.2121 I-0.9771 J0.3672
G1 X327.5627 Y19.0842
G2 X327.474 Y18.9556 I-0.9012 J0.5266
G1 X327.3708 Y18.8277
G2 X327.2531 Y18.7039 I-0.8125 J0.6552
G1 X327.1206 Y18.5857
G2 X326.9881 Y18.4853 I-0.6947 J0.779
G1 X326.8575 Y18.4018
G2 X326.6964 Y18.3177 I-0.5622 J0.8794
G1 X326.504 Y18.2376
G2 X326.3105 Y18.1783 I-0.4011 J0.9636
G1 X326.118 Y18.1392
G2 X325.9121 Y18.1184 I-0.2076 J1.0229
G1 X322.2558 Y18.1125
X295.954 Y18.1135
G2 X295.8112 Y18.1233 J1.0438
G1 X295.6187 Y18.1499
G2 X295.4253 Y18.1957 I0.1428 J1.0339
G1 X295.2329 Y18.2612
G2 X295.0716 Y18.3318 I0.3362 J0.9881
G1 X294.9409 Y18.4027
G2 X294.8095 Y18.4872 I0.4975 J0.9176
G1 X294.6787 Y18.5859
G2 X294.5526 Y18.6983 I0.6289 J0.833
G1 X294.4324 Y18.8243
G2 X294.3156 Y18.9711 I0.7551 J0.7206
G1 X294.2051 Y19.139
G2 X294.1137 Y19.3109 I0.8719 J0.5738
G1 X294.0411 Y19.4847
G2 X293.9859 Y19.6583 I0.9633 J0.4019
G1 X293.9474 Y19.8302
G2 X293.925 Y19.9807 I1.0185 J0.2283
G1 X293.9155 Y20.1086
X293.9126 Y20.1864
X293.9125 Y73.8125
X178.6875
X178.6846 Y20.1223
G2 X178.67 Y19.9481 I-1.0437 J0.0001
G1 X178.6375 Y19.7563
G2 X178.5867 Y19.5669 I-1.0291 J0.1743
G1 X178.5179 Y19.3817
G2 X178.4336 Y19.2068 I-0.9783 J0.3637
G1 X178.3353 Y19.0436
G2 X178.2311 Y18.8998 I-0.8941 J0.5385
G1 X178.1234 Y18.7751
G2 X178.0148 Y18.6667 I-0.7898 J0.6823
G1 X177.9071 Y18.5739
G2 X177.7868 Y18.4845 I-0.6813 J0.7908
G1 X177.6538 Y18.3997
G2 X177.4903 Y18.3148 I-0.561 J0.8802
G1 X177.2955 Y18.2346
G2 X177.1008 Y18.1758 I-0.3975 J0.9651
G1 X176.9084 Y18.1377
G2 X176.7077 Y18.1179 I-0.2027 J1.0239
G1 X173.9494 Y18.1125
X26.1537 Y18.1135
G2 X26.0106 Y18.1234 J1.0437
G1 X25.8182 Y18.15
G2 X25.6248 Y18.1959 I0.1431 J1.0339
G1 X25.4323 Y18.2614
G2 X25.2724 Y18.3314 I0.3365 J0.988
G1 X25.1441 Y18.4007
G2 X25.0127 Y18.4851 I0.4965 J0.9181
G1 X24.8798 Y18.5852
G2 X24.7517 Y18.6992 I0.6279 J0.8338
G1 X24.6299 Y18.8271
G2 X24.5255 Y18.956 I0.7559 J0.7197
G1 X24.4376 Y19.0839
G2 X24.3477 Y19.2432 I0.8604 J0.5908
G1 X24.2606 Y19.4351
G2 X24.1948 Y19.6281 I0.9504 J0.4315
G1 X24.1498 Y19.8199
G2 X24.125 Y19.9807 I1.0161 J0.2385
G1 X24.1155 Y20.1086
X24.1126 Y20.1864
X24.1132 Y32.4306
X24.1094 Y32.4795 Z-5.9922
X24.0982 Y32.5271 Z-5.9845
X24.0818 Y32.5682 Z-5.9619
X24.0599 Y32.6067 Z-5.9394
X24.0149 Y32.6603 Z-5.8691
X23.9801 Y32.6891 Z-5.7806
X23.9673 Y32.6978 Z-5.6825
G0 Z5
X16.2561 Y44.4343
Z-3
G1 Z-7.6825 F1200
X16.2716 Y44.4326 Z-7.7806
X16.3166 Y44.4322 Z-7.8691
X16.3857 Y44.4441 Z-7.9394
X16.4272 Y44.4593 Z-7.9619
X16.4662 Y44.4802 Z-7.9845
X16.5056 Y44.5094 Z-7.9922
X16.54 Y44.5443 Z-8
X16.588 Y44.6012 F3500
X16.6135 Y44.6402
X16.6402 Y44.6902
X16.6629 Y44.742
X16.6743 Y44.775
X16.702 Y44.898
X16.7095 Y45
X16.702 Y45.102
X16.6743 Y45.225
X16.6629 Y45.258
X16.6448 Y45.2994
X16.599 Y45.3807
X16.5249 Y45.478
X16.47 Y45.5331
X16.4298 Y45.5659
X16.3475 Y45.6189
X16.2523 Y45.6633
X16.1667 Y45.6896
X16.0587 Y45.7068
X15.9558 Y45.7079
X15.8429 Y45.6925
X15.773 Y45.6734
X15.6929 Y45.6415
X15.6713 Y45.6305
X15.5632 Y45.5597
X15.5093 Y45.5134
X15.4475 Y45.4461
X15.3962 Y45.3732
X15.3486 Y45.2824
X15.3232 Y45.2141
X15.298 Y45.102
X15.2905 Y45
X15.298 Y44.898
X15.3264 Y44.7718
X15.3697 Y44.6738
X15.427 Y44.5808
X15.4721 Y44.5249
X15.5462 Y44.4534
X15.5989 Y44.413
X15.6436 Y44.3854
X15.7649 Y44.329
X15.7818 Y44.3233
X15.9041 Y44.2972
X16.0072 Y44.2907
X16.1127 Y44.2996
X16.2096 Y44.3221
X16.3049 Y44.3586
X16.3664 Y44.3917
X16.4539 Y44.4536
X16.4943 Y44.4901
X16.54 Y44.5443
X16.5686 Y44.584 Z-7.9922
X16.5908 Y44.6277 Z-7.9845
X16.6048 Y44.6697 Z-7.9619
X16.6128 Y44.7132 Z-7.9394
X16.613 Y44.7833 Z-7.8691
X16.605 Y44.8276 Z-7.7806
X16.6008 Y44.8426 Z-7.6825
G0 Z5
X15.5112 Y45.3842
Z-5
G1 Z-9.6825 F1200
X15.4967 Y45.3785 Z-9.7806
X15.4565 Y45.3582 Z-9.8691
X15.4007 Y45.3157 Z-9.9394
X15.3709 Y45.283 Z-9.9619
X15.346 Y45.2465 Z-9.9845
X15.3245 Y45.2025 Z-9.9922
X15.3101 Y45.1556 Z-10
X15.298 Y45.102 F3500
X15.2905 Y45
X15.298 Y44.898
X15.3264 Y44.7718
X15.3697 Y44.6738
X15.427 Y44.5808
X15.4721 Y44.5249
X15.5462 Y44.4534
X15.5989 Y44.413
X15.6436 Y44.3854
X15.7649 Y44.329
X15.7818 Y44.3233
X15.9041 Y44.2972
X16.0072 Y44.2907
X16.1127 Y44.2996
X16.2096 Y44.3221
X16.3049 Y44.3586
X16.3664 Y44.3917
X16.4539 Y44.4536
X16.4943 Y44.4901
X16.588 Y44.6012
X16.6135 Y44.6402
X16.6402 Y44.6902
X16.6629 Y44.742
X16.6743 Y44.775
X16.702 Y44.898
X16.7095 Y45
X16.702 Y45.102
X16.6743 Y45.225
X16.6629 Y45.258
X16.6448 Y45.2994
X16.599 Y45.3807
X16.5249 Y45.478
X16.47 Y45.5331
X16.4298 Y45.5659
X16.3475 Y45.6189
X16.2523 Y45.6633
X16.1667 Y45.6896
X16.0587 Y45.7068
X15.9558 Y45.7079
X15.8429 Y45.6925
X15.773 Y45.6734
X15.6929 Y45.6415
X15.6713 Y45.6305
X15.5632 Y45.5597
X15.5093 Y45.5134
X15.4475 Y45.4461
X15.3962 Y45.3732
X15.3486 Y45.2824
X15.3232 Y45.2141
X15.3101 Y45.1556
X15.303 Y45.1071 Z-9.9922
X15.3035 Y45.0581 Z-9.9845
X15.3105 Y45.0145 Z-9.9619
X15.3234 Y44.9722 Z-9.9394
X15.3556 Y44.9099 Z-9.8691
X15.3831 Y44.8743 Z-9.7806
X15.3938 Y44.8629 Z-9.6825
G0 Z5
X16.2561 Y44.4343
Z-7
G1 Z-11.6825 F1200
X16.2716 Y44.4326 Z-11.7806
X16.3166 Y44.4322 Z-11.8691
X16.3857 Y44.4441 Z-11.9394
X16.4272 Y44.4593 Z-11.9619
X16.4662 Y44.4802 Z-11.9845
X16.5056 Y44.5094 Z-11.9922
X16.54 Y44.5443 Z-12
X16.588 Y44.6012 F3500
X16.6135 Y44.6402
X16.6402 Y44.6902
X16.6629 Y44.742
X16.6743 Y44.775
X16.702 Y44.898
X16.7095 Y45
X16.702 Y45.102
X16.6743 Y45.225
X16.6629 Y45.258
X16.6448 Y45.2994
X16.599 Y45.3807
X16.5249 Y45.478
X16.47 Y45.5331
X16.4298 Y45.5659
X16.3475 Y45.6189
X16.2523 Y45.6633
X16.1667 Y45.6896
X16.0587 Y45.7068
X15.9558 Y45.7079
X15.8429 Y45.6925
X15.773 Y45.6734
X15.6929 Y45.6415
X15.6713 Y45.6305
X15.5632 Y45.5597
X15.5093 Y45.5134
X15.4475 Y45.4461
X15.3962 Y45.3732
X15.3486 Y45.2824
X15.3232 Y45.2141
X15.298 Y45.102
X15.2905 Y45
X15.298 Y44.898
X15.3264 Y44.7718
X15.3697 Y44.6738
X15.427 Y44.5808
X15.4721 Y44.5249
X15.5462 Y44.4534
X15.5989 Y44.413
X15.6436 Y44.3854
X15.7649 Y44.329
X15.7818 Y44.3233
X15.9041 Y44.2972
X16.0072 Y44.2907
X16.1127 Y44.2996
X16.2096 Y44.3221
X16.3049 Y44.3586
X16.3664 Y44.3917
X16.4539 Y44.4536
X16.4943 Y44.4901
X16.54 Y44.5443
X16.5686 Y44.584 Z-11.9922
X16.5908 Y44.6277 Z-11.9845
X16.6048 Y44.6697 Z-11.9619
X16.6128 Y44.7132 Z-11.9394
X16.613 Y44.7833 Z-11.8691
X16.605 Y44.8276 Z-11.7806
X16.6008 Y44.8426 Z-11.6825
G0 Z5
X16.2561 Y44.4343
Z-3
G1 Z-9 F1200
Z-13.0825
X16.2716 Y44.4326 Z-13.1806
X16.3166 Y44.4322 Z-13.2691
X16.3857 Y44.4441 Z-13.3394
X16.4272 Y44.4593 Z-13.3619
X16.4662 Y44.4802 Z-13.3845
X16.5056 Y44.5094 Z-13.3922
X16.54 Y44.5443 Z-13.4
X16.588 Y44.6012 F3500
X16.6135 Y44.6402
X16.6402 Y44.6902
X16.6629 Y44.742
X16.6743 Y44.775
X16.702 Y44.898
X16.7095 Y45
X16.702 Y45.102
X16.6743 Y45.225
X16.6629 Y45.258
X16.6448 Y45.2994
X16.599 Y45.3807
X16.5249 Y45.478
X16.47 Y45.5331
X16.4298 Y45.5659
X16.3475 Y45.6189
X16.2523 Y45.6633
X16.1667 Y45.6896
X16.0587 Y45.7068
X15.9558 Y45.7079
X15.8429 Y45.6925
X15.773 Y45.6734
X15.6929 Y45.6415
X15.6713 Y45.6305
X15.5632 Y45.5597
X15.5093 Y45.5134
X15.4475 Y45.4461
X15.3962 Y45.3732
X15.3486 Y45.2824
X15.3232 Y45.2141
X15.298 Y45.102
X15.2905 Y45
X15.298 Y44.898
X15.3264 Y44.7718
X15.3697 Y44.6738
X15.427 Y44.5808
X15.4721 Y44.5249
X15.5462 Y44.4534
X15.5989 Y44.413
X15.6436 Y44.3854
X15.7649 Y44.329
X15.7818 Y44.3233
X15.9041 Y44.2972
X16.0072 Y44.2907
X16.1127 Y44.2996
X16.2096 Y44.3221
X16.3049 Y44.3586
X16.3664 Y44.3917
X16.4539 Y44.4536
X16.4943 Y44.4901
X16.54 Y44.5443
X16.5686 Y44.584 Z-13.3922
X16.5908 Y44.6277 Z-13.3845
X16.6048 Y44.6697 Z-13.3619
X16.6128 Y44.7132 Z-13.3394
X16.613 Y44.7833 Z-13.2691
X16.605 Y44.8276 Z-13.1806
X16.6008 Y44.8426 Z-13.0825
G0 Z5
X36.6024 Y9.8457
Z-3
G1 Z-7.6825 F1200
X36.6133 Y9.8567 Z-7.7806
X36.6419 Y9.8916 Z-7.8691
X36.6757 Y9.953 Z-7.9394
X36.6898 Y9.9949 Z-7.9619
X36.6979 Y10.0384 Z-7.9845
X36.6998 Y10.0873 Z-7.9922
X36.694 Y10.136 Z-8
X36.6801 Y10.2067 F3500
X36.673 Y10.2294
X36.6355 Y10.3165
X36.5764 Y10.4161
X36.5502 Y10.4506
X36.512 Y10.493
X36.439 Y10.5584
X36.3707 Y10.6066
X36.3325 Y10.6283
X36.2453 Y10.6667
X36.1719 Y10.6891
X36.0697 Y10.7075
X36.0363 Y10.7098
X35.9134 Y10.7047
X35.8372 Y10.6913
X35.7425 Y10.6628
X35.7027 Y10.6463
X35.6609 Y10.6247
X35.5751 Y10.5685
X35.4947 Y10.4979
X35.4332 Y10.4259
X35.3556 Y10.2993
X35.3418 Y10.268
X35.3107 Y10.1705
X35.296 Y10.0906
X35.2909 Y9.9814
X35.3012 Y9.8781
X35.3324 Y9.7542
X35.3685 Y9.6749
X35.4164 Y9.5958
X35.4827 Y9.5138
X35.5528 Y9.4477
X35.5986 Y9.413
X35.6415 Y9.3862
X35.7293 Y9.3432
X35.7966 Y9.3198
X35.9099 Y9.2965
X36.0129 Y9.2909
X36.116 Y9.3004
X36.2396 Y9.3306
X36.272 Y9.3426
X36.3232 Y9.3665
X36.3698 Y9.3929
X36.4464 Y9.4471
X36.4946 Y9.49
X36.5606 Y9.5642
X36.6053 Y9.629
X36.6564 Y9.7293
X36.6822 Y9.8012
X36.6978 Y9.8686
X36.7091 Y9.9814
X36.7043 Y10.0839
X36.694 Y10.136
X36.6809 Y10.1832 Z-7.9922
X36.6606 Y10.2279 Z-7.9845
X36.6367 Y10.265 Z-7.9619
X36.6078 Y10.2985 Z-7.9394
X36.5532 Y10.3425 Z-7.8691
X36.5136 Y10.3639 Z-7.7806
X36.4993 Y10.37 Z-7.6825
G0 Z5
X35.8745 Y9.3915
Z-5
G1 Z-9.6825 F1200
X35.8861 Y9.3811 Z-9.7806
X35.9222 Y9.3542 Z-9.8691
X35.9851 Y9.3232 Z-9.9394
X36.0276 Y9.311 Z-9.9619
X36.0714 Y9.3049 Z-9.9845
X36.1204 Y9.3053 Z-9.9922
X36.1688 Y9.3133 Z-10
X36.2396 Y9.3306 F3500
X36.272 Y9.3426
X36.3232 Y9.3665
X36.3698 Y9.3929
X36.4464 Y9.4471
X36.4946 Y9.49
X36.5606 Y9.5642
X36.6053 Y9.629
X36.6564 Y9.7293
X36.6822 Y9.8012
X36.6978 Y9.8686
X36.7091 Y9.9814
X36.7043 Y10.0839
X36.6801 Y10.2067
X36.673 Y10.2294
X36.6355 Y10.3165
X36.5764 Y10.4161
X36.5502 Y10.4506
X36.512 Y10.493
X36.439 Y10.5584
X36.3707 Y10.6066
X36.3325 Y10.6283
X36.2453 Y10.6667
X36.1719 Y10.6891
X36.0697 Y10.7075
X36.0363 Y10.7098
X35.9134 Y10.7047
X35.8372 Y10.6913
X35.7425 Y10.6628
X35.7027 Y10.6463
X35.6609 Y10.6247
X35.5751 Y10.5685
X35.4947 Y10.4979
X35.4332 Y10.4259
X35.3556 Y10.2993
X35.3418 Y10.268
X35.3107 Y10.1705
X35.296 Y10.0906
X35.2909 Y9.9814
X35.3012 Y9.8781
X35.3324 Y9.7542
X35.3685 Y9.6749
X35.4164 Y9.5958
X35.4827 Y9.5138
X35.5528 Y9.4477
X35.5986 Y9.413
X35.6415 Y9.3862
X35.7293 Y9.3432
X35.7966 Y9.3198
X35.9099 Y9.2965
X36.0129 Y9.2909
X36.116 Y9.3004
X36.1688 Y9.3133
X36.2153 Y9.3286 Z-9.9922
X36.259 Y9.3509 Z-9.9845
X36.295 Y9.3765 Z-9.9619
X36.3271 Y9.4069 Z-9.9394
X36.3685 Y9.4635 Z-9.8691
X36.3881 Y9.504 Z-9.7806
X36.3936 Y9.5186 Z-9.6825
G0 Z5
X35.8745 Y9.3915
Z-7
G1 Z-11.6825 F1200
X35.8861 Y9.3811 Z-11.7806
X35.9222 Y9.3542 Z-11.8691
X35.9851 Y9.3232 Z-11.9394
X36.0276 Y9.311 Z-11.9619
X36.0714 Y9.3049 Z-11.9845
X36.1204 Y9.3053 Z-11.9922
X36.1688 Y9.3133 Z-12
X36.2396 Y9.3306 F3500
X36.272 Y9.3426
X36.3232 Y9.3665
X36.3698 Y9.3929
X36.4464 Y9.4471
X36.4946 Y9.49
X36.5606 Y9.5642
X36.6053 Y9.629
X36.6564 Y9.7293
X36.6822 Y9.8012
X36.6978 Y9.8686
X36.7091 Y9.9814
X36.7043 Y10.0839
X36.6801 Y10.2067
X36.673 Y10.2294
X36.6355 Y10.3165
X36.5764 Y10.4161
X36.5502 Y10.4506
X36.512 Y10.493
X36.439 Y10.5584
X36.3707 Y10.6066
X36.3325 Y10.6283
X36.2453 Y10.6667
X36.1719 Y10.6891
X36.0697 Y10.7075
X36.0363 Y10.7098
X35.9134 Y10.7047
X35.8372 Y10.6913
X35.7425 Y10.6628
X35.7027 Y10.6463
X35.6609 Y10.6247
X35.5751 Y10.5685
X35.4947 Y10.4979
X35.4332 Y10.4259
X35.3556 Y10.2993
X35.3418 Y10.268
X35.3107 Y10.1705
X35.296 Y10.0906
X35.2909 Y9.9814
X35.3012 Y9.8781
X35.3324 Y9.7542
X35.3685 Y9.6749
X35.4164 Y9.5958
X35.4827 Y9.5138
X35.5528 Y9.4477
X35.5986 Y9.413
X35.6415 Y9.3862
X35.7293 Y9.3432
X35.7966 Y9.3198
X35.9099 Y9.2965
X36.0129 Y9.2909
X36.116 Y9.3004
X36.1688 Y9.3133
X36.2153 Y9.3286 Z-11.9922
X36.259 Y9.3509 Z-11.9845
X36.295 Y9.3765 Z-11.9619
X36.3271 Y9.4069 Z-11.9394
X36.3685 Y9.4635 Z-11.8691
X36.3881 Y9.504 Z-11.7806
X36.3936 Y9.5186 Z-11.6825
G0 Z5
X35.8745 Y9.3915
Z-3
G1 Z-9 F1200
Z-13.0825
X35.8861 Y9.3811 Z-13.1806
X35.9222 Y9.3542 Z-13.2691
X35.9851 Y9.3232 Z-13.3394
X36.0276 Y9.311 Z-13.3619
X36.0714 Y9.3049 Z-13.3845
X36.1204 Y9.3053 Z-13.3922
X36.1688 Y9.3133 Z-13.4
X36.2396 Y9.3306 F3500
X36.272 Y9.3426
X36.3232 Y9.3665
X36.3698 Y9.3929
X36.4464 Y9.4471
X36.4946 Y9.49
X36.5606 Y9.5642
X36.6053 Y9.629
X36.6564 Y9.7293
X36.6822 Y9.8012
X36.6978 Y9.8686
X36.7091 Y9.9814
X36.7043 Y10.0839
X36.6801 Y10.2067
X36.673 Y10.2294
X36.6355 Y10.3165
X36.5764 Y10.4161
X36.5502 Y10.4506
X36.512 Y10.493
X36.439 Y10.5584
X36.3707 Y10.6066
X36.3325 Y10.6283
X36.2453 Y10.6667
X36.1719 Y10.6891
X36.0697 Y10.7075
X36.0363 Y10.7098
X35.9134 Y10.7047
X35.8372 Y10.6913
X35.7425 Y10.6628
X35.7027 Y10.6463
X35.6609 Y10.6247
X35.5751 Y10.5685
X35.4947 Y10.4979
X35.4332 Y10.4259
X35.3556 Y10.2993
X35.3418 Y10.268
X35.3107 Y10.1705
X35.296 Y10.0906
X35.2909 Y9.9814
X35.3012 Y9.8781
X35.3324 Y9.7542
X35.3685 Y9.6749
X35.4164 Y9.5958
X35.4827 Y9.5138
X35.5528 Y9.4477
X35.5986 Y9.413
X35.6415 Y9.3862
X35.7293 Y9.3432
X35.7966 Y9.3198
X35.9099 Y9.2965
X36.0129 Y9.2909
X36.116 Y9.3004
X36.1688 Y9.3133
X36.2153 Y9.3286 Z-13.3922
X36.259 Y9.3509 Z-13.3845
X36.295 Y9.3765 Z-13.3619
X36.3271 Y9.4069 Z-13.3394
X36.3685 Y9.4635 Z-13.2691
X36.3881 Y9.504 Z-13.1806
X36.3936 Y9.5186 Z-13.0825
G0 Z5
X156.6201 Y10.0354
Z-3
G1 Z-7.6825 F1200
X156.6272 Y10.0492 Z-7.7806
X156.6439 Y10.0911 Z-7.8691
X156.6577 Y10.1598 Z-7.9394
X156.6585 Y10.204 Z-7.9619
X156.6532 Y10.2479 Z-7.9845
X156.6402 Y10.2952 Z-7.9922
X156.62 Y10.3399 Z-8
X156.5909 Y10.3931 F3500
X156.5375 Y10.4641
X156.4839 Y10.5199
X156.4007 Y10.5871
X156.358 Y10.6146
X156.3051 Y10.6424
X156.2636 Y10.6604
X156.1744 Y10.6883
X156.0779 Y10.7058
X155.9904 Y10.7104
X155.9293 Y10.7067
X155.8156 Y10.6854
X155.7334 Y10.6584
X155.6596 Y10.6233
X155.5763 Y10.57
X155.5168 Y10.5208
X155.461 Y10.4617
X155.3937 Y10.369
X155.3557 Y10.2975
X155.3091 Y10.168
X155.3061 Y10.1555
X155.2915 Y10.033
X155.2941 Y9.9298
X155.3156 Y9.8073
X155.3251 Y9.7746
X155.3444 Y9.7238
X155.3662 Y9.6777
X155.4167 Y9.5951
X155.4804 Y9.5168
X155.5524 Y9.4501
X155.6689 Y9.3723
X155.7445 Y9.3364
X155.7676 Y9.3282
X155.8919 Y9.2991
X155.9948 Y9.2907
X156.0976 Y9.2974
X156.2208 Y9.3241
X156.2526 Y9.3349
X156.2949 Y9.3532
X156.3801 Y9.4003
X156.4668 Y9.4653
X156.5373 Y9.5359
X156.5905 Y9.6049
X156.634 Y9.6778
X156.6512 Y9.7144
X156.6825 Y9.8014
X156.6978 Y9.8676
X156.709 Y9.9806
X156.7031 Y10.1051
X156.698 Y10.1379
X156.6909 Y10.168
X156.6464 Y10.2916
X156.62 Y10.3399
X156.5933 Y10.3809 Z-7.9922
X156.5605 Y10.4174 Z-7.9845
X156.5265 Y10.4456 Z-7.9619
X156.4888 Y10.4688 Z-7.9394
X156.4235 Y10.4943 Z-7.8691
X156.3793 Y10.5028 Z-7.7806
X156.3638 Y10.5043 Z-7.6825
G0 Z5
X156.6201 Y10.0354
Z-5
G1 Z-9.6825 F1200
X156.6272 Y10.0492 Z-9.7806
X156.6439 Y10.0911 Z-9.8691
X156.6577 Y10.1598 Z-9.9394
X156.6585 Y10.204 Z-9.9619
X156.6532 Y10.2479 Z-9.9845
X156.6402 Y10.2952 Z-9.9922
X156.62 Y10.3399 Z-10
X156.5909 Y10.3931 F3500
X156.5375 Y10.4641
X156.4839 Y10.5199
X156.4007 Y10.5871
X156.358 Y10.6146
X156.3051 Y10.6424
X156.2636 Y10.6604
X156.1744 Y10.6883
X156.0779 Y10.7058
X155.9904 Y10.7104
X155.9293 Y10.7067
X155.8156 Y10.6854
X155.7334 Y10.6584
X155.6596 Y10.6233
X155.5763 Y10.57
X155.5168 Y10.5208
X155.461 Y10.4617
X155.3937 Y10.369
X155.3557 Y10.2975
X155.3091 Y10.168
X155.3061 Y10.1555
X155.2915 Y10.033
X155.2941 Y9.9298
X155.3156 Y9.8073
X155.3251 Y9.7746
X155.3444 Y9.7238
X155.3662 Y9.6777
X155.4167 Y9.5951
X155.4804 Y9.5168
X155.5524 Y9.4501
X155.6689 Y9.3723
X155.7445 Y9.3364
X155.7676 Y9.3282
X155.8919 Y9.2991
X155.9948 Y9.2907
X156.0976 Y9.2974
X156.2208 Y9.3241
X156.2526 Y9.3349
X156.2949 Y9.3532
X156.3801 Y9.4003
X156.4668 Y9.4653
X156.5373 Y9.5359
X156.5905 Y9.6049
X156.634 Y9.6778
X156.6512 Y9.7144
X156.6825 Y9.8014
X156.6978 Y9.8676
X156.709 Y9.9806
X156.7031 Y10.1051
X156.698 Y10.1379
X156.6909 Y10.168
X156.6464 Y10.2916
X156.62 Y10.3399
X156.5933 Y10.3809 Z-9.9922
X156.5605 Y10.4174 Z-9.9845
X156.5265 Y10.4456 Z-9.9619
X156.4888 Y10.4688 Z-9.9394
X156.4235 Y10.4943 Z-9.8691
X156.3793 Y10.5028 Z-9.7806
X156.3638 Y10.5043 Z-9.6825
G0 Z5
X156.6201 Y10.0354
Z-7
G1 Z-11.6825 F1200
X156.6272 Y10.0492 Z-11.7806
X156.6439 Y10.0911 Z-11.8691
X156.6577 Y10.1598 Z-11.9394
X156.6585 Y10.204 Z-11.9619
X156.6532 Y10.2479 Z-11.9845
X156.6402 Y10.2952 Z-11.9922
X156.62 Y10.3399 Z-12
X156.5909 Y10.3931 F3500
X156.5375 Y10.4641
X156.4839 Y10.5199
X156.4007 Y10.5871
X156.358 Y10.6146
X156.3051 Y10.6424
X156.2636 Y10.6604
X156.1744 Y10.6883
X156.0779 Y10.7058
X155.9904 Y10.7104
X155.9293 Y10.7067
X155.8156 Y10.6854
X155.7334 Y10.6584
X155.6596 Y10.6233
X155.5763 Y10.57
X155.5168 Y10.5208
X155.461 Y10.4617
X155.3937 Y10.369
X155.3557 Y10.2975
X155.3091 Y10.168
X155.3061 Y10.1555
X155.2915 Y10.033
X155.2941 Y9.9298
X155.3156 Y9.8073
X155.3251 Y9.7746
X155.3444 Y9.7238
X155.3662 Y9.6777
X155.4167 Y9.5951
X155.4804 Y9.5168
X155.5524 Y9.4501
X155.6689 Y9.3723
X155.7445 Y9.3364
X155.7676 Y9.3282
X155.8919 Y9.2991
X155.9948 Y9.2907
X156.0976 Y9.2974
X156.2208 Y9.3241
X156.2526 Y9.3349
X156.2949 Y9.3532
X156.3801 Y9.4003
X156.4668 Y9.4653
X156.5373 Y9.5359
X156.5905 Y9.6049
X156.634 Y9.6778
X156.6512 Y9.7144
X156.6825 Y9.8014
X156.6978 Y9.8676
X156.709 Y9.9806
X156.7031 Y10.1051
X156.698 Y10.1379
X156.6909 Y10.168
X156.6464 Y10.2916
X156.62 Y10.3399
X156.5933 Y10.3809 Z-11.9922
X156.5605 Y10.4174 Z-11.9845
X156.5265 Y10.4456 Z-11.9619
X156.4888 Y10.4688 Z-11.9394
X156.4235 Y10.4943 Z-11.8691
X156.3793 Y10.5028 Z-11.7806
X156.3638 Y10.5043 Z-11.6825
G0 Z5
X156.6201 Y10.0354
Z-3
G1 Z-9 F1200
Z-13.0825
X156.6272 Y10.0492 Z-13.1806
X156.6439 Y10.0911 Z-13.2691
X156.6577 Y10.1598 Z-13.3394
X156.6585 Y10.204 Z-13.3619
X156.6532 Y10.2479 Z-13.3845
X156.6402 Y10.2952 Z-13.3922
X156.62 Y10.3399 Z-13.4
X156.5909 Y10.3931 F3500
X156.5375 Y10.4641
X156.4839 Y10.5199
X156.4007 Y10.5871
X156.358 Y10.6146
X156.3051 Y10.6424
X156.2636 Y10.6604
X156.1744 Y10.6883
X156.0779 Y10.7058
X155.9904 Y10.7104
X155.9293 Y10.7067
X155.8156 Y10.6854
X155.7334 Y10.6584
X155.6596 Y10.6233
X155.5763 Y10.57
X155.5168 Y10.5208
X155.461 Y10.4617
X155.3937 Y10.369
X155.3557 Y10.2975
X155.3091 Y10.168
X155.3061 Y10.1555
X155.2915 Y10.033
X155.2941 Y9.9298
X155.3156 Y9.8073
X155.3251 Y9.7746
X155.3444 Y9.7238
X155.3662 Y9.6777
X155.4167 Y9.5951
X155.4804 Y9.5168
X155.5524 Y9.4501
X155.6689 Y9.3723
X155.7445 Y9.3364
X155.7676 Y9.3282
X155.8919 Y9.2991
X155.9948 Y9.2907
X156.0976 Y9.2974
X156.2208 Y9.3241
X156.2526 Y9.3349
X156.2949 Y9.3532
X156.3801 Y9.4003
X156.4668 Y9.4653
X156.5373 Y9.5359
X156.5905 Y9.6049
X156.634 Y9.6778
X156.6512 Y9.7144
X156.6825 Y9.8014
X156.6978 Y9.8676
X156.709 Y9.9806
X156.7031 Y10.1051
X156.698 Y10.1379
X156.6909 Y10.168
X156.6464 Y10.2916
X156.62 Y10.3399
X156.5933 Y10.3809 Z-13.3922
X156.5605 Y10.4174 Z-13.3845
X156.5265 Y10.4456 Z-13.3619
X156.4888 Y10.4688 Z-13.3394
X156.4235 Y10.4943 Z-13.2691
X156.3793 Y10.5028 Z-13.1806
X156.3638 Y10.5043 Z-13.0825
G0 Z5
X256.3021 Y39.1701
Z-3.5827
G1 X256.289 Y39.1631 Z-3.6787 F1200
X256.2513 Y39.142 Z-3.7657
X256.1936 Y39.1069 Z-3.8356
X256.123 Y39.0589 Z-3.8818
X256.0475 Y39.0006 Z-3.9
G3 X256.2642 Y39.1494 Z-4.2217 I0.9589 J-1.164
X256.5034 Y39.2583 Z-4.5434 I0.7422 J-1.3128
X256.7579 Y39.3241 Z-4.8651 I0.503 J-1.4218
X257.02 Y39.3446 Z-5.1868 I0.2484 J-1.4875
X257.2817 Y39.3193 Z-5.5086 I-0.0136 J-1.5081
X257.535 Y39.249 Z-5.8303 I-0.2753 J-1.4828
X257.7722 Y39.1357 Z-6.152 I-0.5286 J-1.4125
X257.9862 Y38.983 Z-6.4737 I-0.7658 J-1.2992
X258.1704 Y38.7955 Z-6.7954 I-0.9798 J-1.1465
X258.3192 Y38.5788 Z-7.1171 I-1.164 J-0.9589
X258.4282 Y38.3395 Z-7.4388 I-1.3128 J-0.7422
X258.4939 Y38.085 Z-7.7605 I-1.4218 J-0.503
X257.0064 Y36.3284 Z-8 I-1.4875 J-0.2484
G1 X257.0558 F3500
G3 X257.5842 Y36.8569 J0.5285
G1 Y36.9556
G3 X257.0558 Y37.4841 I-0.5284
G1 X215.7936
G3 Y36.3284 J-0.5778
G1 X257.0064
G2 X257.7302 Y35.7431 J-0.7402
G3 X258.6481 Y35.5878 I0.4898 J0.1048
X258.788 Y36.0879 I-0.8233 J0.5
G1 Y37.7246
G3 X257.8248 Y38.6879 I-0.9632
G1 X214.774
G3 X213.8107 Y37.7246 J-0.9633
G1 Y36.0878
G3 X214.7739 Y35.1246 I0.9632
G1 X257.8248
G3 X258.6481 Y35.5878 J0.9632
G2 X260.0838 Y36.8409 I2.6915 J-1.6347
G3 X261.1286 Y38.4346 I-0.693 J1.5937
G1 Y40.0653
G3 X260.1654 Y41.0285 I-0.9632
G1 X212.4335
G3 X211.4702 Y40.0653 J-0.9633
G1 X211.4699 Y33.7472
G3 X212.4331 Y32.784 I0.9632
G1 X260.1654
G3 X261.1287 Y33.7472 J0.9632
G1 X261.1286 Y38.4346
G2 X262.299 Y40.1901 I1.9018
G3 X263.4693 Y41.9456 I-0.7314 J1.7555
G1 Y42.4059
G3 X262.506 Y43.3692 I-0.9633
G1 X210.0929
G3 X209.1296 Y42.4059 J-0.9633
G1 X209.1292 Y31.4066
G3 X210.0924 Y30.4433 I0.9632
G1 X262.5061
G3 X263.4693 Y31.4066 J0.9632
G1 Y41.9456
G2 X264.4613 Y43.7397 I2.1183
G3 X263.8942 Y45.7098 I-0.5671 J0.9034
G1 X207.7524
G3 X206.7891 Y44.7465 J-0.9633
G1 X206.7885 Y29.0659
G3 X207.7517 Y28.1027 I0.9632
G1 X264.8467
G3 X265.8099 Y29.0659 J0.9632
G1 Y44.7466
G3 X264.8466 Y45.7098 I-0.9632
G1 X263.8942
G2 X262.1388 Y46.8801 J1.9018
G3 X260.3833 Y48.0504 I-1.7555 J-0.7314
G1 X205.4118
G3 X204.4485 Y47.0872 J-0.9633
G1 X204.4478 Y26.7253
G3 X205.411 Y25.7621 I0.9632
G1 X267.1873
G3 X268.1506 Y26.7253 J0.9632
G1 X268.1505 Y47.0872
G3 X267.1873 Y48.0504 I-0.9632
G1 X260.3833
G2 X258.6278 Y49.2207 J1.9018
G3 X256.8723 Y50.3911 I-1.7555 J-0.7314
G1 X203.0713
G3 X202.108 Y49.4278 J-0.9633
G1 X202.107 Y24.3847
G3 X203.0702 Y23.4214 I0.9632
G1 X269.528
G3 X270.4912 Y24.3847 J0.9632
G1 X270.4911 Y49.4278
G3 X269.5279 Y50.3911 I-0.9633
G1 X256.8723
G2 X255.1168 Y51.5614 J1.9018
G3 X253.3614 Y52.7317 I-1.7555 J-0.7314
G1 X200.7307
G3 X199.7674 Y51.7684 J-0.9633
G1 X199.7663 Y22.044
G3 X200.7295 Y21.0808 I0.9632
G1 X271.8686
G3 X272.8319 Y22.044 J0.9632
G1 X272.8318 Y51.7685
G3 X271.8685 Y52.7317 I-0.9633
G1 X253.3614
G2 X251.6059 Y53.902 J1.9018
G3 X249.8504 Y55.0723 I-1.7555 J-0.7314
G1 X198.3902
G3 X197.4269 Y54.1091 J-0.9633
G1 X197.4256 Y19.7034
G3 X198.3888 Y18.7402 I0.9632
G1 X274.2093
G3 X275.1725 Y19.7034 J0.9632
G1 X275.1724 Y54.1091
G3 X274.2092 Y55.0723 I-0.9632
G1 X249.8504
G2 X248.0949 Y56.2427 J1.9018
G3 X246.3395 Y57.413 I-1.7555 J-0.7314
G1 X196.0496
G3 X195.0863 Y56.4497 J-0.9633
G1 X195.0849 Y17.3628
G3 X196.0481 Y16.3995 I0.9632
G1 X276.5499
G3 X277.5132 Y17.3628 J0.9632
G1 X277.513 Y56.4497
G3 X276.5498 Y57.413 I-0.9633
G1 X246.3395
G2 X244.584 Y58.5833 J1.9018
G3 X242.8285 Y59.7536 I-1.7555 J-0.7314
G1 X193.7091
G3 X192.7458 Y58.7904 J-0.9633
G1 X192.7442 Y15.0221
G3 X193.7074 Y14.0589 I0.9632
G1 X278.8906
G3 X279.8538 Y15.0221 J0.9632
G1 X279.8537 Y58.7904
G3 X278.8904 Y59.7536 I-0.9633
G1 X242.8285
G2 X241.073 Y60.9239 J1.9018
G3 X239.3176 Y62.0942 I-1.7555 J-0.7314
G1 X191.3685
G3 X190.4052 Y61.131 J-0.9633
G1 X190.4034 Y12.6815
G3 X191.3666 Y11.7183 I0.9632
G1 X281.2312
G3 X282.1945 Y12.6815 J0.9632
G1 X282.1943 Y61.131
G3 X281.231 Y62.0942 I-0.9632
G1 X239.3176
G2 X237.5621 Y63.2646 J1.9018
G3 X235.8066 Y64.4349 I-1.7555 J-0.7314
G1 X189.028
G3 X188.0647 Y63.4716 J-0.9633
G1 X188.0627 Y10.3409
G3 X189.0259 Y9.3776 I0.9632
G1 X283.5718
G3 X284.5351 Y10.3409 J0.9632
G1 X284.5349 Y63.4716
G3 X283.5717 Y64.4349 I-0.9633
G1 X235.8066
G2 X234.0511 Y65.6052 J1.9018
G3 X232.2956 Y66.7755 I-1.7555 J-0.7314
G1 X186.6874
G3 X185.7242 Y65.8123 J-0.9633
G1 X185.722 Y8.0002
G3 X186.6852 Y7.037 I0.9632
G1 X285.9125
G3 X286.8757 Y8.0002 J0.9632
G1 X286.8755 Y65.8123
G3 X285.9123 Y66.7755 I-0.9633
G1 X232.2956
G2 X230.5402 Y67.9458 J1.9018
G3 X228.7847 Y69.1161 I-1.7555 J-0.7315
G1 X184.3469
G3 X183.3836 Y68.1529 J-0.9633
G1 X183.3813 Y5.6596
G3 X184.3445 Y4.6964 I0.9632
G1 X288.2531
G3 X289.2164 Y5.6596 J0.9632
G1 X289.2162 Y68.1529
G3 X288.2529 Y69.1161 I-0.9632
G1 X228.7847
G2 X227.0292 Y70.2865 J1.9018
G3 X225.2737 Y71.4568 I-1.7555 J-0.7315
G1 X182.0063
G3 X181.0431 Y70.4935 J-0.9633
G1 X181.0405 Y3.3189
G3 X182.0037 Y2.3557 I0.9632
G1 X290.5938
G3 X291.557 Y3.319 J0.9632
G1 X291.5568 Y70.4935
G3 X290.5936 Y71.4568 I-0.9632
G1 X225.2737
G2 X223.507 Y72.6346 J1.914
G3 X221.7402 Y73.8125 I-1.7668 J-0.7362
G1 X178.6875
X178.6847 Y0
X293.9128
X293.9125 Y73.8125
X221.7402
X221.6913 Y73.8087 Z-7.9922
X221.6436 Y73.7975 Z-7.9845
X221.6025 Y73.7811 Z-7.9619
X221.5641 Y73.7592 Z-7.9394
X221.5104 Y73.7141 Z-7.8691
X221.4817 Y73.6794 Z-7.7806
X221.473 Y73.6665 Z-7.6825
G0 Z5
X256.3021 Y39.1701
Z-5.5827
G1 X256.289 Y39.1631 Z-5.6787 F1200
X256.2513 Y39.142 Z-5.7657
X256.1936 Y39.1069 Z-5.8356
X256.123 Y39.0589 Z-5.8818
X256.0475 Y39.0006 Z-5.9
G3 X256.2642 Y39.1494 Z-6.2217 I0.9589 J-1.164
X256.5034 Y39.2583 Z-6.5434 I0.7422 J-1.3128
X256.7579 Y39.3241 Z-6.8651 I0.503 J-1.4218
X257.02 Y39.3446 Z-7.1868 I0.2484 J-1.4875
X257.2817 Y39.3193 Z-7.5086 I-0.0136 J-1.5081
X257.535 Y39.249 Z-7.8303 I-0.2753 J-1.4828
X257.7722 Y39.1357 Z-8.152 I-0.5286 J-1.4125
X257.9862 Y38.983 Z-8.4737 I-0.7658 J-1.2992
X258.1704 Y38.7955 Z-8.7954 I-0.9798 J-1.1465
X258.3192 Y38.5788 Z-9.1171 I-1.164 J-0.9589
X258.4282 Y38.3395 Z-9.4388 I-1.3128 J-0.7422
X258.4939 Y38.085 Z-9.7605 I-1.4218 J-0.503
X257.0064 Y36.3284 Z-10 I-1.4875 J-0.2484
G1 X257.0558 F3500
G3 X257.5842 Y36.8569 J0.5285
G1 Y36.9556
G3 X257.0558 Y37.4841 I-0.5284
G1 X215.7936
G3 Y36.3284 J-0.5778
G1 X257.0064
G2 X257.7302 Y35.7431 J-0.7402
G3 X258.6481 Y35.5878 I0.4898 J0.1048
X258.788 Y36.0879 I-0.8233 J0.5
G1 Y37.7246
G3 X257.8248 Y38.6879 I-0.9632
G1 X214.774
G3 X213.8107 Y37.7246 J-0.9633
G1 Y36.0878
G3 X214.7739 Y35.1246 I0.9632
G1 X257.8248
G3 X258.6481 Y35.5878 J0.9632
G2 X260.0838 Y36.8409 I2.6915 J-1.6347
G3 X261.1286 Y38.4346 I-0.693 J1.5937
G1 Y40.0653
G3 X260.1654 Y41.0285 I-0.9632
G1 X212.4335
G3 X211.4702 Y40.0653 J-0.9633
G1 X211.4699 Y33.7472
G3 X212.4331 Y32.784 I0.9632
G1 X260.1654
G3 X261.1287 Y33.7472 J0.9632
G1 X261.1286 Y38.4346
G2 X262.299 Y40.1901 I1.9018
G3 X263.4693 Y41.9456 I-0.7314 J1.7555
G1 Y42.4059
G3 X262.506 Y43.3692 I-0.9633
G1 X210.0929
G3 X209.1296 Y42.4059 J-0.9633
G1 X209.1292 Y31.4066
G3 X210.0924 Y30.4433 I0.9632
G1 X262.5061
G3 X263.4693 Y31.4066 J0.9632
G1 Y41.9456
G2 X264.4613 Y43.7397 I2.1183
G3 X263.8942 Y45.7098 I-0.5671 J0.9034
G1 X207.7524
G3 X206.7891 Y44.7465 J-0.9633
G1 X206.7885 Y29.0659
G3 X207.7517 Y28.1027 I0.9632
G1 X264.8467
G3 X265.8099 Y29.0659 J0.9632
G1 Y44.7466
G3 X264.8466 Y45.7098 I-0.9632
G1 X263.8942
G2 X262.1388 Y46.8801 J1.9018
G3 X260.3833 Y48.0504 I-1.7555 J-0.7314
G1 X205.4118
G3 X204.4485 Y47.0872 J-0.9633
G1 X204.4478 Y26.7253
G3 X205.411 Y25.7621 I0.9632
G1 X267.1873
G3 X268.1506 Y26.7253 J0.9632
G1 X268.1505 Y47.0872
G3 X267.1873 Y48.0504 I-0.9632
G1 X260.3833
G2 X258.6278 Y49.2207 J1.9018
G3 X256.8723 Y50.3911 I-1.7555 J-0.7314
G1 X203.0713
G3 X202.108 Y49.4278 J-0.9633
G1 X202.107 Y24.3847
G3 X203.0702 Y23.4214 I0.9632
G1 X269.528
G3 X270.4912 Y24.3847 J0.9632
G1 X270.4911 Y49.4278
G3 X269.5279 Y50.3911 I-0.9633
G1 X256.8723
G2 X255.1168 Y51.5614 J1.9018
G3 X253.3614 Y52.7317 I-1.7555 J-0.7314
G1 X200.7307
G3 X199.7674 Y51.7684 J-0.9633
G1 X199.7663 Y22.044
G3 X200.7295 Y21.0808 I0.9632
G1 X271.8686
G3 X272.8319 Y22.044 J0.9632
G1 X272.8318 Y51.7685
G3 X271.8685 Y52.7317 I-0.9633
G1 X253.3614
G2 X251.6059 Y53.902 J1.9018
G3 X249.8504 Y55.0723 I-1.7555 J-0.7314
G1 X198.3902
G3 X197.4269 Y54.1091 J-0.9633
G1 X197.4256 Y19.7034
G3 X198.3888 Y18.7402 I0.9632
G1 X274.2093
G3 X275.1725 Y19.7034 J0.9632
G1 X275.1724 Y54.1091
G3 X274.2092 Y55.0723 I-0.9632
G1 X249.8504
G2 X248.0949 Y56.2427 J1.9018
G3 X246.3395 Y57.413 I-1.7555 J-0.7314
G1 X196.0496
G3 X195.0863 Y56.4497 J-0.9633
G1 X195.0849 Y17.3628
G3 X196.0481 Y16.3995 I0.9632
G1 X276.5499
G3 X277.5132 Y17.3628 J0.9632
G1 X277.513 Y56.4497
G3 X276.5498 Y57.413 I-0.9633
G1 X246.3395
G2 X244.584 Y58.5833 J1.9018
G3 X242.8285 Y59.7536 I-1.7555 J-0.7314
G1 X193.7091
G3 X192.7458 Y58.7904 J-0.9633
G1 X192.7442 Y15.0221
G3 X193.7074 Y14.0589 I0.9632
G1 X278.8906
G3 X279.8538 Y15.0221 J0.9632
G1 X279.8537 Y58.7904
G3 X278.8904 Y59.7536 I-0.9633
G1 X242.8285
G2 X241.073 Y60.9239 J1.9018
G3 X239.3176 Y62.0942 I-1.7555 J-0.7314
G1 X191.3685
G3 X190.4052 Y61.131 J-0.9633
G1 X190.4034 Y12.6815
G3 X191.3666 Y11.7183 I0.9632
G1 X281.2312
G3 X282.1945 Y12.6815 J0.9632
G1 X282.1943 Y61.131
G3 X281.231 Y62.0942 I-0.9632
G1 X239.3176
G2 X237.5621 Y63.2646 J1.9018
G3 X235.8066 Y64.4349 I-1.7555 J-0.7314
G1 X189.028
G3 X188.0647 Y63.4716 J-0.9633
G1 X188.0627 Y10.3409
G3 X189.0259 Y9.3776 I0.9632
G1 X283.5718
G3 X284.5351 Y10.3409 J0.9632
G1 X284.5349 Y63.4716
G3 X283.5717 Y64.4349 I-0.9633
G1 X235.8066
G2 X234.0511 Y65.6052 J1.9018
G3 X232.2956 Y66.7755 I-1.7555 J-0.7314
G1 X186.6874
G3 X185.7242 Y65.8123 J-0.9633
G1 X185.722 Y8.0002
G3 X186.6852 Y7.037 I0.9632
G1 X285.9125
G3 X286.8757 Y8.0002 J0.9632
G1 X286.8755 Y65.8123
G3 X285.9123 Y66.7755 I-0.9633
G1 X232.2956
G2 X230.5402 Y67.9458 J1.9018
G3 X228.7847 Y69.1161 I-1.7555 J-0.7315
G1 X184.3469
G3 X183.3836 Y68.1529 J-0.9633
G1 X183.3813 Y5.6596
G3 X184.3445 Y4.6964 I0.9632
G1 X288.2531
G3 X289.2164 Y5.6596 J0.9632
G1 X289.2162 Y68.1529
G3 X288.2529 Y69.1161 I-0.9632
G1 X228.7847
G2 X227.0292 Y70.2865 J1.9018
G3 X225.2737 Y71.4568 I-1.7555 J-0.7315
G1 X182.0063
G3 X181.0431 Y70.4935 J-0.9633
G1 X181.0405 Y3.3189
G3 X182.0037 Y2.3557 I0.9632
G1 X290.5938
G3 X291.557 Y3.319 J0.9632
G1 X291.5568 Y70.4935
G3 X290.5936 Y71.4568 I-0.9632
G1 X225.2737
G2 X223.507 Y72.6346 J1.914
G3 X221.7402 Y73.8125 I-1.7668 J-0.7362
G1 X178.6875
X178.6847 Y0
X293.9128
X293.9125 Y73.8125
X221.7402
X221.6913 Y73.8087 Z-9.9922
X221.6436 Y73.7975 Z-9.9845
X221.6025 Y73.7811 Z-9.9619
X221.5641 Y73.7592 Z-9.9394
X221.5104 Y73.7141 Z-9.8691
X221.4817 Y73.6794 Z-9.7806
X221.473 Y73.6665 Z-9.6825
G0 Z5
X256.3021 Y39.1701
Z-7.5827
G1 X256.289 Y39.1631 Z-7.6787 F1200
X256.2513 Y39.142 Z-7.7657
X256.1936 Y39.1069 Z-7.8356
X256.123 Y39.0589 Z-7.8818
X256.0475 Y39.0006 Z-7.9
G3 X256.2642 Y39.1494 Z-8.2217 I0.9589 J-1.164
X256.5034 Y39.2583 Z-8.5434 I0.7422 J-1.3128
X256.7579 Y39.3241 Z-8.8651 I0.503 J-1.4218
X257.02 Y39.3446 Z-9.1868 I0.2484 J-1.4875
X257.2817 Y39.3193 Z-9.5086 I-0.0136 J-1.5081
X257.535 Y39.249 Z-9.8303 I-0.2753 J-1.4828
X257.7722 Y39.1357 Z-10.152 I-0.5286 J-1.4125
X257.9862 Y38.983 Z-10.4737 I-0.7658 J-1.2992
X258.1704 Y38.7955 Z-10.7954 I-0.9798 J-1.1465
X258.3192 Y38.5788 Z-11.1171 I-1.164 J-0.9589
X258.4282 Y38.3395 Z-11.4388 I-1.3128 J-0.7422
X258.4939 Y38.085 Z-11.7605 I-1.4218 J-0.503
X257.0064 Y36.3284 Z-12 I-1.4875 J-0.2484
G1 X257.0558 F3500
G3 X257.5842 Y36.8569 J0.5285
G1 Y36.9556
G3 X257.0558 Y37.4841 I-0.5284
G1 X215.7936
G3 Y36.3284 J-0.5778
G1 X257.0064
G2 X257.7302 Y35.7431 J-0.7402
G3 X258.6481 Y35.5878 I0.4898 J0.1048
X258.788 Y36.0879 I-0.8233 J0.5
G1 Y37.7246
G3 X257.8248 Y38.6879 I-0.9632
G1 X214.774
G3 X213.8107 Y37.7246 J-0.9633
G1 Y36.0878
G3 X214.7739 Y35.1246 I0.9632
G1 X257.8248
G3 X258.6481 Y35.5878 J0.9632
G2 X260.0838 Y36.8409 I2.6915 J-1.6347
G3 X261.1286 Y38.4346 I-0.693 J1.5937
G1 Y40.0653
G3 X260.1654 Y41.0285 I-0.9632
G1 X212.4335
G3 X211.4702 Y40.0653 J-0.9633
G1 X211.4699 Y33.7472
G3 X212.4331 Y32.784 I0.9632
G1 X260.1654
G3 X261.1287 Y33.7472 J0.9632
G1 X261.1286 Y38.4346
G2 X262.299 Y40.1901 I1.9018
G3 X263.4693 Y41.9456 I-0.7314 J1.7555
G1 Y42.4059
G3 X262.506 Y43.3692 I-0.9633
G1 X210.0929
G3 X209.1296 Y42.4059 J-0.9633
G1 X209.1292 Y31.4066
G3 X210.0924 Y30.4433 I0.9632
G1 X262.5061
G3 X263.4693 Y31.4066 J0.9632
G1 Y41.9456
G2 X264.4613 Y43.7397 I2.1183
G3 X263.8942 Y45.7098 I-0.5671 J0.9034
G1 X207.7524
G3 X206.7891 Y44.7465 J-0.9633
G1 X206.7885 Y29.0659
G3 X207.7517 Y28.1027 I0.9632
G1 X264.8467
G3 X265.8099 Y29.0659 J0.9632
G1 Y44.7466
G3 X264.8466 Y45.7098 I-0.9632
G1 X263.8942
G2 X262.1388 Y46.8801 J1.9018
G3 X260.3833 Y48.0504 I-1.7555 J-0.7314
G1 X205.4118
G3 X204.4485 Y47.0872 J-0.9633
G1 X204.4478 Y26.7253
G3 X205.411 Y25.7621 I0.9632
G1 X267.1873
G3 X268.1506 Y26.7253 J0.9632
G1 X268.1505 Y47.0872
G3 X267.1873 Y48.0504 I-0.9632
G1 X260.3833
G2 X258.6278 Y49.2207 J1.9018
G3 X256.8723 Y50.3911 I-1.7555 J-0.7314
G1 X203.0713
G3 X202.108 Y49.4278 J-0.9633
G1 X202.107 Y24.3847
G3 X203.0702 Y23.4214 I0.9632
G1 X269.528
G3 X270.4912 Y24.3847 J0.9632
G1 X270.4911 Y49.4278
G3 X269.5279 Y50.3911 I-0.9633
G1 X256.8723
G2 X255.1168 Y51.5614 J1.9018
G3 X253.3614 Y52.7317 I-1.7555 J-0.7314
G1 X200.7307
G3 X199.7674 Y51.7684 J-0.9633
G1 X199.7663 Y22.044
G3 X200.7295 Y21.0808 I0.9632
G1 X271.8686
G3 X272.8319 Y22.044 J0.9632
G1 X272.8318 Y51.7685
G3 X271.8685 Y52.7317 I-0.9633
G1 X253.3614
G2 X251.6059 Y53.902 J1.9018
G3 X249.8504 Y55.0723 I-1.7555 J-0.7314
G1 X198.3902
G3 X197.4269 Y54.1091 J-0.9633
G1 X197.4256 Y19.7034
G3 X198.3888 Y18.7402 I0.9632
G1 X274.2093
G3 X275.1725 Y19.7034 J0.9632
G1 X275.1724 Y54.1091
G3 X274.2092 Y55.0723 I-0.9632
G1 X249.8504
G2 X248.0949 Y56.2427 J1.9018
G3 X246.3395 Y57.413 I-1.7555 J-0.7314
G1 X196.0496
G3 X195.0863 Y56.4497 J-0.9633
G1 X195.0849 Y17.3628
G3 X196.0481 Y16.3995 I0.9632
G1 X276.5499
G3 X277.5132 Y17.3628 J0.9632
G1 X277.513 Y56.4497
G3 X276.5498 Y57.413 I-0.9633
G1 X246.3395
G2 X244.584 Y58.5833 J1.9018
G3 X242.8285 Y59.7536 I-1.7555 J-0.7314
G1 X193.7091
G3 X192.7458 Y58.7904 J-0.9633
G1 X192.7442 Y15.0221
G3 X193.7074 Y14.0589 I0.9632
G1 X278.8906
G3 X279.8538 Y15.0221 J0.9632
G1 X279.8537 Y58.7904
G3 X278.8904 Y59.7536 I-0.9633
G1 X242.8285
G2 X241.073 Y60.9239 J1.9018
G3 X239.3176 Y62.0942 I-1.7555 J-0.7314
G1 X191.3685
G3 X190.4052 Y61.131 J-0.9633
G1 X190.4034 Y12.6815
G3 X191.3666 Y11.7183 I0.9632
G1 X281.2312
G3 X282.1945 Y12.6815 J0.9632
G1 X282.1943 Y61.131
G3 X281.231 Y62.0942 I-0.9632
G1 X239.3176
G2 X237.5621 Y63.2646 J1.9018
G3 X235.8066 Y64.4349 I-1.7555 J-0.7314
G1 X189.028
G3 X188.0647 Y63.4716 J-0.9633
G1 X188.0627 Y10.3409
G3 X189.0259 Y9.3776 I0.9632
G1 X283.5718
G3 X284.5351 Y10.3409 J0.9632
G1 X284.5349 Y63.4716
G3 X283.5717 Y64.4349 I-0.9633
G1 X235.8066
G2 X234.0511 Y65.6052 J1.9018
G3 X232.2956 Y66.7755 I-1.7555 J-0.7314
G1 X186.6874
G3 X185.7242 Y65.8123 J-0.9633
G1 X185.722 Y8.0002
G3 X186.6852 Y7.037 I0.9632
G1 X285.9125
G3 X286.8757 Y8.0002 J0.9632
G1 X286.8755 Y65.8123
G3 X285.9123 Y66.7755 I-0.9633
G1 X232.2956
G2 X230.5402 Y67.9458 J1.9018
G3 X228.7847 Y69.1161 I-1.7555 J-0.7315
G1 X184.3469
G3 X183.3836 Y68.1529 J-0.9633
G1 X183.3813 Y5.6596
G3 X184.3445 Y4.6964 I0.9632
G1 X288.2531
G3 X289.2164 Y5.6596 J0.9632
G1 X289.2162 Y68.1529
G3 X288.2529 Y69.1161 I-0.9632
G1 X228.7847
G2 X227.0292 Y70.2865 J1.9018
G3 X225.2737 Y71.4568 I-1.7555 J-0.7315
G1 X182.0063
G3 X181.0431 Y70.4935 J-0.9633
G1 X181.0405 Y3.3189
G3 X182.0037 Y2.3557 I0.9632
G1 X290.5938
G3 X291.557 Y3.319 J0.9632
G1 X291.5568 Y70.4935
G3 X290.5936 Y71.4568 I-0.9632
G1 X225.2737
G2 X223.507 Y72.6346 J1.914
G3 X221.7402 Y73.8125 I-1.7668 J-0.7362
G1 X178.6875
X178.6847 Y0
X293.9128
X293.9125 Y73.8125
X221.7402
X221.6913 Y73.8087 Z-11.9922
X221.6436 Y73.7975 Z-11.9845
X221.6025 Y73.7811 Z-11.9619
X221.5641 Y73.7592 Z-11.9394
X221.5104 Y73.7141 Z-11.8691
X221.4817 Y73.6794 Z-11.7806
X221.473 Y73.6665 Z-11.6825
G0 Z5
X257.9637 Y39.0019
Z-9.5827
G1 X257.9521 Y39.0113 Z-9.6787 F1200
X257.9181 Y39.0379 Z-9.7657
X257.8634 Y39.0775 Z-9.8356
X257.7918 Y39.124 Z-9.8818
X257.7088 Y39.1711 Z-9.9
G3 X257.9299 Y39.0288 Z-10.2217 I-0.7024 J-1.3346
X258.1229 Y38.8504 Z-10.5434 I-0.9235 J-1.1923
X258.282 Y38.6411 Z-10.8651 I-1.1165 J-1.0138
X258.4023 Y38.4074 Z-11.1868 I-1.2756 J-0.8045
X258.4802 Y38.1563 Z-11.5086 I-1.3959 J-0.5708
X258.5133 Y37.8955 Z-11.8303 I-1.4738 J-0.3197
X258.5007 Y37.6329 Z-12.152 I-1.507 J-0.059
X258.4426 Y37.3765 Z-12.4737 I-1.4943 J0.2036
X258.3409 Y37.1341 Z-12.7954 I-1.4363 J0.46
X258.1987 Y36.913 Z-13.1171 I-1.3346 J0.7024
X257.0064 Y36.3284 Z-13.4 I-1.1923 J0.9235
G1 X257.0558 F3500
G3 X257.5842 Y36.8569 J0.5285
G1 Y36.9556
G3 X257.0558 Y37.4841 I-0.5284
G1 X215.7936
G3 Y36.3284 J-0.5778
G1 X257.0064
G2 X257.7302 Y35.7431 J-0.7402
G3 X258.6481 Y35.5878 I0.4898 J0.1048
X258.788 Y36.0879 I-0.8233 J0.5
G1 Y37.7246
G3 X257.8248 Y38.6879 I-0.9632
G1 X214.774
G3 X213.8107 Y37.7246 J-0.9633
G1 Y36.0878
G3 X214.7739 Y35.1246 I0.9632
G1 X257.8248
G3 X258.6481 Y35.5878 J0.9632
G2 X260.0838 Y36.8409 I2.6915 J-1.6347
G3 X261.1286 Y38.4346 I-0.693 J1.5937
G1 Y40.0653
G3 X260.1654 Y41.0285 I-0.9632
G1 X212.4335
G3 X211.4702 Y40.0653 J-0.9633
G1 X211.4699 Y33.7472
G3 X212.4331 Y32.784 I0.9632
G1 X260.1654
G3 X261.1287 Y33.7472 J0.9632
G1 X261.1286 Y38.4346
G2 X262.299 Y40.1901 I1.9018
G3 X263.4693 Y41.9456 I-0.7314 J1.7555
G1 Y42.4059
G3 X262.506 Y43.3692 I-0.9633
G1 X210.0929
G3 X209.1296 Y42.4059 J-0.9633
G1 X209.1292 Y31.4066
G3 X210.0924 Y30.4433 I0.9632
G1 X262.5061
G3 X263.4693 Y31.4066 J0.9632
G1 Y41.9456
G2 X264.4613 Y43.7397 I2.1183
G3 X263.8942 Y45.7098 I-0.5671 J0.9034
G1 X207.7524
G3 X206.7891 Y44.7465 J-0.9633
G1 X206.7885 Y29.0659
G3 X207.7517 Y28.1027 I0.9632
G1 X264.8467
G3 X265.8099 Y29.0659 J0.9632
G1 Y44.7466
G3 X264.8466 Y45.7098 I-0.9632
G1 X263.8942
G2 X262.1388 Y46.8801 J1.9018
G3 X260.3833 Y48.0504 I-1.7555 J-0.7314
G1 X205.4118
G3 X204.4485 Y47.0872 J-0.9633
G1 X204.4478 Y26.7253
G3 X205.411 Y25.7621 I0.9632
G1 X267.1873
G3 X268.1506 Y26.7253 J0.9632
G1 X268.1505 Y47.0872
G3 X267.1873 Y48.0504 I-0.9632
G1 X260.3833
G2 X258.6278 Y49.2207 J1.9018
G3 X256.8723 Y50.3911 I-1.7555 J-0.7314
G1 X203.0713
G3 X202.108 Y49.4278 J-0.9633
G1 X202.107 Y24.3847
G3 X203.0702 Y23.4214 I0.9632
G1 X269.528
G3 X270.4912 Y24.3847 J0.9632
G1 X270.4911 Y49.4278
G3 X269.5279 Y50.3911 I-0.9633
G1 X256.8723
G2 X255.1168 Y51.5614 J1.9018
G3 X253.3614 Y52.7317 I-1.7555 J-0.7314
G1 X200.7307
G3 X199.7674 Y51.7684 J-0.9633
G1 X199.7663 Y22.044
G3 X200.7295 Y21.0808 I0.9632
G1 X271.8686
G3 X272.8319 Y22.044 J0.9632
G1 X272.8318 Y51.7685
G3 X271.8685 Y52.7317 I-0.9633
G1 X253.3614
G2 X251.6059 Y53.902 J1.9018
G3 X249.8504 Y55.0723 I-1.7555 J-0.7314
G1 X198.3902
G3 X197.4269 Y54.1091 J-0.9633
G1 X197.4256 Y19.7034
G3 X198.3888 Y18.7402 I0.9632
G1 X274.2093
G3 X275.1725 Y19.7034 J0.9632
G1 X275.1724 Y54.1091
G3 X274.2092 Y55.0723 I-0.9632
G1 X249.8504
G2 X248.0949 Y56.2427 J1.9018
G3 X246.3395 Y57.413 I-1.7555 J-0.7314
G1 X196.0496
G3 X195.0863 Y56.4497 J-0.9633
G1 X195.0849 Y17.3628
G3 X196.0481 Y16.3995 I0.9632
G1 X276.5499
G3 X277.5132 Y17.3628 J0.9632
G1 X277.513 Y56.4497
G3 X276.5498 Y57.413 I-0.9633
G1 X246.3395
G2 X244.584 Y58.5833 J1.9018
G3 X242.8285 Y59.7536 I-1.7555 J-0.7314
G1 X193.7091
G3 X192.7458 Y58.7904 J-0.9633
G1 X192.7442 Y15.0221
G3 X193.7074 Y14.0589 I0.9632
G1 X278.8906
G3 X279.8538 Y15.0221 J0.9632
G1 X279.8537 Y58.7904
G3 X278.8904 Y59.7536 I-0.9633
G1 X242.8285
G2 X241.073 Y60.9239 J1.9018
G3 X239.3176 Y62.0942 I-1.7555 J-0.7314
G1 X191.3685
G3 X190.4052 Y61.131 J-0.9633
G1 X190.4034 Y12.6815
G3 X191.3666 Y11.7183 I0.9632
G1 X281.2312
G3 X282.1945 Y12.6815 J0.9632
G1 X282.1943 Y61.131
G3 X281.231 Y62.0942 I-0.9632
G1 X239.3176
G2 X237.5621 Y63.2646 J1.9018
G3 X235.8066 Y64.4349 I-1.7555 J-0.7314
G1 X189.028
G3 X188.0647 Y63.4716 J-0.9633
G1 X188.0627 Y10.3409
G3 X189.0259 Y9.3776 I0.9632
G1 X283.5718
G3 X284.5351 Y10.3409 J0.9632
G1 X284.5349 Y63.4716
G3 X283.5717 Y64.4349 I-0.9633
G1 X235.8066
G2 X234.0511 Y65.6052 J1.9018
G3 X232.2956 Y66.7755 I-1.7555 J-0.7314
G1 X186.6874
G3 X185.7242 Y65.8123 J-0.9633
G1 X185.722 Y8.0002
G3 X186.6852 Y7.037 I0.9632
G1 X285.9125
G3 X286.8757 Y8.0002 J0.9632
G1 X286.8755 Y65.8123
G3 X285.9123 Y66.7755 I-0.9633
G1 X232.2956
G2 X230.5402 Y67.9458 J1.9018
G3 X228.7847 Y69.1161 I-1.7555 J-0.7315
G1 X184.3469
G3 X183.3836 Y68.1529 J-0.9633
G1 X183.3813 Y5.6596
G3 X184.3445 Y4.6964 I0.9632
G1 X288.2531
G3 X289.2164 Y5.6596 J0.9632
G1 X289.2162 Y68.1529
G3 X288.2529 Y69.1161 I-0.9632
G1 X228.7847
G2 X227.0292 Y70.2865 J1.9018
G3 X225.2737 Y71.4568 I-1.7555 J-0.7315
G1 X182.0063
G3 X181.0431 Y70.4935 J-0.9633
G1 X181.0405 Y3.3189
G3 X182.0037 Y2.3557 I0.9632
G1 X290.5938
G3 X291.557 Y3.319 J0.9632
G1 X291.5568 Y70.4935
G3 X290.5936 Y71.4568 I-0.9632
G1 X225.2737
G2 X223.507 Y72.6346 J1.914
G3 X221.7402 Y73.8125 I-1.7668 J-0.7362
G1 X178.6875
X178.6847 Y0
X293.9128
X293.9125 Y73.8125
X221.7402
X221.6913 Y73.8087 Z-13.3922
X221.6436 Y73.7975 Z-13.3845
X221.6025 Y73.7811 Z-13.3619
X221.5641 Y73.7592 Z-13.3394
X221.5104 Y73.7141 Z-13.2691
X221.4817 Y73.6794 Z-13.1806
X221.473 Y73.6665 Z-13.0825
G0 Z5
X316.4361 Y9.5572
Z-3
G1 Z-7.6825 F1200
X316.4512 Y9.561 Z-7.7806
X316.4936 Y9.5761 Z-7.8691
X316.5543 Y9.6112 Z-7.9394
X316.588 Y9.6398 Z-7.9619
X316.6174 Y9.6729 Z-7.9845
X316.6443 Y9.7139 Z-7.9922
X316.6645 Y9.7585 Z-8
X316.6884 Y9.8243 F3500
X316.6976 Y9.8649
X316.709 Y9.9806
X316.7037 Y10.091
X316.6893 Y10.1703
X316.6619 Y10.2561
X316.6201 Y10.3452
X316.5735 Y10.4184
X316.5057 Y10.4976
X316.4248 Y10.5686
X316.3476 Y10.6192
X316.2674 Y10.6586
X316.2108 Y10.6787
X316.1216 Y10.6998
X316.0404 Y10.709
X315.9436 Y10.7084
X315.8849 Y10.701
X315.7629 Y10.6703
X315.7281 Y10.6576
X315.6899 Y10.6397
X315.5863 Y10.5772
X315.5343 Y10.5359
X315.44 Y10.4375
X315.4235 Y10.4157
X315.3646 Y10.3167
X315.3268 Y10.2284
X315.3194 Y10.2052
X315.2957 Y10.0846
X315.2909 Y9.9808
X315.3009 Y9.8782
X315.3316 Y9.7574
X315.3387 Y9.7387
X315.402 Y9.6149
X315.4075 Y9.6065
X315.4659 Y9.5321
X315.5433 Y9.4549
X315.5781 Y9.4272
X315.621 Y9.3981
X315.6673 Y9.3718
X315.7546 Y9.3332
X315.822 Y9.3127
X315.9358 Y9.2937
X316.0384 Y9.2918
X316.1615 Y9.3077
X316.1856 Y9.3136
X316.271 Y9.3432
X316.3476 Y9.3808
X316.4302 Y9.435
X316.4871 Y9.4837
X316.5725 Y9.5792
X316.5923 Y9.6076
X316.6447 Y9.7039
X316.6645 Y9.7585
X316.6776 Y9.8057 Z-7.9922
X316.6833 Y9.8544 Z-7.9845
X316.682 Y9.8986 Z-7.9619
X316.6745 Y9.9422 Z-7.9394
X316.6505 Y10.008 Z-7.8691
X316.6276 Y10.0469 Z-7.7806
X316.6185 Y10.0594 Z-7.6825
G0 Z5
X315.7798 Y10.581
Z-5
G1 Z-9.6825 F1200
X315.7645 Y10.5836 Z-9.7806
X315.7195 Y10.5869 Z-9.8691
X315.6498 Y10.5794 Z-9.9394
X315.6075 Y10.5668 Z-9.9619
X315.5672 Y10.5485 Z-9.9845
X315.5261 Y10.5218 Z-9.9922
X315.4895 Y10.4892 Z-10
X315.44 Y10.4375 F3500
X315.4235 Y10.4157
X315.3646 Y10.3167
X315.3268 Y10.2284
X315.3194 Y10.2052
X315.2957 Y10.0846
X315.2909 Y9.9808
X315.3009 Y9.8782
X315.3316 Y9.7574
X315.3387 Y9.7387
X315.402 Y9.6149
X315.4075 Y9.6065
X315.4659 Y9.5321
X315.5433 Y9.4549
X315.5781 Y9.4272
X315.621 Y9.3981
X315.6673 Y9.3718
X315.7546 Y9.3332
X315.822 Y9.3127
X315.9358 Y9.2937
X316.0384 Y9.2918
X316.1615 Y9.3077
X316.1856 Y9.3136
X316.271 Y9.3432
X316.3476 Y9.3808
X316.4302 Y9.435
X316.4871 Y9.4837
X316.5725 Y9.5792
X316.5923 Y9.6076
X316.6447 Y9.7039
X316.6884 Y9.8243
X316.6976 Y9.8649
X316.709 Y9.9806
X316.7037 Y10.091
X316.6893 Y10.1703
X316.6619 Y10.2561
X316.6201 Y10.3452
X316.5735 Y10.4184
X316.5057 Y10.4976
X316.4248 Y10.5686
X316.3476 Y10.6192
X316.2674 Y10.6586
X316.2108 Y10.6787
X316.1216 Y10.6998
X316.0404 Y10.709
X315.9436 Y10.7084
X315.8849 Y10.701
X315.7629 Y10.6703
X315.7281 Y10.6576
X315.6899 Y10.6397
X315.5863 Y10.5772
X315.5343 Y10.5359
X315.4895 Y10.4892
X315.4584 Y10.4513 Z-9.9922
X315.4336 Y10.4091 Z-9.9845
X315.4169 Y10.3681 Z-9.9619
X315.4062 Y10.3252 Z-9.9394
X315.4016 Y10.2553 Z-9.8691
X315.4067 Y10.2105 Z-9.7806
X315.41 Y10.1953 Z-9.6825
G0 Z5
X316.4361 Y9.5572
Z-7
G1 Z-11.6825 F1200
X316.4512 Y9.561 Z-11.7806
X316.4936 Y9.5761 Z-11.8691
X316.5543 Y9.6112 Z-11.9394
X316.588 Y9.6398 Z-11.9619
X316.6174 Y9.6729 Z-11.9845
X316.6443 Y9.7139 Z-11.9922
X316.6645 Y9.7585 Z-12
X316.6884 Y9.8243 F3500
X316.6976 Y9.8649
X316.709 Y9.9806
X316.7037 Y10.091
X316.6893 Y10.1703
X316.6619 Y10.2561
X316.6201 Y10.3452
X316.5735 Y10.4184
X316.5057 Y10.4976
X316.4248 Y10.5686
X316.3476 Y10.6192
X316.2674 Y10.6586
X316.2108 Y10.6787
X316.1216 Y10.6998
X316.0404 Y10.709
X315.9436 Y10.7084
X315.8849 Y10.701
X315.7629 Y10.6703
X315.7281 Y10.6576
X315.6899 Y10.6397
X315.5863 Y10.5772
X315.5343 Y10.5359
X315.44 Y10.4375
X315.4235 Y10.4157
X315.3646 Y10.3167
X315.3268 Y10.2284
X315.3194 Y10.2052
X315.2957 Y10.0846
X315.2909 Y9.9808
X315.3009 Y9.8782
X315.3316 Y9.7574
X315.3387 Y9.7387
X315.402 Y9.6149
X315.4075 Y9.6065
X315.4659 Y9.5321
X315.5433 Y9.4549
X315.5781 Y9.4272
X315.621 Y9.3981
X315.6673 Y9.3718
X315.7546 Y9.3332
X315.822 Y9.3127
X315.9358 Y9.2937
X316.0384 Y9.2918
X316.1615 Y9.3077
X316.1856 Y9.3136
X316.271 Y9.3432
X316.3476 Y9.3808
X316.4302 Y9.435
X316.4871 Y9.4837
X316.5725 Y9.5792
X316.5923 Y9.6076
X316.6447 Y9.7039
X316.6645 Y9.7585
X316.6776 Y9.8057 Z-11.9922
X316.6833 Y9.8544 Z-11.9845
X316.682 Y9.8986 Z-11.9619
X316.6745 Y9.9422 Z-11.9394
X316.6505 Y10.008 Z-11.8691
X316.6276 Y10.0469 Z-11.7806
X316.6185 Y10.0594 Z-11.6825
G0 Z5
X315.7798 Y10.581
Z-3
G1 Z-9 F1200
Z-13.0825
X315.7645 Y10.5836 Z-13.1806
X315.7195 Y10.5869 Z-13.2691
X315.6498 Y10.5794 Z-13.3394
X315.6075 Y10.5668 Z-13.3619
X315.5672 Y10.5485 Z-13.3845
X315.5261 Y10.5218 Z-13.3922
X315.4895 Y10.4892 Z-13.4
X315.44 Y10.4375 F3500
X315.4235 Y10.4157
X315.3646 Y10.3167
X315.3268 Y10.2284
X315.3194 Y10.2052
X315.2957 Y10.0846
X315.2909 Y9.9808
X315.3009 Y9.8782
X315.3316 Y9.7574
X315.3387 Y9.7387
X315.402 Y9.6149
X315.4075 Y9.6065
X315.4659 Y9.5321
X315.5433 Y9.4549
X315.5781 Y9.4272
X315.621 Y9.3981
X315.6673 Y9.3718
X315.7546 Y9.3332
X315.822 Y9.3127
X315.9358 Y9.2937
X316.0384 Y9.2918
X316.1615 Y9.3077
X316.1856 Y9.3136
X316.271 Y9.3432
X316.3476 Y9.3808
X316.4302 Y9.435
X316.4871 Y9.4837
X316.5725 Y9.5792
X316.5923 Y9.6076
X316.6447 Y9.7039
X316.6884 Y9.8243
X316.6976 Y9.8649
X316.709 Y9.9806
X316.7037 Y10.091
X316.6893 Y10.1703
X316.6619 Y10.2561
X316.6201 Y10.3452
X316.5735 Y10.4184
X316.5057 Y10.4976
X316.4248 Y10.5686
X316.3476 Y10.6192
X316.2674 Y10.6586
X316.2108 Y10.6787
X316.1216 Y10.6998
X316.0404 Y10.709
X315.9436 Y10.7084
X315.8849 Y10.701
X315.7629 Y10.6703
X315.7281 Y10.6576
X315.6899 Y10.6397
X315.5863 Y10.5772
X315.5343 Y10.5359
X315.4895 Y10.4892
X315.4584 Y10.4513 Z-13.3922
X315.4336 Y10.4091 Z-13.3845
X315.4169 Y10.3681 Z-13.3619
X315.4062 Y10.3252 Z-13.3394
X315.4016 Y10.2553 Z-13.2691
X315.4067 Y10.2105 Z-13.1806
X315.41 Y10.1953 Z-13.0825
G0 Z5
X335.7442 Y45.566
Z-3
G1 Z-7.6825 F1200
X335.7288 Y45.5676 Z-7.7806
X335.6837 Y45.5681 Z-7.8691
X335.6147 Y45.5562 Z-7.9394
X335.5731 Y45.541 Z-7.9619
X335.5341 Y45.5202 Z-7.9845
X335.4947 Y45.491 Z-7.9922
X335.4603 Y45.4562 Z-8
X335.4122 Y45.3992 F3500
X335.3867 Y45.3601
X335.3687 Y45.3264
X335.3206 Y45.2041
X335.2977 Y45.1029
X335.2904 Y45
X335.2977 Y44.8971
X335.3206 Y44.7959
X335.3643 Y44.6845
X335.4141 Y44.5965
X335.4672 Y44.53
X335.5302 Y44.4666
X335.5699 Y44.4342
X335.6527 Y44.3809
X335.7473 Y44.3367
X335.8329 Y44.3105
X335.9416 Y44.2931
X336.0441 Y44.292
X336.1568 Y44.3075
X336.2269 Y44.3267
X336.3077 Y44.3589
X336.3293 Y44.3698
X336.4369 Y44.4403
X336.4903 Y44.4862
X336.552 Y44.5534
X336.6039 Y44.6272
X336.6523 Y44.7193
X336.6768 Y44.7853
X336.7017 Y44.8971
X336.7094 Y45
X336.7017 Y45.1029
X336.6768 Y45.2147
X336.6523 Y45.2807
X336.6039 Y45.3728
X336.552 Y45.4466
X336.4903 Y45.5138
X336.4369 Y45.5597
X336.3446 Y45.6201
X336.235 Y45.671
X336.218 Y45.6768
X336.0959 Y45.7028
X335.9928 Y45.7092
X335.8873 Y45.7003
X335.7905 Y45.6779
X335.6947 Y45.6411
X335.6332 Y45.6082
X335.5462 Y45.5466
X335.5057 Y45.5099
X335.4603 Y45.4562
X335.4316 Y45.4164 Z-7.9922
X335.4095 Y45.3727 Z-7.9845
X335.3954 Y45.3308 Z-7.9619
X335.3873 Y45.2873 Z-7.9394
X335.3871 Y45.2172 Z-7.8691
X335.3951 Y45.1729 Z-7.7806
X335.3993 Y45.1579 Z-7.6825
G0 Z5
X335.7442 Y45.566
Z-5
G1 Z-9.6825 F1200
X335.7288 Y45.5676 Z-9.7806
X335.6837 Y45.5681 Z-9.8691
X335.6147 Y45.5562 Z-9.9394
X335.5731 Y45.541 Z-9.9619
X335.5341 Y45.5202 Z-9.9845
X335.4947 Y45.491 Z-9.9922
X335.4603 Y45.4562 Z-10
X335.4122 Y45.3992 F3500
X335.3867 Y45.3601
X335.3687 Y45.3264
X335.3206 Y45.2041
X335.2977 Y45.1029
X335.2904 Y45
X335.2977 Y44.8971
X335.3206 Y44.7959
X335.3643 Y44.6845
X335.4141 Y44.5965
X335.4672 Y44.53
X335.5302 Y44.4666
X335.5699 Y44.4342
X335.6527 Y44.3809
X335.7473 Y44.3367
X335.8329 Y44.3105
X335.9416 Y44.2931
X336.0441 Y44.292
X336.1568 Y44.3075
X336.2269 Y44.3267
X336.3077 Y44.3589
X336.3293 Y44.3698
X336.4369 Y44.4403
X336.4903 Y44.4862
X336.552 Y44.5534
X336.6039 Y44.6272
X336.6523 Y44.7193
X336.6768 Y44.7853
X336.7017 Y44.8971
X336.7094 Y45
X336.7017 Y45.1029
X336.6768 Y45.2147
X336.6523 Y45.2807
X336.6039 Y45.3728
X336.552 Y45.4466
X336.4903 Y45.5138
X336.4369 Y45.5597
X336.3446 Y45.6201
X336.235 Y45.671
X336.218 Y45.6768
X336.0959 Y45.7028
X335.9928 Y45.7092
X335.8873 Y45.7003
X335.7905 Y45.6779
X335.6947 Y45.6411
X335.6332 Y45.6082
X335.5462 Y45.5466
X335.5057 Y45.5099
X335.4603 Y45.4562
X335.4316 Y45.4164 Z-9.9922
X335.4095 Y45.3727 Z-9.9845
X335.3954 Y45.3308 Z-9.9619
X335.3873 Y45.2873 Z-9.9394
X335.3871 Y45.2172 Z-9.8691
X335.3951 Y45.1729 Z-9.7806
X335.3993 Y45.1579 Z-9.6825
G0 Z5
X335.7442 Y45.566
Z-7
G1 Z-11.6825 F1200
X335.7288 Y45.5676 Z-11.7806
X335.6837 Y45.5681 Z-11.8691
X335.6147 Y45.5562 Z-11.9394
X335.5731 Y45.541 Z-11.9619
X335.5341 Y45.5202 Z-11.9845
X335.4947 Y45.491 Z-11.9922
X335.4603 Y45.4562 Z-12
X335.4122 Y45.3992 F3500
X335.3867 Y45.3601
X335.3687 Y45.3264
X335.3206 Y45.2041
X335.2977 Y45.1029
X335.2904 Y45
X335.2977 Y44.8971
X335.3206 Y44.7959
X335.3643 Y44.6845
X335.4141 Y44.5965
X335.4672 Y44.53
X335.5302 Y44.4666
X335.5699 Y44.4342
X335.6527 Y44.3809
X335.7473 Y44.3367
X335.8329 Y44.3105
X335.9416 Y44.2931
X336.0441 Y44.292
X336.1568 Y44.3075
X336.2269 Y44.3267
X336.3077 Y44.3589
X336.3293 Y44.3698
X336.4369 Y44.4403
X336.4903 Y44.4862
X336.552 Y44.5534
X336.6039 Y44.6272
X336.6523 Y44.7193
X336.6768 Y44.7853
X336.7017 Y44.8971
X336.7094 Y45
X336.7017 Y45.1029
X336.6768 Y45.2147
X336.6523 Y45.2807
X336.6039 Y45.3728
X336.552 Y45.4466
X336.4903 Y45.5138
X336.4369 Y45.5597
X336.3446 Y45.6201
X336.235 Y45.671
X336.218 Y45.6768
X336.0959 Y45.7028
X335.9928 Y45.7092
X335.8873 Y45.7003
X335.7905 Y45.6779
X335.6947 Y45.6411
X335.6332 Y45.6082
X335.5462 Y45.5466
X335.5057 Y45.5099
X335.4603 Y45.4562
X335.4316 Y45.4164 Z-11.9922
X335.4095 Y45.3727 Z-11.9845
X335.3954 Y45.3308 Z-11.9619
X335.3873 Y45.2873 Z-11.9394
X335.3871 Y45.2172 Z-11.8691
X335.3951 Y45.1729 Z-11.7806
X335.3993 Y45.1579 Z-11.6825
G0 Z5
X336.4899 Y44.6171
Z-3
G1 Z-9 F1200
Z-13.0825
X336.5044 Y44.6229 Z-13.1806
X336.5445 Y44.6433 Z-13.2691
X336.6002 Y44.686 Z-13.3394
X336.6299 Y44.7187 Z-13.3619
X336.6548 Y44.7553 Z-13.3845
X336.6761 Y44.7994 Z-13.3922
X336.6904 Y44.8463 Z-13.4
X336.7017 Y44.8971 F3500
X336.7094 Y45
X336.7017 Y45.1029
X336.6768 Y45.2147
X336.6523 Y45.2807
X336.6039 Y45.3728
X336.552 Y45.4466
X336.4903 Y45.5138
X336.4369 Y45.5597
X336.3446 Y45.6201
X336.235 Y45.671
X336.218 Y45.6768
X336.0959 Y45.7028
X335.9928 Y45.7092
X335.8873 Y45.7003
X335.7905 Y45.6779
X335.6947 Y45.6411
X335.6332 Y45.6082
X335.5462 Y45.5466
X335.5057 Y45.5099
X335.4122 Y45.3992
X335.3867 Y45.3601
X335.3687 Y45.3264
X335.3206 Y45.2041
X335.2977 Y45.1029
X335.2904 Y45
X335.2977 Y44.8971
X335.3206 Y44.7959
X335.3643 Y44.6845
X335.4141 Y44.5965
X335.4672 Y44.53
X335.5302 Y44.4666
X335.5699 Y44.4342
X335.6527 Y44.3809
X335.7473 Y44.3367
X335.8329 Y44.3105
X335.9416 Y44.2931
X336.0441 Y44.292
X336.1568 Y44.3075
X336.2269 Y44.3267
X336.3077 Y44.3589
X336.3293 Y44.3698
X336.4369 Y44.4403
X336.4903 Y44.4862
X336.552 Y44.5534
X336.6039 Y44.6272
X336.6523 Y44.7193
X336.6768 Y44.7853
X336.6904 Y44.8463
X336.6973 Y44.8948 Z-13.3922
X336.6967 Y44.9438 Z-13.3845
X336.6896 Y44.9874 Z-13.3619
X336.6766 Y45.0297 Z-13.3394
X336.6443 Y45.0919 Z-13.2691
X336.6166 Y45.1274 Z-13.1806
X336.6059 Y45.1387 Z-13.0825
G0 Z6

G53 Z5
M5
G4 P1.0
G53 X0 Y0
M30
%
