%
(Made in : Autodesk CAM Post Processor)
(G Code optimized for OpenBuilds OX CNC 1000 x 750 with GRBL V0.9j controller)

(Program Name : 1001)
(1 Operation :)
(1 : Adaptive1)
(  Tool : Flat End Mill 3 Flutes, Diam = 3.175mm, Len = 20mm)
(  Spindle : RPM = 30000, set router dial to 6)
(  Machining time : 13 min 33 sec)

G90 G94
G17
G21

(Operation 1 of 1 : Adaptive1)

G53 G0 Z5
G54
S30000 M3
G4 P1.0
X180.9025 Y-3.2888
Z6
Z5
Z-1.365
G1 Z-1.6825 F3500
X180.9082 Y-3.2833 Z-1.7531
X180.9252 Y-3.2671 Z-1.8203
X180.9525 Y-3.241 Z-1.8805
X180.9888 Y-3.2062 Z-1.9307
X181.0323 Y-3.1646 Z-1.9686
X181.0808 Y-3.1182 Z-1.992
X181.1319 Y-3.0694 Z-2
G3 X182.0546 Y-1.5868 I-2.4325 J2.5425
G1 X182.0706 Y-1.5293
X182.1028 Y-1.3956
X182.1098 Y-1.3587
X182.0103 Y-1.2465
X181.8973 Y-1.1478
X181.771 Y-1.0574
X181.609 Y-0.96
X181.4002 Y-0.8564
X181.127 Y-0.7471
X180.7579 Y-0.633
X180.2277 Y-0.5146
X179.4971 Y-0.4121
X178.7612 Y-0.3593
X178.0238 Y-0.3318
X177.2862 Y-0.3175
X176.5484 Y-0.31
X175.8106 Y-0.306
X174.335 Y-0.3028
X169.9081 Y-0.3017
X132.2795 Y-0.3016
X82.1081
X31.9366
X1.5018
X1.3196 Y-0.2725
X0.9807 Y-0.1269
X0.7024 Y0.1153
X0.2567 Y0.7033
X0.0012 Y1.3954
X-0.1397 Y2.1197
X-0.2157 Y2.8536
X-0.2562 Y3.5903
X-0.2777 Y4.3278
X-0.289 Y5.0655
X-0.295 Y5.8033
X-0.2981 Y6.5411
X-0.3007 Y8.0167
X-0.3016 Y13.9192
Y19.084
Y69.2554
Y88.4386
X-0.2963 Y88.6229
X-0.2455 Y88.8003
X-0.0597 Y89.119
X0.2031 Y89.3778
X0.8149 Y89.7903
X1.5144 Y90.025
X2.2408 Y90.1539
X2.9754 Y90.2233
X3.7123 Y90.2603
X4.4498 Y90.2798
X5.1876 Y90.2902
X5.9254 Y90.2956
X6.6632 Y90.2985
X8.1388 Y90.3008
X15.5169 Y90.3016
X23.5746
X23.797 Y90.3358
X23.9989 Y90.4351
X24.1616 Y90.5905
X24.2702 Y90.7875
G0 Z5
X181.4894 Y-2.3036
Z-1.365
G1 Z-1.6825 F3500
X181.4949 Y-2.2979 Z-1.7532
X181.5113 Y-2.2811 Z-1.8203
X181.5377 Y-2.254 Z-1.8805
X181.5728 Y-2.218 Z-1.9307
X181.6149 Y-2.1749 Z-1.9686
X181.6617 Y-2.1269 Z-1.992
X181.7111 Y-2.0763 Z-2
G3 X182.1028 Y-1.3956 I-1.1329 J1.1051
G1 X182.1915 Y-1.0263
X182.2045 Y-0.8768
X182.1428 Y-0.7401
X182.0665 Y-0.611
X181.9776 Y-0.4902
X181.876 Y-0.3732
X181.7459 Y-0.2456
X181.5777 Y-0.1054
X181.3936 Y0.0246
X181.1515 Y0.1679
X180.851 Y0.3145
X180.4941 Y0.4545
X180.0211 Y0.5973
X179.3684 Y0.7385
X178.6371 Y0.8361
X177.9014 Y0.8927
X177.1643 Y0.9253
X176.4268 Y0.9439
X175.689 Y0.9546
X174.9512 Y0.9606
X174.2134 Y0.964
X172.7378 Y0.967
X168.3109 Y0.9683
X132.8958 Y0.9684
X82.7243
X32.5529
X3.0403
X2.6817 Y1.0548
X2.3603 Y1.2359
X1.8115 Y1.7291
X1.4612 Y2.3785
X1.2505 Y3.0855
X1.1277 Y3.8131
X1.0575 Y4.5475
X1.018 Y5.2843
X0.9958 Y6.0218
X0.9835 Y6.7595
X0.9767 Y7.4973
X0.973 Y8.2351
X0.9697 Y9.7107
X0.9684 Y13.3998
Y20.7779
Y70.9494
Y86.8124
X1.0129 Y87.1786
X1.1579 Y87.5178
X1.3817 Y87.8111
X1.9329 Y88.3016
X2.604 Y88.6081
X3.3189 Y88.7905
X4.0491 Y88.8959
X4.7845 Y88.9559
X5.5215 Y88.9896
X6.2591 Y89.0084
X6.9969 Y89.0188
X7.7347 Y89.0246
X8.4725 Y89.0278
X9.9481 Y89.0305
X15.1128 Y89.0316
X22.4909
X22.916 Y89.0468
X23.2306 Y89.0834
X23.4732 Y89.1316
X23.5915 Y89.1652
X23.8002 Y89.2629
X23.9672 Y89.4217
X24.0753 Y89.6253
X24.1132 Y89.8526
X24.1237 Y90.0202
G3 X23.5626 Y90.2325 I-0.3174 J0.0088
G1 X23.5173 Y90.1782 Z-1.992
X23.4743 Y90.1267 Z-1.9686
X23.4357 Y90.0805 Z-1.9307
X23.4035 Y90.0419 Z-1.8805
X23.3793 Y90.0129 Z-1.8203
X23.3642 Y89.9948 Z-1.7532
X23.3591 Y89.9887 Z-1.6825
G0 Z5
X181.5797 Y-1.9353
Z-1.365
G1 Z-1.6825 F3500
X181.5852 Y-1.9296 Z-1.7532
X181.6016 Y-1.9128 Z-1.8203
X181.628 Y-1.8857 Z-1.8805
X181.663 Y-1.8496 Z-1.9307
X181.705 Y-1.8065 Z-1.9686
X181.7517 Y-1.7583 Z-1.992
X181.801 Y-1.7077 Z-2
G3 X182.1915 Y-1.0263 I-1.1348 J1.1031
G1 X182.2174 Y-0.8307
X182.257 Y-0.5233
X182.2647 Y-0.431
X182.2697 Y-0.2811
X182.2455 Y-0.1331
X182.2026 Y0.0107
X182.145 Y0.1492
X182.0733 Y0.2833
X181.9886 Y0.4151
X181.8753 Y0.5637
X181.744 Y0.7098
X181.5769 Y0.8682
X181.3764 Y1.0298
X181.1365 Y1.1932
X180.8273 Y1.3692
X180.4831 Y1.5301
X180.0287 Y1.6995
X179.4524 Y1.8631
X178.7288 Y2.007
X177.9964 Y2.0969
X177.2607 Y2.1526
X176.5237 Y2.1867
X175.7862 Y2.2075
X175.0485 Y2.2201
X174.3107 Y2.2276
X173.5729 Y2.2321
X172.8351 Y2.2347
X171.3595 Y2.2371
X166.1948 Y2.2384
X132.9931
X82.8216
X32.6502
X4.6132
X4.2462 Y2.2749
X3.9003 Y2.4033
X3.5939 Y2.6087
X3.0717 Y3.13
X2.7339 Y3.7859
X2.5275 Y4.4943
X2.4051 Y5.2219
X2.3338 Y5.9562
X2.2927 Y6.6929
X2.2691 Y7.4303
X2.2557 Y8.168
X2.2482 Y8.9058
X2.2439 Y9.6436
X2.2415 Y10.3814
X2.2393 Y11.857
X2.2384 Y18.4974
Y23.6621
Y73.8335
Y85.6385
X2.3439 Y85.992
X2.5303 Y86.3104
X3.0228 Y86.8598
X3.6665 Y87.2203
X4.3699 Y87.4433
X5.0955 Y87.5769
X5.8291 Y87.6553
X6.5655 Y87.7009
X7.3029 Y87.7271
X8.0405 Y87.742
X8.7783 Y87.7505
X9.5161 Y87.7554
X10.2539 Y87.7581
X11.7295 Y87.7605
X16.8942 Y87.7616
X21.3211
X22.0589 Y87.7677
X22.6315 Y87.8022
X23.0026 Y87.8547
X23.272 Y87.9152
X23.4979 Y87.9854
X23.6475 Y88.0454
X23.8369 Y88.1564
X23.9853 Y88.318
X24.08 Y88.516
X24.1125 Y88.733
X24.1129 Y89.7771
X24.1132 Y89.8526
G3 X23.5407 Y90.0318 I-0.3174 J-0.0097
G1 X23.4986 Y89.975 Z-1.992
X23.4587 Y89.921 Z-1.9686
X23.4229 Y89.8727 Z-1.9307
X23.393 Y89.8322 Z-1.8805
X23.3705 Y89.8018 Z-1.8203
X23.3565 Y89.783 Z-1.7532
X23.3518 Y89.7766 Z-1.6825
G0 Z5
X181.7972 Y-1.4221
Z-1.365
G1 Z-1.6825 F3500
X181.8018 Y-1.4157 Z-1.7532
X181.8155 Y-1.3965 Z-1.8203
X181.8374 Y-1.3657 Z-1.8805
X181.8666 Y-1.3248 Z-1.9307
X181.9016 Y-1.2758 Z-1.9686
X181.9406 Y-1.2212 Z-1.992
X181.9816 Y-1.1636 Z-2
G3 X182.2647 Y-0.431 I-1.2885 J0.9189
G1 X182.271 Y-0.3556
X182.2864 Y0.1474
Y0.575
X182.2789 Y0.7248
X182.252 Y0.8724
X182.2086 Y1.016
X182.1521 Y1.1549
X182.0763 Y1.303
X181.9858 Y1.4495
X181.8638 Y1.6156
X181.7252 Y1.7755
X181.5392 Y1.9582
X181.3335 Y2.1301
X181.0591 Y2.3243
X180.7572 Y2.5034
X180.3492 Y2.703
X179.9035 Y2.8784
X179.3083 Y3.0589
X178.5874 Y3.2156
X177.8569 Y3.3198
X177.1223 Y3.3882
X176.3858 Y3.4326
X175.6486 Y3.461
X174.911 Y3.479
X174.1732 Y3.4903
X173.4355 Y3.4974
X172.6977 Y3.5017
X171.9599 Y3.5044
X170.4842 Y3.5069
X166.0573 Y3.5083
X132.8557 Y3.5084
X82.6842
X32.5128
X5.9515
X5.585 Y3.5511
X5.2368 Y3.6729
X4.9261 Y3.8718
X4.3933 Y4.3822
X4.0429 Y5.0315
X3.8251 Y5.7364
X3.6939 Y6.4625
X3.6162 Y7.1962
X3.5707 Y7.9326
X3.5442 Y8.6699
X3.529 Y9.4076
X3.5202 Y10.1454
X3.5151 Y10.8832
X3.5122 Y11.621
X3.5096 Y13.0966
X3.5084 Y18.2613
Y26.3773
Y76.5487
Y83.9268
X3.527 Y84.2953
X3.6214 Y84.6519
X3.7981 Y84.9757
X4.2765 Y85.5374
X4.9122 Y85.9119
X5.6117 Y86.1465
X6.3357 Y86.2888
X7.0687 Y86.3734
X7.8048 Y86.4231
X8.5421 Y86.452
X9.2797 Y86.4688
X10.0174 Y86.4786
X10.7552 Y86.4841
X11.493 Y86.4874
X12.9687 Y86.4902
X17.3956 Y86.4916
X20.3468
X21.0846 Y86.4939
X21.8222 Y86.5111
X22.4533 Y86.5607
X22.8885 Y86.6304
X23.2323 Y86.7142
X23.4714 Y86.7933
X23.6986 Y86.8893
X23.7139 Y86.8972
X23.8782 Y87.0136
X24.005 Y87.17
X24.0851 Y87.3548
X24.1125 Y87.5543
Y88.733
G3 X23.5392 Y88.9097 I-0.3173 J-0.0111
G1 X23.4974 Y88.8528 Z-1.992
X23.4577 Y88.7987 Z-1.9686
X23.4221 Y88.7501 Z-1.9307
X23.3924 Y88.7096 Z-1.8805
X23.37 Y88.6791 Z-1.8203
X23.3561 Y88.6602 Z-1.7532
X23.3514 Y88.6537 Z-1.6825
G0 Z5
X181.9028 Y-0.4515
Z-1.365
G1 Z-1.6825 F3500
X181.9068 Y-0.4446 Z-1.7531
X181.9188 Y-0.4244 Z-1.8203
X181.9382 Y-0.3919 Z-1.8805
X181.9639 Y-0.3487 Z-1.9307
X181.9946 Y-0.297 Z-1.9686
X182.0289 Y-0.2393 Z-1.992
X182.065 Y-0.1786 Z-2
G3 X182.2864 Y0.575 I-1.3603 J0.8088
G1 Y1.6565
X182.2789 Y1.8063
X182.2503 Y1.9536
X182.2064 Y2.097
X182.1503 Y2.2361
X182.0717 Y2.3926
X181.9779 Y2.5471
X181.8515 Y2.722
X181.6999 Y2.8996
X181.5089 Y3.09
X181.2862 Y3.279
X181.0034 Y3.4823
X180.6768 Y3.6794
X180.2513 Y3.8916
X179.7776 Y4.0821
X179.1527 Y4.2767
X178.433 Y4.4389
X177.7037 Y4.5511
X176.9699 Y4.6279
X176.2339 Y4.6798
X175.4969 Y4.7145
X174.7595 Y4.7373
X174.0218 Y4.7523
X173.2841 Y4.7619
X172.5463 Y4.768
X171.8085 Y4.772
X170.3328 Y4.7759
X167.3816 Y4.778
X133.4421 Y4.7784
X83.2707
X33.0992
X7.2757
X6.9091 Y4.8193
X6.5591 Y4.9358
X6.2446 Y5.1287
X5.7019 Y5.6285
X5.3412 Y6.2722
X5.1149 Y6.9744
X4.9772 Y7.6993
X4.895 Y8.4325
X4.8464 Y9.1687
X4.818 Y9.906
X4.8013 Y10.6436
X4.7917 Y11.3814
X4.786 Y12.1192
X4.7828 Y12.857
X4.7798 Y14.3326
X4.7785 Y18.0217
X4.7784 Y28.3511
Y78.5225
Y82.9494
X4.8648 Y83.308
X5.0315 Y83.6372
X5.492 Y84.2136
X6.1186 Y84.6031
X6.8139 Y84.85
X7.5361 Y85.0011
X8.2683 Y85.0918
X9.0042 Y85.1456
X9.7413 Y85.1773
X10.4789 Y85.1959
X11.2166 Y85.2067
X11.9544 Y85.213
X12.6922 Y85.2166
X14.1678 Y85.22
X17.8569 Y85.2215
X19.3325 Y85.2216
X20.0703 Y85.2224
X20.8081 Y85.2289
X21.5456 Y85.2528
X22.2554 Y85.3094
X22.8015 Y85.3975
X23.1559 Y85.4843
X23.4503 Y85.582
X23.6648 Y85.673
X23.7146 Y85.699
X23.8786 Y85.8154
X24.0053 Y85.9717
X24.0852 Y86.1563
X24.1125 Y86.3556
Y87.5543
G3 X23.5392 Y87.731 I-0.3173 J-0.0111
G1 X23.4974 Y87.674 Z-1.992
X23.4577 Y87.6199 Z-1.9686
X23.4221 Y87.5714 Z-1.9307
X23.3924 Y87.5309 Z-1.8805
X23.37 Y87.5004 Z-1.8203
X23.3561 Y87.4814 Z-1.7532
X23.3514 Y87.475 Z-1.6825
G0 Z5
X181.9028 Y0.63
Z-1.365
G1 Z-1.6825 F3500
X181.9069 Y0.6369 Z-1.7531
X181.9189 Y0.657 Z-1.8203
X181.9382 Y0.6896 Z-1.8805
X181.9639 Y0.7328 Z-1.9307
X181.9946 Y0.7845 Z-1.9686
X182.0289 Y0.8422 Z-1.992
X182.065 Y0.9029 Z-2
G3 X182.2864 Y1.6565 I-1.3603 J0.8088
G1 Y2.7548
X182.2789 Y2.9046
X182.2518 Y3.0521
X182.2098 Y3.1961
X182.1546 Y3.3387
X182.0796 Y3.494
X181.9815 Y3.6613
X181.8604 Y3.8343
X181.7005 Y4.0277
X181.5169 Y4.2166
X181.2793 Y4.4247
X181.0073 Y4.6267
X180.6569 Y4.8457
X180.2491 Y5.057
X179.748 Y5.2676
X179.1134 Y5.4761
X178.3963 Y5.6495
X177.6689 Y5.7731
X176.9363 Y5.8604
X176.201 Y5.9214
X175.4644 Y5.9635
X174.7271 Y5.9921
X173.9895 Y6.0115
X173.2518 Y6.0244
X172.5141 Y6.0329
X171.7763 Y6.0385
X171.0385 Y6.0421
X169.5629 Y6.0459
X166.6116 Y6.048
X133.4099 Y6.0484
X83.2385
X33.0671
X8.7192
X8.3505 Y6.0631
X7.9912 Y6.1466
X7.6603 Y6.3096
X7.0781 Y6.7629
X6.683 Y7.386
X6.4316 Y8.0796
X6.2769 Y8.801
X6.1835 Y9.5329
X6.1279 Y10.2687
X6.095 Y11.0057
X6.0757 Y11.7433
X6.0643 Y12.481
X6.0576 Y13.2188
X6.0538 Y13.9566
X6.0502 Y15.4322
X6.0486 Y18.3835
X6.0484 Y30.9264
Y81.0978
Y81.4667
X6.0893 Y81.8333
X6.211 Y82.1816
X6.4069 Y82.4942
X6.9107 Y83.0332
X7.5556 Y83.3917
X8.2584 Y83.6161
X8.9835 Y83.7526
X9.7168 Y83.8344
X10.453 Y83.8829
X11.1903 Y83.9114
X11.9279 Y83.9281
X12.6656 Y83.938
X13.4034 Y83.9437
X14.1412 Y83.947
X15.6169 Y83.9501
X19.3059 Y83.9521
X20.0437 Y83.9558
X20.7814 Y83.9691
X21.5184 Y84.0035
X22.2428 Y84.0738
X22.813 Y84.1759
X23.1786 Y84.2721
X23.4752 Y84.3763
X23.6928 Y84.473
X23.7259 Y84.491
X23.8856 Y84.6081
X24.0086 Y84.7633
X24.086 Y84.9455
X24.1125 Y85.1417
Y86.3556
G3 X23.5392 Y86.5324 I-0.3173 J-0.0111
G1 X23.4974 Y86.4754 Z-1.992
X23.4577 Y86.4213 Z-1.9686
X23.4221 Y86.3728 Z-1.9307
X23.3924 Y86.3322 Z-1.8805
X23.37 Y86.3017 Z-1.8203
X23.3561 Y86.2828 Z-1.7532
X23.3514 Y86.2764 Z-1.6825
G0 Z5
X181.9028 Y1.7283
Z-1.365
G1 Z-1.6825 F3500
X181.9069 Y1.7351 Z-1.7531
X181.9189 Y1.7553 Z-1.8203
X181.9382 Y1.7878 Z-1.8805
X181.9639 Y1.831 Z-1.9307
X181.9947 Y1.8828 Z-1.9686
X182.029 Y1.9405 Z-1.992
X182.0651 Y2.0012 Z-2
G3 X182.2864 Y2.7548 I-1.3603 J0.8088
G1 Y3.8362
X182.2789 Y3.9861
X182.2584 Y4.1346
X182.2227 Y4.2803
X182.1729 Y4.425
X182.1075 Y4.5747
X182.0148 Y4.7477
X181.9057 Y4.917
X181.7561 Y5.1126
X181.5862 Y5.3012
X181.358 Y5.517
X181.1048 Y5.7204
X180.7605 Y5.9543
X180.3899 Y6.1646
X179.8958 Y6.3948
X179.296 Y6.6175
X178.586 Y6.818
X177.8627 Y6.9639
X177.1325 Y7.0693
X176.3986 Y7.1451
X175.6627 Y7.1989
X174.9259 Y7.2368
X174.1886 Y7.2633
X173.451 Y7.2815
X172.7132 Y7.2939
X171.9755 Y7.3022
X171.2377 Y7.3078
X170.4999 Y7.3115
X169.0243 Y7.3156
X166.073 Y7.3179
X133.6091 Y7.3184
X83.4377
X33.2663
X9.6562
X9.2955 Y7.3957
X8.9618 Y7.5529
X8.3733 Y7.998
X7.971 Y8.6164
X7.7137 Y9.308
X7.5549 Y10.0285
X7.4588 Y10.76
X7.4014 Y11.4956
X7.3673 Y12.2326
X7.3471 Y12.9702
X7.3352 Y13.7079
X7.3282 Y14.4457
X7.3241 Y15.1835
X7.3203 Y16.6591
X7.3186 Y19.6103
X7.3184 Y32.891
Y80.1112
X7.3514 Y80.4786
X7.4569 Y80.8321
X7.6393 Y81.1528
X8.1222 Y81.7106
X8.7579 Y82.0852
X9.4566 Y82.3221
X10.18 Y82.4674
X10.9126 Y82.5548
X11.6485 Y82.6069
X12.3857 Y82.6377
X13.1233 Y82.6559
X13.861 Y82.6666
X14.5988 Y82.6728
X15.3366 Y82.6765
X16.8123 Y82.6799
X18.2879 Y82.6812
X19.0257 Y82.6829
X19.7635 Y82.6888
X20.5011 Y82.7048
X21.2381 Y82.7401
X21.9729 Y82.8064
X22.5996 Y82.9034
X23.0615 Y83.0135
X23.3842 Y83.1184
X23.6198 Y83.2165
X23.7105 Y83.2631
X23.8761 Y83.3793
X24.0041 Y83.536
X24.0849 Y83.7215
X24.1125 Y83.9219
Y85.1417
G3 X23.5392 Y85.3184 I-0.3173 J-0.0111
G1 X23.4974 Y85.2615 Z-1.992
X23.4577 Y85.2074 Z-1.9686
X23.4221 Y85.1588 Z-1.9307
X23.3924 Y85.1183 Z-1.8805
X23.37 Y85.0878 Z-1.8203
X23.3561 Y85.0689 Z-1.7531
X23.3514 Y85.0624 Z-1.6825
G0 Z5
X181.9028 Y2.8098
Z-1.365
G1 Z-1.6825 F3500
X181.9069 Y2.8166 Z-1.7532
X181.9189 Y2.8368 Z-1.8203
X181.9382 Y2.8693 Z-1.8805
X181.9639 Y2.9125 Z-1.9307
X181.9947 Y2.9643 Z-1.9686
X182.029 Y3.022 Z-1.992
X182.0651 Y3.0827 Z-2
G3 X182.2864 Y3.8362 I-1.3603 J0.8088
G1 Y5.01
X182.2789 Y5.1598
X182.2569 Y5.3081
X182.2197 Y5.4535
X182.1703 Y5.5951
X182.097 Y5.7606
X182.0074 Y5.9259
X181.8858 Y6.1127
X181.7412 Y6.3
X181.5531 Y6.5069
X181.3277 Y6.7179
X181.0433 Y6.9443
X180.7094 Y7.1688
X180.2724 Y7.4141
X179.7963 Y7.6332
X179.1736 Y7.8611
X178.4626 Y8.0583
X177.7395 Y8.205
X177.0097 Y8.3136
X176.2762 Y8.3932
X175.5407 Y8.451
X174.804 Y8.4926
X174.0668 Y8.5223
X173.3293 Y8.5431
X172.5916 Y8.5577
X171.8539 Y8.5677
X171.1161 Y8.5746
X170.3783 Y8.5793
X169.6405 Y8.5824
X168.1649 Y8.5858
X165.2136 Y8.588
X133.4875 Y8.5884
X83.3161
X33.1447
X11.0102
X10.6458 Y8.6454
X10.3042 Y8.7849
X10.0003 Y8.994
X9.4761 Y9.5131
X9.1311 Y10.1654
X8.915 Y10.8708
X8.783 Y11.5967
X8.7037 Y12.3303
X8.6565 Y13.0666
X8.6285 Y13.8038
X8.6119 Y14.5415
X8.6022 Y15.2792
X8.5965 Y16.017
X8.5931 Y16.7548
X8.59 Y18.2305
X8.5885 Y21.9195
X8.5884 Y35.938
Y78.7313
X8.605 Y79.0998
X8.6887 Y79.4591
X8.8515 Y79.7902
X9.3042 Y80.3727
X9.9264 Y80.7693
X10.6195 Y81.0224
X11.3405 Y81.1786
X12.0723 Y81.2731
X12.8079 Y81.3297
X13.545 Y81.3633
X14.2825 Y81.3832
X15.0202 Y81.3949
X15.758 Y81.4018
X16.4958 Y81.4059
X17.9715 Y81.4102
X18.7093 Y81.4134
X19.447 Y81.421
X20.1846 Y81.4382
X20.9217 Y81.4721
X21.6571 Y81.5317
X22.3883 Y81.63
X22.9197 Y81.7438
X23.2785 Y81.8513
X23.5462 Y81.9557
X23.6952 Y82.028
X23.8666 Y82.1432
X23.9996 Y82.3013
X24.0837 Y82.4899
X24.1125 Y82.6945
Y83.9219
G3 X23.5392 Y84.0987 I-0.3173 J-0.0111
G1 X23.4974 Y84.0417 Z-1.992
X23.4577 Y83.9876 Z-1.9686
X23.4221 Y83.9391 Z-1.9307
X23.3924 Y83.8985 Z-1.8805
X23.37 Y83.868 Z-1.8203
X23.3561 Y83.8491 Z-1.7532
X23.3514 Y83.8427 Z-1.6825
G0 Z5
X181.9028 Y3.9835
Z-1.365
G1 Z-1.6825 F3500
X181.9069 Y3.9903 Z-1.7532
X181.9189 Y4.0105 Z-1.8203
X181.9382 Y4.043 Z-1.8805
X181.9639 Y4.0862 Z-1.9307
X181.9947 Y4.138 Z-1.9686
X182.029 Y4.1957 Z-1.992
X182.0651 Y4.2564 Z-2
G3 X182.2864 Y5.01 I-1.3603 J0.8088
G1 X182.2865 Y6.1837
X182.279 Y6.3335
X182.2571 Y6.4819
X182.2201 Y6.6272
X182.1706 Y6.7708
X182.0995 Y6.9333
X182.0069 Y7.1057
X181.8888 Y7.2887
X181.7323 Y7.4931
X181.5497 Y7.6954
X181.3134 Y7.9186
X181.0383 Y8.1393
X180.6868 Y8.3777
X180.2667 Y8.6157
X179.764 Y8.8495
X179.1238 Y9.0867
X178.4137 Y9.2867
X177.6915 Y9.4379
X176.9625 Y9.5516
X176.2296 Y9.6365
X175.4944 Y9.6993
X174.7581 Y9.7454
X174.021 Y9.7789
X173.2836 Y9.8029
X172.546 Y9.82
X171.8082 Y9.8321
X171.0705 Y9.8405
X170.3327 Y9.8463
X169.5949 Y9.8503
X168.1193 Y9.8548
X165.9058 Y9.8574
X157.052 Y9.8584
X133.442
X83.2705
X33.0991
X12.4403
X12.0729 Y9.8922
X11.7196 Y9.9981
X11.3986 Y10.1801
X10.8391 Y10.661
X10.4627 Y11.2956
X10.224 Y11.9937
X10.0771 Y12.7168
X9.9884 Y13.4492
X9.9353 Y14.1851
X9.9038 Y14.9223
X9.8852 Y15.6599
X9.8741 Y16.3976
X9.8676 Y17.1354
X9.8638 Y17.8732
X9.8603 Y19.3488
X9.8586 Y22.3001
X9.8584 Y38.532
Y77.6362
X9.9023 Y78.0025
X10.0237 Y78.3509
X10.2182 Y78.6643
X10.7193 Y79.2059
X11.3621 Y79.5681
X12.0638 Y79.796
X12.7883 Y79.9354
X13.5213 Y80.0193
X14.2575 Y80.0694
X14.9947 Y80.099
X15.7323 Y80.1166
X16.47 Y80.1269
X17.2078 Y80.1333
X17.9456 Y80.1383
X18.6834 Y80.1447
X19.4211 Y80.1564
X20.1586 Y80.1786
X20.8954 Y80.2181
X21.6303 Y80.2834
X22.361 Y80.3852
X22.9168 Y80.5072
X23.2876 Y80.6205
X23.5493 Y80.724
X23.6987 Y80.7975
X23.8688 Y80.913
X24.0006 Y81.0707
X24.084 Y81.2587
X24.1125 Y81.4623
Y82.6945
G3 X23.5392 Y82.8712 I-0.3173 J-0.0111
G1 X23.4974 Y82.8142 Z-1.992
X23.4577 Y82.7601 Z-1.9686
X23.4221 Y82.7116 Z-1.9307
X23.3924 Y82.6711 Z-1.8805
X23.37 Y82.6406 Z-1.8203
X23.3561 Y82.6216 Z-1.7532
X23.3514 Y82.6152 Z-1.6825
G0 Z5
X181.9029 Y5.1572
Z-1.365
G1 Z-1.6825 F3500
X181.9069 Y5.164 Z-1.7531
X181.9189 Y5.1842 Z-1.8203
X181.9383 Y5.2167 Z-1.8805
X181.964 Y5.2599 Z-1.9307
X181.9947 Y5.3117 Z-1.9686
X182.029 Y5.3694 Z-1.992
X182.0651 Y5.4301 Z-2
G3 X182.2865 Y6.1837 I-1.3603 J0.8088
G1 Y7.3574
X182.279 Y7.5072
X182.2587 Y7.6558
X182.2233 Y7.8016
X182.175 Y7.9463
X182.1065 Y8.1073
X182.0135 Y8.2844
X181.8991 Y8.4657
X181.744 Y8.6723
X181.5665 Y8.8732
X181.3272 Y9.1035
X181.0598 Y9.3225
X180.7009 Y9.5711
X180.2938 Y9.8071
X179.7821 Y10.0512
X179.1396 Y10.2965
X178.4314 Y10.5035
X177.7108 Y10.662
X176.983 Y10.7828
X176.2509 Y10.8744
X175.5163 Y10.9433
X174.7802 Y10.9947
X174.0434 Y11.0326
X173.3061 Y11.0604
X172.5686 Y11.0806
X171.8309 Y11.095
X171.0932 Y11.1053
X170.3554 Y11.1125
X169.6176 Y11.1175
X168.8798 Y11.121
X167.4041 Y11.1251
X165.1907 Y11.1274
X155.5991 Y11.1284
X133.4646
X83.2932
X33.1218
X13.9386
X13.5697 Y11.1312
X13.2053 Y11.1883
X12.8627 Y11.3253
X12.5567 Y11.5313
X12.0306 Y12.0486
X11.681 Y12.6983
X11.461 Y13.4026
X11.3267 Y14.1281
X11.246 Y14.8615
X11.1979 Y15.5977
X11.1694 Y16.335
X11.1525 Y17.0726
X11.1426 Y17.8104
X11.1367 Y18.5481
X11.1333 Y19.286
X11.1301 Y20.7616
X11.1285 Y24.4507
X11.1284 Y40.6826
Y76.0977
X11.1319 Y76.4666
X11.1958 Y76.8299
X11.34 Y77.1695
X11.5516 Y77.4717
X12.0772 Y77.9894
X12.7306 Y78.3321
X13.4364 Y78.5472
X14.1625 Y78.6784
X14.8961 Y78.7572
X15.6324 Y78.8041
X16.3697 Y78.832
X17.1073 Y78.8492
X18.5827 Y78.8729
X19.3204 Y78.8893
X20.0577 Y78.9157
X20.7943 Y78.9588
X21.529 Y79.0258
X22.2598 Y79.1272
X22.8381 Y79.2482
X23.2323 Y79.3643
X23.5173 Y79.4738
X23.6921 Y79.5577
X23.8647 Y79.6727
X23.9986 Y79.831
X24.0835 Y80.0203
X24.1125 Y80.2256
Y81.4623
G3 X23.5392 Y81.639 I-0.3173 J-0.0111
G1 X23.4974 Y81.582 Z-1.992
X23.4577 Y81.5279 Z-1.9686
X23.4221 Y81.4794 Z-1.9307
X23.3924 Y81.4389 Z-1.8805
X23.37 Y81.4084 Z-1.8203
X23.3561 Y81.3894 Z-1.7532
X23.3514 Y81.383 Z-1.6825
G0 Z5
X181.9029 Y6.3309
Z-1.365
G1 Z-1.6825 F3500
X181.9069 Y6.3378 Z-1.7531
X181.9189 Y6.3579 Z-1.8203
X181.9383 Y6.3904 Z-1.8805
X181.964 Y6.4337 Z-1.9307
X181.9947 Y6.4854 Z-1.9686
X182.029 Y6.5431 Z-1.992
X182.0651 Y6.6038 Z-2
G3 X182.2865 Y7.3574 I-1.3603 J0.8088
G1 Y8.5311
X182.2781 Y8.6986
X182.2586 Y8.8473
X182.224 Y8.9933
X182.1771 Y9.1363
X182.1087 Y9.2993
X182.0172 Y9.4762
X181.9025 Y9.6602
X181.7502 Y9.8656
X181.5716 Y10.0698
X181.3337 Y10.3014
X181.0637 Y10.5251
X180.7052 Y10.7764
X180.2917 Y11.0192
X179.7792 Y11.2672
X179.1315 Y11.5187
X178.4245 Y11.7296
X177.705 Y11.8928
X176.978 Y12.0187
X176.2466 Y12.1154
X175.5124 Y12.1892
X174.7767 Y12.245
X174.0401 Y12.2869
X173.3029 Y12.318
X172.5655 Y12.3409
X171.8279 Y12.3576
X171.0901 Y12.3697
X170.3524 Y12.3784
X169.6146 Y12.3845
X168.8768 Y12.3888
X167.4012 Y12.394
X165.1877 Y12.397
X159.2852 Y12.3983
X133.4617 Y12.3984
X83.2903
X33.1188
X14.6734 Y12.3987
X14.3178 Y12.4966
X13.9918 Y12.6693
X13.4189 Y13.1343
X13.0302 Y13.7614
X12.782 Y14.4562
X12.6287 Y15.1779
X12.5357 Y15.9099
X12.4799 Y16.6456
X12.4466 Y17.3826
X12.4269 Y18.1202
X12.4152 Y18.8579
X12.4083 Y19.5957
X12.4042 Y20.3335
X12.4004 Y21.8091
X12.3986 Y24.7604
X12.3984 Y43.2057
Y74.9318
X12.4174 Y75.3002
X12.5063 Y75.6583
X12.6724 Y75.9876
X13.1282 Y76.5678
X13.7519 Y76.9619
X14.4456 Y77.2134
X15.1668 Y77.3688
X15.8986 Y77.4632
X16.6342 Y77.5205
X17.3711 Y77.5564
X18.1085 Y77.5819
X18.8459 Y77.6051
X19.5832 Y77.6328
X20.32 Y77.6716
X21.0557 Y77.728
X21.789 Y77.8094
X22.5168 Y77.9305
X23.0167 Y78.055
X23.3761 Y78.1758
X23.617 Y78.2791
X23.7171 Y78.3318
X23.8802 Y78.4484
X24.006 Y78.6045
X24.0854 Y78.7886
X24.1125 Y78.9872
Y80.2256
G3 X23.5392 Y80.4024 I-0.3173 J-0.0111
G1 X23.4974 Y80.3454 Z-1.992
X23.4577 Y80.2913 Z-1.9686
X23.4221 Y80.2428 Z-1.9307
X23.3924 Y80.2022 Z-1.8805
X23.37 Y80.1717 Z-1.8203
X23.3561 Y80.1528 Z-1.7532
X23.3514 Y80.1464 Z-1.6825
G0 Z5
X181.9029 Y7.5046
Z-1.365
G1 Z-1.6825 F3500
X181.907 Y7.5115 Z-1.7532
X181.919 Y7.5316 Z-1.8203
X181.9383 Y7.5642 Z-1.8805
X181.964 Y7.6074 Z-1.9307
X181.9948 Y7.6591 Z-1.9686
X182.0291 Y7.7168 Z-1.992
X182.0652 Y7.7775 Z-2
G3 X182.2865 Y8.5311 I-1.3603 J0.8088
G1 Y9.797
X182.279 Y9.9468
X182.2542 Y10.0948
X182.2153 Y10.2403
X182.1626 Y10.3883
X182.0844 Y10.5623
X181.988 Y10.7379
X181.8583 Y10.9345
X181.6989 Y11.1385
X181.4973 Y11.3577
X181.2506 Y11.5861
X180.9425 Y11.8285
X180.5728 Y12.074
X180.0951 Y12.3385
X179.5537 Y12.5839
X178.8594 Y12.8336
X178.1476 Y13.0278
X177.4255 Y13.1794
X176.6972 Y13.2974
X175.9651 Y13.389
X175.2307 Y13.4595
X174.4948 Y13.5135
X173.7581 Y13.5545
X173.021 Y13.5853
X172.2835 Y13.6083
X171.5459 Y13.6253
X170.8082 Y13.6377
X170.0704 Y13.6467
X169.3326 Y13.6532
X168.5948 Y13.6578
X167.1192 Y13.6633
X164.9058 Y13.6668
X159.7411 Y13.6683
X133.1797 Y13.6684
X83.0083
X32.8369
X15.8671
X15.5152 Y13.7791
X15.1966 Y13.965
X14.6433 Y14.4531
X14.27 Y15.0895
X14.0327 Y15.7881
X13.8867 Y16.5113
X13.7983 Y17.2438
X13.7454 Y17.9798
X13.714 Y18.7169
X13.6953 Y19.4545
X13.6843 Y20.1922
X13.6778 Y20.93
X13.6739 Y21.6678
X13.6703 Y23.1434
X13.6686 Y26.0947
X13.6684 Y46.0157
Y74.0527
X13.7624 Y74.4094
X13.9334 Y74.7363
X14.3985 Y75.309
X15.025 Y75.6988
X15.7195 Y75.948
X16.4409 Y76.1028
X17.1724 Y76.1989
X17.9076 Y76.2611
X18.644 Y76.3067
X19.3806 Y76.3478
X20.117 Y76.3938
X20.8525 Y76.4527
X21.5859 Y76.5334
X22.315 Y76.6463
X22.8925 Y76.7763
X23.2731 Y76.8947
X23.5532 Y77.0072
X23.7022 Y77.0815
X23.8709 Y77.1972
X24.0016 Y77.3547
X24.0842 Y77.5419
X24.1125 Y77.7445
Y78.9872
G3 X23.5392 Y79.1639 I-0.3173 J-0.0111
G1 X23.4974 Y79.107 Z-1.992
X23.4577 Y79.0529 Z-1.9686
X23.4221 Y79.0043 Z-1.9307
X23.3924 Y78.9638 Z-1.8805
X23.37 Y78.9333 Z-1.8203
X23.3561 Y78.9144 Z-1.7532
X23.3514 Y78.9079 Z-1.6825
G0 Z5
X181.9029 Y8.7706
Z-1.365
G1 Z-1.6825 F3500
X181.907 Y8.7774 Z-1.7531
X181.919 Y8.7976 Z-1.8203
X181.9383 Y8.8301 Z-1.8805
X181.964 Y8.8733 Z-1.9307
X181.9948 Y8.925 Z-1.9686
X182.0291 Y8.9827 Z-1.992
X182.0652 Y9.0435 Z-2
G3 X182.2865 Y9.797 I-1.3603 J0.8088
G1 Y10.9707
X182.279 Y11.1205
X182.2583 Y11.2691
X182.2234 Y11.415
X182.1707 Y11.5727
X182.1036 Y11.7306
X182.0067 Y11.9156
X181.8901 Y12.1002
X181.7341 Y12.3083
X181.542 Y12.5257
X181.3016 Y12.7574
X181.013 Y12.9938
X180.6425 Y13.2506
X180.2163 Y13.4979
X179.6665 Y13.7604
X178.9857 Y14.0206
X178.2776 Y14.2278
X177.558 Y14.3906
X176.8313 Y14.5183
X176.1003 Y14.6184
X175.3666 Y14.6963
X174.6313 Y14.7566
X173.8949 Y14.8028
X173.1579 Y14.8381
X172.4206 Y14.8648
X171.6831 Y14.8848
X170.9454 Y14.8996
X170.2077 Y14.9106
X169.4699 Y14.9186
X168.7321 Y14.9244
X167.9943 Y14.9285
X166.5187 Y14.9336
X164.3052 Y14.9368
X159.1405 Y14.9383
X133.317 Y14.9384
X83.1456
X32.9742
X17.48
X17.1129 Y14.9743
X16.7611 Y15.0855
X16.4439 Y15.2738
X15.8949 Y15.7667
X15.5267 Y16.406
X15.2937 Y17.1061
X15.1508 Y17.83
X15.0646 Y18.5627
X15.0131 Y19.2987
X14.9825 Y20.0359
X14.9644 Y20.7735
X14.9537 Y21.5113
X14.9474 Y22.249
X14.9437 Y22.9868
X14.9402 Y24.4625
X14.9386 Y27.4137
X14.9384 Y48.8104
Y72.4205
X14.9594 Y72.7888
X15.0503 Y73.1463
X15.2205 Y73.4736
X15.6857 Y74.0462
X16.3123 Y74.4359
X17.0062 Y74.6866
X17.7265 Y74.8462
X18.4568 Y74.9515
X19.1906 Y75.0286
X19.9254 Y75.0955
X20.6598 Y75.1656
X21.3928 Y75.2502
X22.1223 Y75.3603
X22.7679 Y75.4953
X23.1958 Y75.6214
X23.5026 Y75.7393
X23.7347 Y75.8507
X23.7446 Y75.8565
X23.8971 Y75.9743
X24.014 Y76.1274
X24.0875 Y76.3055
X24.1125 Y76.4966
Y77.7445
G3 X23.5392 Y77.9213 I-0.3173 J-0.0111
G1 X23.4974 Y77.8643 Z-1.992
X23.4577 Y77.8102 Z-1.9686
X23.4221 Y77.7617 Z-1.9307
X23.3924 Y77.7211 Z-1.8805
X23.37 Y77.6906 Z-1.8203
X23.3561 Y77.6717 Z-1.7532
X23.3514 Y77.6653 Z-1.6825
G0 Z5
X181.9029 Y9.9443
Z-1.365
G1 Z-1.6825 F3500
X181.907 Y9.9511 Z-1.7531
X181.919 Y9.9713 Z-1.8203
X181.9383 Y10.0038 Z-1.8805
X181.964 Y10.047 Z-1.9307
X181.9948 Y10.0988 Z-1.9686
X182.0291 Y10.1564 Z-1.992
X182.0652 Y10.2172 Z-2
G3 X182.2865 Y10.9707 I-1.3603 J0.8088
G1 X182.2866 Y12.2199
X182.2791 Y12.3697
X182.255 Y12.5178
X182.2158 Y12.6659
X182.1629 Y12.816
X182.0869 Y12.9867
X181.986 Y13.1715
X181.8599 Y13.3642
X181.6935 Y13.5785
X181.4977 Y13.7927
X181.2363 Y14.0363
X180.9385 Y14.2721
X180.5443 Y14.5356
X180.0803 Y14.7945
X179.5167 Y15.052
X178.8232 Y15.3039
X178.1126 Y15.5025
X177.3918 Y15.6596
X176.6645 Y15.784
X175.9332 Y15.8822
X175.1995 Y15.9593
X174.4641 Y16.0195
X173.7278 Y16.0662
X172.9908 Y16.1021
X172.2535 Y16.1296
X171.516 Y16.1504
X170.7784 Y16.166
X170.0406 Y16.1777
X169.3029 Y16.1863
X168.5651 Y16.1926
X167.8273 Y16.1972
X166.3517 Y16.2028
X164.1382 Y16.2065
X159.7113 Y16.2082
X133.15 Y16.2084
X82.9786
X32.8071
X18.7887
X18.4213 Y16.2421
X18.0678 Y16.3476
X17.747 Y16.5297
X17.1886 Y17.012
X16.8126 Y17.6468
X16.5739 Y18.345
X16.4272 Y19.068
X16.3385 Y19.8005
X16.2855 Y20.5364
X16.254 Y21.2736
X16.2353 Y22.0111
X16.2242 Y22.7489
X16.2177 Y23.4866
X16.2139 Y24.2245
X16.2103 Y25.7001
X16.2086 Y28.6513
X16.2084 Y51.5236
Y71.4446
X16.286 Y71.8053
X16.4421 Y72.1395
X16.8826 Y72.7314
X17.4958 Y73.1417
X18.1819 Y73.4131
X18.8972 Y73.5942
X19.6236 Y73.7234
X20.3538 Y73.8286
X21.0847 Y73.9296
X21.8139 Y74.0421
X22.5382 Y74.1828
X23.0707 Y74.3252
X23.4085 Y74.4454
X23.6548 Y74.556
X23.7284 Y74.5964
X23.8871 Y74.7136
X24.0093 Y74.8685
X24.0862 Y75.0502
X24.1125 Y75.2457
Y76.4966
G3 X23.5392 Y76.6733 I-0.3173 J-0.0111
G1 X23.4974 Y76.6163 Z-1.992
X23.4577 Y76.5622 Z-1.9686
X23.4221 Y76.5137 Z-1.9307
X23.3924 Y76.4732 Z-1.8805
X23.37 Y76.4427 Z-1.8203
X23.3561 Y76.4237 Z-1.7532
X23.3514 Y76.4173 Z-1.6825
G0 Z5
X181.903 Y11.1934
Z-1.365
G1 Z-1.6825 F3500
X181.907 Y11.2003 Z-1.7532
X181.919 Y11.2205 Z-1.8203
X181.9384 Y11.253 Z-1.8805
X181.9641 Y11.2962 Z-1.9307
X181.9948 Y11.3479 Z-1.9686
X182.0291 Y11.4056 Z-1.992
X182.0652 Y11.4663 Z-2
G3 X182.2866 Y12.2199 I-1.3603 J0.8088
G1 Y13.3936
X182.2789 Y13.5462
X182.2594 Y13.6949
X182.2258 Y13.8411
X182.1746 Y13.999
X182.1091 Y14.1566
X182.0149 Y14.3399
X181.8968 Y14.5306
X181.7447 Y14.737
X181.5524 Y14.9583
X181.3179 Y15.188
X181.0242 Y15.4326
X180.6636 Y15.6871
X180.2286 Y15.9442
X179.6746 Y16.2144
X178.9891 Y16.4828
X178.2827 Y16.6959
X177.5646 Y16.8653
X176.8392 Y17.0001
X176.1092 Y17.1072
X175.3762 Y17.1919
X174.6414 Y17.2586
X173.9055 Y17.3109
X173.1688 Y17.3517
X172.4316 Y17.3832
X171.6942 Y17.4074
X170.9566 Y17.4259
X170.219 Y17.4398
X169.4812 Y17.4502
X168.7434 Y17.458
X168.0056 Y17.4637
X167.2679 Y17.4679
X165.7922 Y17.4731
X163.5788 Y17.4766
X158.4141 Y17.4783
X133.3284 Y17.4784
X83.1569
X32.9855
X19.7048
X19.3519 Y17.5858
X19.0309 Y17.7675
X18.4707 Y18.2477
X18.0918 Y18.8808
X17.8504 Y19.578
X17.7015 Y20.3007
X17.6114 Y21.0329
X17.5573 Y21.7688
X17.5251 Y22.5059
X17.506 Y23.2434
X17.4947 Y23.9812
X17.488 Y24.719
X17.4841 Y25.4568
X17.4804 Y26.9324
X17.4786 Y29.8836
X17.4784 Y53.4937
X17.4786 Y70.0946
X17.5336 Y70.4594
X17.6684 Y70.8027
X17.8709 Y71.1111
X18.3769 Y71.6481
X19.0145 Y72.0194
X19.707 Y72.2739
X20.4214 Y72.4585
X21.1436 Y72.6095
X21.8671 Y72.7541
X22.587 Y72.9155
X23.1165 Y73.0701
X23.4627 Y73.2022
X23.6991 Y73.3149
X23.7431 Y73.3403
X23.8961 Y73.4581
X24.0135 Y73.6114
X24.0873 Y73.7899
X24.1125 Y73.9814
Y75.2457
G3 X23.5392 Y75.4225 I-0.3173 J-0.0111
G1 X23.4974 Y75.3655 Z-1.992
X23.4577 Y75.3114 Z-1.9686
X23.4221 Y75.2628 Z-1.9307
X23.3924 Y75.2223 Z-1.8805
X23.37 Y75.1918 Z-1.8203
X23.3561 Y75.1729 Z-1.7532
X23.3514 Y75.1665 Z-1.6825
G0 Z5
X181.903 Y12.3671
Z-1.365
G1 Z-1.6825 F3500
X181.907 Y12.374 Z-1.7532
X181.919 Y12.3942 Z-1.8203
X181.9384 Y12.4267 Z-1.8805
X181.9641 Y12.4699 Z-1.9307
X181.9948 Y12.5216 Z-1.9686
X182.0291 Y12.5793 Z-1.992
X182.0652 Y12.64 Z-2
G3 X182.2866 Y13.3936 I-1.3603 J0.8088
G1 Y14.6595
X182.2791 Y14.8094
X182.2556 Y14.9575
X182.2168 Y15.1066
X182.1647 Y15.2566
X182.0886 Y15.4293
X181.9897 Y15.6126
X181.863 Y15.8078
X181.6975 Y16.0229
X181.5003 Y16.2406
X181.2387 Y16.4863
X180.9375 Y16.7269
X180.5414 Y16.9941
X180.0696 Y17.2601
X179.5002 Y17.5232
X178.8078 Y17.7779
X178.0984 Y17.9807
X177.3786 Y18.1428
X177.269 Y18.1624
X177.1812 Y18.172
X177.093 Y18.1695
X177.0059 Y18.155
X176.8382 Y18.1284
X176.6706 Y18.1175
X176.5029 Y18.1125
X26.4648
X26.2971 Y18.118
X25.9618 Y18.1328
X25.7942 Y18.1566
X25.6266 Y18.1953
X25.445 Y18.2561
X25.3985 Y18.2757
X25.1994 Y18.348
X24.7769 Y18.4639
X24.1455 Y18.5838
X23.4119 Y18.6627
X22.6752 Y18.7036
X21.9377 Y18.7249
X21.2 Y18.736
X20.835 Y18.7901
X20.4917 Y18.9251
X20.1848 Y19.1298
X19.6566 Y19.645
X19.3051 Y20.2937
X19.0839 Y20.9975
X18.9488 Y21.7229
X18.8674 Y22.4562
X18.8188 Y23.1924
X18.79 Y23.9296
X18.7729 Y24.6673
X18.7629 Y25.405
X18.7569 Y26.1428
X18.7534 Y26.8806
X18.7501 Y28.3562
X18.7485 Y32.0453
X18.7484 Y63.7714
Y68.9361
X18.8239 Y69.2972
X18.9719 Y69.6351
X19.3917 Y70.2418
X19.9818 Y70.6846
X20.6481 Y71.0017
X21.3458 Y71.2414
X22.764 Y71.6492
X23.2585 Y71.8213
X23.5811 Y71.9635
X23.7239 Y72.0407
X23.8844 Y72.1576
X24.008 Y72.313
X24.0859 Y72.4957
X24.1125 Y72.6924
Y73.9814
G3 X23.5392 Y74.1581 I-0.3173 J-0.0111
G1 X23.4974 Y74.1011 Z-1.992
X23.4577 Y74.047 Z-1.9686
X23.4221 Y73.9985 Z-1.9307
X23.3924 Y73.958 Z-1.8805
X23.37 Y73.9275 Z-1.8203
X23.3561 Y73.9085 Z-1.7531
X23.3514 Y73.9021 Z-1.6825
G0 Z5
X26.1959 Y17.5241
Z-1.365
G1 Z-1.6825 F3500
X26.1912 Y17.5305 Z-1.7532
X26.1772 Y17.5494 Z-1.8203
X26.1548 Y17.5798 Z-1.8805
X26.1249 Y17.6202 Z-1.9307
X26.0891 Y17.6687 Z-1.9686
X26.0493 Y17.7226 Z-1.992
X26.0073 Y17.7795 Z-2
G3 X25.3985 Y18.2757 I-1.273 J-0.9402
G1 X25.2913 Y18.3208
X25.1236 Y18.4156
X24.956 Y18.5266
X24.8721 Y18.5915
X24.7884 Y18.6628
X24.6895 Y18.7592
X24.6207 Y18.8352
X24.5985 Y18.8629
X24.4989 Y18.9751
X24.3866 Y19.0746
X24.2502 Y19.176
X24.0738 Y19.2863
X23.8552 Y19.3997
X23.5744 Y19.5179
X23.2013 Y19.6406
X22.4842 Y19.8142
X22.1264 Y19.904
X21.7882 Y20.0514
X21.1801 Y20.4693
X20.7484 Y21.0677
X20.4663 Y21.7494
X20.2896 Y22.4658
X20.1812 Y23.1956
X20.1156 Y23.9305
X20.0762 Y24.6672
X20.0527 Y25.4047
X20.0387 Y26.1423
X20.0304 Y26.8801
X20.0255 Y27.6179
X20.0226 Y28.3557
X20.0198 Y29.8314
X20.0184 Y34.2582
Y66.7221
Y67.4599
X20.0465 Y67.8278
X20.1354 Y68.1858
X20.2939 Y68.5189
X20.7224 Y69.1195
X21.3061 Y69.5708
X21.9586 Y69.9152
X22.638 Y70.203
X23.3205 Y70.4833
X23.6453 Y70.6469
X23.757 Y70.7149
X23.9046 Y70.8331
X24.0175 Y70.9848
X24.0884 Y71.1601
X24.1125 Y71.3477
Y72.6924
G3 X23.5392 Y72.8691 I-0.3173 J-0.0111
G1 X23.4974 Y72.8122 Z-1.992
X23.4577 Y72.7581 Z-1.9686
X23.4221 Y72.7095 Z-1.9307
X23.3924 Y72.669 Z-1.8805
X23.37 Y72.6385 Z-1.8203
X23.3561 Y72.6196 Z-1.7532
X23.3514 Y72.6132 Z-1.6825
G0 Z5
X24.9415 Y17.8222
Z-1.365
G1 Z-1.6825 F3500
X24.9404 Y17.8301 Z-1.7532
X24.9372 Y17.8533 Z-1.8203
X24.9319 Y17.8908 Z-1.8805
X24.9249 Y17.9406 Z-1.9307
X24.9165 Y18.0002 Z-1.9686
X24.9072 Y18.0666 Z-1.992
X24.8974 Y18.1366 Z-2
G3 X24.5985 Y18.8629 I-1.5672 J-0.2203
G1 X24.5472 Y18.9268
X24.4531 Y19.0585
X24.43 Y19.0945
X24.3798 Y19.1783
X24.3409 Y19.2622
X24.2446 Y19.5221
X24.1856 Y19.6599
X24.1089 Y19.7889
X24.0183 Y19.9084
X23.907 Y20.0308
X23.7579 Y20.1704
X23.1805 Y20.6297
X22.5992 Y21.084
X22.1534 Y21.6719
X21.8413 Y22.3405
X21.6345 Y23.0487
X21.5021 Y23.7746
X21.4191 Y24.5077
X21.3678 Y25.2437
X21.3364 Y25.9809
X21.3173 Y26.7184
X21.3057 Y27.4562
X21.2988 Y28.1939
X21.2946 Y28.9317
X21.2921 Y29.6695
X21.2897 Y31.1452
X21.2884 Y36.3099
Y66.5603
X21.3599 Y66.9222
X21.6269 Y67.61
X22.108 Y68.1694
X22.6957 Y68.6155
X23.328 Y68.9957
X23.7501 Y69.2528
X23.8066 Y69.2937
X23.9708 Y69.4577
X24.0762 Y69.6643
X24.1125 Y69.8935
Y71.3477
G3 X23.5392 Y71.5244 I-0.3173 J-0.0111
G1 X23.4974 Y71.4675 Z-1.992
X23.4577 Y71.4134 Z-1.9686
X23.4221 Y71.3648 Z-1.9307
X23.3924 Y71.3243 Z-1.8805
X23.37 Y71.2938 Z-1.8203
X23.3561 Y71.2749 Z-1.7532
X23.3514 Y71.2684 Z-1.6825
G0 Z5
X24.2416 Y18.4263
Z-1.365
G1 Z-1.6825 F3500
X24.243 Y18.4341 Z-1.7532
X24.2473 Y18.4572 Z-1.8203
X24.2541 Y18.4944 Z-1.8805
X24.2632 Y18.5438 Z-1.9307
X24.2741 Y18.6031 Z-1.9686
X24.2862 Y18.6691 Z-1.992
X24.2989 Y18.7385 Z-2
G3 X24.2446 Y19.5221 I-1.5566 J0.2858
G1 X24.2167 Y19.5975
X24.1584 Y19.7652
X24.1305 Y19.9329
X24.1178 Y20.1199
X24.1149 Y20.2015
X24.102 Y20.3509
X24.0704 Y20.4975
X24.0197 Y20.6589
X23.7428 Y21.3428
X23.4175 Y22.005
X23.1516 Y22.6932
X22.9548 Y23.4043
X22.8172 Y24.1292
X22.7245 Y24.8612
X22.6636 Y25.5965
X22.6244 Y26.3332
X22.5995 Y27.0706
X22.5838 Y27.8083
X22.574 Y28.546
X22.5679 Y29.2838
X22.5642 Y30.0216
X22.5605 Y31.4973
X22.5587 Y34.4485
X22.5584 Y65.4367
X22.6793 Y66.1646
X23.0361 Y66.8104
X23.5348 Y67.3541
X23.864 Y67.6469
X23.9983 Y67.8053
X24.0834 Y67.9948
X24.1125 Y68.2005
Y69.8935
G3 X23.5392 Y70.0702 I-0.3173 J-0.0111
G1 X23.4974 Y70.0133 Z-1.992
X23.4577 Y69.9592 Z-1.9686
X23.4221 Y69.9106 Z-1.9307
X23.3924 Y69.8701 Z-1.8805
X23.37 Y69.8396 Z-1.8203
X23.3561 Y69.8207 Z-1.7532
X23.3514 Y69.8142 Z-1.6825
G0 Z5
X23.7681 Y19.162
Z-1.365
G1 Z-1.6825 F3500
X23.7719 Y19.1689 Z-1.7532
X23.7832 Y19.1895 Z-1.8203
X23.8014 Y19.2227 Z-1.8805
X23.8255 Y19.2668 Z-1.9307
X23.8544 Y19.3196 Z-1.9686
X23.8866 Y19.3785 Z-1.992
X23.9206 Y19.4405 Z-2
G3 X24.1149 Y20.2015 I-1.3883 J0.7598
G1 X24.1125 Y20.2682
Y22.6156
X24.0397 Y24.0895
X23.9897 Y24.8256
X23.9442 Y25.562
X23.9085 Y26.2989
X23.8824 Y27.0363
X23.864 Y27.7739
X23.8516 Y28.5116
X23.8433 Y29.2494
X23.8378 Y29.9872
X23.8343 Y30.725
X23.8307 Y32.2006
X23.8287 Y35.1519
X23.8284 Y63.9266
X23.8418 Y64.6643
X24.0236 Y65.3794
X24.0725 Y65.4913
X24.1024 Y65.6096
X24.1125 Y65.7313
Y68.2005
G3 X23.5392 Y68.3772 I-0.3173 J-0.0111
G1 X23.4974 Y68.3203 Z-1.992
X23.4577 Y68.2661 Z-1.9686
X23.4221 Y68.2176 Z-1.9307
X23.3924 Y68.1771 Z-1.8805
X23.37 Y68.1466 Z-1.8203
X23.3561 Y68.1276 Z-1.7531
X23.3514 Y68.1212 Z-1.6825
G0 Z5
X23.7289 Y21.5892
Z-1.365
G1 Z-1.6825 F3500
X23.733 Y21.596 Z-1.7532
X23.745 Y21.6162 Z-1.8203
X23.7643 Y21.6487 Z-1.8805
X23.79 Y21.6919 Z-1.9307
X23.8208 Y21.7437 Z-1.9686
X23.8551 Y21.8013 Z-1.992
X23.8912 Y21.8621 Z-2
G3 X24.1125 Y22.6156 I-1.3603 J0.8088
G1 Y65.7313
G3 X23.5392 Y65.908 I-0.3173 J-0.0111
G1 X23.4974 Y65.8511 Z-1.992
X23.4577 Y65.797 Z-1.9686
X23.4221 Y65.7484 Z-1.9307
X23.3924 Y65.7079 Z-1.8805
X23.37 Y65.6774 Z-1.8203
X23.3561 Y65.6585 Z-1.7532
X23.3514 Y65.652 Z-1.6825
G0 Z5
X181.903 Y13.6331
Z-1.365
G1 Z-1.6825 F3500
X181.9071 Y13.6399 Z-1.7531
X181.9191 Y13.6601 Z-1.8203
X181.9384 Y13.6926 Z-1.8805
X181.9641 Y13.7358 Z-1.9307
X181.9949 Y13.7876 Z-1.9686
X182.0292 Y13.8453 Z-1.992
X182.0653 Y13.906 Z-2
G3 X182.2866 Y14.6595 I-1.3603 J0.8088
G1 Y15.9087
X182.2791 Y16.0585
X182.2532 Y16.2063
X182.2132 Y16.353
X182.1553 Y16.5131
X182.0787 Y16.6813
X181.9697 Y16.8773
X181.8421 Y17.0686
X181.6648 Y17.2932
X181.4623 Y17.5112
X181.1867 Y17.7637
X180.8809 Y18.0017
X180.4606 Y18.2777
X179.9904 Y18.5351
X179.382 Y18.8071
X178.8984 Y18.9782
X178.6849 Y19.0187
X178.4691 Y18.9931
X178.2709 Y18.9039
X178.1088 Y18.7592
X178.0602 Y18.7097
X178.0117 Y18.664
X177.8441 Y18.5307
X177.687 Y18.4238
X177.5088 Y18.3218
X177.3559 Y18.2561
X177.1735 Y18.1948
X177.0059 Y18.155
G3 X176.9732 Y17.5536 I0.0841 J-0.3062
G1 X181.6868 Y15.6901
X181.8526 Y15.6245
G3 X182.2866 Y15.9087 I0.1167 J0.2953
G1 Y17.0824
X182.2791 Y17.2322
X182.2593 Y17.3809
X182.2258 Y17.5271
X182.1749 Y17.6842
X182.107 Y17.8476
X182.015 Y18.0269
X181.8897 Y18.2294
X181.7414 Y18.4308
X181.5399 Y18.6629
X181.3119 Y18.8864
X180.9991 Y19.1472
X180.651 Y19.393
X180.3035 Y19.5986
X180.0083 Y19.7427
X179.7888 Y19.8288
X179.5569 Y19.8988
X179.3643 Y19.9405
X179.3428 Y19.9434
X179.1411 Y19.9426
X178.9471 Y19.8875
X178.7751 Y19.782
X178.638 Y19.6341
X178.5459 Y19.4547
G3 X178.6623 Y19.1031 I0.303 J-0.0948
G1 X178.9777 Y18.874
X181.7032 Y16.8944
X181.7827 Y16.8366
G3 X182.2866 Y17.0824 I0.1866 J0.2569
G1 X182.2867 Y18.3484
X182.2792 Y18.4982
X182.2561 Y18.6464
X182.2178 Y18.7957
X182.165 Y18.9491
X182.09 Y19.1209
X181.9906 Y19.3063
X181.8653 Y19.5005
X181.7103 Y19.7032
X181.5214 Y19.913
X181.3126 Y20.1103
X181.0846 Y20.2935
X180.8406 Y20.4592
X180.6165 Y20.5864
X180.3974 Y20.6884
X180.1988 Y20.7622
X180.0178 Y20.8133
X179.8255 Y20.8512
X179.6606 Y20.8702
X179.4912 Y20.876
X179.3897 Y20.8713
X179.1741 Y20.8287
X178.9804 Y20.7247
X178.8258 Y20.5684
X178.7239 Y20.3737
X178.6836 Y20.1576
X178.6812 Y20.1005
X178.6682 Y19.9329
X178.639 Y19.7652
X178.596 Y19.5975
X178.5459 Y19.4547
G3 X178.7519 Y19.0576 I0.303 J-0.0948
G1 X179.0271 Y18.9694
X181.6827 Y18.1179
X181.8724 Y18.0571
G3 X182.2867 Y18.3484 I0.0969 J0.3023
G1 Y19.5975
X182.2792 Y19.7473
X182.2533 Y19.8951
X182.2133 Y20.0396
X182.1595 Y20.1854
X182.0862 Y20.3438
X181.9934 Y20.5084
X181.8833 Y20.6713
X181.7491 Y20.8392
X181.5944 Y21.0037
X181.4236 Y21.1583
X181.2371 Y21.3017
X181.0359 Y21.432
X180.8242 Y21.5462
X180.6065 Y21.642
X180.4073 Y21.7111
X180.1914 Y21.7671
X180.0066 Y21.7994
X179.8351 Y21.8154
X179.6493 Y21.8178
X179.4892 Y21.8069
X179.3405 Y21.7847
X179.2606 Y21.7661
X179.0752 Y21.6958
X178.9151 Y21.5788
X178.7918 Y21.4235
X178.7141 Y21.2411
X178.6875 Y21.0446
Y20.2682
X178.6836 Y20.1576
Y20.1574
G3 X178.9434 Y19.8452 I0.3175
G1 X179.2821 Y19.7825
X181.6759 Y19.34
X181.9117 Y19.2964
G3 X182.2867 Y19.5975 I0.0577 J0.3122
G1 Y20.6958
X182.2792 Y20.8456
X182.258 Y20.9941
X182.2207 Y21.1394
X182.1692 Y21.2802
X182.1057 Y21.4162
X182.0252 Y21.5576
X181.9243 Y21.7057
X181.8088 Y21.8491
X181.6731 Y21.9923
X181.5153 Y22.1341
X181.3416 Y22.2665
X181.1545 Y22.3867
X180.955 Y22.4934
X180.743 Y22.5856
X180.5234 Y22.6609
X180.3033 Y22.7171
X180.102 Y22.7515
X179.8903 Y22.7704
X179.7126 Y22.772
X179.5335 Y22.7592
X179.3622 Y22.7329
X179.2145 Y22.698
X179.2005 Y22.6935
X178.9936 Y22.5884
X178.8293 Y22.4245
X178.7239 Y22.2178
X178.6875 Y21.9886
Y21.0446
G3 X178.9677 Y20.7403 I0.3173 J0.0111
G1 X179.3004 Y20.7012
X181.6735 Y20.422
X181.9323 Y20.3915
G3 X182.2867 Y20.6958 I0.0371 J0.3153
G1 Y21.7773
X182.2792 Y21.9271
X182.2534 Y22.0748
X182.2107 Y22.2186
X182.1541 Y22.3575
X182.085 Y22.4907
X181.9988 Y22.6278
X181.899 Y22.7613
X181.7776 Y22.8992
X181.6354 Y23.0365
X181.4787 Y23.1653
X181.3041 Y23.2867
X181.1099 Y23.3998
X180.9029 Y23.4991
X180.6845 Y23.5829
X180.4574 Y23.6497
X180.2269 Y23.6979
X180.0249 Y23.7234
X179.8235 Y23.7325
X179.6272 Y23.7256
X179.4629 Y23.7065
X179.298 Y23.6738
X179.2263 Y23.6535
X179.0506 Y23.578
X178.9 Y23.4601
X178.7846 Y23.3075
X178.7122 Y23.1304
X178.6875 Y22.9407
Y21.9886
G3 X178.9822 Y21.6829 I0.3173 J0.0111
G1 X179.3018 Y21.6602
X181.6724 Y21.4912
X181.9468 Y21.4717
G3 X182.2867 Y21.7773 I0.0226 J0.3167
G1 Y22.7833
X182.2792 Y22.9331
X182.2522 Y23.0807
X182.2081 Y23.2241
X182.1497 Y23.3622
X182.0784 Y23.4942
X181.9948 Y23.6228
X181.8922 Y23.7558
X181.7685 Y23.8921
X181.6306 Y24.0215
X181.4699 Y24.1495
X181.2902 Y24.2705
X181.0945 Y24.3805
X180.8858 Y24.4767
X180.6658 Y24.5574
X180.4385 Y24.6206
X180.2118 Y24.6644
X180.0042 Y24.6874
X179.7926 Y24.6938
X179.6163 Y24.685
X179.4317 Y24.6607
X179.2672 Y24.6255
X179.2156 Y24.6101
X179.0033 Y24.5072
X178.834 Y24.3427
X178.7251 Y24.1334
X178.6875 Y23.9004
Y22.9407
G3 X178.988 Y22.6348 I0.3173 J0.0111
G1 X179.3021 Y22.6181
X181.6721 Y22.4922
X181.9526 Y22.4773
G3 X182.2867 Y22.7833 I0.0168 J0.3171
G1 Y23.7893
X182.2793 Y23.9392
X182.2481 Y24.0859
X182.2005 Y24.2281
X182.1388 Y24.3649
X182.0647 Y24.4953
X181.9772 Y24.6238
X181.871 Y24.7557
X181.7431 Y24.8908
X181.601 Y25.0185
X181.4374 Y25.1434
X181.2541 Y25.2612
X181.0534 Y25.3686
X180.8414 Y25.4609
X180.6192 Y25.5372
X180.3881 Y25.5962
X180.1624 Y25.6349
X179.9638 Y25.6527
X179.7478 Y25.6547
X179.5653 Y25.6417
X179.4044 Y25.6171
X179.2272 Y25.5753
X179.2007 Y25.5667
X178.9937 Y25.4617
X178.8294 Y25.2977
X178.7239 Y25.091
X178.6875 Y24.8617
Y23.9004
G3 X178.9929 Y23.5942 I0.3173 J0.0111
G1 X179.3024 Y23.5826
X181.6719 Y23.4939
X181.9576 Y23.4832
G3 X182.2867 Y23.7893 I0.0119 J0.3173
G1 X182.2868 Y24.7199
X182.2793 Y24.8697
X182.2539 Y25.0176
X182.2107 Y25.1612
X182.1523 Y25.2994
X182.0813 Y25.4315
X181.9979 Y25.5592
X181.8942 Y25.6931
X181.7769 Y25.8217
X181.6366 Y25.9526
X181.4751 Y26.0807
X181.2995 Y26.1984
X181.1086 Y26.3051
X180.8986 Y26.4013
X180.677 Y26.482
X180.449 Y26.5448
X180.2128 Y26.5899
X180.0092 Y26.612
X179.7997 Y26.6178
X179.6048 Y26.6076
X179.4413 Y26.5857
X179.2702 Y26.5487
X179.214 Y26.5317
X179.0022 Y26.4286
X178.8335 Y26.2642
X178.725 Y26.0551
X178.6875 Y25.8225
Y24.8617
G3 X178.9896 Y24.5557 I0.3173 J0.0111
G1 X179.3022 Y24.5407
X181.672 Y24.4274
X181.9543 Y24.4139
G3 X182.2868 Y24.7199 I0.0152 J0.3171
G1 Y25.726
X182.2793 Y25.8758
X182.2478 Y26.0225
X182.1998 Y26.1645
X182.1376 Y26.3011
X182.063 Y26.4312
X181.9744 Y26.5599
X181.8685 Y26.6901
X181.74 Y26.8243
X181.5971 Y26.9515
X181.4327 Y27.0756
X181.2492 Y27.1923
X181.048 Y27.2987
X180.8342 Y27.3905
X180.6106 Y27.466
X180.3801 Y27.5236
X180.1548 Y27.5611
X179.9555 Y27.5779
X179.7392 Y27.5788
X179.5573 Y27.5649
X179.396 Y27.5394
X179.2186 Y27.4966
X179.1972 Y27.4895
X178.9915 Y27.384
X178.8283 Y27.2202
X178.7236 Y27.0141
X178.6875 Y26.7857
Y25.8225
G3 X178.9945 Y25.5163 I0.3173 J0.0111
G1 X179.3024 Y25.5063
X181.6719 Y25.4291
X181.9591 Y25.4197
G3 X182.2868 Y25.726 I0.0103 J0.3173
G1 Y26.6398
X182.2793 Y26.7896
X182.2553 Y26.9377
X182.2129 Y27.0816
X182.1553 Y27.22
X182.085 Y27.3526
X182.0018 Y27.4808
X181.8998 Y27.6133
X181.7835 Y27.7417
X181.6435 Y27.8732
X181.4843 Y28.0004
X181.3105 Y28.1176
X181.1196 Y28.2252
X180.9098 Y28.3222
X180.6884 Y28.4036
X180.4604 Y28.4672
X180.2243 Y28.5131
X180.0175 Y28.5363
X179.811 Y28.5427
X179.613 Y28.533
X179.4478 Y28.5114
X179.2789 Y28.4755
X179.2163 Y28.4568
X179.0037 Y28.354
X178.8342 Y28.1895
X178.7251 Y27.9801
X178.6875 Y27.7469
Y26.7857
G3 X178.9892 Y26.4796 I0.3173 J0.0111
G1 X179.3022 Y26.4642
X181.6721 Y26.3476
X181.9539 Y26.3338
G3 X182.2868 Y26.6398 I0.0156 J0.3171
G1 Y27.6458
X182.2793 Y27.7956
X182.2487 Y27.9425
X182.2013 Y28.0848
X182.1398 Y28.2216
X182.0656 Y28.352
X181.9773 Y28.4811
X181.8725 Y28.6106
X181.7449 Y28.7447
X181.6024 Y28.8722
X181.4392 Y28.9962
X181.2563 Y29.1132
X181.0559 Y29.2199
X180.8425 Y29.3122
X180.6192 Y29.3883
X180.3888 Y29.4466
X180.1633 Y29.4847
X179.9635 Y29.5022
X179.7465 Y29.5037
X179.5638 Y29.4903
X179.4023 Y29.4652
X179.2245 Y29.4228
X179.1992 Y29.4146
X178.9927 Y29.3093
X178.8289 Y29.1454
X178.7237 Y28.9389
X178.6875 Y28.7101
Y27.7469
G3 X178.994 Y27.4407 I0.3173 J0.0111
G1 X179.3024 Y27.4302
X181.6719 Y27.3494
X181.9587 Y27.3396
G3 X182.2868 Y27.6458 I0.0108 J0.3173
G1 Y28.5764
X182.2793 Y28.7262
X182.2536 Y28.874
X182.2101 Y29.0175
X182.1513 Y29.1555
X182.0799 Y29.2875
X181.9963 Y29.4147
X181.8922 Y29.5483
X181.7745 Y29.6766
X181.634 Y29.8069
X181.4722 Y29.9345
X181.2961 Y30.0518
X181.1049 Y30.158
X180.8946 Y30.2536
X180.6727 Y30.3337
X180.4442 Y30.3959
X180.2077 Y30.4404
X180.0041 Y30.4619
X179.7943 Y30.4671
X179.5998 Y30.4563
X179.4364 Y30.434
X179.265 Y30.3964
X179.212 Y30.3802
X179.0009 Y30.2768
X178.8329 Y30.1125
X178.7248 Y29.9038
X178.6875 Y29.6717
Y28.7101
G3 X178.9905 Y28.404 I0.3173 J0.0111
G1 X179.3023 Y28.3899
X181.6721 Y28.2831
X181.9552 Y28.2703
G3 X182.2868 Y28.5764 I0.0143 J0.3172
G1 Y29.5825
X182.2793 Y29.7323
X182.2472 Y29.8788
X182.1985 Y30.0207
X182.1359 Y30.1569
X182.0607 Y30.2868
X181.9716 Y30.4154
X181.865 Y30.5455
X181.7359 Y30.6795
X181.5923 Y30.8064
X181.4271 Y30.9303
X181.2429 Y31.0465
X181.041 Y31.1523
X180.8266 Y31.2435
X180.6026 Y31.3183
X180.3716 Y31.3752
X180.1467 Y31.4118
X179.9475 Y31.4279
X179.7316 Y31.4281
X179.5504 Y31.4136
X179.3891 Y31.3876
X179.2119 Y31.3441
X179.1948 Y31.3384
X178.9899 Y31.2325
X178.8276 Y31.0688
X178.7234 Y30.8631
X178.6875 Y30.6354
Y29.6717
G3 X178.9953 Y29.3654 I0.3173 J0.0111
G1 X179.3024 Y29.3562
X181.6719 Y29.2849
X181.96 Y29.2762
G3 X182.2868 Y29.5825 I0.0096 J0.3174
G1 Y30.4963
X182.2794 Y30.6461
X182.2545 Y30.794
X182.2115 Y30.9377
X182.1532 Y31.0759
X182.0824 Y31.2082
X181.9983 Y31.3367
X181.8957 Y31.4691
X181.7785 Y31.5974
X181.6375 Y31.7289
X181.4776 Y31.8557
X181.303 Y31.9725
X181.1113 Y32.0796
X180.9007 Y32.176
X180.6789 Y32.2566
X180.4505 Y32.3195
X180.214 Y32.3645
X180.0083 Y32.3867
X179.8016 Y32.3924
X179.6047 Y32.382
X179.4403 Y32.3599
X179.271 Y32.3232
X179.2137 Y32.3059
X179.002 Y32.2027
X178.8334 Y32.0383
X178.7249 Y31.8293
X178.6875 Y31.5968
Y30.6354
G3 X178.9899 Y30.3293 I0.3173 J0.0111
G1 X179.3022 Y30.3146
X181.6721 Y30.2035
X181.9547 Y30.1902
G3 X182.2868 Y30.4963 I0.0149 J0.3172
G1 X182.2869 Y31.5023
X182.2794 Y31.6521
X182.248 Y31.7988
X182.1998 Y31.9409
X182.1376 Y32.0774
X182.0629 Y32.2074
X181.9742 Y32.3362
X181.8684 Y32.4661
X181.7399 Y32.6002
X181.5968 Y32.7273
X181.4324 Y32.8513
X181.2487 Y32.968
X181.0475 Y33.0741
X180.8336 Y33.1658
X180.6098 Y33.2411
X180.3791 Y33.2986
X180.1539 Y33.3359
X179.9545 Y33.3527
X179.7381 Y33.3534
X179.5562 Y33.3393
X179.3949 Y33.3137
X179.2174 Y33.2708
X179.1967 Y33.2639
X178.9911 Y33.1583
X178.8282 Y32.9945
X178.7235 Y32.7885
X178.6875 Y32.5602
Y31.5968
G3 X178.9947 Y31.2906 I0.3173 J0.0111
G1 X179.3024 Y31.2807
X181.672 Y31.2052
X181.9595 Y31.1961
G3 X182.2869 Y31.5023 I0.0101 J0.3173
G1 Y32.4329
X182.2794 Y32.5827
X182.2528 Y32.7303
X182.2085 Y32.8736
X182.1491 Y33.0114
X182.0773 Y33.1431
X181.9926 Y33.2707
X181.8877 Y33.4043
X181.7692 Y33.5325
X181.6276 Y33.6629
X181.4649 Y33.7902
X181.2881 Y33.907
X181.096 Y34.0127
X180.8849 Y34.1077
X180.6625 Y34.187
X180.4336 Y34.2485
X180.1969 Y34.292
X179.9945 Y34.3127
X179.7847 Y34.3171
X179.5913 Y34.3057
X179.4286 Y34.2828
X179.2569 Y34.2445
X179.2093 Y34.2297
X178.9992 Y34.1259
X178.8321 Y33.9616
X178.7246 Y33.7534
X178.6875 Y33.522
Y32.5602
G3 X178.9912 Y32.2541 I0.3173 J0.0111
G1 X179.3023 Y32.2408
X181.6721 Y32.139
X181.956 Y32.1268
G3 X182.2869 Y32.4329 I0.0136 J0.3172
G1 Y33.3974
X182.2794 Y33.5472
X182.2523 Y33.6948
X182.2078 Y33.838
X182.1483 Y33.9757
X182.0761 Y34.1072
X181.9932 Y34.2322
X181.8892 Y34.3647
X181.7675 Y34.4963
X181.6293 Y34.6235
X181.4667 Y34.7508
X181.2865 Y34.8697
X181.0924 Y34.9766
X180.8837 Y35.0705
X180.6615 Y35.1498
X180.4325 Y35.2112
X180.1989 Y35.2542
X179.9979 Y35.2747
X179.783 Y35.2792
X179.5927 Y35.2679
X179.4307 Y35.2452
X179.2556 Y35.2061
X179.2093 Y35.1917
X178.9992 Y35.0879
X178.832 Y34.9237
X178.7246 Y34.7154
X178.6875 Y34.484
Y33.522
G3 X178.9915 Y33.2159 I0.3173 J0.0111
G1 X179.3023 Y33.2028
X181.6721 Y33.1032
X181.9563 Y33.0913
G3 X182.2869 Y33.3974 I0.0133 J0.3172
G1 Y34.3528
X182.2794 Y34.5026
X182.2532 Y34.6503
X182.2095 Y34.7938
X182.1507 Y34.9317
X182.079 Y35.0635
X181.9966 Y35.1889
X181.8931 Y35.3217
X181.773 Y35.4525
X181.6353 Y35.5803
X181.4735 Y35.7079
X181.2948 Y35.8268
X181.1023 Y35.9337
X180.8938 Y36.0285
X180.6721 Y36.1085
X180.4437 Y36.1707
X180.2091 Y36.2147
X180.0069 Y36.2361
X179.7927 Y36.2414
X179.6006 Y36.2307
X179.4381 Y36.2085
X179.2637 Y36.1702
X179.2119 Y36.1544
X179.0009 Y36.051
X178.8329 Y35.8866
X178.7248 Y35.6779
X178.6875 Y35.4459
Y34.484
G3 X178.9908 Y34.1779 I0.3173 J0.0111
G1 X179.3023 Y34.1641
X181.6721 Y34.0592
X181.9556 Y34.0466
G3 X182.2869 Y34.3528 I0.0141 J0.3172
G1 Y35.3588
X182.2794 Y35.5086
X182.247 Y35.6551
X182.1981 Y35.7969
X182.1352 Y35.9331
X182.06 Y36.0628
X181.9706 Y36.1916
X181.8638 Y36.3216
X181.7343 Y36.4557
X181.5903 Y36.5827
X181.4253 Y36.7062
X181.2413 Y36.822
X181.039 Y36.9278
X180.8243 Y37.0189
X180.6003 Y37.0934
X180.3693 Y37.1501
X180.1444 Y37.1864
X179.9452 Y37.2024
X179.7294 Y37.2023
X179.5485 Y37.1877
X179.3871 Y37.1615
X179.2099 Y37.1178
X179.1941 Y37.1125
X178.9895 Y37.0066
X178.8273 Y36.8429
X178.7233 Y36.6373
X178.6875 Y36.4097
Y35.4459
G3 X178.9955 Y35.1396 I0.3173 J0.0111
G1 X179.3024 Y35.1306
X181.672 Y35.061
X181.9603 Y35.0525
G3 X182.2869 Y35.3588 I0.0093 J0.3174
G1 X182.287 Y36.2894
X182.2794 Y36.4392
X182.252 Y36.5867
X182.2069 Y36.7297
X182.1468 Y36.8672
X182.0744 Y36.9985
X181.9888 Y37.1266
X181.883 Y37.2601
X181.7635 Y37.3883
X181.6208 Y37.5187
X181.4572 Y37.6456
X181.2795 Y37.7619
X181.0865 Y37.8672
X180.8747 Y37.9615
X180.6517 Y38.04
X180.4224 Y38.1005
X180.1856 Y38.1431
X179.9842 Y38.1628
X179.7744 Y38.1664
X179.5823 Y38.1542
X179.4203 Y38.1308
X179.2483 Y38.0917
X179.2064 Y38.0785
X178.9974 Y37.9743
X178.8312 Y37.8101
X178.7243 Y37.6024
X178.6875 Y37.3717
Y36.4097
G3 X178.9919 Y36.1036 I0.3173 J0.0111
G1 X179.3023 Y36.091
X181.6721 Y35.9948
X181.9568 Y35.9832
G3 X182.287 Y36.2894 I0.0129 J0.3172
G1 Y37.2539
X182.2795 Y37.4037
X182.2514 Y37.5511
X182.2062 Y37.6941
X182.146 Y37.8315
X182.0732 Y37.9627
X181.9895 Y38.0878
X181.8843 Y38.2207
X181.7622 Y38.3518
X181.6228 Y38.4791
X181.4589 Y38.6063
X181.278 Y38.7248
X181.0832 Y38.831
X180.8736 Y38.9243
X180.6508 Y39.0028
X180.4215 Y39.0634
X180.1879 Y39.1054
X179.9877 Y39.125
X179.7731 Y39.1287
X179.5839 Y39.1167
X179.4224 Y39.0934
X179.2473 Y39.0535
X179.2065 Y39.0407
X178.9974 Y38.9365
X178.8312 Y38.7723
X178.7243 Y38.5646
X178.6875 Y38.3339
Y37.3717
G3 X178.9922 Y37.0655 I0.3173 J0.0111
G1 X179.3023 Y37.0532
X181.6721 Y36.9591
X181.9571 Y36.9478
G3 X182.287 Y37.2539 I0.0126 J0.3173
G1 Y38.2092
X182.2795 Y38.3591
X182.2524 Y38.5066
X182.2079 Y38.6498
X182.1484 Y38.7875
X182.0762 Y38.919
X181.9933 Y39.0441
X181.8887 Y39.1773
X181.7682 Y39.3076
X181.6293 Y39.4356
X181.4663 Y39.5631
X181.287 Y39.6815
X181.094 Y39.7878
X180.8846 Y39.8821
X180.6623 Y39.9614
X180.4336 Y40.0228
X180.1988 Y40.066
X179.9975 Y40.0865
X179.7836 Y40.0911
X179.5926 Y40.0798
X179.4305 Y40.057
X179.2561 Y40.0181
X179.2093 Y40.0036
X178.9992 Y39.8998
X178.8321 Y39.7355
X178.7246 Y39.5273
X178.6875 Y39.2959
Y38.3339
G3 X178.9915 Y38.0277 I0.3173 J0.0111
G1 X179.3023 Y38.0147
X181.6722 Y37.9151
X181.9563 Y37.9031
G3 X182.287 Y38.2092 I0.0133 J0.3172
G1 Y39.1398
X182.2795 Y39.2896
X182.257 Y39.4379
X182.2162 Y39.5823
X182.1597 Y39.7212
X182.0902 Y39.8542
X182.0095 Y39.9806
X181.9084 Y40.1138
X181.7932 Y40.2427
X181.6573 Y40.372
X181.498 Y40.501
X181.3239 Y40.6202
X181.1353 Y40.7281
X180.928 Y40.8256
X180.7074 Y40.9084
X180.4799 Y40.9735
X180.2447 Y41.0208
X180.0374 Y41.0454
X179.827 Y41.0534
X179.6287 Y41.0449
X179.4632 Y41.0245
X179.2924 Y40.9893
X179.221 Y40.9685
X179.0468 Y40.8922
X178.8977 Y40.7742
X178.7836 Y40.622
X178.7119 Y40.4458
X178.6875 Y40.2572
Y39.2959
G3 X178.9881 Y38.9899 I0.3173 J0.0111
G1 X179.3021 Y38.9734
X181.6723 Y38.8486
X181.953 Y38.8338
G3 X182.287 Y39.1398 I0.0167 J0.3171
G1 Y40.1459
X182.2795 Y40.2957
X182.2504 Y40.4428
X182.2042 Y40.5855
X182.1437 Y40.7228
X182.0704 Y40.8537
X181.9827 Y40.9835
X181.8799 Y41.1122
X181.754 Y41.2461
X181.6123 Y41.3743
X181.4512 Y41.4982
X181.2703 Y41.6155
X181.0709 Y41.7231
X180.8582 Y41.8166
X180.6358 Y41.8938
X180.406 Y41.9534
X180.1797 Y41.993
X179.9693 Y42.0127
X179.7607 Y42.0153
X179.5851 Y42.0034
X179.3996 Y41.9758
X179.2384 Y41.9383
X179.2033 Y41.9271
X178.9954 Y41.8225
X178.8302 Y41.6584
X178.7241 Y41.4512
X178.6875 Y41.2213
Y40.2572
G3 X178.9929 Y39.951 I0.3173 J0.0111
G1 X179.3024 Y39.9394
X181.6721 Y39.8504
X181.9578 Y39.8397
G3 X182.287 Y40.1459 I0.0119 J0.3173
G1 Y41.0597
X182.2795 Y41.2095
X182.2577 Y41.3579
X182.2172 Y41.5023
X182.1611 Y41.6414
X182.0921 Y41.7746
X182.0113 Y41.9016
X181.911 Y42.0344
X181.7971 Y42.1625
X181.6599 Y42.2938
X181.5025 Y42.4218
X181.3308 Y42.5399
X181.1408 Y42.6493
X180.9329 Y42.7477
X180.7142 Y42.8304
X180.4846 Y42.8967
X180.2497 Y42.9446
X180.0402 Y42.97
X179.8342 Y42.9783
X179.6333 Y42.9702
X179.4663 Y42.95
X179.2986 Y42.9159
X179.2228 Y42.894
X179.048 Y42.818
X178.8985 Y42.7
X178.7839 Y42.5477
X178.712 Y42.3712
X178.6875 Y42.1822
Y41.2213
G3 X178.9875 Y40.9154 I0.3173 J0.0111
G1 X179.3021 Y40.8982
X181.6724 Y40.769
X181.9524 Y40.7537
G3 X182.287 Y41.0597 I0.0173 J0.317
G1 Y42.0657
X182.2796 Y42.2155
X182.2511 Y42.3628
X182.2053 Y42.5057
X182.1452 Y42.6431
X182.0723 Y42.7742
X181.9849 Y42.9042
X181.8828 Y43.0326
X181.7574 Y43.1667
X181.6161 Y43.2952
X181.4556 Y43.4192
X181.2748 Y43.537
X181.0762 Y43.6448
X180.8639 Y43.7388
X180.6416 Y43.8166
X180.4121 Y43.8767
X180.1859 Y43.9169
X179.9753 Y43.9371
X179.7661 Y43.9403
X179.5903 Y43.9288
X179.4046 Y43.9016
X179.2429 Y43.8644
X179.205 Y43.8524
X178.9965 Y43.748
X178.8307 Y43.5839
X178.7242 Y43.3764
X178.6875 Y43.1461
Y42.1822
G3 X178.9923 Y41.876 I0.3173 J0.0111
G1 X179.3023 Y41.8639
X181.6722 Y41.7708
X181.9573 Y41.7596
G3 X182.287 Y42.0657 I0.0125 J0.3173
G1 X182.2871 Y42.9963
X182.2796 Y43.1461
X182.2559 Y43.2942
X182.2141 Y43.4383
X182.1567 Y43.5769
X182.0866 Y43.7095
X182.0053 Y43.8356
X181.903 Y43.9692
X181.7873 Y44.0977
X181.6494 Y44.2279
X181.4897 Y44.3562
X181.3153 Y44.4745
X181.1249 Y44.5825
X180.9164 Y44.6795
X180.6972 Y44.7609
X180.4671 Y44.8258
X180.2318 Y44.8722
X180.0258 Y44.8958
X179.8162 Y44.9029
X179.6191 Y44.8937
X179.4543 Y44.8727
X179.2837 Y44.8369
X179.2183 Y44.8175
X179.005 Y44.715
X178.8349 Y44.5505
X178.7253 Y44.3407
X178.6875 Y44.1071
Y43.1461
G3 X178.9888 Y42.84 I0.3173 J0.0111
G1 X179.3022 Y42.8242
X181.6724 Y42.7045
X181.9537 Y42.6903
G3 X182.2871 Y42.9963 I0.016 J0.3171
G1 Y44.0023
X182.2796 Y44.1522
X182.2495 Y44.2991
X182.2024 Y44.4415
X182.1411 Y44.5785
X182.0673 Y44.709
X181.979 Y44.8385
X181.8751 Y44.9676
X181.7479 Y45.1017
X181.6056 Y45.2296
X181.443 Y45.3535
X181.2609 Y45.4706
X181.0606 Y45.5776
X180.8474 Y45.6704
X180.6244 Y45.7469
X180.3942 Y45.8056
X180.1685 Y45.8442
X179.9684 Y45.8621
X179.751 Y45.864
X179.5679 Y45.8508
X179.4063 Y45.8261
X179.2283 Y45.784
X179.2005 Y45.775
X178.9936 Y45.6699
X178.8293 Y45.506
X178.7239 Y45.2993
X178.6875 Y45.0701
Y44.1071
G3 X178.9936 Y43.8009 I0.3173 J0.0111
G1 X179.3024 Y43.79
X181.6722 Y43.7062
X181.9586 Y43.6961
G3 X182.2871 Y44.0023 I0.0112 J0.3173
G1 Y44.9162
X182.2796 Y45.066
X182.2568 Y45.2142
X182.2155 Y45.3584
X182.1586 Y45.4972
X182.0891 Y45.6301
X182.0072 Y45.7577
X181.9061 Y45.8904
X181.7911 Y46.0186
X181.6526 Y46.15
X181.4944 Y46.2777
X181.3218 Y46.3954
X181.1321 Y46.5035
X180.9232 Y46.6014
X180.7025 Y46.6838
X180.475 Y46.7485
X180.2392 Y46.7956
X180.0306 Y46.82
X179.8243 Y46.8274
X179.6245 Y46.8186
X179.4583 Y46.7978
X179.29 Y46.7628
X179.2199 Y46.7422
X179.046 Y46.6659
X178.8972 Y46.5478
X178.7833 Y46.3957
X178.7119 Y46.2197
X178.6875 Y46.0313
Y45.0701
G3 X178.9884 Y44.7641 I0.3173 J0.0111
G1 X179.3022 Y44.7478
X181.6724 Y44.6248
X181.9533 Y44.6102
G3 X182.2871 Y44.9162 I0.0165 J0.3171
G1 Y45.9222
X182.2796 Y46.072
X182.2502 Y46.2191
X182.2037 Y46.3617
X182.1429 Y46.4988
X182.0694 Y46.6296
X181.9816 Y46.7593
X181.8783 Y46.8882
X181.7519 Y47.0222
X181.6101 Y47.1502
X181.4484 Y47.2742
X181.2667 Y47.3916
X181.0673 Y47.4989
X180.8545 Y47.5921
X180.6317 Y47.6691
X180.4017 Y47.7284
X180.1758 Y47.7677
X179.9655 Y47.787
X179.7574 Y47.7893
X179.5819 Y47.7772
X179.3966 Y47.7493
X179.2357 Y47.7117
X179.2023 Y47.701
X178.9947 Y47.5962
X178.8299 Y47.4322
X178.724 Y47.2251
X178.6875 Y46.9955
Y46.0313
G3 X178.9931 Y45.7251 I0.3173 J0.0111
G1 X179.3024 Y45.7138
X181.6722 Y45.6265
X181.9581 Y45.616
G3 X182.2871 Y45.9222 I0.0117 J0.3173
G1 Y46.8528
X182.2796 Y47.0026
X182.2551 Y47.1506
X182.2124 Y47.2944
X182.1544 Y47.4327
X182.0837 Y47.565
X182.0013 Y47.6916
X181.8982 Y47.8252
X181.7816 Y47.9536
X181.6425 Y48.0838
X181.4818 Y48.2118
X181.3066 Y48.3297
X181.1152 Y48.4372
X180.906 Y48.5335
X180.6862 Y48.614
X180.4557 Y48.678
X180.2201 Y48.7234
X180.0154 Y48.7461
X179.8057 Y48.7523
X179.6099 Y48.7424
X179.4459 Y48.7208
X179.2749 Y48.6841
X179.2153 Y48.6662
X179.0031 Y48.5633
X178.8339 Y48.3989
X178.7251 Y48.1896
X178.6875 Y47.9567
Y46.9955
G3 X178.9895 Y46.6894 I0.3173 J0.0111
G1 X179.3022 Y46.6744
X181.6724 Y46.5603
X181.9546 Y46.5467
G3 X182.2871 Y46.8528 I0.0153 J0.3171
G1 Y47.8588
X182.2796 Y48.0086
X182.2486 Y48.1554
X182.2008 Y48.2976
X182.1389 Y48.4342
X182.0644 Y48.5644
X181.9758 Y48.6935
X181.8706 Y48.823
X181.7425 Y48.9572
X181.5995 Y49.0846
X181.4357 Y49.2086
X181.2526 Y49.3253
X181.0516 Y49.4318
X180.8378 Y49.5239
X180.6143 Y49.5995
X180.3838 Y49.6575
X180.1584 Y49.6951
X179.9588 Y49.7122
X179.7421 Y49.7133
X179.5599 Y49.6996
X179.3984 Y49.6742
X179.2208 Y49.6315
X179.1979 Y49.624
X178.9919 Y49.5186
X178.8285 Y49.3548
X178.7236 Y49.1485
X178.6875 Y48.92
Y47.9567
G3 X178.9943 Y47.6504 I0.3173 J0.0111
G1 X179.3024 Y47.6403
X181.6722 Y47.5621
X181.9594 Y47.5526
G3 X182.2871 Y47.8588 I0.0105 J0.3173
G1 X182.2872 Y48.7726
X182.2797 Y48.9225
X182.2559 Y49.0706
X182.2138 Y49.2145
X182.1563 Y49.3531
X182.0862 Y49.4857
X182.0033 Y49.6137
X181.9015 Y49.7463
X181.7855 Y49.8746
X181.6458 Y50.0061
X181.4868 Y50.1333
X181.3134 Y50.2506
X181.1227 Y50.3583
X180.9131 Y50.4555
X180.6918 Y50.5371
X180.4639 Y50.601
X180.2277 Y50.6471
X180.0204 Y50.6705
X179.814 Y50.6772
X179.6155 Y50.6676
X179.4501 Y50.6462
X179.2813 Y50.6105
X179.2171 Y50.5914
X179.0042 Y50.4887
X178.8345 Y50.3242
X178.7252 Y50.1146
X178.6875 Y49.8813
Y48.92
G3 X178.9891 Y48.6139 I0.3173 J0.0111
G1 X179.3022 Y48.5984
X181.6724 Y48.4806
X181.9541 Y48.4666
G3 X182.2872 Y48.7726 I0.0157 J0.3171
G1 Y49.7787
X182.2797 Y49.9285
X182.2493 Y50.0754
X182.2021 Y50.2178
X182.1407 Y50.3546
X182.0667 Y50.4851
X181.9784 Y50.6143
X181.874 Y50.7437
X181.7466 Y50.8778
X181.6043 Y51.0054
X181.4413 Y51.1294
X181.2587 Y51.2465
X181.0585 Y51.3532
X180.8452 Y51.4458
X180.6219 Y51.522
X180.3916 Y51.5805
X180.1659 Y51.6189
X179.966 Y51.6366
X179.7488 Y51.6382
X179.5658 Y51.6249
X179.4042 Y51.6
X179.2264 Y51.5578
X179.1998 Y51.5491
X178.9931 Y51.444
X178.8291 Y51.2801
X178.7238 Y51.0735
X178.6875 Y50.8444
Y49.8813
G3 X178.9938 Y49.5751 I0.3173 J0.0111
G1 X179.3024 Y49.5644
X181.6723 Y49.4824
X181.9589 Y49.4725
G3 X182.2872 Y49.7787 I0.011 J0.3173
G1 Y50.7093
X182.2797 Y50.8591
X182.2542 Y51.0069
X182.2108 Y51.1505
X182.1522 Y51.2886
X182.081 Y51.4206
X181.9976 Y51.5476
X181.8936 Y51.6813
X181.7762 Y51.8096
X181.636 Y51.9399
X181.4744 Y52.0676
X181.2985 Y52.1849
X181.1075 Y52.2912
X180.8973 Y52.387
X180.6755 Y52.4673
X180.4471 Y52.5298
X180.2106 Y52.5744
X180.0067 Y52.5962
X179.7968 Y52.6016
X179.602 Y52.591
X179.4385 Y52.5688
X179.2671 Y52.5314
X179.2126 Y52.5148
X179.0013 Y52.4115
X178.8331 Y52.2471
X178.7248 Y52.0383
X178.6875 Y51.8061
Y50.8444
G3 X178.9904 Y50.5384 I0.3173 J0.0111
G1 X179.3022 Y50.5241
X181.6724 Y50.4161
X181.9554 Y50.4032
G3 X182.2872 Y50.7093 I0.0145 J0.3172
G1 Y51.7153
X182.2797 Y51.8651
X182.2478 Y52.0117
X182.1993 Y52.1536
X182.1367 Y52.29
X182.0618 Y52.4199
X181.9727 Y52.5486
X181.8664 Y52.6786
X181.7374 Y52.8127
X181.594 Y52.9396
X181.4291 Y53.0635
X181.2451 Y53.1798
X181.0434 Y53.2857
X180.8291 Y53.3771
X180.6051 Y53.4521
X180.3742 Y53.5092
X180.1491 Y53.546
X179.9498 Y53.5623
X179.7337 Y53.5626
X179.5523 Y53.5483
X179.3909 Y53.5224
X179.2136 Y53.4791
X179.1953 Y53.473
X178.9903 Y53.3672
X178.8277 Y53.2035
X178.7234 Y52.9977
X178.6875 Y52.7698
Y51.8061
G3 X178.9951 Y51.4998 I0.3173 J0.0111
G1 X179.3024 Y51.4904
X181.6723 Y51.4179
X181.9602 Y51.409
G3 X182.2872 Y51.7153 I0.0097 J0.3174
G1 Y52.6291
X182.2797 Y52.7789
X182.2551 Y52.9269
X182.2122 Y53.0706
X182.1541 Y53.2089
X182.0834 Y53.3412
X181.9996 Y53.4697
X181.8971 Y53.6021
X181.7801 Y53.7304
X181.6394 Y53.8619
X181.4796 Y53.9888
X181.3053 Y54.1057
X181.1137 Y54.2129
X180.9033 Y54.3094
X180.6816 Y54.3903
X180.4532 Y54.4533
X180.2168 Y54.4986
X180.0107 Y54.521
X179.804 Y54.5269
X179.6069 Y54.5166
X179.4422 Y54.4947
X179.273 Y54.4582
X179.2143 Y54.4405
X179.0024 Y54.3374
X178.8336 Y54.173
X178.725 Y53.9639
X178.6875 Y53.7312
Y52.7698
G3 X178.9898 Y52.4637 I0.3173 J0.0111
G1 X179.3022 Y52.4489
X181.6725 Y52.3365
X181.9549 Y52.3231
G3 X182.2872 Y52.6291 I0.015 J0.3171
G1 Y53.6352
X182.2797 Y53.785
X182.2485 Y53.9317
X182.2006 Y54.0738
X182.1385 Y54.2104
X182.0639 Y54.3405
X181.9753 Y54.4694
X181.8697 Y54.5992
X181.7414 Y54.7333
X181.5985 Y54.8605
X181.4344 Y54.9845
X181.2508 Y55.1013
X181.0498 Y55.2075
X180.836 Y55.2994
X180.6123 Y55.3749
X180.3817 Y55.4326
X180.1563 Y55.4701
X179.9568 Y55.487
X179.7402 Y55.4879
X179.5581 Y55.474
X179.3967 Y55.4485
X179.2192 Y55.4057
X179.1973 Y55.3985
X178.9915 Y55.293
X178.8283 Y55.1292
X178.7236 Y54.923
X178.6875 Y54.6946
Y53.7312
G3 X178.9945 Y53.425 I0.3173 J0.0111
G1 X179.3024 Y53.415
X181.6723 Y53.3382
X181.9597 Y53.3289
G3 X182.2872 Y53.6352 I0.0103 J0.3173
G1 Y54.5658
X182.2798 Y54.7156
X182.2534 Y54.8632
X182.2093 Y55.0066
X182.15 Y55.1444
X182.0783 Y55.2761
X181.9939 Y55.4037
X181.8891 Y55.5373
X181.7708 Y55.6655
X181.6295 Y55.7959
X181.467 Y55.9233
X181.2903 Y56.0402
X181.0984 Y56.146
X180.8875 Y56.2412
X180.6652 Y56.3207
X180.4364 Y56.3824
X180.1997 Y56.4261
X179.9969 Y56.447
X179.7871 Y56.4516
X179.5934 Y56.4403
X179.4306 Y56.4176
X179.2589 Y56.3794
X179.2099 Y56.3643
X178.9996 Y56.2606
X178.8323 Y56.0963
X178.7246 Y55.888
X178.6875 Y55.6564
Y54.6946
G3 X178.991 Y54.3885 I0.3173 J0.0111
G1 X179.3023 Y54.375
X181.6725 Y54.272
X181.9562 Y54.2596
G3 X182.2872 Y54.5658 I0.0138 J0.3172
G1 X182.2873 Y55.5718
X182.2798 Y55.7216
X182.247 Y55.868
X182.1978 Y56.0097
X182.1347 Y56.1458
X182.0592 Y56.2754
X181.9698 Y56.4037
X181.8623 Y56.5341
X181.7325 Y56.6682
X181.5885 Y56.7948
X181.4224 Y56.9186
X181.2375 Y57.0347
X181.0351 Y57.1401
X180.8203 Y57.2308
X180.5959 Y57.3051
X180.3647 Y57.3614
X180.1399 Y57.3974
X179.941 Y57.413
X179.7256 Y57.4126
X179.545 Y57.3977
X179.3837 Y57.3713
X179.2068 Y57.3274
X179.193 Y57.3228
X178.9888 Y57.2167
X178.827 Y57.053
X178.7232 Y56.8476
X178.6875 Y56.6203
Y55.6564
G3 X178.9958 Y55.3501 I0.3173 J0.0111
G1 X179.3024 Y55.3414
X181.6723 Y55.2737
X181.9609 Y55.2655
G3 X182.2873 Y55.5718 I0.009 J0.3174
G1 Y56.4856
X182.2798 Y56.6354
X182.2543 Y56.7832
X182.2107 Y56.9268
X182.152 Y57.0648
X182.0809 Y57.1969
X181.9961 Y57.3257
X181.893 Y57.4579
X181.7751 Y57.5864
X181.6332 Y57.718
X181.4728 Y57.8444
X181.2976 Y57.961
X181.1052 Y58.0678
X180.8941 Y58.1637
X180.6719 Y58.2439
X180.4431 Y58.3061
X180.2064 Y58.3505
X180.0016 Y58.3722
X179.7948 Y58.3773
X179.5988 Y58.3664
X179.4348 Y58.3439
X179.2653 Y58.3067
X179.2118 Y58.2903
X179.0008 Y58.1869
X178.8328 Y58.0226
X178.7248 Y57.8139
X178.6875 Y57.5819
Y56.6203
G3 X178.9904 Y56.3142 I0.3173 J0.0111
G1 X179.3022 Y56.3001
X181.6725 Y56.1924
X181.9556 Y56.1795
G3 X182.2873 Y56.4856 I0.0144 J0.3172
G1 Y57.4916
X182.2798 Y57.6415
X182.2478 Y57.788
X182.1992 Y57.9299
X182.1365 Y58.0662
X182.0615 Y58.1961
X181.9725 Y58.3245
X181.8659 Y58.4548
X181.7368 Y58.5889
X181.5933 Y58.7157
X181.428 Y58.8397
X181.2436 Y58.9562
X181.0419 Y59.062
X180.8277 Y59.1533
X180.6035 Y59.2281
X180.3726 Y59.2851
X180.1475 Y59.3218
X179.9484 Y59.3381
X179.7325 Y59.3383
X179.5511 Y59.3238
X179.3898 Y59.2979
X179.2126 Y59.2545
X179.195 Y59.2486
X178.9901 Y59.1428
X178.8276 Y58.9791
X178.7234 Y58.7733
X178.6875 Y58.5455
Y57.5819
G3 X178.9952 Y57.2756 I0.3173 J0.0111
G1 X179.3024 Y57.2662
X181.6724 Y57.1941
X181.9603 Y57.1854
G3 X182.2873 Y57.4916 I0.0096 J0.3174
G1 Y58.4222
X182.2798 Y58.572
X182.2527 Y58.7196
X182.2078 Y58.8627
X182.148 Y59.0003
X182.0759 Y59.1318
X181.9905 Y59.2597
X181.8851 Y59.3933
X181.7659 Y59.5215
X181.6236 Y59.652
X181.4603 Y59.7791
X181.2829 Y59.8956
X181.0902 Y60.001
X180.8787 Y60.0956
X180.6559 Y60.1744
X180.4267 Y60.2353
X180.1899 Y60.2783
X179.9881 Y60.2983
X179.7783 Y60.3022
X179.5858 Y60.2904
X179.4235 Y60.2672
X179.2516 Y60.2283
X179.2075 Y60.2145
X178.9981 Y60.1105
X178.8315 Y59.9463
X178.7244 Y59.7383
X178.6875 Y59.5074
Y58.5455
G3 X178.9916 Y58.2394 I0.3173 J0.0111
G1 X179.3023 Y58.2264
X181.6725 Y58.1279
X181.9568 Y58.1161
G3 X182.2873 Y58.4222 I0.0132 J0.3172
G1 Y59.3868
X182.2798 Y59.5366
X182.2521 Y59.684
X182.2072 Y59.8271
X182.1473 Y59.9646
X182.0747 Y60.0959
X181.9913 Y60.221
X181.8866 Y60.3538
X181.7646 Y60.485
X181.6257 Y60.6124
X181.4622 Y60.7397
X181.2816 Y60.8583
X181.0871 Y60.9648
X180.8779 Y61.0584
X180.6552 Y61.1372
X180.426 Y61.1981
X180.1924 Y61.2405
X179.9918 Y61.2605
X179.7771 Y61.2645
X179.5874 Y61.2528
X179.4257 Y61.2297
X179.2506 Y61.1902
X179.2076 Y61.1767
X178.9981 Y61.0727
X178.8315 Y60.9085
X178.7244 Y60.7005
X178.6875 Y60.4695
Y59.5074
G3 X178.9919 Y59.2012 I0.3173 J0.0111
G1 X179.3023 Y59.1886
X181.6725 Y59.0922
X181.9571 Y59.0806
G3 X182.2873 Y59.3868 I0.0129 J0.3172
G1 Y60.3421
X182.2798 Y60.4919
X182.2531 Y60.6395
X182.2089 Y60.7829
X182.1497 Y60.9207
X182.0777 Y61.0523
X181.995 Y61.1774
X181.8909 Y61.3105
X181.7706 Y61.441
X181.6321 Y61.5689
X181.4696 Y61.6965
X181.2905 Y61.8152
X181.0977 Y61.9217
X180.8887 Y62.0162
X180.6666 Y62.0958
X180.438 Y62.1575
X180.2032 Y62.2011
X180.0016 Y62.222
X179.7875 Y62.2268
X179.596 Y62.2158
X179.4337 Y62.1933
X179.2593 Y62.1546
X179.2104 Y62.1396
X178.9999 Y62.0359
X178.8324 Y61.8716
X178.7247 Y61.6632
X178.6875 Y61.4315
Y60.4695
G3 X178.9912 Y60.1634 I0.3173 J0.0111
G1 X179.3023 Y60.15
X181.6725 Y60.0482
X181.9564 Y60.036
G3 X182.2873 Y60.3421 I0.0136 J0.3172
G1 X182.2874 Y61.2727
X182.2799 Y61.4225
X182.2577 Y61.5709
X182.2172 Y61.7153
X182.161 Y61.8543
X182.0917 Y61.9874
X182.0113 Y62.114
X181.9105 Y62.2471
X181.7955 Y62.3761
X181.6601 Y62.5054
X181.5012 Y62.6344
X181.3273 Y62.7538
X181.139 Y62.862
X180.932 Y62.9596
X180.7116 Y63.0428
X180.4842 Y63.1082
X180.2491 Y63.1558
X180.0413 Y63.1808
X179.8308 Y63.1891
X179.6321 Y63.1809
X179.4663 Y63.1606
X179.2957 Y63.1257
X179.2221 Y63.1044
X179.0475 Y63.0283
X178.8981 Y62.9103
X178.7838 Y62.758
X178.712 Y62.5817
X178.6875 Y62.3929
Y61.4315
G3 X178.9878 Y61.1255 I0.3173 J0.0111
G1 X179.3021 Y61.1087
X181.6727 Y60.9817
X181.9531 Y60.9667
G3 X182.2874 Y61.2727 I0.017 J0.317
G1 Y62.2787
X182.2799 Y62.4285
X182.2512 Y62.5758
X182.2052 Y62.7186
X182.145 Y62.8559
X182.072 Y62.9869
X181.9845 Y63.1169
X181.8821 Y63.2454
X181.7565 Y63.3793
X181.6152 Y63.5077
X181.4546 Y63.6316
X181.274 Y63.749
X181.0749 Y63.8568
X180.8625 Y63.9507
X180.6402 Y64.0282
X180.4105 Y64.0882
X180.184 Y64.1282
X179.9735 Y64.1481
X179.7644 Y64.1511
X179.5886 Y64.1395
X179.4029 Y64.1121
X179.2413 Y64.0748
X179.2044 Y64.0631
X178.996 Y63.9586
X178.8305 Y63.7945
X178.7242 Y63.5871
X178.6875 Y63.3569
Y62.3929
G3 X178.9926 Y62.0867 I0.3173 J0.0111
G1 X179.3023 Y62.0747
X181.6725 Y61.9835
X181.9579 Y61.9725
G3 X182.2874 Y62.2787 I0.0122 J0.3173
G1 Y63.2433
X182.2799 Y63.3931
X182.251 Y63.5403
X182.2051 Y63.6831
X182.1444 Y63.8202
X182.0712 Y63.9512
X181.9866 Y64.0769
X181.8803 Y64.2103
X181.7578 Y64.3411
X181.6171 Y64.4689
X181.4532 Y64.5953
X181.2715 Y64.7135
X181.076 Y64.8194
X180.8655 Y64.9125
X180.6444 Y64.9896
X180.4127 Y65.0501
X180.1791 Y65.0914
X179.9797 Y65.1104
X179.7655 Y65.1134
X179.5772 Y65.101
X179.4161 Y65.0772
X179.241 Y65.0369
X179.2045 Y65.0253
X178.9961 Y64.9208
X178.8306 Y64.7567
X178.7242 Y64.5493
X178.6875 Y64.3191
Y63.3569
G3 X178.9926 Y63.0507 I0.3173 J0.0111
G1 X179.3023 Y63.0389
X181.6725 Y62.948
X181.9579 Y62.9371
G3 X182.2874 Y63.2433 I0.0122 J0.3173
G1 Y64.1986
X182.2799 Y64.3484
X182.2521 Y64.4958
X182.2071 Y64.6389
X182.1471 Y64.7764
X182.0746 Y64.9077
X181.991 Y65.033
X181.8857 Y65.1663
X181.7649 Y65.2963
X181.625 Y65.4246
X181.4611 Y65.5521
X181.2813 Y65.6702
X181.0877 Y65.7761
X180.8776 Y65.87
X180.6549 Y65.9487
X180.4259 Y66.0096
X180.1911 Y66.0521
X179.9905 Y66.0721
X179.7768 Y66.076
X179.5865 Y66.0643
X179.4248 Y66.0411
X179.2504 Y66.0017
X179.2075 Y65.9883
X178.998 Y65.8842
X178.8315 Y65.72
X178.7244 Y65.5121
X178.6875 Y65.2811
Y64.3191
G3 X178.9919 Y64.0129 I0.3173 J0.0111
G1 X179.3023 Y64.0003
X181.6726 Y63.904
X181.9572 Y63.8924
G3 X182.2874 Y64.1986 I0.0129 J0.3172
G1 Y65.1292
X182.2799 Y65.279
X182.2568 Y65.4272
X182.2154 Y65.5714
X182.1585 Y65.7101
X182.0887 Y65.8429
X182.0077 Y65.9691
X181.906 Y66.1025
X181.7904 Y66.2311
X181.6537 Y66.3607
X181.4938 Y66.4895
X181.3193 Y66.6084
X181.1301 Y66.7161
X180.9222 Y66.8133
X180.7012 Y66.8956
X180.4735 Y66.9603
X180.2381 Y67.0071
X180.0315 Y67.0311
X179.8212 Y67.0386
X179.6236 Y67.0297
X179.4585 Y67.0089
X179.2876 Y66.9733
X179.2194 Y66.9533
X179.0456 Y66.8768
X178.897 Y66.7587
X178.7832 Y66.6067
X178.7118 Y66.4308
X178.6875 Y66.2425
Y65.2811
G3 X178.9886 Y64.9751 I0.3173 J0.0111
G1 X179.3022 Y64.9591
X181.6727 Y64.8376
X181.9539 Y64.8232
G3 X182.2874 Y65.1292 I0.0163 J0.3171
G1 Y66.1352
X182.2799 Y66.285
X182.2503 Y66.432
X182.2036 Y66.5746
X182.1426 Y66.7117
X182.069 Y66.8424
X181.981 Y66.972
X181.8775 Y67.101
X181.7508 Y67.235
X181.6088 Y67.363
X181.447 Y67.4868
X181.2654 Y67.604
X181.0654 Y67.7112
X180.8524 Y67.8043
X180.6296 Y67.8811
X180.3996 Y67.9402
X180.1735 Y67.9792
X179.9632 Y67.9984
X179.7554 Y68.0005
X179.58 Y67.9883
X179.3947 Y67.9602
X179.234 Y67.9225
X179.2017 Y67.9121
X178.9943 Y67.8072
X178.8297 Y67.6432
X178.724 Y67.4363
X178.6875 Y67.2068
Y66.2425
G3 X178.9933 Y65.9363 I0.3173 J0.0111
G1 X179.3024 Y65.9251
X181.6726 Y65.8393
X181.9586 Y65.829
G3 X182.2874 Y66.1352 I0.0115 J0.3173
G1 X182.2875 Y67.049
X182.28 Y67.1988
X182.2576 Y67.3472
X182.2166 Y67.4914
X182.1601 Y67.6304
X182.0907 Y67.7634
X182.0093 Y67.8907
X181.9086 Y68.0235
X181.794 Y68.1516
X181.6561 Y68.283
X181.4982 Y68.4108
X181.326 Y68.5286
X181.1353 Y68.6378
X180.9269 Y68.7358
X180.7079 Y68.8181
X180.478 Y68.8839
X180.243 Y68.9312
X180.0342 Y68.9559
X179.828 Y68.9637
X179.6279 Y68.9552
X179.4614 Y68.9347
X179.2934 Y68.9001
X179.2211 Y68.879
X179.0468 Y68.8028
X178.8977 Y68.6847
X178.7836 Y68.5326
X178.7119 Y68.3564
X178.6875 Y68.1677
Y67.2068
G3 X178.9879 Y66.9008 I0.3173 J0.0111
G1 X179.3021 Y66.8841
X181.6728 Y66.758
X181.9533 Y66.743
G3 X182.2875 Y67.049 I0.0169 J0.3171
G1 Y68.0551
X182.28 Y68.2049
X182.2509 Y68.352
X182.2047 Y68.4947
X182.1442 Y68.632
X182.071 Y68.7629
X181.9834 Y68.8927
X181.8806 Y69.0214
X181.7545 Y69.1555
X181.613 Y69.2838
X181.4517 Y69.4079
X181.2704 Y69.5255
X181.0712 Y69.633
X180.8586 Y69.7266
X180.6361 Y69.804
X180.4063 Y69.8636
X180.1802 Y69.9033
X179.9698 Y69.923
X179.7612 Y69.9257
X179.5856 Y69.9139
X179.4001 Y69.8863
X179.2389 Y69.8489
X179.2035 Y69.8376
X178.9955 Y69.733
X178.8303 Y69.5689
X178.7241 Y69.3617
X178.6875 Y69.1317
Y68.1677
G3 X178.9928 Y67.8616 I0.3173 J0.0111
G1 X179.3024 Y67.8498
X181.6726 Y67.7597
X181.9581 Y67.7489
G3 X182.2875 Y68.0551 I0.0121 J0.3173
G1 Y68.9856
X182.28 Y69.1355
X182.2558 Y69.2835
X182.2135 Y69.4274
X182.1558 Y69.5659
X182.0854 Y69.6983
X182.0034 Y69.8247
X181.9007 Y69.9584
X181.7845 Y70.0868
X181.6459 Y70.2171
X181.4856 Y70.3452
X181.3108 Y70.4633
X181.1198 Y70.571
X180.9109 Y70.6677
X180.6913 Y70.7486
X180.4609 Y70.813
X180.2254 Y70.8589
X180.0202 Y70.882
X179.8105 Y70.8886
X179.6141 Y70.879
X179.4497 Y70.8577
X179.2789 Y70.8214
X179.2167 Y70.8028
X179.0039 Y70.7001
X178.8344 Y70.5356
X178.7252 Y70.3261
X178.6875 Y70.0929
Y69.1317
G3 X178.9892 Y68.8257 I0.3173 J0.0111
G1 X179.3022 Y68.8103
X181.6728 Y68.6935
X181.9546 Y68.6796
G3 X182.2875 Y68.9856 I0.0156 J0.3171
G1 Y69.9917
X182.28 Y70.1415
X182.2494 Y70.2883
X182.2019 Y70.4306
X182.1403 Y70.5674
X182.0661 Y70.6978
X181.9777 Y70.827
X181.8731 Y70.9564
X181.7453 Y71.0906
X181.6027 Y71.2182
X181.4395 Y71.3422
X181.2568 Y71.4591
X181.0561 Y71.5658
X180.8425 Y71.6583
X180.6192 Y71.7343
X180.3888 Y71.7926
X180.1633 Y71.8307
X179.9634 Y71.8482
X179.7464 Y71.8497
X179.5637 Y71.8362
X179.4022 Y71.8112
X179.2244 Y71.7687
X179.1991 Y71.7605
X178.9927 Y71.6553
X178.8289 Y71.4914
X178.7237 Y71.2849
X178.6875 Y71.056
Y70.0929
G3 X178.994 Y69.7866 I0.3173 J0.0111
G1 X179.3024 Y69.7761
X181.6726 Y69.6952
X181.9594 Y69.6855
G3 X182.2875 Y69.9917 I0.0108 J0.3173
G1 Y70.0671
X182.2891 Y70.1747
X182.2992 Y70.1857
X182.3194 Y70.2039
X182.3295 Y70.2102
X182.3703 Y70.2112
X182.4078 Y70.2134
X182.4903 Y70.3387
X182.5396 Y70.4803
X182.5632 Y70.6284
X182.5651 Y70.7784
X182.5484 Y70.9275
X182.5159 Y71.0739
X182.4695 Y71.2166
X182.4106 Y71.3545
X182.3345 Y71.4994
X182.244 Y71.6423
X182.1313 Y71.7921
X181.9988 Y71.9416
X181.8503 Y72.0843
X181.678 Y72.2251
X181.484 Y72.3591
X181.2745 Y72.4803
X181.0506 Y72.5868
X180.8145 Y72.6766
X180.5714 Y72.7474
X180.3241 Y72.7983
X180.092 Y72.8269
X179.8854 Y72.8356
X179.6689 Y72.8274
X179.4912 Y72.8063
X179.3246 Y72.7727
X179.2242 Y72.7439
X179.0491 Y72.6682
X178.8991 Y72.5502
X178.7842 Y72.3977
X178.7121 Y72.221
X178.6875 Y72.0318
Y71.056
G3 X178.9548 Y70.7536 I0.3173 J0.0111
G1 X179.2984 Y70.6987
X181.5945 Y70.3323
X182.3289 Y70.215
X182.3703 Y70.2112
X182.6241 Y70.2125
X182.6615 Y70.2144
X182.7893 Y70.293
X182.896 Y70.3985
X182.9819 Y70.5214
X183.0483 Y70.6559
X183.0965 Y70.7979
X183.1279 Y70.9446
X183.1435 Y71.0938
X183.1449 Y71.2438
X183.1334 Y71.3933
X183.1084 Y71.5489
X183.0675 Y71.7164
X183.0114 Y71.8857
X182.9373 Y72.0608
X182.8413 Y72.2451
X182.7254 Y72.4294
X182.5906 Y72.6101
X182.4306 Y72.7919
X182.2456 Y72.9709
X182.0383 Y73.1415
X181.8126 Y73.2986
X181.5682 Y73.4411
X181.3072 Y73.5663
X181.0371 Y73.6702
X180.7577 Y73.7526
X180.547 Y73.7968
X180.4967 Y73.8055
X180.4461 Y73.8107
X180.3951 Y73.8125
X179.8557
X179.6497 Y73.8022
X179.4619 Y73.7776
X179.2878 Y73.7403
X179.2157 Y73.7188
X179.0033 Y73.6159
X178.8341 Y73.4514
X178.7251 Y73.2421
X178.6875 Y73.0091
G3 X179.1611 Y72.7438 I0.3173 J0.0111
G1 X179.278 Y72.8099
X180.001 Y73.2188
G3 X179.8557 Y73.8125 I-0.1563 J0.2764
G1 X179.0175
X178.9756 Y73.81
X178.9337 Y73.8017
X178.8918 Y73.7873
X178.8499 Y73.7657
X178.8349 Y73.7559
X178.8135 Y73.7398
X178.7921 Y73.7204
X178.7494 Y73.6721
X178.7233 Y73.6302
X178.7052 Y73.5883
X178.6937 Y73.5464
X178.6882 Y73.5044
X178.6875 Y73.2529
Y72.0318
G3 X178.8827 Y71.7498 I0.3173 J0.0111
G1 X179.2732 Y71.587
X181.8936 Y70.4949
X182.513 Y70.2367
G3 X182.6241 Y70.2125 I0.1221 J0.2931
G1 X183.007
X183.1568 Y70.22
X183.2904 Y70.2882
X183.4105 Y70.378
X183.5163 Y70.4844
X183.6076 Y70.6034
X183.6848 Y70.732
X183.7483 Y70.8679
X183.7988 Y71.0091
X183.837 Y71.1542
X183.8645 Y71.3104
X183.8807 Y71.4814
X183.8832 Y71.6577
X183.8705 Y71.8481
X183.8404 Y72.052
X183.7923 Y72.2599
X183.7245 Y72.4736
X183.6327 Y72.6983
X183.5157 Y72.9299
X183.3765 Y73.1576
X183.2128 Y73.3827
X183.0658 Y73.5541
X182.9061 Y73.6936
X182.7134 Y73.7822
X182.5035 Y73.8125
X180.3951
G3 X180.1679 Y73.2853 I0.0111 J-0.3173
G1 X180.2132 Y73.2339
X182.4315 Y70.7154
X182.7798 Y70.32
G3 X183.007 Y70.2125 I0.2383 J0.2099
G1 X183.5099
X183.6597 Y70.22
X183.8042 Y70.2604
X183.9395 Y70.3251
X184.0641 Y70.4085
X184.1775 Y70.5068
X184.2794 Y70.6168
X184.3699 Y70.7365
X184.4489 Y70.864
X184.5196 Y71.0031
X184.581 Y71.1523
X184.635 Y71.321
X184.6781 Y71.5057
X184.7072 Y71.6987
X184.7218 Y71.911
X184.7192 Y72.1417
X184.6974 Y72.3778
X184.6543 Y72.6258
X184.5866 Y72.8882
X184.4961 Y73.1499
X184.3955 Y73.3795
X184.3723 Y73.4226
X184.2554 Y73.5836
X184.0999 Y73.7076
X183.917 Y73.7858
X183.7199 Y73.8125
X182.5035
G3 X182.2139 Y73.3932 I0.0111 J-0.3173
G1 X182.2762 Y73.2096
X183.0912 Y70.8081
X183.2203 Y70.4278
G3 X183.5099 Y70.2125 I0.3007 J0.102
G1 X184.2144
X184.3642 Y70.22
X184.5092 Y70.2585
X184.6469 Y70.318
X184.776 Y70.3944
X184.8957 Y70.4848
X185.0058 Y70.5866
X185.1065 Y70.6978
X185.2016 Y70.8226
X185.2936 Y70.966
X185.3767 Y71.1216
X185.4544 Y71.3005
X185.5218 Y71.4977
X185.5749 Y71.7064
X185.6146 Y71.9397
X185.6372 Y72.1938
X185.6393 Y72.4555
X185.6209 Y72.7099
X185.5863 Y72.9348
X185.5358 Y73.1476
X185.4794 Y73.3216
X185.4652 Y73.3558
X185.3534 Y73.542
X185.1924 Y73.6878
X184.9959 Y73.7806
X184.7811 Y73.8125
X183.7199
G3 X183.4178 Y73.443 I0.0111 J-0.3173
G1 X183.4581 Y73.201
X183.8547 Y70.823
X183.9123 Y70.4776
G3 X184.2144 Y70.2125 I0.3132 J0.0522
G1 X184.9772
X185.127 Y70.22
X185.2732 Y70.2533
X185.4135 Y70.3064
X185.5466 Y70.3755
X185.6717 Y70.4583
X185.7884 Y70.5526
X185.8968 Y70.6562
X186.0076 Y70.7806
X186.1166 Y70.9248
X186.2178 Y71.084
X186.3163 Y71.2701
X186.4039 Y71.474
X186.4775 Y71.6918
X186.5365 Y71.9272
X186.5779 Y72.1759
X186.5994 Y72.4287
X186.6003 Y72.6435
X186.5835 Y72.865
X186.5534 Y73.0562
X186.5133 Y73.2223
X186.487 Y73.3026
X186.3815 Y73.5084
X186.2176 Y73.6716
X186.0115 Y73.7764
X185.783 Y73.8125
X184.7811
G3 X184.4753 Y73.4742 I0.0111 J-0.3173
G1 X184.4936 Y73.1981
X184.6504 Y70.8269
X184.6714 Y70.5089
G3 X184.9772 Y70.2125 I0.3168 J0.021
G1 X185.8154
X185.9652 Y70.22
X186.1121 Y70.2504
X186.2537 Y70.2998
X186.3889 Y70.3647
X186.5172 Y70.4425
X186.6379 Y70.5316
X186.7586 Y70.6367
X186.8781 Y70.759
X187.0002 Y70.9059
X187.1133 Y71.0665
X187.2216 Y71.25
X187.3201 Y71.4527
X187.4059 Y71.6725
X187.4751 Y71.9027
X187.5262 Y72.1408
X187.557 Y72.3739
X187.5675 Y72.5809
X187.561 Y72.8024
X187.5407 Y72.9862
X187.5089 Y73.1516
X187.4762 Y73.2696
X187.4013 Y73.4465
X187.2834 Y73.5982
X187.1305 Y73.7145
X186.9528 Y73.7876
X186.7623 Y73.8125
X185.783
G3 X185.4766 Y73.4917 I0.0111 J-0.3173
G1 X185.4798 Y73.1975
X185.5057 Y70.8275
X185.509 Y70.5263
G3 X185.8154 Y70.2125 I0.3175 J0.0035
G1 X186.729
X186.8788 Y70.22
X187.0255 Y70.2515
X187.1672 Y70.3006
X187.3028 Y70.3648
X187.4318 Y70.4413
X187.5552 Y70.5295
X187.6852 Y70.6392
X187.8092 Y70.7623
X187.9347 Y70.9085
X188.0569 Y71.0765
X188.1681 Y71.2585
X188.268 Y71.4562
X188.3566 Y71.6731
X188.4289 Y71.9009
X188.483 Y72.1351
X188.5164 Y72.3616
X188.5313 Y72.5851
X188.5285 Y72.7838
X188.5115 Y72.9637
X188.479 Y73.1475
X188.4387 Y73.3021
X188.4341 Y73.3155
X188.3268 Y73.5166
X188.1636 Y73.6756
X187.9597 Y73.7774
X187.7345 Y73.8125
X186.7623
G3 X186.4559 Y73.4988 I0.0111 J-0.3173
G1 X186.4525 Y73.1975
X186.4259 Y70.8275
X186.4226 Y70.5334
G3 X186.729 Y70.2125 I0.3175 J-0.0036
G1 X187.6594
X187.8092 Y70.22
X187.9561 Y70.2505
X188.0983 Y70.2983
X188.2345 Y70.361
X188.3645 Y70.4359
X188.49 Y70.5233
X188.6221 Y70.632
X188.7485 Y70.7542
X188.8761 Y70.8991
X189.0006 Y71.0658
X189.1145 Y71.247
X189.2179 Y71.4454
X189.3085 Y71.6594
X189.383 Y71.8841
X189.4403 Y72.1186
X189.4783 Y72.3551
X189.494 Y72.5542
X189.4938 Y72.7651
X189.4784 Y72.9533
X189.4521 Y73.1138
X189.4092 Y73.2873
X189.4028 Y73.3066
X189.2967 Y73.5109
X189.1331 Y73.6729
X188.9276 Y73.7767
X188.7002 Y73.8125
X187.7345
G3 X187.4282 Y73.5032 I0.0111 J-0.3173
G1 X187.4204 Y73.1975
X187.3604 Y70.8275
X187.3531 Y70.5378
G3 X187.6594 Y70.2125 I0.3174 J-0.008
G1 X188.573
X188.7229 Y70.22
X188.8707 Y70.2451
X189.0143 Y70.2885
X189.1524 Y70.3472
X189.2843 Y70.4185
X189.411 Y70.5021
X189.5431 Y70.6053
X189.6702 Y70.7223
X189.8005 Y70.8631
X189.9272 Y71.0243
X190.0438 Y71.2001
X190.1505 Y71.3929
X190.246 Y71.6036
X190.3261 Y71.8267
X190.3883 Y72.0561
X190.4324 Y72.2928
X190.4538 Y72.4983
X190.4586 Y72.7059
X190.4475 Y72.9021
X190.4248 Y73.0661
X190.3872 Y73.2363
X190.371 Y73.2891
X190.2674 Y73.4998
X190.1031 Y73.6674
X189.8946 Y73.7753
X189.6628 Y73.8125
X188.7002
G3 X188.3941 Y73.5088 I0.0111 J-0.3173
G1 X188.3807 Y73.1977
X188.2791 Y70.8273
X188.2669 Y70.5434
G3 X188.573 Y70.2125 I0.3172 J-0.0136
G1 X189.5789
X189.7287 Y70.22
X189.8752 Y70.2524
X190.0169 Y70.3014
X190.1531 Y70.3644
X190.2827 Y70.4398
X190.4114 Y70.5294
X190.5412 Y70.6363
X190.6751 Y70.7659
X190.8018 Y70.91
X190.9253 Y71.0755
X191.0413 Y71.2603
X191.1467 Y71.4625
X191.2375 Y71.6774
X191.3118 Y71.9019
X191.3683 Y72.1333
X191.4043 Y72.358
X191.42 Y72.5574
X191.4196 Y72.7731
X191.4047 Y72.9538
X191.3783 Y73.1153
X191.3344 Y73.2924
X191.3296 Y73.3069
X191.2235 Y73.5111
X191.0598 Y73.673
X190.8544 Y73.7767
X190.6271 Y73.8125
X189.6628
G3 X189.3565 Y73.5042 I0.0111 J-0.3173
G1 X189.3478 Y73.1976
X189.2808 Y70.8274
X189.2726 Y70.5388
G3 X189.5789 Y70.2125 I0.3174 J-0.009
G1 X190.5093
X190.6591 Y70.22
X190.8065 Y70.2477
X190.9495 Y70.293
X191.0869 Y70.3533
X191.2182 Y70.4259
X191.3463 Y70.5118
X191.4797 Y70.6178
X191.6078 Y70.7375
X191.7382 Y70.8806
X191.865 Y71.0444
X191.9811 Y71.2223
X192.0862 Y71.4156
X192.1803 Y71.6277
X192.2586 Y71.8509
X192.3189 Y72.0804
X192.3611 Y72.3174
X192.3806 Y72.5186
X192.3839 Y72.7284
X192.3715 Y72.9202
X192.3479 Y73.0822
X192.3085 Y73.2542
X192.2958 Y73.2945
X192.1914 Y73.5032
X192.0273 Y73.6691
X191.8197 Y73.7757
X191.5892 Y73.8125
X190.6271
G3 X190.3209 Y73.5078 I0.0111 J-0.3173
G1 X190.3086 Y73.1977
X190.2144 Y70.8273
X190.2031 Y70.5424
G3 X190.5093 Y70.2125 I0.3172 J-0.0126
G1 X191.4736
X191.6235 Y70.22
X191.7708 Y70.2483
X191.9137 Y70.2938
X192.051 Y70.3541
X192.1821 Y70.4271
X192.3073 Y70.511
X192.4402 Y70.6166
X192.5712 Y70.7388
X192.6986 Y70.8786
X192.8257 Y71.0429
X192.944 Y71.2241
X193.0501 Y71.4191
X193.1432 Y71.6289
X193.2215 Y71.852
X193.2818 Y72.0814
X193.3235 Y72.3151
X193.3428 Y72.5152
X193.3463 Y72.7296
X193.3341 Y72.9186
X193.3106 Y73.08
X193.2705 Y73.2551
X193.2582 Y73.2944
X193.1538 Y73.5031
X192.9897 Y73.6691
X192.7821 Y73.7757
X192.5516 Y73.8125
X191.5892
G3 X191.2831 Y73.5076 I0.0111 J-0.3173
G1 X191.271 Y73.1977
X191.1786 Y70.8273
X191.1675 Y70.5422
G3 X191.4736 Y70.2125 I0.3173 J-0.0124
G1 X192.4288
X192.5786 Y70.22
X192.7261 Y70.2474
X192.8693 Y70.292
X193.0069 Y70.3518
X193.1383 Y70.4241
X193.2634 Y70.5073
X193.3967 Y70.6122
X193.5269 Y70.7328
X193.655 Y70.8721
X193.7825 Y71.0354
X193.9007 Y71.2149
X194.0069 Y71.4081
X194.101 Y71.6178
X194.1801 Y71.8403
X194.2413 Y72.0692
X194.2842 Y72.304
X194.3045 Y72.5051
X194.3088 Y72.7189
X194.2973 Y72.9097
X194.2744 Y73.0717
X194.2353 Y73.2461
X194.2212 Y73.2914
X194.1172 Y73.5013
X193.953 Y73.6682
X193.7449 Y73.7755
X193.5137 Y73.8125
X192.5516
G3 X192.2454 Y73.5083 I0.0111 J-0.3173
G1 X192.2326 Y73.1977
X192.1344 Y70.8273
X192.1226 Y70.5429
G3 X192.4288 Y70.2125 I0.3172 J-0.0131
G1 X193.3592
X193.509 Y70.22
X193.6573 Y70.2427
X193.8015 Y70.2838
X193.9404 Y70.3404
X194.0733 Y70.41
X194.1997 Y70.4908
X194.3329 Y70.5921
X194.4617 Y70.7075
X194.5911 Y70.8437
X194.7201 Y71.0032
X194.8391 Y71.1775
X194.947 Y71.3663
X195.0443 Y71.5738
X195.127 Y71.7946
X195.1919 Y72.0222
X195.2391 Y72.2575
X195.2635 Y72.4646
X195.2712 Y72.675
X195.2626 Y72.8731
X195.2421 Y73.0385
X195.2067 Y73.2093
X195.1862 Y73.2796
X195.1099 Y73.4536
X194.9918 Y73.6026
X194.8397 Y73.7166
X194.6636 Y73.7881
X194.4751 Y73.8125
X193.5137
G3 X193.2077 Y73.5117 I0.0111 J-0.3173
G1 X193.1913 Y73.1979
X193.0678 Y70.8272
X193.0532 Y70.5463
G3 X193.3592 Y70.2125 I0.3171 J-0.0165
G1 X194.365
X194.5148 Y70.22
X194.662 Y70.2493
X194.8046 Y70.2957
X194.9418 Y70.3563
X195.0726 Y70.4297
X195.2024 Y70.5174
X195.3311 Y70.6205
X195.4651 Y70.7467
X195.5933 Y70.8884
X195.7171 Y71.0498
X195.8344 Y71.231
X195.9419 Y71.4306
X196.0353 Y71.6433
X196.1124 Y71.8659
X196.1718 Y72.0958
X196.2113 Y72.3221
X196.2308 Y72.5325
X196.2333 Y72.7409
X196.2212 Y72.9164
X196.1935 Y73.1019
X196.1559 Y73.263
X196.145 Y73.2972
X196.0402 Y73.505
X195.8762 Y73.67
X195.6691 Y73.776
X195.4393 Y73.8125
X194.4751
G3 X194.1689 Y73.507 I0.0111 J-0.3173
G1 X194.1574 Y73.1976
X194.0694 Y70.8274
X194.0588 Y70.5416
G3 X194.365 Y70.2125 I0.3173 J-0.0118
G1 X195.2787
X195.4285 Y70.22
X195.5769 Y70.242
X195.7213 Y70.2826
X195.8603 Y70.3388
X195.9934 Y70.4079
X196.1205 Y70.4889
X196.2533 Y70.5893
X196.3814 Y70.7034
X196.5128 Y70.8409
X196.6408 Y70.9984
X196.7588 Y71.1702
X196.8681 Y71.3604
X196.9664 Y71.5685
X197.049 Y71.7873
X197.1152 Y72.017
X197.1629 Y72.2519
X197.1881 Y72.4613
X197.1963 Y72.6674
X197.1881 Y72.8681
X197.1678 Y73.035
X197.1335 Y73.2028
X197.1119 Y73.2777
X197.0358 Y73.4523
X196.9178 Y73.6018
X196.7655 Y73.7162
X196.5891 Y73.788
X196.4003 Y73.8125
X195.4393
G3 X195.1333 Y73.5124 I0.0111 J-0.3173
G1 X195.1163 Y73.1979
X194.9879 Y70.8271
X194.9727 Y70.547
G3 X195.2787 Y70.2125 I0.317 J-0.0172
G1 X196.2845
X196.4343 Y70.22
X196.5816 Y70.2486
X196.7244 Y70.2945
X196.8618 Y70.3547
X196.9928 Y70.4276
X197.1228 Y70.515
X197.2513 Y70.6173
X197.3854 Y70.7429
X197.5138 Y70.8842
X197.6379 Y71.0449
X197.7557 Y71.2258
X197.8634 Y71.4246
X197.9574 Y71.6369
X198.035 Y71.8593
X198.0951 Y72.0889
X198.1352 Y72.3152
X198.1553 Y72.5256
X198.1583 Y72.7348
X198.1468 Y72.9106
X198.1195 Y73.0963
X198.0823 Y73.2579
X198.0704 Y73.2953
X197.966 Y73.5037
X197.8019 Y73.6694
X197.5944 Y73.7758
X197.3642 Y73.8125
X196.4003
G3 X196.0941 Y73.5076 I0.0111 J-0.3173
G1 X196.082 Y73.1977
X195.9895 Y70.8273
X195.9783 Y70.5422
G3 X196.2845 Y70.2125 I0.3173 J-0.0124
G1 X197.2149
X197.3647 Y70.22
X197.5128 Y70.2437
X197.6569 Y70.2856
X197.7954 Y70.343
X197.928 Y70.4132
X198.0542 Y70.4947
X198.1878 Y70.597
X198.3163 Y70.7128
X198.4465 Y70.8508
X198.5748 Y71.0107
X198.6931 Y71.1851
X198.8011 Y71.3756
X198.8981 Y71.5842
X198.9793 Y71.8035
X199.0442 Y72.0337
X199.0905 Y72.2691
X199.114 Y72.475
X199.1211 Y72.6846
X199.1118 Y72.8816
X199.0908 Y73.0463
X199.0549 Y73.217
X199.0356 Y73.282
X198.9331 Y73.4952
X198.7686 Y73.6652
X198.5588 Y73.7747
X198.3253 Y73.8125
X197.3642
G3 X197.0582 Y73.5112 I0.0111 J-0.3173
G1 X197.0424 Y73.1978
X196.9231 Y70.8272
X196.9089 Y70.5458
G3 X197.2149 Y70.2125 I0.3171 J-0.016
G1 X198.2207
X198.3706 Y70.22
X198.5175 Y70.2502
X198.6599 Y70.2973
X198.7968 Y70.3586
X198.9274 Y70.4325
X199.0568 Y70.5207
X199.1859 Y70.6247
X199.3201 Y70.752
X199.4479 Y70.8943
X199.5719 Y71.0569
X199.689 Y71.2391
X199.796 Y71.4395
X199.8888 Y71.6527
X199.9652 Y71.8758
X200.0239 Y72.106
X200.0625 Y72.3318
X200.0803 Y72.5318
X200.0822 Y72.7492
X200.069 Y72.9323
X200.0443 Y73.094
X200.0022 Y73.2719
X199.9932 Y73.2996
X199.8881 Y73.5065
X199.7242 Y73.6707
X199.5175 Y73.7762
X199.2883 Y73.8125
X198.3253
G3 X198.019 Y73.5064 I0.0111 J-0.3173
G1 X198.0081 Y73.1976
X197.9246 Y70.8274
X197.9145 Y70.541
G3 X198.2207 Y70.2125 I0.3173 J-0.0112
G1 X199.1344
X199.2842 Y70.22
X199.4325 Y70.2428
X199.5766 Y70.2842
X199.7155 Y70.341
X199.8483 Y70.4106
X199.976 Y70.4925
X200.1087 Y70.5936
X200.2369 Y70.7086
X200.3683 Y70.8471
X200.496 Y71.0054
X200.6137 Y71.1779
X200.7218 Y71.3677
X200.8197 Y71.5766
X200.9021 Y71.7974
X200.9668 Y72.0249
X201.0139 Y72.2608
X201.0383 Y72.4694
X201.0457 Y72.6757
X201.0368 Y72.8755
X201.016 Y73.0418
X200.9811 Y73.21
X200.9605 Y73.2802
X200.8841 Y73.4541
X200.766 Y73.6028
X200.614 Y73.7167
X200.438 Y73.7881
X200.2496 Y73.8125
X199.2883
G3 X198.9823 Y73.5117 I0.0111 J-0.3173
G1 X198.966 Y73.1979
X198.843 Y70.8272
X198.8284 Y70.5463
G3 X199.1344 Y70.2125 I0.3171 J-0.0165
G1 X200.1402
X200.2901 Y70.22
X200.4371 Y70.2494
X200.5798 Y70.2959
X200.7169 Y70.3566
X200.8477 Y70.4301
X200.9773 Y70.5179
X201.1062 Y70.6212
X201.2403 Y70.7476
X201.3683 Y70.8894
X201.4923 Y71.051
X201.6097 Y71.2327
X201.717 Y71.4322
X201.8103 Y71.645
X201.8873 Y71.8678
X201.9466 Y72.0977
X201.9859 Y72.3238
X202.0053 Y72.534
X202.0077 Y72.7423
X201.9956 Y72.9178
X201.9677 Y73.1031
X201.9301 Y73.2641
X201.9193 Y73.2976
X201.8145 Y73.5052
X201.6505 Y73.6701
X201.4435 Y73.776
X201.2138 Y73.8125
X200.2496
G3 X199.9434 Y73.5069 I0.0111 J-0.3173
G1 X199.932 Y73.1976
X199.8446 Y70.8274
X199.834 Y70.5415
G3 X200.1402 Y70.2125 I0.3173 J-0.0117
G1 X201.0706
X201.2205 Y70.22
X201.3684 Y70.2445
X201.5123 Y70.2871
X201.6506 Y70.3451
X201.7829 Y70.4158
X201.9095 Y70.4981
X202.0431 Y70.6012
X202.1715 Y70.7178
X202.3018 Y70.8568
X202.4298 Y71.0174
X202.5476 Y71.1926
X202.6552 Y71.3839
X202.7516 Y71.5931
X202.8322 Y71.813
X202.8962 Y72.0435
X202.9417 Y72.2791
X202.9644 Y72.4839
X202.9707 Y72.6936
X202.9608 Y72.8895
X202.9392 Y73.0536
X202.9026 Y73.2246
X202.8846 Y73.2845
X202.7817 Y73.4968
X202.6172 Y73.666
X202.4079 Y73.7749
X202.175 Y73.8125
X201.2138
G3 X200.9077 Y73.5105 I0.0111 J-0.3173
G1 X200.8926 Y73.1978
X200.7782 Y70.8272
X200.7646 Y70.5451
G3 X201.0706 Y70.2125 I0.3171 J-0.0153
G1 X202.0765
X202.2263 Y70.22
X202.3731 Y70.251
X202.5153 Y70.2987
X202.6519 Y70.3606
X202.7822 Y70.435
X202.9112 Y70.5235
X203.0407 Y70.6286
X203.175 Y70.7567
X203.3024 Y70.8995
X203.4264 Y71.0632
X203.5432 Y71.2463
X203.6497 Y71.4473
X203.7419 Y71.661
X203.8176 Y71.8845
X203.8756 Y72.115
X203.9134 Y72.3405
X203.9306 Y72.5402
X203.9317 Y72.757
X203.918 Y72.9393
X203.8928 Y73.1008
X203.8501 Y73.2784
X203.8425 Y73.3019
X203.737 Y73.5079
X203.5732 Y73.6714
X203.3669 Y73.7763
X203.1383 Y73.8125
X202.175
G3 X201.8688 Y73.5057 I0.0111 J-0.3173
G1 X201.8585 Y73.1976
X201.7798 Y70.8274
X201.7702 Y70.5404
G3 X202.0765 Y70.2125 I0.3173 J-0.0105
G1 X202.9901
X203.1399 Y70.22
X203.2881 Y70.2436
X203.4321 Y70.2857
X203.5706 Y70.343
X203.7033 Y70.4131
X203.8313 Y70.4959
X203.9639 Y70.5976
X204.0921 Y70.7135
X204.2237 Y70.853
X204.351 Y71.0119
X204.4683 Y71.1853
X204.5761 Y71.3759
X204.6733 Y71.5855
X204.7551 Y71.8067
X204.8191 Y72.0346
X204.8653 Y72.2707
X204.8889 Y72.4782
X204.8956 Y72.6846
X204.8861 Y72.8833
X204.8648 Y73.0489
X204.8291 Y73.2175
X204.8098 Y73.2826
X204.7072 Y73.4956
X204.5427 Y73.6654
X204.3331 Y73.7748
X204.0997 Y73.8125
X203.1383
G3 X202.8323 Y73.511 I0.0111 J-0.3173
G1 X202.8166 Y73.1978
X202.6982 Y70.8272
X202.6841 Y70.5457
G3 X202.9901 Y70.2125 I0.3171 J-0.0158
G1 X203.996
X204.1458 Y70.22
X204.2927 Y70.2502
X204.4351 Y70.2973
X204.572 Y70.3586
X204.7025 Y70.4326
X204.8318 Y70.5207
X204.9611 Y70.625
X205.0952 Y70.7523
X205.2229 Y70.8945
X205.3469 Y71.0572
X205.4641 Y71.2398
X205.5709 Y71.4399
X205.6636 Y71.6531
X205.7399 Y71.8763
X205.7986 Y72.1066
X205.8371 Y72.3323
X205.8549 Y72.5324
X205.8567 Y72.7497
X205.8435 Y72.9329
X205.8187 Y73.0945
X205.7765 Y73.2724
X205.7676 Y73.2998
X205.6625 Y73.5066
X205.4986 Y73.6708
X205.2919 Y73.7762
X205.0628 Y73.8125
X204.0997
G3 X203.7934 Y73.5063 I0.0111 J-0.3173
G1 X203.7826 Y73.1976
X203.6998 Y70.8274
X203.6897 Y70.5409
G3 X203.996 Y70.2125 I0.3173 J-0.0111
G1 X204.9264
X205.0762 Y70.22
X205.224 Y70.2453
X205.3677 Y70.2886
X205.5058 Y70.3471
X205.6378 Y70.4182
X205.7649 Y70.5014
X205.8985 Y70.6052
X206.0268 Y70.7225
X206.1571 Y70.8625
X206.2849 Y71.0239
X206.4023 Y71.1997
X206.5087 Y71.3905
X206.6046 Y71.6006
X206.6851 Y71.8223
X206.7477 Y72.0507
X206.7926 Y72.2872
X206.8145 Y72.4914
X206.8201 Y72.7012
X206.8096 Y72.8963
X206.7875 Y73.06
X206.7502 Y73.2313
X206.7334 Y73.2869
X206.6301 Y73.4983
X206.4657 Y73.6668
X206.2568 Y73.7751
X206.0245 Y73.8125
X205.0628
G3 X204.7567 Y73.5098 I0.0111 J-0.3173
G1 X204.7424 Y73.1978
X204.6333 Y70.8273
X204.6203 Y70.5444
G3 X204.9264 Y70.2125 I0.3172 J-0.0146
G1 X205.9322
X206.082 Y70.22
X206.2286 Y70.2517
X206.3706 Y70.3001
X206.507 Y70.3625
X206.637 Y70.4373
X206.7657 Y70.5262
X206.8957 Y70.6324
X207.0298 Y70.7611
X207.1568 Y70.9044
X207.2807 Y71.0691
X207.3971 Y71.2529
X207.5032 Y71.4545
X207.5947 Y71.6687
X207.6698 Y71.8925
X207.7271 Y72.1234
X207.7641 Y72.3486
X207.7806 Y72.548
X207.7811 Y72.7643
X207.7669 Y72.9459
X207.7411 Y73.1073
X207.6979 Y73.2847
X207.6915 Y73.3041
X207.5858 Y73.5094
X207.4221 Y73.6721
X207.2162 Y73.7765
X206.9881 Y73.8125
X206.0245
G3 X205.7182 Y73.5051 I0.0111 J-0.3173
G1 X205.7086 Y73.1976
X205.6349 Y70.8274
X205.6259 Y70.5397
G3 X205.9322 Y70.2125 I0.3174 J-0.0099
G1 X206.8459
X206.9957 Y70.22
X207.1437 Y70.2444
X207.2875 Y70.2871
X207.4258 Y70.345
X207.5582 Y70.4156
X207.6866 Y70.4992
X207.819 Y70.6015
X207.9473 Y70.7182
X208.0788 Y70.8587
X208.2058 Y71.0183
X208.3228 Y71.1924
X208.4301 Y71.3838
X208.5268 Y71.594
X208.6079 Y71.8157
X208.6711 Y72.0439
X208.7166 Y72.2803
X208.7393 Y72.4868
X208.7453 Y72.6934
X208.7352 Y72.8909
X208.7135 Y73.0558
X208.6771 Y73.2249
X208.659 Y73.285
X208.556 Y73.4971
X208.3916 Y73.6662
X208.1824 Y73.775
X207.9496 Y73.8125
X206.9881
G3 X206.6821 Y73.5104 I0.0111 J-0.3173
G1 X206.6671 Y73.1978
X206.5533 Y70.8272
X206.5398 Y70.545
G3 X206.8459 Y70.2125 I0.3171 J-0.0152
G1 X207.8517
X208.0015 Y70.22
X208.1483 Y70.251
X208.2905 Y70.2987
X208.4271 Y70.3606
X208.5573 Y70.435
X208.6862 Y70.5235
X208.816 Y70.6288
X208.9501 Y70.7569
X209.0774 Y70.8996
X209.2014 Y71.0634
X209.3183 Y71.2467
X209.4247 Y71.4475
X209.5168 Y71.6612
X209.5925 Y71.8848
X209.6504 Y72.1154
X209.6882 Y72.3409
X209.7053 Y72.5405
X209.7064 Y72.7573
X209.6927 Y72.9397
X209.6674 Y73.1011
X209.6247 Y73.2788
X209.6171 Y73.302
X209.5116 Y73.508
X209.3478 Y73.6715
X209.1415 Y73.7764
X208.9129 Y73.8125
X207.9496
G3 X207.6433 Y73.5057 I0.0111 J-0.3173
G1 X207.6332 Y73.1976
X207.5549 Y70.8274
X207.5455 Y70.5403
G3 X207.8517 Y70.2125 I0.3173 J-0.0105
G1 X208.7821
X208.9319 Y70.22
X209.0796 Y70.2461
X209.2231 Y70.29
X209.3609 Y70.3491
X209.4928 Y70.4206
X209.6202 Y70.5047
X209.7538 Y70.6092
X209.882 Y70.7273
X210.0125 Y70.8683
X210.1399 Y71.0305
X210.2569 Y71.2069
X210.363 Y71.3986
X210.4583 Y71.6092
X210.5381 Y71.8315
X210.6 Y72.0602
X210.644 Y72.2968
X210.6652 Y72.5
X210.6701 Y72.7098
X210.659 Y72.9039
X210.6364 Y73.067
X210.5985 Y73.2385
X210.5829 Y73.2892
X210.4793 Y73.4999
X210.315 Y73.6675
X210.1065 Y73.7753
X209.8747 Y73.8125
X208.9129
G3 X208.6068 Y73.5092 I0.0111 J-0.3173
G1 X208.5931 Y73.1977
X208.4885 Y70.8273
X208.476 Y70.5438
G3 X208.7821 Y70.2125 I0.3172 J-0.014
G1 X209.7879
X209.9378 Y70.22
X210.0842 Y70.2525
X210.226 Y70.3014
X210.3622 Y70.3644
X210.4919 Y70.4397
X210.6202 Y70.5289
X210.7506 Y70.636
X210.8846 Y70.7655
X211.0114 Y70.9093
X211.1353 Y71.075
X211.2514 Y71.2596
X211.357 Y71.4618
X211.448 Y71.6764
X211.5225 Y71.9007
X211.5791 Y72.1318
X211.6154 Y72.3568
X211.6313 Y72.5558
X211.6311 Y72.7715
X211.6164 Y72.9524
X211.5901 Y73.1137
X211.5464 Y73.2908
X211.5413 Y73.3062
X211.4353 Y73.5107
X211.2716 Y73.6727
X211.0661 Y73.7767
X210.8386 Y73.8125
X209.8747
G3 X209.5684 Y73.5045 I0.0111 J-0.3173
G1 X209.5595 Y73.1976
X209.4901 Y70.8274
X209.4817 Y70.5391
G3 X209.7879 Y70.2125 I0.3174 J-0.0093
G1 X210.7016
X210.8514 Y70.22
X210.9993 Y70.2452
X211.1429 Y70.2885
X211.281 Y70.3469
X211.4132 Y70.4179
X211.5419 Y70.5024
X211.6741 Y70.6052
X211.8026 Y70.7228
X211.9341 Y70.8642
X212.0607 Y71.0244
X212.1775 Y71.1993
X212.2845 Y71.3914
X212.3806 Y71.6023
X212.461 Y71.8243
X212.5236 Y72.0529
X212.5683 Y72.2896
X212.5902 Y72.4949
X212.5956 Y72.7016
X212.585 Y72.8981
X212.5627 Y73.0624
X212.5258 Y73.2318
X212.5089 Y73.2872
X212.4056 Y73.4986
X212.2412 Y73.6669
X212.0324 Y73.7752
X211.8001 Y73.8125
X210.8386
G3 X210.5325 Y73.5098 I0.0111 J-0.3173
G1 X210.5181 Y73.1978
X210.4086 Y70.8273
X210.3955 Y70.5445
G3 X210.7016 Y70.2125 I0.3172 J-0.0146
G1 X211.7074
X211.8572 Y70.22
X212.0038 Y70.2517
X212.1458 Y70.3
X212.2823 Y70.3624
X212.4122 Y70.4373
X212.5408 Y70.526
X212.6709 Y70.6323
X212.805 Y70.7611
X212.932 Y70.9043
X213.056 Y71.0691
X213.1727 Y71.2532
X213.2786 Y71.4546
X213.3702 Y71.6687
X213.4453 Y71.8926
X213.5026 Y72.1235
X213.5397 Y72.3487
X213.5562 Y72.548
X213.5567 Y72.7642
X213.5425 Y72.9459
X213.5167 Y73.1072
X213.4735 Y73.2846
X213.4671 Y73.304
X213.3614 Y73.5093
X213.1977 Y73.6721
X212.9917 Y73.7765
X212.7637 Y73.8125
X211.8001
G3 X211.4939 Y73.5051 I0.0111 J-0.3173
G1 X211.4842 Y73.1976
X211.4102 Y70.8274
X211.4012 Y70.5397
G3 X211.7074 Y70.2125 I0.3174 J-0.0099
G1 X212.6378
X212.7876 Y70.22
X212.9352 Y70.2468
X213.0785 Y70.2913
X213.2161 Y70.3509
X213.3477 Y70.4228
X213.4755 Y70.5078
X213.6091 Y70.6129
X213.7374 Y70.7317
X213.8678 Y70.8736
X213.995 Y71.0365
X214.1117 Y71.2135
X214.2173 Y71.4059
X214.3122 Y71.6172
X214.3914 Y71.8398
X214.4526 Y72.0688
X214.4959 Y72.3056
X214.5163 Y72.5079
X214.5206 Y72.7177
X214.5089 Y72.9108
X214.486 Y73.0733
X214.4474 Y73.2451
X214.433 Y73.2914
X214.3291 Y73.5012
X214.1649 Y73.6682
X213.9568 Y73.7755
X213.7255 Y73.8125
X212.7637
G3 X212.4575 Y73.5087 I0.0111 J-0.3173
G1 X212.4443 Y73.1977
X212.3438 Y70.8273
X212.3317 Y70.5433
G3 X212.6378 Y70.2125 I0.3172 J-0.0135
G1 X213.6022
X213.752 Y70.22
X213.8995 Y70.2473
X214.0427 Y70.292
X214.1803 Y70.3516
X214.3117 Y70.4239
X214.4368 Y70.507
X214.5694 Y70.6113
X214.7008 Y70.733
X214.8281 Y70.8714
X214.9555 Y71.0344
X215.0743 Y71.2147
X215.1811 Y71.409
X215.2749 Y71.6179
X215.354 Y71.8403
X215.4153 Y72.0693
X215.4581 Y72.303
X215.4784 Y72.504
X215.4828 Y72.7188
X215.4714 Y72.909
X215.4485 Y73.0709
X215.4092 Y73.246
X215.3952 Y73.2913
X215.2913 Y73.5012
X215.127 Y73.6681
X214.9189 Y73.7755
X214.6876 Y73.8125
X213.7255
G3 X213.4194 Y73.5084 I0.0111 J-0.3173
G1 X213.4065 Y73.1977
X213.3079 Y70.8273
X213.296 Y70.543
G3 X213.6022 Y70.2125 I0.3172 J-0.0132
G1 X214.5573
X214.7071 Y70.22
X214.8548 Y70.2464
X214.9982 Y70.2902
