%
(Made in : Autodesk CAM Post Processor)
(G Code optimized for OpenBuilds OX CNC 1000 x 750 with GRBL V0.9j controller)

(Program Name : 1001)
(2 Operations :)
(1 : Contour2)
(  Tool : Flat End Mill 2 Flutes, Diam = 1.9mm, Len = 12.7mm)
(  Spindle : RPM = 30000, set router dial to 6)
(  Machining time : 4 min 54 sec)
(2 : Horizontal1)
(  Tool : Flat End Mill 2 Flutes, Diam = 1.9mm, Len = 12.7mm)
(  Spindle : RPM = 30000, set router dial to 6)
(  Machining time : 2 min 36 sec)

G90 G94
G17
G21

(Operation 1 of 2 : Contour2)

G53 G0 Z5
G54
S30000 M3
G4 P1.0
X24.0273 Y18.8483
Z6
Z1.1881
G1 Z-0.81 F3200
X24.033 Y18.8513 Z-0.8592
X24.0498 Y18.8603 Z-0.905
X24.0764 Y18.8745 Z-0.9444
X24.1111 Y18.8931 Z-0.9745
X24.1515 Y18.9147 Z-0.9935
X24.1948 Y18.9379 Z-1
X25.2738 Y19.5153
X25.3141 Y19.5442
X25.3455 Y19.5826
X25.366 Y19.6278
X25.374 Y19.6767
X25.3691 Y19.7261
X25.3516 Y19.7725
X25.3203 Y19.8414
X25.2998 Y19.8964
X25.2831 Y19.9515
X25.2699 Y20.0065
X25.2601 Y20.0616
X25.2537 Y20.1166
X25.2504 Y20.1717
X25.25 Y20.2818
Y89.9772
X25.2506 Y90.0323
X25.254 Y90.0873
X25.2607 Y90.1424
X25.2707 Y90.1974
X25.2842 Y90.2525
X25.3012 Y90.3075
X25.3219 Y90.3626
X25.3467 Y90.4176
X25.3516 Y90.4275
X25.3788 Y90.4776
X25.4101 Y90.5277
X25.4347 Y90.5628
X25.4618 Y90.5979
X25.496 Y90.6379
X25.5339 Y90.6774
X25.5719 Y90.7127
X25.6143 Y90.748
X25.6481 Y90.7733
X25.682 Y90.7963
X25.7371 Y90.8296
X25.7921 Y90.858
X25.7923 Y90.8581
X25.8473 Y90.8821
X25.9022 Y90.9021
X25.9573 Y90.9185
X26.0124 Y90.9313
X26.0674 Y90.9407
X26.1225 Y90.9468
X26.2326 Y90.95
X325.7674
X325.8775 Y90.9468
X325.9326 Y90.9407
X325.9877 Y90.9313
X326.0427 Y90.9185
X326.0978 Y90.9021
X326.1527 Y90.8821
X326.2077 Y90.8581
X326.2079 Y90.858
X326.263 Y90.8295
X326.318 Y90.7963
X326.3519 Y90.7733
X326.3857 Y90.748
X326.4282 Y90.7127
X326.4661 Y90.6774
X326.504 Y90.6379
X326.5383 Y90.5979
X326.5653 Y90.5628
X326.5899 Y90.5277
X326.6212 Y90.4776
X326.6484 Y90.4274
X326.6533 Y90.4176
X326.6781 Y90.3626
X326.6988 Y90.3075
X326.7158 Y90.2525
X326.7292 Y90.1974
X326.7393 Y90.1424
X326.746 Y90.0873
X326.7495 Y90.0323
X326.75 Y89.9772
Y20.2818
X326.7496 Y20.1717
X326.7463 Y20.1166
X326.7398 Y20.0616
X326.7301 Y20.0065
X326.7169 Y19.9515
X326.7002 Y19.8964
X326.6797 Y19.8414
X326.6484 Y19.7726
X326.6263 Y19.7313
X326.5926 Y19.6762
X326.5533 Y19.6212
X326.5383 Y19.6021
X326.499 Y19.5566
X326.4541 Y19.5111
X326.4282 Y19.4873
X326.3731 Y19.4423
X326.318 Y19.4037
X326.3138 Y19.401
X326.2609 Y19.3693
X326.2079 Y19.342
X326.1528 Y19.318
X326.0978 Y19.2979
X326.0756 Y19.2909
X326.0316 Y19.2787
X325.9877 Y19.2687
X325.9326 Y19.2593
X325.8775 Y19.2532
X325.7674 Y19.25
X296.0342
X295.9241 Y19.253
X295.869 Y19.2591
X295.8139 Y19.2684
X295.7692 Y19.2785
X295.7244 Y19.2909
X295.7038 Y19.2973
X295.6487 Y19.3173
X295.5937 Y19.3413
X295.5399 Y19.3688
X295.4861 Y19.401
X295.4836 Y19.4026
X295.4285 Y19.4411
X295.3734 Y19.4859
X295.3459 Y19.5111
X295.3019 Y19.5556
X295.2633 Y19.6002
X295.2467 Y19.6212
X295.2074 Y19.6762
X295.1737 Y19.7313
X295.1532 Y19.7694
X295.1203 Y19.8414
X295.0998 Y19.8964
X295.0831 Y19.9515
X295.0699 Y20.0065
X295.0602 Y20.0616
X295.0536 Y20.1166
X295.0504 Y20.1717
X295.05 Y20.2818
Y74.9482
X295.0483 Y74.95
X177.5516
X177.55 Y74.9482
Y20.2818
X177.5496 Y20.1717
X177.5469 Y20.1233
X177.5417 Y20.0749
X177.5399 Y20.0616
X177.5301 Y20.0065
X177.5169 Y19.9515
X177.5002 Y19.8964
X177.4797 Y19.8414
X177.4575 Y19.7911
X177.4316 Y19.7407
X177.4263 Y19.7313
X177.3926 Y19.6762
X177.3533 Y19.6212
X177.3215 Y19.582
X177.2896 Y19.5465
X177.2541 Y19.5111
X177.2114 Y19.4729
X177.1626 Y19.4345
X177.1139 Y19.401
X177.1012 Y19.393
X177.0462 Y19.3613
X176.9911 Y19.3342
X176.9361 Y19.3114
X176.881 Y19.2925
X176.8756 Y19.2909
X176.8233 Y19.2766
X176.7709 Y19.2655
X176.7158 Y19.2571
X176.6608 Y19.2519
X176.5506 Y19.25
X26.2326
X26.1225 Y19.2532
X26.0674 Y19.2593
X26.0124 Y19.2687
X25.9684 Y19.2787
X25.9244 Y19.2909
X25.9022 Y19.2979
X25.8472 Y19.3179
X25.7921 Y19.342
X25.7391 Y19.3693
X25.6861 Y19.401
X25.682 Y19.4036
X25.6269 Y19.4423
X25.5719 Y19.4873
X25.5459 Y19.5111
X25.5011 Y19.5566
X25.4618 Y19.6021
X25.4467 Y19.6212
X25.4074 Y19.6762
X25.3737 Y19.7313
X25.3516 Y19.7725
X25.331 Y19.8162
X25.3125 Y19.861
X25.2964 Y19.9066 Z-1.0001
X25.2827 Y19.953
X25.2713 Y20.0001
X25.2623 Y20.0476 Z-1.0002
X25.2558 Y20.0956 Z-1.0003
X25.2517 Y20.1438 Z-1.0004
X25.25 Y20.3374 Z-1.0008
Y20.5309 Z-1.0015
Y20.7245 Z-1.0023
Y20.9181 Z-1.0033
Y21.1117 Z-1.0045
Y21.3052 Z-1.0058
Y21.4988 Z-1.0073
Y21.6924 Z-1.009
Y21.886 Z-1.0109
Y22.0795 Z-1.0129
Y22.2731 Z-1.0151
Y22.4667 Z-1.0174
Y22.6603 Z-1.0199
Y22.8538 Z-1.0225
Y23.0474 Z-1.0253
Y23.241 Z-1.0283
Y23.4346 Z-1.0314
Y23.6281 Z-1.0347
Y23.8217 Z-1.0381
Y24.0153 Z-1.0416
Y24.2089 Z-1.0453
Y24.4024 Z-1.0491
Y24.596 Z-1.0531
Y24.7896 Z-1.0572
Y24.9832 Z-1.0614
Y25.1767 Z-1.0658
Y25.3703 Z-1.0702
Y25.5639 Z-1.0749
Y25.7574 Z-1.0796
Y25.951 Z-1.0845
Y26.1446 Z-1.0894
Y26.2414 Z-1.092
Y26.3382 Z-1.0945
Y26.435 Z-1.0971
Y26.5317 Z-1.0997
Y26.6285 Z-1.1024
Y26.7253 Z-1.1051
Y26.8221 Z-1.1078
Y26.9189 Z-1.1105
Y27.0157 Z-1.1133
Y27.1125 Z-1.1161
Y27.2093 Z-1.1189
Y27.306 Z-1.1217
Y27.4028 Z-1.1246
Y27.4996 Z-1.1275
Y27.5964 Z-1.1304
Y27.6932 Z-1.1334
Y27.79 Z-1.1363
Y27.8868 Z-1.1393
Y27.9836 Z-1.1423
Y28.0803 Z-1.1454
Y28.1771 Z-1.1485
Y28.2739 Z-1.1516
Y28.3707 Z-1.1547
Y28.4675 Z-1.1578
Y28.5643 Z-1.161
Y28.6611 Z-1.1642
Y28.7579 Z-1.1674
Y28.8546 Z-1.1706
Y28.9514 Z-1.1739
Y29.0482 Z-1.1772
Y29.145 Z-1.1805
Y29.2418 Z-1.1838
Y29.3386 Z-1.1871
Y29.5322 Z-1.1939
Y29.6289 Z-1.1972
Y29.7257 Z-1.2006
Y29.8225 Z-1.204
Y29.9193 Z-1.2074
Y30.0161 Z-1.2108
Y30.1129 Z-1.2141
Y30.2097 Z-1.2175
Y30.3065 Z-1.2209
Y30.4032 Z-1.2243
Y30.5 Z-1.2277
Y30.5968 Z-1.231
Y30.6936 Z-1.2344
Y30.8872 Z-1.2412
Y31.1775 Z-1.2513
Y31.4679 Z-1.2614
Y31.7583 Z-1.2716
Y32.0486 Z-1.2817
Y32.339 Z-1.2919
Y32.6293 Z-1.302
Y32.9197 Z-1.3121
Y33.2101 Z-1.3223
Y33.5004 Z-1.3324
Y33.7908 Z-1.3426
Y34.2747 Z-1.3595
Y34.7587 Z-1.3764
Y35.2426 Z-1.3933
Y35.9201 Z-1.4169
Y36.7912 Z-1.4473
Y38.243 Z-1.498
Y45.2117 Z-1.7413
Y45.5021 Z-1.7515
Y45.7924 Z-1.7616
Y45.8892 Z-1.765
Y45.986 Z-1.7684
Y46.0828 Z-1.7717
Y46.1796 Z-1.7751
Y46.2764 Z-1.7785
Y46.3731 Z-1.7819
Y46.4699 Z-1.7853
Y46.5667 Z-1.7886
Y46.6635 Z-1.792
Y46.7603 Z-1.7954
Y46.8571 Z-1.7988
Y46.9539 Z-1.8022
Y47.0507 Z-1.8055
Y47.1474 Z-1.8089
Y47.2442 Z-1.8123
Y47.341 Z-1.8156
Y47.4378 Z-1.819
Y47.5346 Z-1.8223
Y47.6314 Z-1.8255
Y47.7282 Z-1.8288
Y47.825 Z-1.832
Y47.9217 Z-1.8353
Y48.0185 Z-1.8385
Y48.1153 Z-1.8416
Y48.2121 Z-1.8448
Y48.3089 Z-1.8479
Y48.4057 Z-1.851
Y48.5025 Z-1.8541
Y48.5993 Z-1.8571
Y48.696 Z-1.8601
Y48.7928 Z-1.8631
Y48.8896 Z-1.8661
Y48.9864 Z-1.8691
Y49.0832 Z-1.872
Y49.18 Z-1.8749
Y49.2768 Z-1.8778
Y49.3736 Z-1.8806
Y49.4703 Z-1.8834
Y49.5671 Z-1.8862
Y49.6639 Z-1.889
Y49.7607 Z-1.8917
Y49.8575 Z-1.8945
Y49.9543 Z-1.8971
Y50.0511 Z-1.8998
Y50.1479 Z-1.9024
Y50.2446 Z-1.905
Y50.3414 Z-1.9076
Y50.4382 Z-1.9101
Y50.535 Z-1.9126
Y50.7286 Z-1.9176
Y50.9222 Z-1.9224
Y51.1157 Z-1.9271
Y51.3093 Z-1.9316
Y51.5029 Z-1.9361
Y51.6965 Z-1.9404
Y51.89 Z-1.9445
Y52.0836 Z-1.9486
Y52.2772 Z-1.9525
Y52.4708 Z-1.9562
Y52.6643 Z-1.9599
Y52.8579 Z-1.9634
Y53.0515 Z-1.9667
Y53.2451 Z-1.9699
Y53.4386 Z-1.9729
Y53.6322 Z-1.9758
Y53.8258 Z-1.9786
Y54.0194 Z-1.9812
Y54.2129 Z-1.9836
Y54.4065 Z-1.9859
Y54.6001 Z-1.988
Y54.7937 Z-1.9899
Y54.9872 Z-1.9917
Y55.1808 Z-1.9933
Y55.3744 Z-1.9948
Y55.5679 Z-1.996
Y55.7615 Z-1.9971
Y55.9551 Z-1.9981
Y56.1487 Z-1.9988
Y56.3422 Z-1.9994
Y56.5358 Z-1.9998
Y56.7294 Z-2
Y56.8432
Y89.9772
X25.2506 Y90.0323
X25.254 Y90.0873
X25.2607 Y90.1424
X25.2707 Y90.1974
X25.2842 Y90.2525
X25.3012 Y90.3075
X25.3219 Y90.3626
X25.3467 Y90.4176
X25.3516 Y90.4275
X25.3788 Y90.4776
X25.4101 Y90.5277
X25.4347 Y90.5628
X25.4618 Y90.5979
X25.496 Y90.6379
X25.5339 Y90.6774
X25.5719 Y90.7127
X25.6143 Y90.748
X25.6481 Y90.7733
X25.682 Y90.7963
X25.7371 Y90.8296
X25.7921 Y90.858
X25.7923 Y90.8581
X25.8473 Y90.8821
X25.9022 Y90.9021
X25.9573 Y90.9185
X26.0124 Y90.9313
X26.0674 Y90.9407
X26.1225 Y90.9468
X26.2326 Y90.95
X325.7674
X325.8775 Y90.9468
X325.9326 Y90.9407
X325.9877 Y90.9313
X326.0427 Y90.9185
X326.0978 Y90.9021
X326.1527 Y90.8821
X326.2077 Y90.8581
X326.2079 Y90.858
X326.263 Y90.8295
X326.318 Y90.7963
X326.3519 Y90.7733
X326.3857 Y90.748
X326.4282 Y90.7127
X326.4661 Y90.6774
X326.504 Y90.6379
X326.5383 Y90.5979
X326.5653 Y90.5628
X326.5899 Y90.5277
X326.6212 Y90.4776
X326.6484 Y90.4274
X326.6533 Y90.4176
X326.6781 Y90.3626
X326.6988 Y90.3075
X326.7158 Y90.2525
X326.7292 Y90.1974
X326.7393 Y90.1424
X326.746 Y90.0873
X326.7495 Y90.0323
X326.75 Y89.9772
Y20.2818
X326.7496 Y20.1717
X326.7463 Y20.1166
X326.7398 Y20.0616
X326.7301 Y20.0065
X326.7169 Y19.9515
X326.7002 Y19.8964
X326.6797 Y19.8414
X326.6484 Y19.7726
X326.6263 Y19.7313
X326.5926 Y19.6762
X326.5533 Y19.6212
X326.5383 Y19.6021
X326.499 Y19.5566
X326.4541 Y19.5111
X326.4282 Y19.4873
X326.3731 Y19.4423
X326.318 Y19.4037
X326.3138 Y19.401
X326.2609 Y19.3693
X326.2079 Y19.342
X326.1528 Y19.318
X326.0978 Y19.2979
X326.0756 Y19.2909
X326.0316 Y19.2787
X325.9877 Y19.2687
X325.9326 Y19.2593
X325.8775 Y19.2532
X325.7674 Y19.25
X296.0342
X295.9241 Y19.253
X295.869 Y19.2591
X295.8139 Y19.2684
X295.7692 Y19.2785
X295.7244 Y19.2909
X295.7038 Y19.2973
X295.6487 Y19.3173
X295.5937 Y19.3413
X295.5399 Y19.3688
X295.4861 Y19.401
X295.4836 Y19.4026
X295.4285 Y19.4411
X295.3734 Y19.4859
X295.3459 Y19.5111
X295.3019 Y19.5556
X295.2633 Y19.6002
X295.2467 Y19.6212
X295.2074 Y19.6762
X295.1737 Y19.7313
X295.1532 Y19.7694
X295.1203 Y19.8414
X295.0998 Y19.8964
X295.0831 Y19.9515
X295.0699 Y20.0065
X295.0602 Y20.0616
X295.0536 Y20.1166
X295.0504 Y20.1717
X295.05 Y20.2818
Y74.9482
X295.0483 Y74.95
X177.5516
X177.55 Y74.9482
Y20.2818
X177.5496 Y20.1717
X177.5469 Y20.1233
X177.5417 Y20.0749
X177.5399 Y20.0616
X177.5301 Y20.0065
X177.5169 Y19.9515
X177.5002 Y19.8964
X177.4797 Y19.8414
X177.4575 Y19.7911
X177.4316 Y19.7407
X177.4263 Y19.7313
X177.3926 Y19.6762
X177.3533 Y19.6212
X177.3215 Y19.582
X177.2896 Y19.5465
X177.2541 Y19.5111
X177.2114 Y19.4729
X177.1626 Y19.4345
X177.1139 Y19.401
X177.1012 Y19.393
X177.0462 Y19.3613
X176.9911 Y19.3342
X176.9361 Y19.3114
X176.881 Y19.2925
X176.8756 Y19.2909
X176.8233 Y19.2766
X176.7709 Y19.2655
X176.7158 Y19.2571
X176.6608 Y19.2519
X176.5506 Y19.25
X26.2326
X26.1225 Y19.2532
X26.0674 Y19.2593
X26.0124 Y19.2687
X25.9684 Y19.2787
X25.9244 Y19.2909
X25.9022 Y19.2979
X25.8472 Y19.3179
X25.7921 Y19.342
X25.7391 Y19.3693
X25.6861 Y19.401
X25.682 Y19.4036
X25.6269 Y19.4423
X25.5719 Y19.4873
X25.5459 Y19.5111
X25.5011 Y19.5566
X25.4618 Y19.6021
X25.4467 Y19.6212
X25.4074 Y19.6762
X25.3737 Y19.7313
X25.3516 Y19.7725
X25.3203 Y19.8414
X25.2998 Y19.8964
X25.2831 Y19.9515
X25.2699 Y20.0065
X25.2601 Y20.0616
X25.2537 Y20.1166
X25.2504 Y20.1717
X25.25 Y20.2818
Y56.8432
Y57.0368 Z-2.0001
Y57.2303 Z-2.0004
Y57.4239 Z-2.0008
Y57.6175 Z-2.0015
Y57.8111 Z-2.0023
Y58.0046 Z-2.0033
Y58.1982 Z-2.0045
Y58.3918 Z-2.0058
Y58.5854 Z-2.0073
Y58.7789 Z-2.009
Y58.9725 Z-2.0109
Y59.1661 Z-2.0129
Y59.3597 Z-2.0151
Y59.5532 Z-2.0174
Y59.7468 Z-2.0199
Y59.9404 Z-2.0225
Y60.134 Z-2.0253
Y60.3275 Z-2.0283
Y60.5211 Z-2.0314
Y60.7147 Z-2.0347
Y60.9083 Z-2.0381
Y61.1018 Z-2.0416
Y61.2954 Z-2.0453
Y61.489 Z-2.0491
Y61.6826 Z-2.0531
Y61.8761 Z-2.0572
Y62.0697 Z-2.0614
Y62.2633 Z-2.0658
Y62.4569 Z-2.0702
Y62.6504 Z-2.0749
Y62.844 Z-2.0796
Y63.0376 Z-2.0845
Y63.2312 Z-2.0894
Y63.3279 Z-2.092
Y63.4247 Z-2.0945
Y63.5215 Z-2.0971
Y63.6183 Z-2.0997
Y63.7151 Z-2.1024
Y63.8119 Z-2.1051
Y63.9087 Z-2.1078
Y64.0055 Z-2.1105
Y64.1022 Z-2.1133
Y64.199 Z-2.1161
Y64.2958 Z-2.1189
Y64.3926 Z-2.1217
Y64.4894 Z-2.1246
Y64.5862 Z-2.1275
Y64.683 Z-2.1304
Y64.7798 Z-2.1334
Y64.8765 Z-2.1363
Y64.9733 Z-2.1393
Y65.0701 Z-2.1423
Y65.1669 Z-2.1454
Y65.2637 Z-2.1485
Y65.3605 Z-2.1516
Y65.4573 Z-2.1547
Y65.5541 Z-2.1578
Y65.6508 Z-2.161
Y65.7476 Z-2.1642
Y65.8444 Z-2.1674
Y65.9412 Z-2.1706
Y66.038 Z-2.1739
Y66.1348 Z-2.1772
Y66.2316 Z-2.1805
Y66.3284 Z-2.1838
Y66.4251 Z-2.1871
Y66.6187 Z-2.1939
Y66.7155 Z-2.1972
Y66.8123 Z-2.2006
Y66.9091 Z-2.204
Y67.0059 Z-2.2074
Y67.1027 Z-2.2108
Y67.1994 Z-2.2141
Y67.2962 Z-2.2175
Y67.393 Z-2.2209
Y67.4898 Z-2.2243
Y67.5866 Z-2.2277
Y67.6834 Z-2.231
Y67.7802 Z-2.2344
Y67.9737 Z-2.2412
Y68.2641 Z-2.2513
Y68.5545 Z-2.2614
Y68.8448 Z-2.2716
Y69.1352 Z-2.2817
Y69.4256 Z-2.2919
Y69.7159 Z-2.302
Y70.0063 Z-2.3121
Y70.2966 Z-2.3223
Y70.587 Z-2.3324
Y70.8774 Z-2.3426
Y71.3613 Z-2.3595
Y71.8452 Z-2.3764
Y72.3292 Z-2.3933
Y73.0067 Z-2.4169
Y73.8778 Z-2.4473
Y75.3296 Z-2.498
Y82.2983 Z-2.7413
Y82.5886 Z-2.7515
Y82.879 Z-2.7616
Y82.9758 Z-2.765
Y83.0726 Z-2.7684
Y83.1694 Z-2.7717
Y83.2661 Z-2.7751
Y83.3629 Z-2.7785
Y83.4597 Z-2.7819
Y83.5565 Z-2.7853
Y83.6533 Z-2.7886
Y83.7501 Z-2.792
Y83.8469 Z-2.7954
Y83.9436 Z-2.7988
Y84.0404 Z-2.8022
Y84.1372 Z-2.8055
Y84.234 Z-2.8089
Y84.3308 Z-2.8123
Y84.4276 Z-2.8156
Y84.5244 Z-2.819
Y84.6212 Z-2.8223
Y84.7179 Z-2.8255
Y84.8147 Z-2.8288
Y84.9115 Z-2.832
Y85.0083 Z-2.8353
Y85.1051 Z-2.8385
Y85.2019 Z-2.8416
Y85.2987 Z-2.8448
Y85.3955 Z-2.8479
Y85.4922 Z-2.851
Y85.589 Z-2.8541
Y85.6858 Z-2.8571
Y85.7826 Z-2.8601
Y85.8794 Z-2.8631
Y85.9762 Z-2.8661
Y86.073 Z-2.8691
Y86.1698 Z-2.872
Y86.2665 Z-2.8749
Y86.3633 Z-2.8778
Y86.4601 Z-2.8806
Y86.5569 Z-2.8834
Y86.6537 Z-2.8862
Y86.7505 Z-2.889
Y86.8473 Z-2.8917
Y86.9441 Z-2.8945
Y87.0408 Z-2.8971
Y87.1376 Z-2.8998
Y87.2344 Z-2.9024
Y87.3312 Z-2.905
Y87.428 Z-2.9076
Y87.5248 Z-2.9101
Y87.6216 Z-2.9126
Y87.8151 Z-2.9176
Y88.0087 Z-2.9224
Y88.2023 Z-2.9271
Y88.3959 Z-2.9316
Y88.5894 Z-2.9361
Y88.783 Z-2.9404
Y88.9766 Z-2.9445
Y89.1702 Z-2.9486
Y89.3637 Z-2.9525
Y89.5573 Z-2.9562
Y89.7509 Z-2.9599
Y89.9445 Z-2.9634
X25.2509 Y90.0412 Z-2.965
X25.2542 Y90.0895 Z-2.9659
X25.26 Y90.1376 Z-2.9667
X25.2682 Y90.1853 Z-2.9675
X25.2789 Y90.2325 Z-2.9683
X25.2919 Y90.2791 Z-2.9691
X25.3073 Y90.325 Z-2.9699
X25.325 Y90.37 Z-2.9707
X25.345 Y90.4141 Z-2.9714
X25.3672 Y90.4571 Z-2.9722
X25.3916 Y90.4989 Z-2.9729
X25.418 Y90.5394 Z-2.9737
X25.4465 Y90.5786 Z-2.9744
X25.4769 Y90.6162 Z-2.9751
X25.5093 Y90.6522 Z-2.9758
X25.5434 Y90.6865 Z-2.9765
X25.5792 Y90.7191 Z-2.9772
X25.6166 Y90.7498 Z-2.9779
X25.6555 Y90.7785 Z-2.9786
X25.6959 Y90.8052 Z-2.9792
X25.7376 Y90.8298 Z-2.9799
X25.7804 Y90.8523 Z-2.9805
X25.8244 Y90.8726 Z-2.9812
X25.8693 Y90.8906 Z-2.9818
X25.9151 Y90.9063 Z-2.9824
X25.9616 Y90.9196 Z-2.983
X26.0087 Y90.9305 Z-2.9836
X26.0564 Y90.9391 Z-2.9842
X26.1044 Y90.9452 Z-2.9847
X26.1527 Y90.9488 Z-2.9853
X26.201 Y90.95 Z-2.9859
X26.3946 Z-2.988
X26.5882 Z-2.9899
X26.7818 Z-2.9917
X26.9754 Z-2.9933
X27.1689 Z-2.9948
X27.3625 Z-2.996
X27.5561 Z-2.9971
X27.7496 Z-2.9981
X27.9432 Z-2.9988
X28.1368 Z-2.9994
X28.3304 Z-2.9998
X28.5239 Z-3
X28.6378
X325.7674
X325.8775 Y90.9468
X325.9326 Y90.9407
X325.9877 Y90.9313
X326.0427 Y90.9185
X326.0978 Y90.9021
X326.1527 Y90.8821
X326.2077 Y90.8581
X326.2079 Y90.858
X326.263 Y90.8295
X326.318 Y90.7963
X326.3519 Y90.7733
X326.3857 Y90.748
X326.4282 Y90.7127
X326.4661 Y90.6774
X326.504 Y90.6379
X326.5383 Y90.5979
X326.5653 Y90.5628
X326.5899 Y90.5277
X326.6212 Y90.4776
X326.6484 Y90.4274
X326.6533 Y90.4176
X326.6781 Y90.3626
X326.6988 Y90.3075
X326.7158 Y90.2525
X326.7292 Y90.1974
X326.7393 Y90.1424
X326.746 Y90.0873
X326.7495 Y90.0323
X326.75 Y89.9772
Y20.2818
X326.7496 Y20.1717
X326.7463 Y20.1166
X326.7398 Y20.0616
X326.7301 Y20.0065
X326.7169 Y19.9515
X326.7002 Y19.8964
X326.6797 Y19.8414
X326.6484 Y19.7726
X326.6263 Y19.7313
X326.5926 Y19.6762
X326.5533 Y19.6212
X326.5383 Y19.6021
X326.499 Y19.5566
X326.4541 Y19.5111
X326.4282 Y19.4873
X326.3731 Y19.4423
X326.318 Y19.4037
X326.3138 Y19.401
X326.2609 Y19.3693
X326.2079 Y19.342
X326.1528 Y19.318
X326.0978 Y19.2979
X326.0756 Y19.2909
X326.0316 Y19.2787
X325.9877 Y19.2687
X325.9326 Y19.2593
X325.8775 Y19.2532
X325.7674 Y19.25
X296.0342
X295.9241 Y19.253
X295.869 Y19.2591
X295.8139 Y19.2684
X295.7692 Y19.2785
X295.7244 Y19.2909
X295.7038 Y19.2973
X295.6487 Y19.3173
X295.5937 Y19.3413
X295.5399 Y19.3688
X295.4861 Y19.401
X295.4836 Y19.4026
X295.4285 Y19.4411
X295.3734 Y19.4859
X295.3459 Y19.5111
X295.3019 Y19.5556
X295.2633 Y19.6002
X295.2467 Y19.6212
X295.2074 Y19.6762
X295.1737 Y19.7313
X295.1532 Y19.7694
X295.1203 Y19.8414
X295.0998 Y19.8964
X295.0831 Y19.9515
X295.0699 Y20.0065
X295.0602 Y20.0616
X295.0536 Y20.1166
X295.0504 Y20.1717
X295.05 Y20.2818
Y74.9482
X295.0483 Y74.95
X177.5516
X177.55 Y74.9482
Y20.2818
X177.5496 Y20.1717
X177.5469 Y20.1233
X177.5417 Y20.0749
X177.5399 Y20.0616
X177.5301 Y20.0065
X177.5169 Y19.9515
X177.5002 Y19.8964
X177.4797 Y19.8414
X177.4575 Y19.7911
X177.4316 Y19.7407
X177.4263 Y19.7313
X177.3926 Y19.6762
X177.3533 Y19.6212
X177.3215 Y19.582
X177.2896 Y19.5465
X177.2541 Y19.5111
X177.2114 Y19.4729
X177.1626 Y19.4345
X177.1139 Y19.401
X177.1012 Y19.393
X177.0462 Y19.3613
X176.9911 Y19.3342
X176.9361 Y19.3114
X176.881 Y19.2925
X176.8756 Y19.2909
X176.8233 Y19.2766
X176.7709 Y19.2655
X176.7158 Y19.2571
X176.6608 Y19.2519
X176.5506 Y19.25
X26.2326
X26.1225 Y19.2532
X26.0674 Y19.2593
X26.0124 Y19.2687
X25.9684 Y19.2787
X25.9244 Y19.2909
X25.9022 Y19.2979
X25.8472 Y19.3179
X25.7921 Y19.342
X25.7391 Y19.3693
X25.6861 Y19.401
X25.682 Y19.4036
X25.6269 Y19.4423
X25.5719 Y19.4873
X25.5459 Y19.5111
X25.5011 Y19.5566
X25.4618 Y19.6021
X25.4467 Y19.6212
X25.4074 Y19.6762
X25.3737 Y19.7313
X25.3516 Y19.7725
X25.3203 Y19.8414
X25.2998 Y19.8964
X25.2831 Y19.9515
X25.2699 Y20.0065
X25.2601 Y20.0616
X25.2537 Y20.1166
X25.2504 Y20.1717
X25.25 Y20.2818
Y56.8432
Y89.9772
X25.2506 Y90.0323
X25.254 Y90.0873
X25.2607 Y90.1424
X25.2707 Y90.1974
X25.2842 Y90.2525
X25.3012 Y90.3075
X25.3219 Y90.3626
X25.3467 Y90.4176
X25.3516 Y90.4275
X25.3788 Y90.4776
X25.4101 Y90.5277
X25.4347 Y90.5628
X25.4618 Y90.5979
X25.496 Y90.6379
X25.5339 Y90.6774
X25.5719 Y90.7127
X25.6143 Y90.748
X25.6481 Y90.7733
X25.682 Y90.7963
X25.7371 Y90.8296
X25.7921 Y90.858
X25.7923 Y90.8581
X25.8473 Y90.8821
X25.9022 Y90.9021
X25.9573 Y90.9185
X26.0124 Y90.9313
X26.0674 Y90.9407
X26.1225 Y90.9468
X26.2326 Y90.95
X28.6378
X28.8313 Z-3.0001
X29.0249 Z-3.0004
X29.2185 Z-3.0008
X29.412 Z-3.0015
X29.6056 Z-3.0023
X29.7992 Z-3.0033
X29.9928 Z-3.0045
X30.1863 Z-3.0058
X30.3799 Z-3.0073
X30.5735 Z-3.009
X30.7671 Z-3.0109
X30.9606 Z-3.0129
X31.1542 Z-3.0151
X31.3478 Z-3.0174
X31.5414 Z-3.0199
X31.7349 Z-3.0225
X31.9285 Z-3.0253
X32.1221 Z-3.0283
X32.3157 Z-3.0314
X32.5092 Z-3.0347
X32.7028 Z-3.0381
X32.8964 Z-3.0416
X33.09 Z-3.0453
X33.2835 Z-3.0491
X33.4771 Z-3.0531
X33.6707 Z-3.0572
X33.8643 Z-3.0614
X34.0578 Z-3.0658
X34.2514 Z-3.0702
X34.445 Z-3.0749
X34.6386 Z-3.0796
X34.8321 Z-3.0845
X35.0257 Z-3.0894
X35.1225 Z-3.092
X35.2193 Z-3.0945
X35.3161 Z-3.0971
X35.4129 Z-3.0997
X35.5097 Z-3.1024
X35.6064 Z-3.1051
X35.7032 Z-3.1078
X35.8 Z-3.1105
X35.8968 Z-3.1133
X35.9936 Z-3.1161
X36.0904 Z-3.1189
X36.1872 Z-3.1217
X36.284 Z-3.1246
X36.3807 Z-3.1275
X36.4775 Z-3.1304
X36.5743 Z-3.1334
X36.6711 Z-3.1363
X36.7679 Z-3.1393
X36.8647 Z-3.1423
X36.9615 Z-3.1454
X37.0582 Z-3.1485
X37.155 Z-3.1516
X37.2518 Z-3.1547
X37.3486 Z-3.1578
X37.4454 Z-3.161
X37.5422 Z-3.1642
X37.639 Z-3.1674
X37.7358 Z-3.1706
X37.8325 Z-3.1739
X37.9293 Z-3.1772
X38.0261 Z-3.1805
X38.1229 Z-3.1838
X38.2197 Z-3.1871
X38.4133 Z-3.1939
X38.5101 Z-3.1972
X38.6068 Z-3.2006
X38.7036 Z-3.204
X38.8004 Z-3.2074
X38.8972 Z-3.2108
X38.994 Z-3.2141
X39.0908 Z-3.2175
X39.1876 Z-3.2209
X39.2844 Z-3.2243
X39.3811 Z-3.2277
X39.4779 Z-3.231
X39.5747 Z-3.2344
X39.7683 Z-3.2412
X40.0587 Z-3.2513
X40.349 Z-3.2614
X40.6394 Z-3.2716
X40.9297 Z-3.2817
X41.2201 Z-3.2919
X41.5105 Z-3.302
X41.8008 Z-3.3121
X42.0912 Z-3.3223
X42.3816 Z-3.3324
X42.6719 Z-3.3426
X43.1558 Z-3.3595
X43.6398 Z-3.3764
X44.1237 Z-3.3933
X44.8012 Z-3.4169
X45.6723 Z-3.4473
X47.1241 Z-3.498
X54.0928 Z-3.7413
X54.3832 Z-3.7515
X54.6735 Z-3.7616
X54.7703 Z-3.765
X54.8671 Z-3.7684
X54.9639 Z-3.7717
X55.0607 Z-3.7751
X55.1575 Z-3.7785
X55.2543 Z-3.7819
X55.3511 Z-3.7853
X55.4478 Z-3.7886
X55.5446 Z-3.792
X55.6414 Z-3.7954
X55.7382 Z-3.7988
X55.835 Z-3.8022
X55.9318 Z-3.8055
X56.0286 Z-3.8089
X56.1254 Z-3.8123
X56.2221 Z-3.8156
X56.3189 Z-3.819
X56.4157 Z-3.8223
X56.5125 Z-3.8255
X56.6093 Z-3.8288
X56.7061 Z-3.832
X56.8029 Z-3.8353
X56.8997 Z-3.8385
X56.9964 Z-3.8416
X57.0932 Z-3.8448
X57.19 Z-3.8479
X57.2868 Z-3.851
X57.3836 Z-3.8541
X57.4804 Z-3.8571
X57.5772 Z-3.8601
X57.674 Z-3.8631
X57.7707 Z-3.8661
X57.8675 Z-3.8691
X57.9643 Z-3.872
X58.0611 Z-3.8749
X58.1579 Z-3.8778
X58.2547 Z-3.8806
X58.3515 Z-3.8834
X58.4482 Z-3.8862
X58.545 Z-3.889
X58.6418 Z-3.8917
X58.7386 Z-3.8945
X58.8354 Z-3.8971
X58.9322 Z-3.8998
X59.029 Z-3.9024
X59.1258 Z-3.905
X59.2225 Z-3.9076
X59.3193 Z-3.9101
X59.4161 Z-3.9126
X59.6097 Z-3.9176
X59.8033 Z-3.9224
X59.9968 Z-3.9271
X60.1904 Z-3.9316
X60.384 Z-3.9361
X60.5776 Z-3.9404
X60.7711 Z-3.9445
X60.9647 Z-3.9486
X61.1583 Z-3.9525
X61.3519 Z-3.9562
X61.5454 Z-3.9599
X61.739 Z-3.9634
X61.9326 Z-3.9667
X62.1262 Z-3.9699
X62.3197 Z-3.9729
X62.5133 Z-3.9758
X62.7069 Z-3.9786
X62.9005 Z-3.9812
X63.094 Z-3.9836
X63.2876 Z-3.9859
X63.4812 Z-3.988
X63.6748 Z-3.9899
X63.8683 Z-3.9917
X64.0619 Z-3.9933
X64.2555 Z-3.9948
X64.4491 Z-3.996
X64.6426 Z-3.9971
X64.8362 Z-3.9981
X65.0298 Z-3.9988
X65.2234 Z-3.9994
X65.4169 Z-3.9998
X65.6105 Z-4
X65.7243
X325.7674
X325.8775 Y90.9468
X325.9326 Y90.9407
X325.9877 Y90.9313
X326.0427 Y90.9185
X326.0978 Y90.9021
X326.1527 Y90.8821
X326.2077 Y90.8581
X326.2079 Y90.858
X326.263 Y90.8295
X326.318 Y90.7963
X326.3519 Y90.7733
X326.3857 Y90.748
X326.4282 Y90.7127
X326.4661 Y90.6774
X326.504 Y90.6379
X326.5383 Y90.5979
X326.5653 Y90.5628
X326.5899 Y90.5277
X326.6212 Y90.4776
X326.6484 Y90.4274
X326.6533 Y90.4176
X326.6781 Y90.3626
X326.6988 Y90.3075
X326.7158 Y90.2525
X326.7292 Y90.1974
X326.7393 Y90.1424
X326.746 Y90.0873
X326.7495 Y90.0323
X326.75 Y89.9772
Y20.2818
X326.7496 Y20.1717
X326.7463 Y20.1166
X326.7398 Y20.0616
X326.7301 Y20.0065
X326.7169 Y19.9515
X326.7002 Y19.8964
X326.6797 Y19.8414
X326.6484 Y19.7726
X326.6263 Y19.7313
X326.5926 Y19.6762
X326.5533 Y19.6212
X326.5383 Y19.6021
X326.499 Y19.5566
X326.4541 Y19.5111
X326.4282 Y19.4873
X326.3731 Y19.4423
X326.318 Y19.4037
X326.3138 Y19.401
X326.2609 Y19.3693
X326.2079 Y19.342
X326.1528 Y19.318
X326.0978 Y19.2979
X326.0756 Y19.2909
X326.0316 Y19.2787
X325.9877 Y19.2687
X325.9326 Y19.2593
X325.8775 Y19.2532
X325.7674 Y19.25
X296.0342
X295.9241 Y19.253
X295.869 Y19.2591
X295.8139 Y19.2684
X295.7692 Y19.2785
X295.7244 Y19.2909
X295.7038 Y19.2973
X295.6487 Y19.3173
X295.5937 Y19.3413
X295.5399 Y19.3688
X295.4861 Y19.401
X295.4836 Y19.4026
X295.4285 Y19.4411
X295.3734 Y19.4859
X295.3459 Y19.5111
X295.3019 Y19.5556
X295.2633 Y19.6002
X295.2467 Y19.6212
X295.2074 Y19.6762
X295.1737 Y19.7313
X295.1532 Y19.7694
X295.1203 Y19.8414
X295.0998 Y19.8964
X295.0831 Y19.9515
X295.0699 Y20.0065
X295.0602 Y20.0616
X295.0536 Y20.1166
X295.0504 Y20.1717
X295.05 Y20.2818
Y74.9482
X295.0483 Y74.95
X177.5516
X177.55 Y74.9482
Y20.2818
X177.5496 Y20.1717
X177.5469 Y20.1233
X177.5417 Y20.0749
X177.5399 Y20.0616
X177.5301 Y20.0065
X177.5169 Y19.9515
X177.5002 Y19.8964
X177.4797 Y19.8414
X177.4575 Y19.7911
X177.4316 Y19.7407
X177.4263 Y19.7313
X177.3926 Y19.6762
X177.3533 Y19.6212
X177.3215 Y19.582
X177.2896 Y19.5465
X177.2541 Y19.5111
X177.2114 Y19.4729
X177.1626 Y19.4345
X177.1139 Y19.401
X177.1012 Y19.393
X177.0462 Y19.3613
X176.9911 Y19.3342
X176.9361 Y19.3114
X176.881 Y19.2925
X176.8756 Y19.2909
X176.8233 Y19.2766
X176.7709 Y19.2655
X176.7158 Y19.2571
X176.6608 Y19.2519
X176.5506 Y19.25
X26.2326
X26.1225 Y19.2532
X26.0674 Y19.2593
X26.0124 Y19.2687
X25.9684 Y19.2787
X25.9244 Y19.2909
X25.9022 Y19.2979
X25.8472 Y19.3179
X25.7921 Y19.342
X25.7391 Y19.3693
X25.6861 Y19.401
X25.682 Y19.4036
X25.6269 Y19.4423
X25.5719 Y19.4873
X25.5459 Y19.5111
X25.5011 Y19.5566
X25.4618 Y19.6021
X25.4467 Y19.6212
X25.4074 Y19.6762
X25.3737 Y19.7313
X25.3516 Y19.7725
X25.3203 Y19.8414
X25.2998 Y19.8964
X25.2831 Y19.9515
X25.2699 Y20.0065
X25.2601 Y20.0616
X25.2537 Y20.1166
X25.2504 Y20.1717
X25.25 Y20.2818
Y89.9772
X25.2506 Y90.0323
X25.254 Y90.0873
X25.2607 Y90.1424
X25.2707 Y90.1974
X25.2842 Y90.2525
X25.3012 Y90.3075
X25.3219 Y90.3626
X25.3467 Y90.4176
X25.3516 Y90.4275
X25.3788 Y90.4776
X25.4101 Y90.5277
X25.4347 Y90.5628
X25.4618 Y90.5979
X25.496 Y90.6379
X25.5339 Y90.6774
X25.5719 Y90.7127
X25.6143 Y90.748
X25.6481 Y90.7733
X25.682 Y90.7963
X25.7371 Y90.8296
X25.7921 Y90.858
X25.7923 Y90.8581
X25.8473 Y90.8821
X25.9022 Y90.9021
X25.9573 Y90.9185
X26.0124 Y90.9313
X26.0674 Y90.9407
X26.1225 Y90.9468
X26.2326 Y90.95
X65.7243
X65.9179 Z-4.0001
X66.1115 Z-4.0004
X66.305 Z-4.0008
X66.4986 Z-4.0015
X66.6922 Z-4.0023
X66.8858 Z-4.0033
X67.0793 Z-4.0045
X67.2729 Z-4.0058
X67.4665 Z-4.0073
X67.6601 Z-4.009
X67.8536 Z-4.0109
X68.0472 Z-4.0129
X68.2408 Z-4.0151
X68.4344 Z-4.0174
X68.6279 Z-4.0199
X68.8215 Z-4.0225
X69.0151 Z-4.0253
X69.2087 Z-4.0283
X69.4022 Z-4.0314
X69.5958 Z-4.0347
X69.7894 Z-4.0381
X69.983 Z-4.0416
X70.1765 Z-4.0453
X70.3701 Z-4.0491
X70.5637 Z-4.0531
X70.7573 Z-4.0572
X70.9508 Z-4.0614
X71.1444 Z-4.0658
X71.338 Z-4.0702
X71.5316 Z-4.0749
X71.7251 Z-4.0796
X71.9187 Z-4.0845
X72.1123 Z-4.0894
X72.2091 Z-4.092
X72.3059 Z-4.0945
X72.4026 Z-4.0971
X72.4994 Z-4.0997
X72.5962 Z-4.1024
X72.693 Z-4.1051
X72.7898 Z-4.1078
X72.8866 Z-4.1105
X72.9834 Z-4.1133
X73.0802 Z-4.1161
X73.1769 Z-4.1189
X73.2737 Z-4.1217
X73.3705 Z-4.1246
X73.4673 Z-4.1275
X73.5641 Z-4.1304
X73.6609 Z-4.1334
X73.7577 Z-4.1363
X73.8545 Z-4.1393
X73.9512 Z-4.1423
X74.048 Z-4.1454
X74.1448 Z-4.1485
X74.2416 Z-4.1516
X74.3384 Z-4.1547
X74.4352 Z-4.1578
X74.532 Z-4.161
X74.6287 Z-4.1642
X74.7255 Z-4.1674
X74.8223 Z-4.1706
X74.9191 Z-4.1739
X75.0159 Z-4.1772
X75.1127 Z-4.1805
X75.2095 Z-4.1838
X75.3063 Z-4.1871
X75.4998 Z-4.1939
X75.5966 Z-4.1972
X75.6934 Z-4.2006
X75.7902 Z-4.204
X75.887 Z-4.2074
X75.9838 Z-4.2108
X76.0806 Z-4.2141
X76.1773 Z-4.2175
X76.2741 Z-4.2209
X76.3709 Z-4.2243
X76.4677 Z-4.2277
X76.5645 Z-4.231
X76.6613 Z-4.2344
X76.8549 Z-4.2412
X77.1452 Z-4.2513
X77.4356 Z-4.2614
X77.7259 Z-4.2716
X78.0163 Z-4.2817
X78.3067 Z-4.2919
X78.597 Z-4.302
X78.8874 Z-4.3121
X79.1778 Z-4.3223
X79.4681 Z-4.3324
X79.7585 Z-4.3426
X80.2424 Z-4.3595
X80.7263 Z-4.3764
X81.2103 Z-4.3933
X81.8878 Z-4.4169
X82.7589 Z-4.4473
X84.2107 Z-4.498
X91.1794 Z-4.7413
X91.4697 Z-4.7515
X91.7601 Z-4.7616
X91.8569 Z-4.765
X91.9537 Z-4.7684
X92.0505 Z-4.7717
X92.1473 Z-4.7751
X92.244 Z-4.7785
X92.3408 Z-4.7819
X92.4376 Z-4.7853
X92.5344 Z-4.7886
X92.6312 Z-4.792
X92.728 Z-4.7954
X92.8248 Z-4.7988
X92.9216 Z-4.8022
X93.0183 Z-4.8055
X93.1151 Z-4.8089
X93.2119 Z-4.8123
X93.3087 Z-4.8156
X93.4055 Z-4.819
X93.5023 Z-4.8223
X93.5991 Z-4.8255
X93.6959 Z-4.8288
X93.7926 Z-4.832
X93.8894 Z-4.8353
X93.9862 Z-4.8385
X94.083 Z-4.8416
X94.1798 Z-4.8448
X94.2766 Z-4.8479
X94.3734 Z-4.851
X94.4702 Z-4.8541
X94.5669 Z-4.8571
X94.6637 Z-4.8601
X94.7605 Z-4.8631
X94.8573 Z-4.8661
X94.9541 Z-4.8691
X95.0509 Z-4.872
X95.1477 Z-4.8749
X95.2445 Z-4.8778
X95.3412 Z-4.8806
X95.438 Z-4.8834
X95.5348 Z-4.8862
X95.6316 Z-4.889
X95.7284 Z-4.8917
X95.8252 Z-4.8945
X95.922 Z-4.8971
X96.0188 Z-4.8998
X96.1155 Z-4.9024
X96.2123 Z-4.905
X96.3091 Z-4.9076
X96.4059 Z-4.9101
X96.5027 Z-4.9126
X96.6963 Z-4.9176
X96.8898 Z-4.9224
X97.0834 Z-4.9271
X97.277 Z-4.9316
X97.4706 Z-4.9361
X97.6641 Z-4.9404
X97.8577 Z-4.9445
X98.0513 Z-4.9486
X98.2449 Z-4.9525
X98.4384 Z-4.9562
X98.632 Z-4.9599
X98.8256 Z-4.9634
X99.0192 Z-4.9667
X99.2127 Z-4.9699
X99.4063 Z-4.9729
X99.5999 Z-4.9758
X99.7935 Z-4.9786
X99.987 Z-4.9812
X100.1806 Z-4.9836
X100.3742 Z-4.9859
X100.5678 Z-4.988
X100.7613 Z-4.9899
X100.9549 Z-4.9917
X101.1485 Z-4.9933
X101.3421 Z-4.9948
X101.5356 Z-4.996
X101.7292 Z-4.9971
X101.9228 Z-4.9981
X102.1164 Z-4.9988
X102.3099 Z-4.9994
X102.5035 Z-4.9998
X102.6971 Z-5
X102.8109
X325.7674
X325.8775 Y90.9468
X325.9326 Y90.9407
X325.9877 Y90.9313
X326.0427 Y90.9185
X326.0978 Y90.9021
X326.1527 Y90.8821
X326.2077 Y90.8581
X326.2079 Y90.858
X326.263 Y90.8295
X326.318 Y90.7963
X326.3519 Y90.7733
X326.3857 Y90.748
X326.4282 Y90.7127
X326.4661 Y90.6774
X326.504 Y90.6379
X326.5383 Y90.5979
X326.5653 Y90.5628
X326.5899 Y90.5277
X326.6212 Y90.4776
X326.6484 Y90.4274
X326.6533 Y90.4176
X326.6781 Y90.3626
X326.6988 Y90.3075
X326.7158 Y90.2525
X326.7292 Y90.1974
X326.7393 Y90.1424
X326.746 Y90.0873
X326.7495 Y90.0323
X326.75 Y89.9772
Y20.2818
X326.7496 Y20.1717
X326.7463 Y20.1166
X326.7398 Y20.0616
X326.7301 Y20.0065
X326.7169 Y19.9515
X326.7002 Y19.8964
X326.6797 Y19.8414
X326.6484 Y19.7726
X326.6263 Y19.7313
X326.5926 Y19.6762
X326.5533 Y19.6212
X326.5383 Y19.6021
X326.499 Y19.5566
X326.4541 Y19.5111
X326.4282 Y19.4873
X326.3731 Y19.4423
X326.318 Y19.4037
X326.3138 Y19.401
X326.2609 Y19.3693
X326.2079 Y19.342
X326.1528 Y19.318
X326.0978 Y19.2979
X326.0756 Y19.2909
X326.0316 Y19.2787
X325.9877 Y19.2687
X325.9326 Y19.2593
X325.8775 Y19.2532
X325.7674 Y19.25
X296.0342
X295.9241 Y19.253
X295.869 Y19.2591
X295.8139 Y19.2684
X295.7692 Y19.2785
X295.7244 Y19.2909
X295.7038 Y19.2973
X295.6487 Y19.3173
X295.5937 Y19.3413
X295.5399 Y19.3688
X295.4861 Y19.401
X295.4836 Y19.4026
X295.4285 Y19.4411
X295.3734 Y19.4859
X295.3459 Y19.5111
X295.3019 Y19.5556
X295.2633 Y19.6002
X295.2467 Y19.6212
X295.2074 Y19.6762
X295.1737 Y19.7313
X295.1532 Y19.7694
X295.1203 Y19.8414
X295.0998 Y19.8964
X295.0831 Y19.9515
X295.0699 Y20.0065
X295.0602 Y20.0616
X295.0536 Y20.1166
X295.0504 Y20.1717
X295.05 Y20.2818
Y74.9482
X295.0483 Y74.95
X177.5516
X177.55 Y74.9482
Y20.2818
X177.5496 Y20.1717
X177.5469 Y20.1233
X177.5417 Y20.0749
X177.5399 Y20.0616
X177.5301 Y20.0065
X177.5169 Y19.9515
X177.5002 Y19.8964
X177.4797 Y19.8414
X177.4575 Y19.7911
X177.4316 Y19.7407
X177.4263 Y19.7313
X177.3926 Y19.6762
X177.3533 Y19.6212
X177.3215 Y19.582
X177.2896 Y19.5465
X177.2541 Y19.5111
X177.2114 Y19.4729
X177.1626 Y19.4345
X177.1139 Y19.401
X177.1012 Y19.393
X177.0462 Y19.3613
X176.9911 Y19.3342
X176.9361 Y19.3114
X176.881 Y19.2925
X176.8756 Y19.2909
X176.8233 Y19.2766
X176.7709 Y19.2655
X176.7158 Y19.2571
X176.6608 Y19.2519
X176.5506 Y19.25
X26.2326
X26.1225 Y19.2532
X26.0674 Y19.2593
X26.0124 Y19.2687
X25.9684 Y19.2787
X25.9244 Y19.2909
X25.9022 Y19.2979
X25.8472 Y19.3179
X25.7921 Y19.342
X25.7391 Y19.3693
X25.6861 Y19.401
X25.682 Y19.4036
X25.6269 Y19.4423
X25.5719 Y19.4873
X25.5459 Y19.5111
X25.5011 Y19.5566
X25.4618 Y19.6021
X25.4467 Y19.6212
X25.4074 Y19.6762
X25.3737 Y19.7313
X25.3516 Y19.7725
X25.3203 Y19.8414
X25.2998 Y19.8964
X25.2831 Y19.9515
X25.2699 Y20.0065
X25.2601 Y20.0616
X25.2537 Y20.1166
X25.2504 Y20.1717
X25.25 Y20.2818
Y89.9772
X25.2506 Y90.0323
X25.254 Y90.0873
X25.2607 Y90.1424
X25.2707 Y90.1974
X25.2842 Y90.2525
X25.3012 Y90.3075
X25.3219 Y90.3626
X25.3467 Y90.4176
X25.3516 Y90.4275
X25.3788 Y90.4776
X25.4101 Y90.5277
X25.4347 Y90.5628
X25.4618 Y90.5979
X25.496 Y90.6379
X25.5339 Y90.6774
X25.5719 Y90.7127
X25.6143 Y90.748
X25.6481 Y90.7733
X25.682 Y90.7963
X25.7371 Y90.8296
X25.7921 Y90.858
X25.7923 Y90.8581
X25.8473 Y90.8821
X25.9022 Y90.9021
X25.9573 Y90.9185
X26.0124 Y90.9313
X26.0674 Y90.9407
X26.1225 Y90.9468
X26.2326 Y90.95
X65.7243
X102.8109
X103.0045 Z-5.0001
X103.198 Z-5.0004
X103.3916 Z-5.0008
X103.5852 Z-5.0015
X103.7788 Z-5.0023
X103.9723 Z-5.0033
X104.1659 Z-5.0045
X104.3595 Z-5.0058
X104.553 Z-5.0073
X104.7466 Z-5.009
X104.9402 Z-5.0109
X105.1338 Z-5.0129
X105.3273 Z-5.0151
X105.5209 Z-5.0174
X105.7145 Z-5.0199
X105.9081 Z-5.0225
X106.1016 Z-5.0253
X106.2952 Z-5.0283
X106.4888 Z-5.0314
X106.6824 Z-5.0347
X106.8759 Z-5.0381
X107.0695 Z-5.0416
X107.2631 Z-5.0453
X107.4567 Z-5.0491
X107.6502 Z-5.0531
X107.8438 Z-5.0572
X108.0374 Z-5.0614
X108.231 Z-5.0658
X108.4245 Z-5.0702
X108.6181 Z-5.0749
X108.8117 Z-5.0796
X109.0053 Z-5.0845
X109.1988 Z-5.0894
X109.2956 Z-5.092
X109.3924 Z-5.0945
X109.4892 Z-5.0971
X109.586 Z-5.0997
X109.6828 Z-5.1024
X109.7796 Z-5.1051
X109.8764 Z-5.1078
X109.9731 Z-5.1105
X110.0699 Z-5.1133
X110.1667 Z-5.1161
X110.2635 Z-5.1189
X110.3603 Z-5.1217
X110.4571 Z-5.1246
X110.5539 Z-5.1275
X110.6507 Z-5.1304
X110.7474 Z-5.1334
X110.8442 Z-5.1363
X110.941 Z-5.1393
X111.0378 Z-5.1423
X111.1346 Z-5.1454
X111.2314 Z-5.1485
X111.3282 Z-5.1516
X111.4249 Z-5.1547
X111.5217 Z-5.1578
X111.6185 Z-5.161
X111.7153 Z-5.1642
X111.8121 Z-5.1674
X111.9089 Z-5.1706
X112.0057 Z-5.1739
X112.1025 Z-5.1772
X112.1992 Z-5.1805
X112.296 Z-5.1838
X112.3928 Z-5.1871
X112.5864 Z-5.1939
X112.6832 Z-5.1972
X112.78 Z-5.2006
X112.8768 Z-5.204
X112.9735 Z-5.2074
X113.0703 Z-5.2108
X113.1671 Z-5.2141
X113.2639 Z-5.2175
X113.3607 Z-5.2209
X113.4575 Z-5.2243
X113.5543 Z-5.2277
X113.6511 Z-5.231
X113.7478 Z-5.2344
X113.9414 Z-5.2412
X114.2318 Z-5.2513
X114.5221 Z-5.2614
X114.8125 Z-5.2716
X115.1029 Z-5.2817
X115.3932 Z-5.2919
X115.6836 Z-5.302
X115.974 Z-5.3121
X116.2643 Z-5.3223
X116.5547 Z-5.3324
X116.845 Z-5.3426
X117.329 Z-5.3595
X117.8129 Z-5.3764
X118.2969 Z-5.3933
X118.9744 Z-5.4169
X119.8455 Z-5.4473
X121.2973 Z-5.498
X128.2659 Z-5.7413
X128.5563 Z-5.7515
X128.8467 Z-5.7616
X128.9435 Z-5.765
X129.0403 Z-5.7684
X129.137 Z-5.7717
X129.2338 Z-5.7751
X129.3306 Z-5.7785
X129.4274 Z-5.7819
X129.5242 Z-5.7853
X129.621 Z-5.7886
X129.7178 Z-5.792
X129.8145 Z-5.7954
X129.9113 Z-5.7988
X130.0081 Z-5.8022
X130.1049 Z-5.8055
X130.2017 Z-5.8089
X130.2985 Z-5.8123
X130.3953 Z-5.8156
X130.4921 Z-5.819
X130.5888 Z-5.8223
X130.6856 Z-5.8255
X130.7824 Z-5.8288
X130.8792 Z-5.832
X130.976 Z-5.8353
X131.0728 Z-5.8385
X131.1696 Z-5.8416
X131.2664 Z-5.8448
X131.3631 Z-5.8479
X131.4599 Z-5.851
X131.5567 Z-5.8541
X131.6535 Z-5.8571
X131.7503 Z-5.8601
X131.8471 Z-5.8631
X131.9439 Z-5.8661
X132.0406 Z-5.8691
X132.1374 Z-5.872
X132.2342 Z-5.8749
X132.331 Z-5.8778
X132.4278 Z-5.8806
X132.5246 Z-5.8834
X132.6214 Z-5.8862
X132.7182 Z-5.889
X132.815 Z-5.8917
X132.9117 Z-5.8945
X133.0085 Z-5.8971
X133.1053 Z-5.8998
X133.2021 Z-5.9024
X133.2989 Z-5.905
X133.3957 Z-5.9076
X133.4925 Z-5.9101
X133.5892 Z-5.9126
X133.7828 Z-5.9176
X133.9764 Z-5.9224
X134.17 Z-5.9271
X134.3636 Z-5.9316
X134.5571 Z-5.9361
X134.7507 Z-5.9404
X134.9443 Z-5.9445
X135.1378 Z-5.9486
X135.3314 Z-5.9525
X135.525 Z-5.9562
X135.7186 Z-5.9599
X135.9122 Z-5.9634
X136.1057 Z-5.9667
X136.2993 Z-5.9699
X136.4929 Z-5.9729
X136.6864 Z-5.9758
X136.88 Z-5.9786
X137.0736 Z-5.9812
X137.2672 Z-5.9836
X137.4607 Z-5.9859
X137.6543 Z-5.988
X137.8479 Z-5.9899
X138.0415 Z-5.9917
X138.235 Z-5.9933
X138.4286 Z-5.9948
X138.6222 Z-5.996
X138.8158 Z-5.9971
X139.0093 Z-5.9981
X139.2029 Z-5.9988
X139.3965 Z-5.9994
X139.5901 Z-5.9998
X139.7836 Z-6
X139.8974
X325.7674
X325.8775 Y90.9468
X325.9326 Y90.9407
X325.9877 Y90.9313
X326.0427 Y90.9185
X326.0978 Y90.9021
X326.1527 Y90.8821
X326.2077 Y90.8581
X326.2079 Y90.858
X326.263 Y90.8295
X326.318 Y90.7963
X326.3519 Y90.7733
X326.3857 Y90.748
X326.4282 Y90.7127
X326.4661 Y90.6774
X326.504 Y90.6379
X326.5383 Y90.5979
X326.5653 Y90.5628
X326.5899 Y90.5277
X326.6212 Y90.4776
X326.6484 Y90.4274
X326.6533 Y90.4176
X326.6781 Y90.3626
X326.6988 Y90.3075
X326.7158 Y90.2525
X326.7292 Y90.1974
X326.7393 Y90.1424
X326.746 Y90.0873
X326.7495 Y90.0323
X326.75 Y89.9772
Y20.2818
X326.7496 Y20.1717
X326.7463 Y20.1166
X326.7398 Y20.0616
X326.7301 Y20.0065
X326.7169 Y19.9515
X326.7002 Y19.8964
X326.6797 Y19.8414
X326.6484 Y19.7726
X326.6263 Y19.7313
X326.5926 Y19.6762
X326.5533 Y19.6212
X326.5383 Y19.6021
X326.499 Y19.5566
X326.4541 Y19.5111
X326.4282 Y19.4873
X326.3731 Y19.4423
X326.318 Y19.4037
X326.3138 Y19.401
X326.2609 Y19.3693
X326.2079 Y19.342
X326.1528 Y19.318
X326.0978 Y19.2979
X326.0756 Y19.2909
X326.0316 Y19.2787
X325.9877 Y19.2687
X325.9326 Y19.2593
X325.8775 Y19.2532
X325.7674 Y19.25
X296.0342
X295.9241 Y19.253
X295.869 Y19.2591
X295.8139 Y19.2684
X295.7692 Y19.2785
X295.7244 Y19.2909
X295.7038 Y19.2973
X295.6487 Y19.3173
X295.5937 Y19.3413
X295.5399 Y19.3688
X295.4861 Y19.401
X295.4836 Y19.4026
X295.4285 Y19.4411
X295.3734 Y19.4859
X295.3459 Y19.5111
X295.3019 Y19.5556
X295.2633 Y19.6002
X295.2467 Y19.6212
X295.2074 Y19.6762
X295.1737 Y19.7313
X295.1532 Y19.7694
X295.1203 Y19.8414
X295.0998 Y19.8964
X295.0831 Y19.9515
X295.0699 Y20.0065
X295.0602 Y20.0616
X295.0536 Y20.1166
X295.0504 Y20.1717
X295.05 Y20.2818
Y74.9482
X295.0483 Y74.95
X177.5516
X177.55 Y74.9482
Y20.2818
X177.5496 Y20.1717
X177.5469 Y20.1233
X177.5417 Y20.0749
X177.5399 Y20.0616
X177.5301 Y20.0065
X177.5169 Y19.9515
X177.5002 Y19.8964
X177.4797 Y19.8414
X177.4575 Y19.7911
X177.4316 Y19.7407
X177.4263 Y19.7313
X177.3926 Y19.6762
X177.3533 Y19.6212
X177.3215 Y19.582
X177.2896 Y19.5465
X177.2541 Y19.5111
X177.2114 Y19.4729
X177.1626 Y19.4345
X177.1139 Y19.401
X177.1012 Y19.393
X177.0462 Y19.3613
X176.9911 Y19.3342
X176.9361 Y19.3114
X176.881 Y19.2925
X176.8756 Y19.2909
X176.8233 Y19.2766
X176.7709 Y19.2655
X176.7158 Y19.2571
X176.6608 Y19.2519
X176.5506 Y19.25
X26.2326
X26.1225 Y19.2532
X26.0674 Y19.2593
X26.0124 Y19.2687
X25.9684 Y19.2787
X25.9244 Y19.2909
X25.9022 Y19.2979
X25.8472 Y19.3179
X25.7921 Y19.342
X25.7391 Y19.3693
X25.6861 Y19.401
X25.682 Y19.4036
X25.6269 Y19.4423
X25.5719 Y19.4873
X25.5459 Y19.5111
X25.5011 Y19.5566
X25.4618 Y19.6021
X25.4467 Y19.6212
X25.4074 Y19.6762
X25.3737 Y19.7313
X25.3516 Y19.7725
X25.3203 Y19.8414
X25.2998 Y19.8964
X25.2831 Y19.9515
X25.2699 Y20.0065
X25.2601 Y20.0616
X25.2537 Y20.1166
X25.2504 Y20.1717
X25.25 Y20.2818
Y89.9772
X25.2506 Y90.0323
X25.254 Y90.0873
X25.2607 Y90.1424
X25.2707 Y90.1974
X25.2842 Y90.2525
X25.3012 Y90.3075
X25.3219 Y90.3626
X25.3467 Y90.4176
X25.3516 Y90.4275
X25.3788 Y90.4776
X25.4101 Y90.5277
X25.4347 Y90.5628
X25.4618 Y90.5979
X25.496 Y90.6379
X25.5339 Y90.6774
X25.5719 Y90.7127
X25.6143 Y90.748
X25.6481 Y90.7733
X25.682 Y90.7963
X25.7371 Y90.8296
X25.7921 Y90.858
X25.7923 Y90.8581
X25.8473 Y90.8821
X25.9022 Y90.9021
X25.9573 Y90.9185
X26.0124 Y90.9313
X26.0674 Y90.9407
X26.1225 Y90.9468
X26.2326 Y90.95
X102.8109
X139.8974
X140.091 Z-6.0001
X140.2846 Z-6.0004
X140.4782 Z-6.0008
X140.6717 Z-6.0015
X140.8653 Z-6.0023
X141.0589 Z-6.0033
X141.2525 Z-6.0045
X141.446 Z-6.0058
X141.6396 Z-6.0073
X141.8332 Z-6.009
X142.0268 Z-6.0109
X142.2203 Z-6.0129
X142.4139 Z-6.0151
X142.6075 Z-6.0174
X142.8011 Z-6.0199
X142.9946 Z-6.0225
X143.1882 Z-6.0253
X143.3818 Z-6.0283
X143.5754 Z-6.0314
X143.7689 Z-6.0347
X143.9625 Z-6.0381
X144.1561 Z-6.0416
X144.3497 Z-6.0453
X144.5432 Z-6.0491
X144.7368 Z-6.0531
X144.9304 Z-6.0572
X145.124 Z-6.0614
X145.3175 Z-6.0658
X145.5111 Z-6.0702
X145.7047 Z-6.0749
X145.8983 Z-6.0796
X146.0918 Z-6.0845
X146.2854 Z-6.0894
X146.3822 Z-6.092
X146.479 Z-6.0945
X146.5758 Z-6.0971
X146.6726 Z-6.0997
X146.7693 Z-6.1024
X146.8661 Z-6.1051
X146.9629 Z-6.1078
X147.0597 Z-6.1105
X147.1565 Z-6.1133
X147.2533 Z-6.1161
X147.3501 Z-6.1189
X147.4469 Z-6.1217
X147.5436 Z-6.1246
X147.6404 Z-6.1275
X147.7372 Z-6.1304
X147.834 Z-6.1334
X147.9308 Z-6.1363
X148.0276 Z-6.1393
X148.1244 Z-6.1423
X148.2212 Z-6.1454
X148.3179 Z-6.1485
X148.4147 Z-6.1516
X148.5115 Z-6.1547
X148.6083 Z-6.1578
X148.7051 Z-6.161
X148.8019 Z-6.1642
X148.8987 Z-6.1674
X148.9955 Z-6.1706
X149.0922 Z-6.1739
X149.189 Z-6.1772
X149.2858 Z-6.1805
X149.3826 Z-6.1838
X149.4794 Z-6.1871
X149.673 Z-6.1939
X149.7697 Z-6.1972
X149.8665 Z-6.2006
X149.9633 Z-6.204
X150.0601 Z-6.2074
X150.1569 Z-6.2108
X150.2537 Z-6.2141
X150.3505 Z-6.2175
X150.4473 Z-6.2209
X150.5441 Z-6.2243
X150.6408 Z-6.2277
X150.7376 Z-6.231
X150.8344 Z-6.2344
X151.028 Z-6.2412
X151.3183 Z-6.2513
X151.6087 Z-6.2614
X151.8991 Z-6.2716
X152.1894 Z-6.2817
X152.4798 Z-6.2919
X152.7702 Z-6.302
X153.0605 Z-6.3121
X153.3509 Z-6.3223
X153.6413 Z-6.3324
X153.9316 Z-6.3426
X154.4155 Z-6.3595
X154.8995 Z-6.3764
X155.3834 Z-6.3933
X156.0609 Z-6.4169
X156.932 Z-6.4473
X158.3838 Z-6.498
X165.3525 Z-6.7413
X165.6429 Z-6.7515
X165.9332 Z-6.7616
X166.03 Z-6.765
X166.1268 Z-6.7684
X166.2236 Z-6.7717
X166.3204 Z-6.7751
X166.4172 Z-6.7785
X166.514 Z-6.7819
X166.6107 Z-6.7853
X166.7075 Z-6.7886
X166.8043 Z-6.792
X166.9011 Z-6.7954
X166.9979 Z-6.7988
X167.0947 Z-6.8022
X167.1915 Z-6.8055
X167.2883 Z-6.8089
X167.385 Z-6.8123
X167.4818 Z-6.8156
X167.5786 Z-6.819
X167.6754 Z-6.8223
X167.7722 Z-6.8255
X167.869 Z-6.8288
X167.9658 Z-6.832
X168.0626 Z-6.8353
X168.1593 Z-6.8385
X168.2561 Z-6.8416
X168.3529 Z-6.8448
X168.4497 Z-6.8479
X168.5465 Z-6.851
X168.6433 Z-6.8541
X168.7401 Z-6.8571
X168.8369 Z-6.8601
X168.9336 Z-6.8631
X169.0304 Z-6.8661
X169.1272 Z-6.8691
X169.224 Z-6.872
X169.3208 Z-6.8749
X169.4176 Z-6.8778
X169.5144 Z-6.8806
X169.6112 Z-6.8834
X169.7079 Z-6.8862
X169.8047 Z-6.889
X169.9015 Z-6.8917
X169.9983 Z-6.8945
X170.0951 Z-6.8971
X170.1919 Z-6.8998
X170.2887 Z-6.9024
X170.3855 Z-6.905
X170.4822 Z-6.9076
X170.579 Z-6.9101
X170.6758 Z-6.9126
X170.8694 Z-6.9176
X171.063 Z-6.9224
X171.2565 Z-6.9271
X171.4501 Z-6.9316
X171.6437 Z-6.9361
X171.8373 Z-6.9404
X172.0308 Z-6.9445
X172.2244 Z-6.9486
X172.418 Z-6.9525
X172.6116 Z-6.9562
X172.8051 Z-6.9599
X172.9987 Z-6.9634
X173.1923 Z-6.9667
X173.3859 Z-6.9699
X173.5794 Z-6.9729
X173.773 Z-6.9758
X173.9666 Z-6.9786
X174.1602 Z-6.9812
X174.3537 Z-6.9836
X174.5473 Z-6.9859
X174.7409 Z-6.988
X174.9345 Z-6.9899
X175.128 Z-6.9917
X175.3216 Z-6.9933
X175.5152 Z-6.9948
X175.7088 Z-6.996
X175.9023 Z-6.9971
X176.0959 Z-6.9981
X176.2895 Z-6.9988
X176.4831 Z-6.9994
X176.6766 Z-6.9998
X176.8702 Z-7
X176.984
X351.9767
X352.0318 Y90.9495
X352.0868 Y90.946
X352.1419 Y90.9393
X352.197 Y90.9294
X352.252 Y90.916
X352.3071 Y90.899
X352.3574 Y90.8802
X352.4077 Y90.8581
X352.4172 Y90.8535
X352.4723 Y90.8243
X352.5273 Y90.7902
X352.5858 Y90.748
X352.6375 Y90.7044
X352.6707 Y90.6728
X352.704 Y90.6379
X352.7476 Y90.5862
X352.7899 Y90.5277
X352.8241 Y90.4727
X352.8533 Y90.4176
X352.8577 Y90.4085
X352.88 Y90.358
X352.8989 Y90.3075
X352.9159 Y90.2525
X352.9293 Y90.1974
X352.9393 Y90.1424
X352.946 Y90.0873
X352.9495 Y90.0323
X352.95 Y89.9772
Y0.0228
X352.9495 Y-0.0323
X352.946 Y-0.0873
X352.9393 Y-0.1424
X352.9293 Y-0.1974
X352.9159 Y-0.2525
X352.8989 Y-0.3075
X352.88 Y-0.358
X352.8577 Y-0.4085
X352.8533 Y-0.4176
X352.8241 Y-0.4727
X352.7899 Y-0.5277
X352.7476 Y-0.5862
X352.704 Y-0.6379
X352.6707 Y-0.6728
X352.6375 Y-0.7044
X352.5858 Y-0.748
X352.5273 Y-0.7902
X352.4723 Y-0.8243
X352.4172 Y-0.8535
X352.4077 Y-0.8581
X352.3574 Y-0.8802
X352.3071 Y-0.899
X352.252 Y-0.916
X352.197 Y-0.9294
X352.1419 Y-0.9393
X352.0868 Y-0.946
X352.0318 Y-0.9495
X351.9767 Y-0.95
X296.0342
X295.9241 Y-0.947
X295.869 Y-0.9409
X295.8139 Y-0.9316
X295.7589 Y-0.9189
X295.7038 Y-0.9026
X295.6487 Y-0.8827
X295.5937 Y-0.8587
X295.5923 Y-0.8581
X295.5379 Y-0.8301
X295.4836 Y-0.7974
X295.4489 Y-0.7738
X295.4143 Y-0.748
X295.3734 Y-0.7141
X295.3347 Y-0.6782
X295.296 Y-0.6379
X295.2633 Y-0.5998
X295.2354 Y-0.5638
X295.2101 Y-0.5277
X295.1797 Y-0.4792
X295.1532 Y-0.4306
X295.1467 Y-0.4176
X295.1219 Y-0.3626
X295.1012 Y-0.3075
X295.0842 Y-0.2525
X295.0707 Y-0.1974
X295.0607 Y-0.1424
X295.054 Y-0.0873
X295.0505 Y-0.0323
X295.05 Y0.0228
Y74.9482
X295.0483 Y74.95
X177.5516
X177.55 Y74.9482
Y0.0228
X177.5495 Y-0.0323
X177.546 Y-0.0873
X177.5417 Y-0.1251
X177.5293 Y-0.1974
X177.5158 Y-0.2525
X177.4989 Y-0.3075
X177.4781 Y-0.3626
X177.4533 Y-0.4176
X177.4316 Y-0.4593
X177.3899 Y-0.5277
X177.3578 Y-0.5729
X177.3215 Y-0.618
X177.304 Y-0.6379
X177.2577 Y-0.6855
X177.2114 Y-0.7271
X177.1857 Y-0.748
X177.1435 Y-0.7792
X177.1012 Y-0.807
X177.0545 Y-0.8342
X177.0077 Y-0.8581
X176.9911 Y-0.8658
X176.9361 Y-0.8886
X176.881 Y-0.9075
X176.8259 Y-0.9227
X176.7709 Y-0.9345
X176.7158 Y-0.9429
X176.6608 Y-0.9481
X176.5506 Y-0.95
X25.3516
X0.0233
X-0.0317 Y-0.9495
X-0.0868 Y-0.946
X-0.1419 Y-0.9393
X-0.1969 Y-0.9294
X-0.252 Y-0.916
X-0.307 Y-0.899
X-0.3574 Y-0.8802
X-0.4077 Y-0.8581
X-0.4172 Y-0.8535
X-0.4722 Y-0.8243
X-0.5273 Y-0.7902
X-0.5857 Y-0.748
X-0.6374 Y-0.7044
X-0.6707 Y-0.6728
X-0.704 Y-0.6379
X-0.7475 Y-0.5862
X-0.7899 Y-0.5277
X-0.824 Y-0.4727
X-0.8533 Y-0.4176
X-0.8577 Y-0.4085
X-0.8799 Y-0.358
X-0.8988 Y-0.3075
X-0.9158 Y-0.2525
X-0.9293 Y-0.1974
X-0.9393 Y-0.1424
X-0.946 Y-0.0873
X-0.9495 Y-0.0323
X-0.95 Y0.0228
Y89.9772
X-0.9495 Y90.0323
X-0.946 Y90.0873
X-0.9393 Y90.1424
X-0.9293 Y90.1974
X-0.9158 Y90.2525
X-0.8988 Y90.3075
X-0.8799 Y90.358
X-0.8577 Y90.4085
X-0.8533 Y90.4176
X-0.824 Y90.4727
X-0.7899 Y90.5277
X-0.7475 Y90.5862
X-0.704 Y90.6379
X-0.6707 Y90.6728
X-0.6374 Y90.7044
X-0.5857 Y90.748
X-0.5273 Y90.7902
X-0.4722 Y90.8243
X-0.4172 Y90.8535
X-0.4077 Y90.8581
X-0.3574 Y90.8802
X-0.307 Y90.899
X-0.252 Y90.916
X-0.1969 Y90.9294
X-0.1419 Y90.9393
X-0.0868 Y90.946
X-0.0317 Y90.9495
X0.0233 Y90.95
X139.8974
X176.984
X177.1776 Z-7.0001
X177.3712 Z-7.0004
X177.5647 Z-7.0008
X177.7583 Z-7.0015
X177.9519 Z-7.0023
X178.1455 Z-7.0033
X178.339 Z-7.0045
X178.5326 Z-7.0058
X178.7262 Z-7.0073
X178.9198 Z-7.009
X179.1133 Z-7.0109
X179.3069 Z-7.0129
X179.5005 Z-7.0151
X179.694 Z-7.0174
X179.8876 Z-7.0199
X180.0812 Z-7.0225
X180.2748 Z-7.0253
X180.4684 Z-7.0283
X180.6619 Z-7.0314
X180.8555 Z-7.0347
X181.0491 Z-7.0381
X181.2426 Z-7.0416
X181.4362 Z-7.0453
X181.6298 Z-7.0491
X181.8234 Z-7.0531
X182.017 Z-7.0572
X182.2105 Z-7.0614
X182.4041 Z-7.0658
X182.5977 Z-7.0702
X182.7912 Z-7.0749
X182.9848 Z-7.0796
X183.1784 Z-7.0845
X183.372 Z-7.0894
X183.4688 Z-7.092
X183.5656 Z-7.0945
X183.6623 Z-7.0971
X183.7591 Z-7.0997
X183.8559 Z-7.1024
X183.9527 Z-7.1051
X184.0495 Z-7.1078
X184.1463 Z-7.1105
X184.2431 Z-7.1133
X184.3398 Z-7.1161
X184.4366 Z-7.1189
X184.5334 Z-7.1217
X184.6302 Z-7.1246
X184.727 Z-7.1275
X184.8238 Z-7.1304
X184.9206 Z-7.1334
X185.0173 Z-7.1363
X185.1142 Z-7.1393
X185.2109 Z-7.1423
X185.3077 Z-7.1454
X185.4045 Z-7.1485
X185.5013 Z-7.1516
X185.5981 Z-7.1547
X185.6949 Z-7.1578
X185.7917 Z-7.161
X185.8884 Z-7.1642
X185.9852 Z-7.1674
X186.082 Z-7.1706
X186.1788 Z-7.1739
X186.2756 Z-7.1772
X186.3724 Z-7.1805
X186.4692 Z-7.1838
X186.5659 Z-7.1871
X186.7595 Z-7.1939
X186.8563 Z-7.1972
X186.9531 Z-7.2006
X187.0499 Z-7.204
X187.1467 Z-7.2074
X187.2435 Z-7.2108
X187.3403 Z-7.2141
X187.437 Z-7.2175
X187.5338 Z-7.2209
X187.6306 Z-7.2243
X187.7274 Z-7.2277
X187.8242 Z-7.231
X187.921 Z-7.2344
X188.1145 Z-7.2412
X188.4049 Z-7.2513
X188.6953 Z-7.2614
X188.9856 Z-7.2716
X189.276 Z-7.2817
X189.5664 Z-7.2919
X189.8567 Z-7.302
X190.1471 Z-7.3121
X190.4375 Z-7.3223
X190.7278 Z-7.3324
X191.0182 Z-7.3426
X191.5021 Z-7.3595
X191.986 Z-7.3764
X192.47 Z-7.3933
X193.1475 Z-7.4169
X194.0186 Z-7.4473
X195.4704 Z-7.498
X202.4391 Z-7.7413
X202.7294 Z-7.7515
X203.0198 Z-7.7616
X203.1166 Z-7.765
X203.2134 Z-7.7684
X203.3102 Z-7.7717
X203.407 Z-7.7751
X203.5037 Z-7.7785
X203.6005 Z-7.7819
X203.6973 Z-7.7853
X203.7941 Z-7.7886
X203.8909 Z-7.792
X203.9877 Z-7.7954
X204.0845 Z-7.7988
X204.1812 Z-7.8022
X204.278 Z-7.8055
X204.3748 Z-7.8089
X204.4716 Z-7.8123
X204.5684 Z-7.8156
X204.6652 Z-7.819
X204.762 Z-7.8223
X204.8588 Z-7.8255
X204.9556 Z-7.8288
X205.0523 Z-7.832
X205.1491 Z-7.8353
X205.2459 Z-7.8385
X205.3427 Z-7.8416
X205.4395 Z-7.8448
X205.5363 Z-7.8479
X205.6331 Z-7.851
X205.7298 Z-7.8541
X205.8266 Z-7.8571
X205.9234 Z-7.8601
X206.0202 Z-7.8631
X206.117 Z-7.8661
X206.2138 Z-7.8691
X206.3106 Z-7.872
X206.4074 Z-7.8749
X206.5042 Z-7.8778
X206.6009 Z-7.8806
X206.6977 Z-7.8834
X206.7945 Z-7.8862
X206.8913 Z-7.889
X206.9881 Z-7.8917
X207.0849 Z-7.8945
X207.1817 Z-7.8971
X207.2784 Z-7.8998
X207.3752 Z-7.9024
X207.472 Z-7.905
X207.5688 Z-7.9076
X207.6656 Z-7.9101
X207.7624 Z-7.9126
X207.9559 Z-7.9176
X208.1495 Z-7.9224
X208.3431 Z-7.9271
X208.5367 Z-7.9316
X208.7303 Z-7.9361
X208.9238 Z-7.9404
X209.1174 Z-7.9445
X209.311 Z-7.9486
X209.5045 Z-7.9525
X209.6981 Z-7.9562
X209.8917 Z-7.9599
X210.0853 Z-7.9634
X210.2789 Z-7.9667
X210.4724 Z-7.9699
X210.666 Z-7.9729
X210.8596 Z-7.9758
X211.0531 Z-7.9786
X211.2467 Z-7.9812
X211.4403 Z-7.9836
X211.6339 Z-7.9859
X211.8275 Z-7.988
X212.021 Z-7.9899
X212.2146 Z-7.9917
X212.4082 Z-7.9933
X212.6017 Z-7.9948
X212.7953 Z-7.996
X212.9889 Z-7.9971
X213.1825 Z-7.9981
X213.3761 Z-7.9988
X213.5696 Z-7.9994
X213.7632 Z-7.9998
X213.9568 Z-8
X214.0706
X351.9767
X352.0318 Y90.9495
X352.0868 Y90.946
X352.1419 Y90.9393
X352.197 Y90.9294
X352.252 Y90.916
X352.3071 Y90.899
X352.3574 Y90.8802
X352.4077 Y90.8581
X352.4172 Y90.8535
X352.4723 Y90.8243
X352.5273 Y90.7902
X352.5858 Y90.748
X352.6375 Y90.7044
X352.6707 Y90.6728
X352.704 Y90.6379
X352.7476 Y90.5862
X352.7899 Y90.5277
X352.8241 Y90.4727
X352.8533 Y90.4176
X352.8577 Y90.4085
X352.88 Y90.358
X352.8989 Y90.3075
X352.9159 Y90.2525
X352.9293 Y90.1974
X352.9393 Y90.1424
X352.946 Y90.0873
X352.9495 Y90.0323
X352.95 Y89.9772
Y0.0228
X352.9495 Y-0.0323
X352.946 Y-0.0873
X352.9393 Y-0.1424
X352.9293 Y-0.1974
X352.9159 Y-0.2525
X352.8989 Y-0.3075
X352.88 Y-0.358
X352.8577 Y-0.4085
X352.8533 Y-0.4176
X352.8241 Y-0.4727
X352.7899 Y-0.5277
X352.7476 Y-0.5862
X352.704 Y-0.6379
X352.6707 Y-0.6728
X352.6375 Y-0.7044
X352.5858 Y-0.748
X352.5273 Y-0.7902
X352.4723 Y-0.8243
X352.4172 Y-0.8535
X352.4077 Y-0.8581
X352.3574 Y-0.8802
X352.3071 Y-0.899
X352.252 Y-0.916
X352.197 Y-0.9294
X352.1419 Y-0.9393
X352.0868 Y-0.946
X352.0318 Y-0.9495
X351.9767 Y-0.95
X296.0342
X295.9241 Y-0.947
X295.869 Y-0.9409
X295.8139 Y-0.9316
X295.7589 Y-0.9189
X295.7038 Y-0.9026
X295.6487 Y-0.8827
X295.5937 Y-0.8587
X295.5923 Y-0.8581
X295.5379 Y-0.8301
X295.4836 Y-0.7974
X295.4489 Y-0.7738
X295.4143 Y-0.748
X295.3734 Y-0.7141
X295.3347 Y-0.6782
X295.296 Y-0.6379
X295.2633 Y-0.5998
X295.2354 Y-0.5638
X295.2101 Y-0.5277
X295.1797 Y-0.4792
X295.1532 Y-0.4306
X295.1467 Y-0.4176
X295.1219 Y-0.3626
X295.1012 Y-0.3075
X295.0842 Y-0.2525
X295.0707 Y-0.1974
X295.0607 Y-0.1424
X295.054 Y-0.0873
X295.0505 Y-0.0323
X295.05 Y0.0228
Y74.9482
X295.0483 Y74.95
X177.5516
X177.55 Y74.9482
Y0.0228
X177.5495 Y-0.0323
X177.546 Y-0.0873
X177.5417 Y-0.1251
X177.5293 Y-0.1974
X177.5158 Y-0.2525
X177.4989 Y-0.3075
X177.4781 Y-0.3626
X177.4533 Y-0.4176
X177.4316 Y-0.4593
X177.3899 Y-0.5277
X177.3578 Y-0.5729
X177.3215 Y-0.618
X177.304 Y-0.6379
X177.2577 Y-0.6855
X177.2114 Y-0.7271
X177.1857 Y-0.748
X177.1435 Y-0.7792
X177.1012 Y-0.807
X177.0545 Y-0.8342
X177.0077 Y-0.8581
X176.9911 Y-0.8658
X176.9361 Y-0.8886
X176.881 Y-0.9075
X176.8259 Y-0.9227
X176.7709 Y-0.9345
X176.7158 Y-0.9429
X176.6608 Y-0.9481
X176.5506 Y-0.95
X25.3516
X0.0233
X-0.0317 Y-0.9495
X-0.0868 Y-0.946
X-0.1419 Y-0.9393
X-0.1969 Y-0.9294
X-0.252 Y-0.916
X-0.307 Y-0.899
X-0.3574 Y-0.8802
X-0.4077 Y-0.8581
X-0.4172 Y-0.8535
X-0.4722 Y-0.8243
X-0.5273 Y-0.7902
X-0.5857 Y-0.748
X-0.6374 Y-0.7044
X-0.6707 Y-0.6728
X-0.704 Y-0.6379
X-0.7475 Y-0.5862
X-0.7899 Y-0.5277
X-0.824 Y-0.4727
X-0.8533 Y-0.4176
X-0.8577 Y-0.4085
X-0.8799 Y-0.358
X-0.8988 Y-0.3075
X-0.9158 Y-0.2525
X-0.9293 Y-0.1974
X-0.9393 Y-0.1424
X-0.946 Y-0.0873
X-0.9495 Y-0.0323
X-0.95 Y0.0228
Y89.9772
X-0.9495 Y90.0323
X-0.946 Y90.0873
X-0.9393 Y90.1424
X-0.9293 Y90.1974
X-0.9158 Y90.2525
X-0.8988 Y90.3075
X-0.8799 Y90.358
X-0.8577 Y90.4085
X-0.8533 Y90.4176
X-0.824 Y90.4727
X-0.7899 Y90.5277
X-0.7475 Y90.5862
X-0.704 Y90.6379
X-0.6707 Y90.6728
X-0.6374 Y90.7044
X-0.5857 Y90.748
X-0.5273 Y90.7902
X-0.4722 Y90.8243
X-0.4172 Y90.8535
X-0.4077 Y90.8581
X-0.3574 Y90.8802
X-0.307 Y90.899
X-0.252 Y90.916
X-0.1969 Y90.9294
X-0.1419 Y90.9393
X-0.0868 Y90.946
X-0.0317 Y90.9495
X0.0233 Y90.95
X176.984
X214.0706
X214.2641 Z-8.0001
X214.4577 Z-8.0004
X214.6513 Z-8.0008
X214.8449 Z-8.0015
X215.0385 Z-8.0023
X215.232 Z-8.0033
X215.4256 Z-8.0045
X215.6192 Z-8.0058
X215.8127 Z-8.0073
X216.0063 Z-8.009
X216.1999 Z-8.0109
X216.3935 Z-8.0129
X216.587 Z-8.0151
X216.7806 Z-8.0174
X216.9742 Z-8.0199
X217.1678 Z-8.0225
X217.3613 Z-8.0253
X217.5549 Z-8.0283
X217.7485 Z-8.0314
X217.9421 Z-8.0347
X218.1356 Z-8.0381
X218.3292 Z-8.0416
X218.5228 Z-8.0453
X218.7164 Z-8.0491
X218.9099 Z-8.0531
X219.1035 Z-8.0572
X219.2971 Z-8.0614
X219.4907 Z-8.0658
X219.6842 Z-8.0702
X219.8778 Z-8.0749
X220.0714 Z-8.0796
X220.265 Z-8.0845
X220.4585 Z-8.0894
X220.5553 Z-8.092
X220.6521 Z-8.0945
X220.7489 Z-8.0971
X220.8457 Z-8.0997
X220.9425 Z-8.1024
X221.0393 Z-8.1051
X221.136 Z-8.1078
X221.2328 Z-8.1105
X221.3296 Z-8.1133
X221.4264 Z-8.1161
X221.5232 Z-8.1189
X221.62 Z-8.1217
X221.7168 Z-8.1246
X221.8136 Z-8.1275
X221.9103 Z-8.1304
X222.0071 Z-8.1334
X222.1039 Z-8.1363
X222.2007 Z-8.1393
X222.2975 Z-8.1424
X222.3943 Z-8.1454
X222.4911 Z-8.1485
X222.5879 Z-8.1516
X222.6846 Z-8.1547
X222.7814 Z-8.1578
X222.8782 Z-8.161
X222.975 Z-8.1642
X223.0718 Z-8.1674
X223.1686 Z-8.1706
X223.2654 Z-8.1739
X223.3622 Z-8.1772
X223.4589 Z-8.1805
X223.5557 Z-8.1838
X223.6525 Z-8.1871
X223.8461 Z-8.1939
X223.9429 Z-8.1972
X224.0397 Z-8.2006
X224.1365 Z-8.204
X224.2332 Z-8.2074
X224.33 Z-8.2108
X224.4268 Z-8.2141
X224.5236 Z-8.2175
X224.6204 Z-8.2209
X224.7172 Z-8.2243
X224.814 Z-8.2277
X224.9108 Z-8.231
X225.0075 Z-8.2344
X225.2011 Z-8.2412
X225.4915 Z-8.2513
X225.7818 Z-8.2614
X226.0722 Z-8.2716
X226.3626 Z-8.2817
X226.6529 Z-8.2919
X226.9433 Z-8.302
X227.2336 Z-8.3121
X227.524 Z-8.3223
X227.8144 Z-8.3324
X228.1047 Z-8.3426
X228.5887 Z-8.3595
X229.0726 Z-8.3764
X229.5565 Z-8.3933
X230.2341 Z-8.4169
X231.1051 Z-8.4473
X232.5569 Z-8.498
X239.5256 Z-8.7413
X239.816 Z-8.7515
X240.1064 Z-8.7616
X240.2032 Z-8.765
X240.2999 Z-8.7684
X240.3967 Z-8.7717
X240.4935 Z-8.7751
X240.5903 Z-8.7785
X240.6871 Z-8.7819
X240.7839 Z-8.7853
X240.8807 Z-8.7886
X240.9774 Z-8.792
X241.0742 Z-8.7954
X241.171 Z-8.7988
X241.2678 Z-8.8022
X241.3646 Z-8.8055
X241.4614 Z-8.8089
X241.5582 Z-8.8123
X241.655 Z-8.8156
X241.7518 Z-8.819
X241.8485 Z-8.8223
X241.9453 Z-8.8255
X242.0421 Z-8.8288
X242.1389 Z-8.832
X242.2357 Z-8.8353
X242.3325 Z-8.8385
X242.4293 Z-8.8416
X242.526 Z-8.8448
X242.6228 Z-8.8479
X242.7196 Z-8.851
X242.8164 Z-8.8541
X242.9132 Z-8.8571
X243.01 Z-8.8601
X243.1068 Z-8.8631
X243.2036 Z-8.8661
X243.3004 Z-8.8691
X243.3971 Z-8.872
X243.4939 Z-8.8749
X243.5907 Z-8.8778
X243.6875 Z-8.8806
X243.7843 Z-8.8834
X243.8811 Z-8.8862
X243.9779 Z-8.889
X244.0746 Z-8.8917
X244.1714 Z-8.8945
X244.2682 Z-8.8971
X244.365 Z-8.8998
X244.4618 Z-8.9024
X244.5586 Z-8.905
X244.6554 Z-8.9076
X244.7522 Z-8.9101
X244.8489 Z-8.9126
X245.0425 Z-8.9176
X245.2361 Z-8.9224
X245.4297 Z-8.9271
X245.6232 Z-8.9316
X245.8168 Z-8.9361
X246.0104 Z-8.9404
X246.204 Z-8.9445
X246.3975 Z-8.9486
X246.5911 Z-8.9525
X246.7847 Z-8.9562
X246.9783 Z-8.9599
X247.1718 Z-8.9634
X247.3654 Z-8.9667
X247.559 Z-8.9699
X247.7526 Z-8.9729
X247.9461 Z-8.9758
X248.1397 Z-8.9786
X248.3333 Z-8.9812
X248.5269 Z-8.9836
X248.7204 Z-8.9859
X248.914 Z-8.988
X249.1076 Z-8.9899
X249.3012 Z-8.9917
X249.4947 Z-8.9933
X249.6883 Z-8.9948
X249.8819 Z-8.996
X250.0755 Z-8.9971
X250.269 Z-8.9981
X250.4626 Z-8.9988
X250.6562 Z-8.9994
X250.8498 Z-8.9998
X251.0433 Z-9
X251.1571
X351.9767
X352.0318 Y90.9495
X352.0868 Y90.946
X352.1419 Y90.9393
X352.197 Y90.9294
X352.252 Y90.916
X352.3071 Y90.899
X352.3574 Y90.8802
X352.4077 Y90.8581
X352.4172 Y90.8535
X352.4723 Y90.8243
X352.5273 Y90.7902
X352.5858 Y90.748
X352.6375 Y90.7044
X352.6707 Y90.6728
X352.704 Y90.6379
X352.7476 Y90.5862
X352.7899 Y90.5277
X352.8241 Y90.4727
X352.8533 Y90.4176
X352.8577 Y90.4085
X352.88 Y90.358
X352.8989 Y90.3075
X352.9159 Y90.2525
X352.9293 Y90.1974
X352.9393 Y90.1424
X352.946 Y90.0873
X352.9495 Y90.0323
X352.95 Y89.9772
Y0.0228
X352.9495 Y-0.0323
X352.946 Y-0.0873
X352.9393 Y-0.1424
X352.9293 Y-0.1974
X352.9159 Y-0.2525
X352.8989 Y-0.3075
X352.88 Y-0.358
X352.8577 Y-0.4085
X352.8533 Y-0.4176
X352.8241 Y-0.4727
X352.7899 Y-0.5277
X352.7476 Y-0.5862
X352.704 Y-0.6379
X352.6707 Y-0.6728
X352.6375 Y-0.7044
X352.5858 Y-0.748
X352.5273 Y-0.7902
X352.4723 Y-0.8243
X352.4172 Y-0.8535
X352.4077 Y-0.8581
X352.3574 Y-0.8802
X352.3071 Y-0.899
X352.252 Y-0.916
X352.197 Y-0.9294
X352.1419 Y-0.9393
X352.0868 Y-0.946
X352.0318 Y-0.9495
X351.9767 Y-0.95
X296.0342
X295.9241 Y-0.947
X295.869 Y-0.9409
X295.8139 Y-0.9316
X295.7589 Y-0.9189
X295.7038 Y-0.9026
X295.6487 Y-0.8827
X295.5937 Y-0.8587
X295.5923 Y-0.8581
X295.5379 Y-0.8301
X295.4836 Y-0.7974
X295.4489 Y-0.7738
X295.4143 Y-0.748
X295.3734 Y-0.7141
X295.3347 Y-0.6782
X295.296 Y-0.6379
X295.2633 Y-0.5998
X295.2354 Y-0.5638
X295.2101 Y-0.5277
X295.1797 Y-0.4792
X295.1532 Y-0.4306
X295.1467 Y-0.4176
X295.1219 Y-0.3626
X295.1012 Y-0.3075
X295.0842 Y-0.2525
X295.0707 Y-0.1974
X295.0607 Y-0.1424
X295.054 Y-0.0873
X295.0505 Y-0.0323
X295.05 Y0.0228
Y74.9482
X295.0483 Y74.95
X177.5516
X177.55 Y74.9482
Y0.0228
X177.5495 Y-0.0323
X177.546 Y-0.0873
X177.5417 Y-0.1251
X177.5293 Y-0.1974
X177.5158 Y-0.2525
X177.4989 Y-0.3075
X177.4781 Y-0.3626
X177.4533 Y-0.4176
X177.4316 Y-0.4593
X177.3899 Y-0.5277
X177.3578 Y-0.5729
X177.3215 Y-0.618
X177.304 Y-0.6379
X177.2577 Y-0.6855
X177.2114 Y-0.7271
X177.1857 Y-0.748
X177.1435 Y-0.7792
X177.1012 Y-0.807
X177.0545 Y-0.8342
X177.0077 Y-0.8581
X176.9911 Y-0.8658
X176.9361 Y-0.8886
X176.881 Y-0.9075
X176.8259 Y-0.9227
X176.7709 Y-0.9345
X176.7158 Y-0.9429
X176.6608 Y-0.9481
X176.5506 Y-0.95
X25.3516
X0.0233
X-0.0317 Y-0.9495
X-0.0868 Y-0.946
X-0.1419 Y-0.9393
X-0.1969 Y-0.9294
X-0.252 Y-0.916
X-0.307 Y-0.899
X-0.3574 Y-0.8802
X-0.4077 Y-0.8581
X-0.4172 Y-0.8535
X-0.4722 Y-0.8243
X-0.5273 Y-0.7902
X-0.5857 Y-0.748
X-0.6374 Y-0.7044
X-0.6707 Y-0.6728
X-0.704 Y-0.6379
X-0.7475 Y-0.5862
X-0.7899 Y-0.5277
X-0.824 Y-0.4727
X-0.8533 Y-0.4176
X-0.8577 Y-0.4085
X-0.8799 Y-0.358
X-0.8988 Y-0.3075
X-0.9158 Y-0.2525
X-0.9293 Y-0.1974
X-0.9393 Y-0.1424
X-0.946 Y-0.0873
X-0.9495 Y-0.0323
X-0.95 Y0.0228
Y89.9772
X-0.9495 Y90.0323
X-0.946 Y90.0873
X-0.9393 Y90.1424
X-0.9293 Y90.1974
X-0.9158 Y90.2525
X-0.8988 Y90.3075
X-0.8799 Y90.358
X-0.8577 Y90.4085
X-0.8533 Y90.4176
X-0.824 Y90.4727
X-0.7899 Y90.5277
X-0.7475 Y90.5862
X-0.704 Y90.6379
X-0.6707 Y90.6728
X-0.6374 Y90.7044
X-0.5857 Y90.748
X-0.5273 Y90.7902
X-0.4722 Y90.8243
X-0.4172 Y90.8535
X-0.4077 Y90.8581
X-0.3574 Y90.8802
X-0.307 Y90.899
X-0.252 Y90.916
X-0.1969 Y90.9294
X-0.1419 Y90.9393
X-0.0868 Y90.946
X-0.0317 Y90.9495
X0.0233 Y90.95
X214.0706
X251.1571
X251.3507 Z-9.0001
X251.5443 Z-9.0004
X251.7379 Z-9.0008
X251.9314 Z-9.0015
X252.125 Z-9.0023
X252.3186 Z-9.0033
X252.5122 Z-9.0045
X252.7057 Z-9.0058
X252.8993 Z-9.0073
X253.0929 Z-9.009
X253.2865 Z-9.0109
X253.48 Z-9.0129
X253.6736 Z-9.0151
X253.8672 Z-9.0174
X254.0608 Z-9.0199
X254.2543 Z-9.0225
X254.4479 Z-9.0253
X254.6415 Z-9.0283
X254.8351 Z-9.0314
X255.0286 Z-9.0347
X255.2222 Z-9.0381
X255.4158 Z-9.0416
X255.6094 Z-9.0453
X255.8029 Z-9.0491
X255.9965 Z-9.0531
X256.1901 Z-9.0572
X256.3837 Z-9.0614
X256.5772 Z-9.0658
X256.7708 Z-9.0702
X256.9644 Z-9.0749
X257.158 Z-9.0796
X257.3515 Z-9.0845
X257.5451 Z-9.0894
X257.6419 Z-9.092
X257.7387 Z-9.0945
X257.8354 Z-9.0971
X257.9323 Z-9.0997
X258.029 Z-9.1024
X258.1258 Z-9.1051
X258.2226 Z-9.1078
X258.3194 Z-9.1105
X258.4162 Z-9.1133
X258.513 Z-9.1161
X258.6098 Z-9.1189
X258.7065 Z-9.1217
X258.8033 Z-9.1246
X258.9001 Z-9.1275
X258.9969 Z-9.1304
X259.0937 Z-9.1334
X259.1905 Z-9.1363
X259.2873 Z-9.1393
X259.3841 Z-9.1424
X259.4808 Z-9.1454
X259.5776 Z-9.1485
X259.6744 Z-9.1516
X259.7712 Z-9.1547
X259.868 Z-9.1578
X259.9648 Z-9.161
X260.0616 Z-9.1642
X260.1584 Z-9.1674
X260.2552 Z-9.1706
X260.3519 Z-9.1739
X260.4487 Z-9.1772
X260.5455 Z-9.1805
X260.6423 Z-9.1838
X260.7391 Z-9.1871
X260.9326 Z-9.1939
X261.0294 Z-9.1972
X261.1262 Z-9.2006
X261.223 Z-9.204
X261.3198 Z-9.2074
X261.4166 Z-9.2108
X261.5134 Z-9.2141
X261.6102 Z-9.2175
X261.707 Z-9.2209
X261.8037 Z-9.2243
X261.9005 Z-9.2277
X261.9973 Z-9.231
X262.0941 Z-9.2344
X262.2877 Z-9.2412
X262.578 Z-9.2513
X262.8684 Z-9.2614
X263.1588 Z-9.2716
X263.4491 Z-9.2817
X263.7395 Z-9.2919
X264.0298 Z-9.302
X264.3202 Z-9.3121
X264.6106 Z-9.3223
X264.9009 Z-9.3324
X265.1913 Z-9.3426
X265.6752 Z-9.3595
X266.1592 Z-9.3764
X266.6431 Z-9.3933
X267.3206 Z-9.4169
X268.1917 Z-9.4473
X269.6435 Z-9.498
X276.6122 Z-9.7413
X276.9026 Z-9.7515
X277.1929 Z-9.7616
X277.2897 Z-9.765
X277.3865 Z-9.7684
X277.4833 Z-9.7717
X277.5801 Z-9.7751
X277.6769 Z-9.7785
X277.7737 Z-9.7819
X277.8705 Z-9.7853
X277.9672 Z-9.7886
X278.064 Z-9.792
X278.1608 Z-9.7954
X278.2576 Z-9.7988
X278.3544 Z-9.8022
X278.4512 Z-9.8055
X278.5479 Z-9.8089
X278.6447 Z-9.8123
X278.7415 Z-9.8156
X278.8383 Z-9.819
X278.9351 Z-9.8223
X279.0319 Z-9.8255
X279.1287 Z-9.8288
X279.2255 Z-9.832
X279.3223 Z-9.8353
X279.419 Z-9.8385
X279.5158 Z-9.8416
X279.6126 Z-9.8448
X279.7094 Z-9.8479
X279.8062 Z-9.851
X279.903 Z-9.8541
X279.9998 Z-9.8571
X280.0966 Z-9.8601
X280.1933 Z-9.8631
X280.2901 Z-9.8661
X280.3869 Z-9.8691
X280.4837 Z-9.872
X280.5805 Z-9.8749
X280.6773 Z-9.8778
X280.774 Z-9.8806
X280.8708 Z-9.8834
X280.9676 Z-9.8862
X281.0644 Z-9.889
X281.1612 Z-9.8917
X281.258 Z-9.8945
X281.3548 Z-9.8971
X281.4516 Z-9.8998
X281.5484 Z-9.9024
X281.6451 Z-9.905
X281.7419 Z-9.9076
X281.8387 Z-9.9101
X281.9355 Z-9.9126
X282.1291 Z-9.9176
X282.3227 Z-9.9224
X282.5162 Z-9.9271
X282.7098 Z-9.9316
X282.9034 Z-9.9361
X283.097 Z-9.9404
X283.2905 Z-9.9445
X283.4841 Z-9.9486
X283.6777 Z-9.9525
X283.8712 Z-9.9562
X284.0648 Z-9.9599
X284.2584 Z-9.9634
X284.452 Z-9.9667
X284.6456 Z-9.9699
X284.8391 Z-9.9729
X285.0327 Z-9.9758
X285.2263 Z-9.9786
X285.4199 Z-9.9812
X285.6134 Z-9.9836
X285.807 Z-9.9859
X286.0006 Z-9.988
X286.1942 Z-9.9899
X286.3877 Z-9.9917
X286.5813 Z-9.9933
X286.7749 Z-9.9948
X286.9684 Z-9.996
X287.162 Z-9.9971
X287.3556 Z-9.9981
X287.5492 Z-9.9988
X287.7427 Z-9.9994
X287.9363 Z-9.9998
X288.1299 Z-10
X288.2437
X351.9767
X352.0318 Y90.9495
X352.0868 Y90.946
X352.1419 Y90.9393
X352.197 Y90.9294
X352.252 Y90.916
X352.3071 Y90.899
X352.3574 Y90.8802
X352.4077 Y90.8581
X352.4172 Y90.8535
X352.4723 Y90.8243
X352.5273 Y90.7902
X352.5858 Y90.748
X352.6375 Y90.7044
X352.6707 Y90.6728
X352.704 Y90.6379
X352.7476 Y90.5862
X352.7899 Y90.5277
X352.8241 Y90.4727
X352.8533 Y90.4176
X352.8577 Y90.4085
X352.88 Y90.358
X352.8989 Y90.3075
X352.9159 Y90.2525
X352.9293 Y90.1974
X352.9393 Y90.1424
X352.946 Y90.0873
X352.9495 Y90.0323
X352.95 Y89.9772
Y0.0228
X352.9495 Y-0.0323
X352.946 Y-0.0873
X352.9393 Y-0.1424
X352.9293 Y-0.1974
X352.9159 Y-0.2525
X352.8989 Y-0.3075
X352.88 Y-0.358
X352.8577 Y-0.4085
X352.8533 Y-0.4176
X352.8241 Y-0.4727
X352.7899 Y-0.5277
X352.7476 Y-0.5862
X352.704 Y-0.6379
X352.6707 Y-0.6728
X352.6375 Y-0.7044
X352.5858 Y-0.748
X352.5273 Y-0.7902
X352.4723 Y-0.8243
X352.4172 Y-0.8535
X352.4077 Y-0.8581
X352.3574 Y-0.8802
X352.3071 Y-0.899
X352.252 Y-0.916
X352.197 Y-0.9294
X352.1419 Y-0.9393
X352.0868 Y-0.946
X352.0318 Y-0.9495
X351.9767 Y-0.95
X296.0342
X295.9241 Y-0.947
X295.869 Y-0.9409
X295.8139 Y-0.9316
X295.7589 Y-0.9189
X295.7038 Y-0.9026
X295.6487 Y-0.8827
X295.5937 Y-0.8587
X295.5923 Y-0.8581
X295.5379 Y-0.8301
X295.4836 Y-0.7974
X295.4489 Y-0.7738
X295.4143 Y-0.748
X295.3734 Y-0.7141
X295.3347 Y-0.6782
X295.296 Y-0.6379
X295.2633 Y-0.5998
X295.2354 Y-0.5638
X295.2101 Y-0.5277
X295.1797 Y-0.4792
X295.1532 Y-0.4306
X295.1467 Y-0.4176
X295.1219 Y-0.3626
X295.1012 Y-0.3075
X295.0842 Y-0.2525
X295.0707 Y-0.1974
X295.0607 Y-0.1424
X295.054 Y-0.0873
X295.0505 Y-0.0323
X295.05 Y0.0228
Y74.9482
X295.0483 Y74.95
X177.5516
X177.55 Y74.9482
Y0.0228
X177.5495 Y-0.0323
X177.546 Y-0.0873
X177.5417 Y-0.1251
X177.5293 Y-0.1974
X177.5158 Y-0.2525
X177.4989 Y-0.3075
X177.4781 Y-0.3626
X177.4533 Y-0.4176
X177.4316 Y-0.4593
X177.3899 Y-0.5277
X177.3578 Y-0.5729
X177.3215 Y-0.618
X177.304 Y-0.6379
X177.2577 Y-0.6855
X177.2114 Y-0.7271
X177.1857 Y-0.748
X177.1435 Y-0.7792
X177.1012 Y-0.807
X177.0545 Y-0.8342
X177.0077 Y-0.8581
X176.9911 Y-0.8658
X176.9361 Y-0.8886
X176.881 Y-0.9075
X176.8259 Y-0.9227
X176.7709 Y-0.9345
X176.7158 Y-0.9429
X176.6608 Y-0.9481
X176.5506 Y-0.95
X25.3516
X0.0233
X-0.0317 Y-0.9495
X-0.0868 Y-0.946
X-0.1419 Y-0.9393
X-0.1969 Y-0.9294
X-0.252 Y-0.916
X-0.307 Y-0.899
X-0.3574 Y-0.8802
X-0.4077 Y-0.8581
X-0.4172 Y-0.8535
X-0.4722 Y-0.8243
X-0.5273 Y-0.7902
X-0.5857 Y-0.748
X-0.6374 Y-0.7044
X-0.6707 Y-0.6728
X-0.704 Y-0.6379
X-0.7475 Y-0.5862
X-0.7899 Y-0.5277
X-0.824 Y-0.4727
X-0.8533 Y-0.4176
X-0.8577 Y-0.4085
X-0.8799 Y-0.358
X-0.8988 Y-0.3075
X-0.9158 Y-0.2525
X-0.9293 Y-0.1974
X-0.9393 Y-0.1424
X-0.946 Y-0.0873
X-0.9495 Y-0.0323
X-0.95 Y0.0228
Y89.9772
X-0.9495 Y90.0323
X-0.946 Y90.0873
X-0.9393 Y90.1424
X-0.9293 Y90.1974
X-0.9158 Y90.2525
X-0.8988 Y90.3075
X-0.8799 Y90.358
X-0.8577 Y90.4085
X-0.8533 Y90.4176
X-0.824 Y90.4727
X-0.7899 Y90.5277
X-0.7475 Y90.5862
X-0.704 Y90.6379
X-0.6707 Y90.6728
X-0.6374 Y90.7044
X-0.5857 Y90.748
X-0.5273 Y90.7902
X-0.4722 Y90.8243
X-0.4172 Y90.8535
X-0.4077 Y90.8581
X-0.3574 Y90.8802
X-0.307 Y90.899
X-0.252 Y90.916
X-0.1969 Y90.9294
X-0.1419 Y90.9393
X-0.0868 Y90.946
X-0.0317 Y90.9495
X0.0233 Y90.95
X251.1571
X288.2437
X288.4373 Z-10.0001
X288.6309 Z-10.0004
X288.8244 Z-10.0008
X289.018 Z-10.0015
X289.2116 Z-10.0023
X289.4052 Z-10.0033
X289.5987 Z-10.0045
X289.7923 Z-10.0058
X289.9859 Z-10.0073
X290.1794 Z-10.009
X290.373 Z-10.0109
X290.5666 Z-10.0129
X290.7602 Z-10.0151
X290.9537 Z-10.0174
X291.1473 Z-10.0199
X291.3409 Z-10.0225
X291.5345 Z-10.0253
X291.7281 Z-10.0283
X291.9216 Z-10.0314
X292.1152 Z-10.0347
X292.3088 Z-10.0381
X292.5023 Z-10.0416
X292.6959 Z-10.0453
X292.8895 Z-10.0491
X293.0831 Z-10.0531
X293.2766 Z-10.0572
X293.4702 Z-10.0614
X293.6638 Z-10.0658
X293.8574 Z-10.0702
X294.0509 Z-10.0749
X294.2445 Z-10.0796
X294.4381 Z-10.0845
X294.6317 Z-10.0894
X294.7285 Z-10.092
X294.8252 Z-10.0945
X294.922 Z-10.0971
X295.0188 Z-10.0997
X295.1156 Z-10.1024
X295.2124 Z-10.1051
X295.3092 Z-10.1078
X295.406 Z-10.1105
X295.5027 Z-10.1133
X295.5995 Z-10.1161
X295.6963 Z-10.1189
X295.7931 Z-10.1217
X295.8899 Z-10.1246
X295.9867 Z-10.1275
X296.0835 Z-10.1304
X296.1803 Z-10.1334
X296.277 Z-10.1363
X296.3738 Z-10.1393
X296.4706 Z-10.1424
X296.5674 Z-10.1454
X296.6642 Z-10.1485
X296.761 Z-10.1516
X296.8578 Z-10.1547
X296.9546 Z-10.1578
X297.0514 Z-10.161
X297.1481 Z-10.1642
X297.2449 Z-10.1674
X297.3417 Z-10.1706
X297.4385 Z-10.1739
X297.5353 Z-10.1772
X297.6321 Z-10.1805
X297.7289 Z-10.1838
X297.8257 Z-10.1871
X298.0192 Z-10.1939
X298.116 Z-10.1972
X298.2128 Z-10.2006
X298.3096 Z-10.204
X298.4064 Z-10.2074
X298.5031 Z-10.2108
X298.5999 Z-10.2141
X298.6967 Z-10.2175
X298.7935 Z-10.2209
X298.8903 Z-10.2243
X298.9871 Z-10.2277
X299.0839 Z-10.231
X299.1807 Z-10.2344
X299.3742 Z-10.2412
X299.6646 Z-10.2513
X299.955 Z-10.2614
X300.2453 Z-10.2716
X300.5357 Z-10.2817
X300.826 Z-10.2919
X301.1164 Z-10.302
X301.4068 Z-10.3121
X301.6971 Z-10.3223
X301.9875 Z-10.3324
X302.2779 Z-10.3426
X302.7618 Z-10.3595
X303.2457 Z-10.3764
X303.7297 Z-10.3933
X304.4072 Z-10.4169
X305.2783 Z-10.4473
X306.7301 Z-10.498
X313.6988 Z-10.7413
X313.9891 Z-10.7515
X314.2795 Z-10.7616
X314.3763 Z-10.765
X314.4731 Z-10.7684
X314.5699 Z-10.7717
X314.6667 Z-10.7751
X314.7634 Z-10.7785
X314.8602 Z-10.7819
X314.957 Z-10.7853
X315.0538 Z-10.7886
X315.1506 Z-10.792
X315.2474 Z-10.7954
X315.3441 Z-10.7988
X315.4409 Z-10.8022
X315.5377 Z-10.8055
X315.6345 Z-10.8089
X315.7313 Z-10.8123
X315.8281 Z-10.8156
X315.9249 Z-10.819
X316.0217 Z-10.8223
X316.1184 Z-10.8255
X316.2152 Z-10.8288
X316.312 Z-10.832
X316.4088 Z-10.8353
X316.5056 Z-10.8385
X316.6024 Z-10.8416
X316.6992 Z-10.8448
X316.796 Z-10.8479
X316.8928 Z-10.851
X316.9895 Z-10.8541
X317.0863 Z-10.8571
X317.1831 Z-10.8601
X317.2799 Z-10.8631
X317.3767 Z-10.8661
X317.4735 Z-10.8691
X317.5703 Z-10.872
X317.6671 Z-10.8749
X317.7638 Z-10.8778
X317.8606 Z-10.8806
X317.9574 Z-10.8834
X318.0542 Z-10.8862
X318.151 Z-10.889
X318.2478 Z-10.8917
X318.3446 Z-10.8945
X318.4413 Z-10.8971
X318.5381 Z-10.8998
X318.6349 Z-10.9024
X318.7317 Z-10.905
X318.8285 Z-10.9076
X318.9253 Z-10.9101
X319.0221 Z-10.9126
X319.2156 Z-10.9176
X319.4092 Z-10.9224
X319.6028 Z-10.9271
X319.7964 Z-10.9316
X319.99 Z-10.9361
X320.1835 Z-10.9404
X320.3771 Z-10.9445
X320.5707 Z-10.9486
X320.7643 Z-10.9525
X320.9578 Z-10.9562
X321.1514 Z-10.9599
X321.345 Z-10.9634
X321.5385 Z-10.9667
X321.7321 Z-10.9699
X321.9257 Z-10.9729
X322.1193 Z-10.9758
X322.3128 Z-10.9786
X322.5064 Z-10.9812
X322.7 Z-10.9836
X322.8936 Z-10.9859
X323.0871 Z-10.988
X323.2807 Z-10.9899
X323.4743 Z-10.9917
X323.6679 Z-10.9933
X323.8615 Z-10.9948
X324.055 Z-10.996
X324.2486 Z-10.9971
X324.4422 Z-10.9981
X324.6357 Z-10.9988
X324.8293 Z-10.9994
X325.0229 Z-10.9998
X325.2165 Z-11
X325.3303
X351.9767
X352.0318 Y90.9495
X352.0868 Y90.946
X352.1419 Y90.9393
X352.197 Y90.9294
X352.252 Y90.916
X352.3071 Y90.899
X352.3574 Y90.8802
X352.4077 Y90.8581
X352.4172 Y90.8535
X352.4723 Y90.8243
X352.5273 Y90.7902
X352.5858 Y90.748
X352.6375 Y90.7044
X352.6707 Y90.6728
X352.704 Y90.6379
X352.7476 Y90.5862
X352.7899 Y90.5277
X352.8241 Y90.4727
X352.8533 Y90.4176
X352.8577 Y90.4085
X352.88 Y90.358
X352.8989 Y90.3075
X352.9159 Y90.2525
X352.9293 Y90.1974
X352.9393 Y90.1424
X352.946 Y90.0873
X352.9495 Y90.0323
X352.95 Y89.9772
Y0.0228
X352.9495 Y-0.0323
X352.946 Y-0.0873
X352.9393 Y-0.1424
X352.9293 Y-0.1974
X352.9159 Y-0.2525
X352.8989 Y-0.3075
X352.88 Y-0.358
X352.8577 Y-0.4085
X352.8533 Y-0.4176
X352.8241 Y-0.4727
X352.7899 Y-0.5277
X352.7476 Y-0.5862
X352.704 Y-0.6379
X352.6707 Y-0.6728
X352.6375 Y-0.7044
X352.5858 Y-0.748
X352.5273 Y-0.7902
X352.4723 Y-0.8243
X352.4172 Y-0.8535
X352.4077 Y-0.8581
X352.3574 Y-0.8802
X352.3071 Y-0.899
X352.252 Y-0.916
X352.197 Y-0.9294
X352.1419 Y-0.9393
X352.0868 Y-0.946
X352.0318 Y-0.9495
X351.9767 Y-0.95
X296.0342
X295.9241 Y-0.947
X295.869 Y-0.9409
X295.8139 Y-0.9316
X295.7589 Y-0.9189
X295.7038 Y-0.9026
X295.6487 Y-0.8827
X295.5937 Y-0.8587
X295.5923 Y-0.8581
X295.5379 Y-0.8301
X295.4836 Y-0.7974
X295.4489 Y-0.7738
X295.4143 Y-0.748
X295.3734 Y-0.7141
X295.3347 Y-0.6782
X295.296 Y-0.6379
X295.2633 Y-0.5998
X295.2354 Y-0.5638
X295.2101 Y-0.5277
X295.1797 Y-0.4792
X295.1532 Y-0.4306
X295.1467 Y-0.4176
X295.1219 Y-0.3626
X295.1012 Y-0.3075
X295.0842 Y-0.2525
X295.0707 Y-0.1974
X295.0607 Y-0.1424
X295.054 Y-0.0873
X295.0505 Y-0.0323
X295.05 Y0.0228
Y74.9482
X295.0483 Y74.95
X177.5516
X177.55 Y74.9482
Y0.0228
X177.5495 Y-0.0323
X177.546 Y-0.0873
X177.5417 Y-0.1251
X177.5293 Y-0.1974
X177.5158 Y-0.2525
X177.4989 Y-0.3075
X177.4781 Y-0.3626
X177.4533 Y-0.4176
X177.4316 Y-0.4593
X177.3899 Y-0.5277
X177.3578 Y-0.5729
X177.3215 Y-0.618
X177.304 Y-0.6379
X177.2577 Y-0.6855
X177.2114 Y-0.7271
X177.1857 Y-0.748
X177.1435 Y-0.7792
X177.1012 Y-0.807
X177.0545 Y-0.8342
X177.0077 Y-0.8581
X176.9911 Y-0.8658
X176.9361 Y-0.8886
X176.881 Y-0.9075
X176.8259 Y-0.9227
X176.7709 Y-0.9345
X176.7158 Y-0.9429
X176.6608 Y-0.9481
X176.5506 Y-0.95
X25.3516
X0.0233
X-0.0317 Y-0.9495
X-0.0868 Y-0.946
X-0.1419 Y-0.9393
X-0.1969 Y-0.9294
X-0.252 Y-0.916
X-0.307 Y-0.899
X-0.3574 Y-0.8802
X-0.4077 Y-0.8581
X-0.4172 Y-0.8535
X-0.4722 Y-0.8243
X-0.5273 Y-0.7902
X-0.5857 Y-0.748
X-0.6374 Y-0.7044
X-0.6707 Y-0.6728
X-0.704 Y-0.6379
X-0.7475 Y-0.5862
X-0.7899 Y-0.5277
X-0.824 Y-0.4727
X-0.8533 Y-0.4176
X-0.8577 Y-0.4085
X-0.8799 Y-0.358
X-0.8988 Y-0.3075
X-0.9158 Y-0.2525
X-0.9293 Y-0.1974
X-0.9393 Y-0.1424
X-0.946 Y-0.0873
X-0.9495 Y-0.0323
X-0.95 Y0.0228
Y89.9772
X-0.9495 Y90.0323
X-0.946 Y90.0873
X-0.9393 Y90.1424
X-0.9293 Y90.1974
X-0.9158 Y90.2525
X-0.8988 Y90.3075
X-0.8799 Y90.358
X-0.8577 Y90.4085
X-0.8533 Y90.4176
X-0.824 Y90.4727
X-0.7899 Y90.5277
X-0.7475 Y90.5862
X-0.704 Y90.6379
X-0.6707 Y90.6728
X-0.6374 Y90.7044
X-0.5857 Y90.748
X-0.5273 Y90.7902
X-0.4722 Y90.8243
X-0.4172 Y90.8535
X-0.4077 Y90.8581
X-0.3574 Y90.8802
X-0.307 Y90.899
X-0.252 Y90.916
X-0.1969 Y90.9294
X-0.1419 Y90.9393
X-0.0868 Y90.946
X-0.0317 Y90.9495
X0.0233 Y90.95
X288.2437
X325.3303
X325.5238 Z-11.0001
X325.7174 Z-11.0004
X325.911 Z-11.0008
X326.1046 Z-11.0015
X326.2981 Z-11.0023
X326.4917 Z-11.0033
X326.6853 Z-11.0045
X326.8789 Z-11.0058
X327.0724 Z-11.0073
X327.266 Z-11.009
X327.4596 Z-11.0109
X327.6532 Z-11.0129
X327.8467 Z-11.0151
X328.0403 Z-11.0174
X328.2339 Z-11.0199
X328.4275 Z-11.0225
X328.621 Z-11.0253
X328.8146 Z-11.0283
X329.0082 Z-11.0314
X329.2018 Z-11.0347
X329.3953 Z-11.0381
X329.5889 Z-11.0416
X329.7825 Z-11.0453
X329.976 Z-11.0491
X330.1696 Z-11.0531
X330.3632 Z-11.0572
X330.5568 Z-11.0614
X330.7504 Z-11.0658
X330.9439 Z-11.0702
X331.1375 Z-11.0749
X331.3311 Z-11.0796
X331.5247 Z-11.0845
X331.7182 Z-11.0894
X331.815 Z-11.092
X331.9118 Z-11.0945
X332.0086 Z-11.0971
X332.1054 Z-11.0997
X332.2022 Z-11.1024
X332.299 Z-11.1051
X332.3958 Z-11.1078
X332.4925 Z-11.1105
X332.5893 Z-11.1133
X332.6861 Z-11.1161
X332.7829 Z-11.1189
X332.8797 Z-11.1217
X332.9765 Z-11.1246
X333.0732 Z-11.1275
X333.17 Z-11.1304
X333.2668 Z-11.1334
X333.3636 Z-11.1363
X333.4604 Z-11.1393
X333.5572 Z-11.1424
X333.654 Z-11.1454
X333.7508 Z-11.1485
X333.8476 Z-11.1516
X333.9443 Z-11.1547
X334.0411 Z-11.1578
X334.1379 Z-11.161
X334.2347 Z-11.1642
X334.3315 Z-11.1674
X334.4283 Z-11.1706
X334.5251 Z-11.1739
X334.6219 Z-11.1772
X334.7186 Z-11.1805
X334.8154 Z-11.1838
X334.9122 Z-11.1871
X335.1058 Z-11.1939
X335.2026 Z-11.1972
X335.2993 Z-11.2006
X335.3961 Z-11.204
X335.4929 Z-11.2074
X335.5897 Z-11.2108
X335.6865 Z-11.2141
X335.7833 Z-11.2175
X335.8801 Z-11.2209
X335.9769 Z-11.2243
X336.0737 Z-11.2277
X336.1704 Z-11.231
X336.2672 Z-11.2344
X336.4608 Z-11.2412
X336.7512 Z-11.2513
X337.0415 Z-11.2614
X337.3319 Z-11.2716
X337.6223 Z-11.2817
X337.9126 Z-11.2919
X338.203 Z-11.302
X338.4933 Z-11.3121
X338.7837 Z-11.3223
X339.0741 Z-11.3324
X339.3644 Z-11.3426
X339.8484 Z-11.3595
X340.3323 Z-11.3764
X340.8162 Z-11.3933
X341.4937 Z-11.4169
X342.3648 Z-11.4473
X343.8167 Z-11.498
X350.7853 Z-11.7413
X351.0757 Z-11.7515
X351.3661 Z-11.7616
X351.4629 Z-11.765
X351.5596 Z-11.7684
X351.6564 Z-11.7717
X351.7532 Z-11.7751
X351.85 Z-11.7785
X351.9468 Z-11.7819
X352.0435 Y90.949 Z-11.7853
X352.0918 Y90.9456 Z-11.787
X352.1399 Y90.9397 Z-11.7886
X352.1875 Y90.9313 Z-11.7903
X352.2347 Y90.9206 Z-11.792
X352.2813 Y90.9074 Z-11.7937
X352.3271 Y90.8919 Z-11.7954
X352.3721 Y90.8741 Z-11.7971
X352.4162 Y90.854 Z-11.7988
X352.4591 Y90.8317 Z-11.8004
X352.5009 Y90.8072 Z-11.8021
X352.5414 Y90.7807 Z-11.8038
X352.5804 Y90.7521 Z-11.8055
X352.618 Y90.7216 Z-11.8072
X352.6539 Y90.6892 Z-11.8089
X352.6881 Y90.655 Z-11.8106
X352.7206 Y90.6191 Z-11.8122
X352.7512 Y90.5816 Z-11.8139
X352.7798 Y90.5426 Z-11.8156
X352.8065 Y90.5021 Z-11.8173
X352.831 Y90.4604 Z-11.8189
X352.8534 Y90.4175 Z-11.8206
X352.8735 Y90.3735 Z-11.8222
X352.8914 Y90.3285 Z-11.8239
X352.907 Y90.2827 Z-11.8255
X352.9202 Y90.2362 Z-11.8271
X352.931 Y90.189 Z-11.8288
X352.9395 Y90.1413 Z-11.8304
X352.9454 Y90.0933 Z-11.832
X352.949 Y90.045 Z-11.8336
X352.95 Y89.9967 Z-11.8352
Y89.8999 Z-11.8384
Y89.8031 Z-11.8416
Y89.7063 Z-11.8447
Y89.6095 Z-11.8479
Y89.5127 Z-11.851
Y89.4159 Z-11.854
Y89.3192 Z-11.8571
Y89.2224 Z-11.8601
Y89.1256 Z-11.8631
Y89.0288 Z-11.8661
Y88.932 Z-11.869
Y88.8352 Z-11.872
Y88.7384 Z-11.8749
Y88.6416 Z-11.8777
Y88.5449 Z-11.8806
Y88.4481 Z-11.8834
Y88.3513 Z-11.8862
Y88.2545 Z-11.889
Y88.1577 Z-11.8917
Y88.0609 Z-11.8944
Y87.9641 Z-11.8971
Y87.8673 Z-11.8998
Y87.7706 Z-11.9024
Y87.6738 Z-11.905
Y87.577 Z-11.9076
Y87.4802 Z-11.9101
Y87.3834 Z-11.9126
Y87.1898 Z-11.9175
Y86.9963 Z-11.9223
Y86.8027 Z-11.927
Y86.6091 Z-11.9316
Y86.4155 Z-11.936
Y86.222 Z-11.9403
Y86.0284 Z-11.9445
Y85.8348 Z-11.9486
Y85.6412 Z-11.9525
Y85.4477 Z-11.9562
Y85.2541 Z-11.9599
Y85.0605 Z-11.9633
Y84.8669 Z-11.9667
Y84.6734 Z-11.9699
Y84.4798 Z-11.9729
Y84.2862 Z-11.9758
Y84.0926 Z-11.9786
Y83.8991 Z-11.9811
Y83.7055 Z-11.9836
Y83.5119 Z-11.9858
Y83.3183 Z-11.988
Y83.1248 Z-11.9899
Y82.9312 Z-11.9917
Y82.7376 Z-11.9933
Y82.544 Z-11.9948
Y82.3505 Z-11.996
Y82.1569 Z-11.9971
Y81.9633 Z-11.9981
Y81.7697 Z-11.9988
Y81.5762 Z-11.9994
Y81.3826 Z-11.9998
Y81.189 Z-12
Y81.0741
Y0.0228
X352.9495 Y-0.0323
X352.946 Y-0.0873
X352.9393 Y-0.1424
X352.9293 Y-0.1974
X352.9159 Y-0.2525
X352.8989 Y-0.3075
X352.88 Y-0.358
X352.8577 Y-0.4085
X352.8533 Y-0.4176
X352.8241 Y-0.4727
X352.7899 Y-0.5277
X352.7476 Y-0.5862
X352.704 Y-0.6379
X352.6707 Y-0.6728
X352.6375 Y-0.7044
X352.5858 Y-0.748
X352.5273 Y-0.7902
X352.4723 Y-0.8243
X352.4172 Y-0.8535
X352.4077 Y-0.8581
X352.3574 Y-0.8802
X352.3071 Y-0.899
X352.252 Y-0.916
X352.197 Y-0.9294
X352.1419 Y-0.9393
X352.0868 Y-0.946
X352.0318 Y-0.9495
X351.9767 Y-0.95
X296.0342
X295.9241 Y-0.947
X295.869 Y-0.9409
X295.8139 Y-0.9316
X295.7589 Y-0.9189
X295.7038 Y-0.9026
X295.6487 Y-0.8827
X295.5937 Y-0.8587
X295.5923 Y-0.8581
X295.5379 Y-0.8301
X295.4836 Y-0.7974
X295.4489 Y-0.7738
X295.4143 Y-0.748
X295.3734 Y-0.7141
X295.3347 Y-0.6782
X295.296 Y-0.6379
X295.2633 Y-0.5998
X295.2354 Y-0.5638
X295.2101 Y-0.5277
X295.1797 Y-0.4792
X295.1532 Y-0.4306
X295.1467 Y-0.4176
X295.1219 Y-0.3626
X295.1012 Y-0.3075
X295.0842 Y-0.2525
X295.0707 Y-0.1974
X295.0607 Y-0.1424
X295.054 Y-0.0873
X295.0505 Y-0.0323
X295.05 Y0.0228
Y74.9482
X295.0483 Y74.95
X177.5516
X177.55 Y74.9482
Y0.0228
X177.5495 Y-0.0323
X177.546 Y-0.0873
X177.5417 Y-0.1251
X177.5293 Y-0.1974
X177.5158 Y-0.2525
X177.4989 Y-0.3075
X177.4781 Y-0.3626
X177.4533 Y-0.4176
X177.4316 Y-0.4593
X177.3899 Y-0.5277
X177.3578 Y-0.5729
X177.3215 Y-0.618
X177.304 Y-0.6379
X177.2577 Y-0.6855
X177.2114 Y-0.7271
X177.1857 Y-0.748
X177.1435 Y-0.7792
X177.1012 Y-0.807
X177.0545 Y-0.8342
X177.0077 Y-0.8581
X176.9911 Y-0.8658
X176.9361 Y-0.8886
X176.881 Y-0.9075
X176.8259 Y-0.9227
X176.7709 Y-0.9345
X176.7158 Y-0.9429
X176.6608 Y-0.9481
X176.5506 Y-0.95
X25.3516
X0.0233
X-0.0317 Y-0.9495
X-0.0868 Y-0.946
X-0.1419 Y-0.9393
X-0.1969 Y-0.9294
X-0.252 Y-0.916
X-0.307 Y-0.899
X-0.3574 Y-0.8802
X-0.4077 Y-0.8581
X-0.4172 Y-0.8535
X-0.4722 Y-0.8243
X-0.5273 Y-0.7902
X-0.5857 Y-0.748
X-0.6374 Y-0.7044
X-0.6707 Y-0.6728
X-0.704 Y-0.6379
X-0.7475 Y-0.5862
X-0.7899 Y-0.5277
X-0.824 Y-0.4727
X-0.8533 Y-0.4176
X-0.8577 Y-0.4085
X-0.8799 Y-0.358
X-0.8988 Y-0.3075
X-0.9158 Y-0.2525
X-0.9293 Y-0.1974
X-0.9393 Y-0.1424
X-0.946 Y-0.0873
X-0.9495 Y-0.0323
X-0.95 Y0.0228
Y89.9772
X-0.9495 Y90.0323
X-0.946 Y90.0873
X-0.9393 Y90.1424
X-0.9293 Y90.1974
X-0.9158 Y90.2525
X-0.8988 Y90.3075
X-0.8799 Y90.358
X-0.8577 Y90.4085
X-0.8533 Y90.4176
X-0.824 Y90.4727
X-0.7899 Y90.5277
X-0.7475 Y90.5862
X-0.704 Y90.6379
X-0.6707 Y90.6728
X-0.6374 Y90.7044
X-0.5857 Y90.748
X-0.5273 Y90.7902
X-0.4722 Y90.8243
X-0.4172 Y90.8535
X-0.4077 Y90.8581
X-0.3574 Y90.8802
X-0.307 Y90.899
X-0.252 Y90.916
X-0.1969 Y90.9294
X-0.1419 Y90.9393
X-0.0868 Y90.946
X-0.0317 Y90.9495
X0.0233 Y90.95
X325.3303
X351.9767
X352.0318 Y90.9495
X352.0868 Y90.946
X352.1419 Y90.9393
X352.197 Y90.9294
X352.252 Y90.916
X352.3071 Y90.899
X352.3574 Y90.8802
X352.4077 Y90.8581
X352.4172 Y90.8535
X352.4723 Y90.8243
X352.5273 Y90.7902
X352.5858 Y90.748
X352.6375 Y90.7044
X352.6707 Y90.6728
X352.704 Y90.6379
X352.7476 Y90.5862
X352.7899 Y90.5277
X352.8241 Y90.4727
X352.8533 Y90.4176
X352.8577 Y90.4085
X352.88 Y90.358
X352.8989 Y90.3075
X352.9159 Y90.2525
X352.9293 Y90.1974
X352.9393 Y90.1424
X352.946 Y90.0873
X352.9495 Y90.0323
X352.95 Y89.9772
Y81.0741
Y80.8805 Z-12.0001
Y80.687 Z-12.0004
Y80.4934 Z-12.0008
Y80.2998 Z-12.0015
Y80.1062 Z-12.0023
Y79.9127 Z-12.0033
Y79.7191 Z-12.0045
Y79.5255 Z-12.0058
Y79.3319 Z-12.0073
Y79.1384 Z-12.009
Y78.9448 Z-12.0109
Y78.7512 Z-12.0129
Y78.5576 Z-12.0151
Y78.3641 Z-12.0174
Y78.1705 Z-12.0199
Y77.9769 Z-12.0225
Y77.7833 Z-12.0253
Y77.5898 Z-12.0283
Y77.3962 Z-12.0314
Y77.2026 Z-12.0347
Y77.009 Z-12.0381
Y76.8155 Z-12.0416
Y76.6219 Z-12.0453
Y76.4283 Z-12.0491
Y76.2347 Z-12.0531
Y76.0412 Z-12.0572
Y75.8476 Z-12.0614
Y75.654 Z-12.0658
Y75.4604 Z-12.0702
Y75.2669 Z-12.0749
Y75.0733 Z-12.0796
Y74.8797 Z-12.0845
Y74.6861 Z-12.0894
Y74.5894 Z-12.092
Y74.4926 Z-12.0945
Y74.3958 Z-12.0971
Y74.299 Z-12.0997
Y74.2022 Z-12.1024
Y74.1054 Z-12.1051
Y74.0086 Z-12.1078
Y73.9118 Z-12.1105
Y73.8151 Z-12.1133
Y73.7183 Z-12.1161
Y73.6215 Z-12.1189
Y73.5247 Z-12.1217
Y73.4279 Z-12.1246
Y73.3311 Z-12.1275
Y73.2343 Z-12.1304
Y73.1375 Z-12.1334
Y73.0408 Z-12.1363
Y72.944 Z-12.1393
Y72.8472 Z-12.1424
Y72.7504 Z-12.1454
Y72.6536 Z-12.1485
Y72.5568 Z-12.1516
Y72.46 Z-12.1547
Y72.3632 Z-12.1578
Y72.2665 Z-12.161
Y72.1697 Z-12.1642
Y72.0729 Z-12.1674
Y71.9761 Z-12.1706
Y71.8793 Z-12.1739
Y71.7825 Z-12.1772
Y71.6857 Z-12.1805
Y71.5889 Z-12.1838
Y71.4922 Z-12.1871
Y71.2986 Z-12.1939
Y71.2018 Z-12.1972
Y71.105 Z-12.2006
Y71.0082 Z-12.204
Y70.9114 Z-12.2074
Y70.8146 Z-12.2108
Y70.7179 Z-12.2141
Y70.6211 Z-12.2175
Y70.5243 Z-12.2209
Y70.4275 Z-12.2243
Y70.3307 Z-12.2277
Y70.2339 Z-12.231
Y70.1371 Z-12.2344
Y69.9436 Z-12.2412
Y69.6532 Z-12.2513
Y69.3628 Z-12.2614
Y69.0725 Z-12.2716
Y68.7821 Z-12.2817
Y68.4918 Z-12.2919
Y68.2014 Z-12.302
Y67.911 Z-12.3121
Y67.6207 Z-12.3223
Y67.3303 Z-12.3324
Y67.0399 Z-12.3426
Y66.556 Z-12.3595
Y66.0721 Z-12.3764
Y65.5881 Z-12.3933
Y64.9106 Z-12.4169
Y64.0395 Z-12.4473
Y62.5877 Z-12.498
Y55.619 Z-12.7413
Y55.3287 Z-12.7515
Y55.0383 Z-12.7616
Y54.9415 Z-12.765
Y54.8447 Z-12.7684
Y54.7479 Z-12.7717
Y54.6512 Z-12.7751
Y54.5544 Z-12.7785
Y54.4576 Z-12.7819
Y54.3608 Z-12.7853
Y54.264 Z-12.7886
Y54.1672 Z-12.792
Y54.0704 Z-12.7954
Y53.9736 Z-12.7988
Y53.8769 Z-12.8022
Y53.7801 Z-12.8055
Y53.6833 Z-12.8089
Y53.5865 Z-12.8123
Y53.4897 Z-12.8156
Y53.3929 Z-12.819
Y53.2961 Z-12.8223
Y53.1994 Z-12.8255
Y53.1026 Z-12.8288
Y53.0058 Z-12.832
Y52.909 Z-12.8353
Y52.8122 Z-12.8385
Y52.7154 Z-12.8416
Y52.6186 Z-12.8448
Y52.5218 Z-12.8479
Y52.4251 Z-12.851
Y52.3283 Z-12.8541
Y52.2315 Z-12.8571
Y52.1347 Z-12.8601
Y52.0379 Z-12.8631
Y51.9411 Z-12.8661
Y51.8443 Z-12.8691
Y51.7475 Z-12.872
Y51.6508 Z-12.8749
Y51.554 Z-12.8778
Y51.4572 Z-12.8806
Y51.3604 Z-12.8834
Y51.2636 Z-12.8862
Y51.1668 Z-12.889
Y51.07 Z-12.8917
Y50.9732 Z-12.8945
Y50.8765 Z-12.8971
Y50.7797 Z-12.8998
Y50.6829 Z-12.9024
Y50.5861 Z-12.905
Y50.4893 Z-12.9076
Y50.3925 Z-12.9101
Y50.2957 Z-12.9126
Y50.1022 Z-12.9176
Y49.9086 Z-12.9224
Y49.715 Z-12.9271
Y49.5214 Z-12.9316
Y49.3279 Z-12.9361
Y49.1343 Z-12.9404
Y48.9407 Z-12.9445
Y48.7471 Z-12.9486
Y48.5536 Z-12.9525
Y48.36 Z-12.9562
Y48.1664 Z-12.9599
Y47.9728 Z-12.9634
Y47.7793 Z-12.9667
Y47.5857 Z-12.9699
Y47.3921 Z-12.9729
Y47.1985 Z-12.9758
Y47.005 Z-12.9786
Y46.8114 Z-12.9812
Y46.6178 Z-12.9836
Y46.4242 Z-12.9859
Y46.2307 Z-12.988
Y46.0371 Z-12.9899
Y45.8435 Z-12.9917
Y45.6499 Z-12.9933
Y45.4564 Z-12.9948
Y45.2628 Z-12.996
Y45.0692 Z-12.9971
Y44.8756 Z-12.9981
Y44.6821 Z-12.9988
Y44.4885 Z-12.9994
Y44.2949 Z-12.9998
Y44.1013 Z-13
Y43.9875
Y0.0228
X352.9495 Y-0.0323
X352.946 Y-0.0873
X352.9393 Y-0.1424
X352.9293 Y-0.1974
X352.9159 Y-0.2525
X352.8989 Y-0.3075
X352.88 Y-0.358
X352.8577 Y-0.4085
X352.8533 Y-0.4176
X352.8241 Y-0.4727
X352.7899 Y-0.5277
X352.7476 Y-0.5862
X352.704 Y-0.6379
X352.6707 Y-0.6728
X352.6375 Y-0.7044
X352.5858 Y-0.748
X352.5273 Y-0.7902
X352.4723 Y-0.8243
X352.4172 Y-0.8535
X352.4077 Y-0.8581
X352.3574 Y-0.8802
X352.3071 Y-0.899
X352.252 Y-0.916
X352.197 Y-0.9294
X352.1419 Y-0.9393
X352.0868 Y-0.946
X352.0318 Y-0.9495
X351.9767 Y-0.95
X296.0342
X295.9241 Y-0.947
X295.869 Y-0.9409
X295.8139 Y-0.9316
X295.7589 Y-0.9189
X295.7038 Y-0.9026
X295.6487 Y-0.8827
X295.5937 Y-0.8587
X295.5923 Y-0.8581
X295.5379 Y-0.8301
X295.4836 Y-0.7974
X295.4489 Y-0.7738
X295.4143 Y-0.748
X295.3734 Y-0.7141
X295.3347 Y-0.6782
X295.296 Y-0.6379
X295.2633 Y-0.5998
X295.2354 Y-0.5638
X295.2101 Y-0.5277
X295.1797 Y-0.4792
X295.1532 Y-0.4306
X295.1467 Y-0.4176
X295.1219 Y-0.3626
X295.1012 Y-0.3075
X295.0842 Y-0.2525
X295.0707 Y-0.1974
X295.0607 Y-0.1424
X295.054 Y-0.0873
X295.0505 Y-0.0323
X295.05 Y0.0228
Y74.9482
X295.0483 Y74.95
X177.5516
X177.55 Y74.9482
Y0.0228
X177.5495 Y-0.0323
X177.546 Y-0.0873
X177.5417 Y-0.1251
X177.5293 Y-0.1974
X177.5158 Y-0.2525
X177.4989 Y-0.3075
X177.4781 Y-0.3626
X177.4533 Y-0.4176
X177.4316 Y-0.4593
X177.3899 Y-0.5277
X177.3578 Y-0.5729
X177.3215 Y-0.618
X177.304 Y-0.6379
X177.2577 Y-0.6855
X177.2114 Y-0.7271
X177.1857 Y-0.748
X177.1435 Y-0.7792
X177.1012 Y-0.807
X177.0545 Y-0.8342
X177.0077 Y-0.8581
X176.9911 Y-0.8658
X176.9361 Y-0.8886
X176.881 Y-0.9075
X176.8259 Y-0.9227
X176.7709 Y-0.9345
X176.7158 Y-0.9429
X176.6608 Y-0.9481
X176.5506 Y-0.95
X25.3516
X0.0233
X-0.0317 Y-0.9495
X-0.0868 Y-0.946
X-0.1419 Y-0.9393
X-0.1969 Y-0.9294
X-0.252 Y-0.916
X-0.307 Y-0.899
X-0.3574 Y-0.8802
X-0.4077 Y-0.8581
X-0.4172 Y-0.8535
X-0.4722 Y-0.8243
X-0.5273 Y-0.7902
X-0.5857 Y-0.748
X-0.6374 Y-0.7044
X-0.6707 Y-0.6728
X-0.704 Y-0.6379
X-0.7475 Y-0.5862
X-0.7899 Y-0.5277
X-0.824 Y-0.4727
X-0.8533 Y-0.4176
X-0.8577 Y-0.4085
X-0.8799 Y-0.358
X-0.8988 Y-0.3075
X-0.9158 Y-0.2525
X-0.9293 Y-0.1974
X-0.9393 Y-0.1424
X-0.946 Y-0.0873
X-0.9495 Y-0.0323
X-0.95 Y0.0228
Y89.9772
X-0.9495 Y90.0323
X-0.946 Y90.0873
X-0.9393 Y90.1424
X-0.9293 Y90.1974
X-0.9158 Y90.2525
X-0.8988 Y90.3075
X-0.8799 Y90.358
X-0.8577 Y90.4085
X-0.8533 Y90.4176
X-0.824 Y90.4727
X-0.7899 Y90.5277
X-0.7475 Y90.5862
X-0.704 Y90.6379
X-0.6707 Y90.6728
X-0.6374 Y90.7044
X-0.5857 Y90.748
X-0.5273 Y90.7902
X-0.4722 Y90.8243
X-0.4172 Y90.8535
X-0.4077 Y90.8581
X-0.3574 Y90.8802
X-0.307 Y90.899
X-0.252 Y90.916
X-0.1969 Y90.9294
X-0.1419 Y90.9393
X-0.0868 Y90.946
X-0.0317 Y90.9495
X0.0233 Y90.95
X351.9767
X352.0318 Y90.9495
X352.0868 Y90.946
X352.1419 Y90.9393
X352.197 Y90.9294
X352.252 Y90.916
X352.3071 Y90.899
X352.3574 Y90.8802
X352.4077 Y90.8581
X352.4172 Y90.8535
X352.4723 Y90.8243
X352.5273 Y90.7902
X352.5858 Y90.748
X352.6375 Y90.7044
X352.6707 Y90.6728
X352.704 Y90.6379
X352.7476 Y90.5862
X352.7899 Y90.5277
X352.8241 Y90.4727
X352.8533 Y90.4176
X352.8577 Y90.4085
X352.88 Y90.358
X352.8989 Y90.3075
X352.9159 Y90.2525
X352.9293 Y90.1974
X352.9393 Y90.1424
X352.946 Y90.0873
X352.9495 Y90.0323
X352.95 Y89.9772
Y43.9875
Y43.7938 Z-13.0001
Y43.6002 Z-13.0004
Y43.4065 Z-13.0009
Y43.2128 Z-13.0016
Y43.0191 Z-13.0026
Y42.8254 Z-13.0037
Y42.6317 Z-13.005
Y42.438 Z-13.0064
Y42.2443 Z-13.0081
Y42.0506 Z-13.01
Y41.8569 Z-13.012
Y41.6632 Z-13.0143
Y41.4695 Z-13.0167
Y41.2758 Z-13.0192
Y41.0821 Z-13.022
Y40.8884 Z-13.0249
Y40.6947 Z-13.028
Y40.501 Z-13.0312
Y40.3073 Z-13.0346
Y40.1136 Z-13.0382
Y39.9199 Z-13.0419
Y39.7262 Z-13.0458
Y39.5326 Z-13.0499
Y39.3389 Z-13.054
Y39.1452 Z-13.0584
Y38.9515 Z-13.0628
Y38.7578 Z-13.0674
Y38.5641 Z-13.0722
Y38.3704 Z-13.0771
Y38.2735 Z-13.0796
Y38.1767 Z-13.0821
Y38.0798 Z-13.0847
Y37.983 Z-13.0873
Y37.8862 Z-13.0899
Y37.7893 Z-13.0925
Y37.6925 Z-13.0952
Y37.5956 Z-13.0979
Y37.4988 Z-13.1007
Y37.4019 Z-13.1035
Y37.3051 Z-13.1063
Y37.2082 Z-13.1091
Y37.1114 Z-13.112
Y37.0145 Z-13.1149
Y36.9177 Z-13.1178
Y36.8208 Z-13.1208
Y36.724 Z-13.1237
Y36.6271 Z-13.1267
Y36.5303 Z-13.1298
Y36.4334 Z-13.1328
Y36.3366 Z-13.1359
Y36.2397 Z-13.1391
Y36.1429 Z-13.1422
Y36.046 Z-13.1454
Y35.9492 Z-13.1486
Y35.8524 Z-13.1518
Y35.7555 Z-13.155
Y35.6587 Z-13.1583
Y35.5618 Z-13.1616
Y35.465 Z-13.1649
Y35.3681 Z-13.1683
Y35.1744 Z-13.175
Y35.0776 Z-13.1784
Y34.9807 Z-13.1818
Y34.8839 Z-13.1852
Y34.787 Z-13.1885
Y34.6902 Z-13.1919
Y34.5933 Z-13.1953
Y34.4965 Z-13.1987
Y34.3996 Z-13.2021
Y34.3028 Z-13.2054
Y34.2059 Z-13.2088
Y34.1091 Z-13.2122
Y34.0123 Z-13.2156
Y33.9154 Z-13.219
Y33.8186 Z-13.2223
Y33.7217 Z-13.2257
Y33.528 Z-13.2325
Y33.2375 Z-13.2426
Y32.9469 Z-13.2528
Y32.6564 Z-13.2629
Y32.3658 Z-13.2731
Y32.0753 Z-13.2832
Y31.7848 Z-13.2934
Y31.4942 Z-13.3035
Y31.2037 Z-13.3137
Y30.8163 Z-13.3272
Y30.332 Z-13.3441
Y29.8478 Z-13.361
Y29.1699 Z-13.3847
Y28.2983 Z-13.4151
Y26.3613 Z-13.4827
Y24.9086 Z-13.5335
Y24.2307 Z-13.5571
Y23.7464 Z-13.574
Y23.2622 Z-13.5909
Y22.9716 Z-13.6011
Y22.6811 Z-13.6112
Y22.3906 Z-13.6214
Y22.1 Z-13.6315
Y21.8095 Z-13.6417
Y21.5189 Z-13.6518
Y21.2284 Z-13.6619
Y20.9378 Z-13.6721
Y20.841 Z-13.6755
Y20.7442 Z-13.6788
Y20.6473 Z-13.6822
Y20.5505 Z-13.6856
Y20.4536 Z-13.689
Y20.3568 Z-13.6924
Y20.2599 Z-13.6958
Y20.1631 Z-13.6991
Y20.0662 Z-13.7025
Y19.9694 Z-13.7059
Y19.8725 Z-13.7093
Y19.7757 Z-13.7127
Y19.6788 Z-13.7161
Y19.582 Z-13.7194
Y19.4851 Z-13.7228
Y19.1946 Z-13.7329
Y19.0977 Z-13.7363
Y19.0009 Z-13.7396
Y18.904 Z-13.7429
Y18.8072 Z-13.7461
Y18.7104 Z-13.7494
Y18.6135 Z-13.7526
Y18.5167 Z-13.7558
Y18.4198 Z-13.7589
Y18.323 Z-13.7621
Y18.2261 Z-13.7652
Y18.1293 Z-13.7682
Y18.0324 Z-13.7713
Y17.9356 Z-13.7743
Y17.8387 Z-13.7773
Y17.7419 Z-13.7803
Y17.645 Z-13.7832
Y17.5482 Z-13.7862
Y17.4513 Z-13.789
Y17.3545 Z-13.7919
Y17.2576 Z-13.7947
Y17.1608 Z-13.7975
Y17.0639 Z-13.8003
Y16.9671 Z-13.803
Y16.8703 Z-13.8057
Y16.7734 Z-13.8084
Y16.6766 Z-13.8111
Y16.5797 Z-13.8137
Y16.4829 Z-13.8162
Y16.386 Z-13.8188
Y16.2892 Z-13.8213
Y16.0955 Z-13.8262
Y15.9018 Z-13.831
Y15.7081 Z-13.8357
Y15.5144 Z-13.8402
Y15.3207 Z-13.8446
Y15.127 Z-13.8488
Y14.9333 Z-13.8529
Y14.7396 Z-13.8568
Y14.5459 Z-13.8606
Y14.3522 Z-13.8642
Y14.1585 Z-13.8677
Y13.9648 Z-13.871
Y13.7711 Z-13.8741
Y13.5774 Z-13.8771
Y13.3837 Z-13.8799
Y13.19 Z-13.8825
Y12.9964 Z-13.885
Y12.8027 Z-13.8873
Y12.609 Z-13.8894
Y12.4153 Z-13.8913
Y12.2216 Z-13.893
Y12.0279 Z-13.8946
Y11.8342 Z-13.8959
Y11.6405 Z-13.8971
Y11.4468 Z-13.8981
Y11.2531 Z-13.8989
Y11.0594 Z-13.8994
Y10.8657 Z-13.8998
Y10.672 Z-13.9
Y10.6095
Y0.0228
X352.9495 Y-0.0323
X352.946 Y-0.0873
X352.9393 Y-0.1424
X352.9293 Y-0.1974
X352.9159 Y-0.2525
X352.8989 Y-0.3075
X352.88 Y-0.358
X352.8577 Y-0.4085
X352.8533 Y-0.4176
X352.8241 Y-0.4727
X352.7899 Y-0.5277
X352.7476 Y-0.5862
X352.704 Y-0.6379
X352.6707 Y-0.6728
X352.6375 Y-0.7044
X352.5858 Y-0.748
X352.5273 Y-0.7902
X352.4723 Y-0.8243
X352.4172 Y-0.8535
X352.4077 Y-0.8581
X352.3574 Y-0.8802
X352.3071 Y-0.899
X352.252 Y-0.916
X352.197 Y-0.9294
X352.1419 Y-0.9393
X352.0868 Y-0.946
X352.0318 Y-0.9495
X351.9767 Y-0.95
X296.0342
X295.9241 Y-0.947
X295.869 Y-0.9409
X295.8139 Y-0.9316
X295.7589 Y-0.9189
X295.7038 Y-0.9026
X295.6487 Y-0.8827
X295.5937 Y-0.8587
X295.5923 Y-0.8581
X295.5379 Y-0.8301
X295.4836 Y-0.7974
X295.4489 Y-0.7738
X295.4143 Y-0.748
X295.3734 Y-0.7141
X295.3347 Y-0.6782
X295.296 Y-0.6379
X295.2633 Y-0.5998
X295.2354 Y-0.5638
X295.2101 Y-0.5277
X295.1797 Y-0.4792
X295.1532 Y-0.4306
X295.1467 Y-0.4176
X295.1219 Y-0.3626
X295.1012 Y-0.3075
X295.0842 Y-0.2525
X295.0707 Y-0.1974
X295.0607 Y-0.1424
X295.054 Y-0.0873
X295.0505 Y-0.0323
X295.05 Y0.0228
Y74.9482
X295.0483 Y74.95
X177.5516
X177.55 Y74.9482
Y0.0228
X177.5495 Y-0.0323
X177.546 Y-0.0873
X177.5417 Y-0.1251
X177.5293 Y-0.1974
X177.5158 Y-0.2525
X177.4989 Y-0.3075
X177.4781 Y-0.3626
X177.4533 Y-0.4176
X177.4316 Y-0.4593
X177.3899 Y-0.5277
X177.3578 Y-0.5729
X177.3215 Y-0.618
X177.304 Y-0.6379
X177.2577 Y-0.6855
X177.2114 Y-0.7271
X177.1857 Y-0.748
X177.1435 Y-0.7792
X177.1012 Y-0.807
X177.0545 Y-0.8342
X177.0077 Y-0.8581
X176.9911 Y-0.8658
X176.9361 Y-0.8886
X176.881 Y-0.9075
X176.8259 Y-0.9227
X176.7709 Y-0.9345
X176.7158 Y-0.9429
X176.6608 Y-0.9481
X176.5506 Y-0.95
X25.3516
X0.0233
X-0.0317 Y-0.9495
X-0.0868 Y-0.946
X-0.1419 Y-0.9393
X-0.1969 Y-0.9294
X-0.252 Y-0.916
X-0.307 Y-0.899
X-0.3574 Y-0.8802
X-0.4077 Y-0.8581
X-0.4172 Y-0.8535
X-0.4722 Y-0.8243
X-0.5273 Y-0.7902
X-0.5857 Y-0.748
X-0.6374 Y-0.7044
X-0.6707 Y-0.6728
X-0.704 Y-0.6379
X-0.7475 Y-0.5862
X-0.7899 Y-0.5277
X-0.824 Y-0.4727
X-0.8533 Y-0.4176
X-0.8577 Y-0.4085
X-0.8799 Y-0.358
X-0.8988 Y-0.3075
X-0.9158 Y-0.2525
X-0.9293 Y-0.1974
X-0.9393 Y-0.1424
X-0.946 Y-0.0873
X-0.9495 Y-0.0323
X-0.95 Y0.0228
Y89.9772
X-0.9495 Y90.0323
X-0.946 Y90.0873
X-0.9393 Y90.1424
X-0.9293 Y90.1974
X-0.9158 Y90.2525
X-0.8988 Y90.3075
X-0.8799 Y90.358
X-0.8577 Y90.4085
X-0.8533 Y90.4176
X-0.824 Y90.4727
X-0.7899 Y90.5277
X-0.7475 Y90.5862
X-0.704 Y90.6379
X-0.6707 Y90.6728
X-0.6374 Y90.7044
X-0.5857 Y90.748
X-0.5273 Y90.7902
X-0.4722 Y90.8243
X-0.4172 Y90.8535
X-0.4077 Y90.8581
X-0.3574 Y90.8802
X-0.307 Y90.899
X-0.252 Y90.916
X-0.1969 Y90.9294
X-0.1419 Y90.9393
X-0.0868 Y90.946
X-0.0317 Y90.9495
X0.0233 Y90.95
X351.9767
X352.0318 Y90.9495
X352.0868 Y90.946
X352.1419 Y90.9393
X352.197 Y90.9294
X352.252 Y90.916
X352.3071 Y90.899
X352.3574 Y90.8802
X352.4077 Y90.8581
X352.4172 Y90.8535
X352.4723 Y90.8243
X352.5273 Y90.7902
X352.5858 Y90.748
X352.6375 Y90.7044
X352.6707 Y90.6728
X352.704 Y90.6379
X352.7476 Y90.5862
X352.7899 Y90.5277
X352.8241 Y90.4727
X352.8533 Y90.4176
X352.8577 Y90.4085
X352.88 Y90.358
X352.8989 Y90.3075
X352.9159 Y90.2525
X352.9293 Y90.1974
X352.9393 Y90.1424
X352.946 Y90.0873
X352.9495 Y90.0323
X352.95 Y89.9772
Y43.9875
Y10.6095
X352.9574 Y10.5571
X352.9789 Y10.5088
X353.0129 Y10.4682
X353.0568 Y10.4387
X353.1071 Y10.4223
X353.16 Y10.4205
X354.7637 Y10.5897
X354.8126 Y10.5949 Z-13.8935
X354.8582 Y10.5997 Z-13.8745
X354.8973 Y10.6038 Z-13.8444
X354.9274 Y10.607 Z-13.805
X354.9463 Y10.6089 Z-13.7592
X354.9527 Y10.6096 Z-13.71
G0 Z5
X37.5853 Y9.8573
Z-4.9167
G1 Z-7 F3200
X37.6383 Y9.8435
X37.693 Y9.8453
X37.7449 Y9.8626
X37.7897 Y9.894
X37.8237 Y9.9369
X37.844 Y9.9877
X37.8491 Y10.0422
X37.8434 Y10.1523
X37.8311 Y10.2624
X37.8117 Y10.3725
X37.7955 Y10.4441
X37.7855 Y10.4826
X37.7522 Y10.5927
X37.7111 Y10.7028
X37.6854 Y10.7623
X37.6614 Y10.8129
X37.6028 Y10.923
X37.5753 Y10.9692
X37.5341 Y11.0331
X37.4652 Y11.1288
X37.454 Y11.1432
X37.3604 Y11.2533
X37.355 Y11.2593
X37.3025 Y11.3134
X37.2499 Y11.3634
X37.2449 Y11.3679
X37.1348 Y11.4605
X37.118 Y11.4735
X37.0247 Y11.5398
X36.9557 Y11.5836
X36.9146 Y11.6076
X36.8044 Y11.6655
X36.7432 Y11.6937
X36.6943 Y11.7144
X36.5842 Y11.7552
X36.4741 Y11.7878
X36.409 Y11.8038
X36.3639 Y11.8134
X36.2538 Y11.8322
X36.1437 Y11.8441
X36.0336 Y11.8492
X35.9234 Y11.8481
X35.8133 Y11.8403
X35.7032 Y11.8256
X35.5931 Y11.8043
X35.591 Y11.8038
X35.483 Y11.7761
X35.3728 Y11.74
X35.2627 Y11.6963
X35.2568 Y11.6937
X35.1526 Y11.644
X35.0443 Y11.5836
X35.0425 Y11.5825
X34.9323 Y11.5104
X34.882 Y11.4735
X34.8222 Y11.4261
X34.7501 Y11.3634
X34.7121 Y11.3275
X34.6396 Y11.2533
X34.602 Y11.2114
X34.546 Y11.1432
X34.4918 Y11.0708
X34.4659 Y11.0331
X34.3972 Y10.923
X34.3817 Y10.8958
X34.3386 Y10.8129
X34.2889 Y10.7028
X34.2716 Y10.6588
X34.2478 Y10.5927
X34.2145 Y10.4826
X34.1883 Y10.3725
X34.1689 Y10.2624
X34.1615 Y10.2038
X34.1566 Y10.1523
X34.1509 Y10.0422
X34.1514 Y9.9321
X34.1589 Y9.822
X34.1615 Y9.7962
X34.173 Y9.7119
X34.1936 Y9.6018
X34.2216 Y9.4917
X34.2569 Y9.3816
X34.2716 Y9.3412
X34.2999 Y9.2715
X34.3514 Y9.1613
X34.3817 Y9.1042
X34.4121 Y9.0512
X34.4833 Y8.9411
X34.4918 Y8.9292
X34.5665 Y8.831
X34.602 Y8.7886
X34.664 Y8.7209
X34.7121 Y8.6725
X34.7788 Y8.6108
X34.8222 Y8.5739
X34.9169 Y8.5007
X34.9323 Y8.4896
X35.0425 Y8.4175
X35.0885 Y8.3906
X35.1526 Y8.356
X35.2627 Y8.3037
X35.3185 Y8.2805
X35.3728 Y8.26
X35.483 Y8.2239
X35.5931 Y8.1957
X35.7032 Y8.1744
X35.7279 Y8.1704
X35.8133 Y8.1597
X35.9234 Y8.1519
X36.0336 Y8.1508
X36.1437 Y8.1559
X36.2538 Y8.1678
X36.2721 Y8.1704
X36.3639 Y8.1866
X36.4741 Y8.2122
X36.5842 Y8.2448
X36.6815 Y8.2805
X36.6943 Y8.2856
X36.8044 Y8.3345
X36.9115 Y8.3906
X36.9146 Y8.3924
X37.0247 Y8.4602
X37.0831 Y8.5007
X37.1348 Y8.5395
X37.2212 Y8.6108
X37.2449 Y8.6321
X37.336 Y8.7209
X37.355 Y8.7407
X37.4335 Y8.831
X37.4652 Y8.8712
X37.5167 Y8.9411
X37.5753 Y9.0308
X37.5879 Y9.0512
X37.6486 Y9.1613
X37.6854 Y9.2377
X37.7001 Y9.2715
X37.7431 Y9.3816
X37.7784 Y9.4917
X37.7955 Y9.5559
X37.8064 Y9.6018
X37.827 Y9.7119
X37.8411 Y9.822
X37.8486 Y9.9321
X37.8491 Y10.0422
X37.8447 Y10.1373
X37.835 Y10.2321 Z-7.0001
X37.8208 Y10.3263 Z-7.0002
X37.8013 Y10.4195 Z-7.0004
X37.7775 Y10.5117 Z-7.0006
X37.7487 Y10.6025 Z-7.0008
X37.7154 Y10.6918 Z-7.0011
X37.6776 Y10.7792 Z-7.0014
X37.6351 Y10.8644 Z-7.0018
X37.5886 Y10.9476 Z-7.0022
X37.4828 Y11.1059 Z-7.0032
X37.4237 Y11.1806 Z-7.0037
X37.3612 Y11.2525 Z-7.0043
X37.2948 Y11.3208 Z-7.005
X37.2251 Y11.3857 Z-7.0056
X37.1522 Y11.447 Z-7.0063
X37.0761 Y11.5043 Z-7.0071
X36.9974 Y11.5579 Z-7.0079
X36.9157 Y11.6069 Z-7.0087
X36.8319 Y11.6521 Z-7.0096
X36.7457 Y11.6926 Z-7.0105
X36.6576 Y11.7289 Z-7.0115
